x = 13179, y = 6698, rule = B3/S23
6566b2o6611b$6565b2o6612b$6560bo6bo6611b$6560b2o6617b$6559bobo6617b$6611b2o6566b$6612b2o6565b$6611bo16bo6550b$6627b2o6550b$6627bobo6549b$13179b$13179b$13179b$13179b$13179b$13179b$13179b$13179b$13179b$13179b$13179b$13179b$13179b$13179b$13179b$13179b$13179b$13179b$13179b$6564b2o52b2o6b2o6551b$6564b2o52b2o5b2o6552b$6500bo126bo6551b$6500b2o6677b$6499bobo6677b$6551b2o6626b$6552b2o6625b$6551bo136bo6490b$6687b2o6490b$6687bobo6489b$13179b$13179b$13179b$13179b$13179b$13179b$13179b$13179b$13179b$13179b$13179b$13179b$13179b$13179b$13179b$13179b$13179b$13179b$13179b$6686b2o6491b$6685b2o6492b$6440bo246bo6491b$6440b2o172b3obo6560b$6439bobo178bo6558b$6491b2o121b2o5bo6557b$6492b2o75b3o44b2o3bo6557b$6491bo76bo2b2o38b3o6bo127bo6430b$6568b2obobo37bobo133b2o6430b$6561b3o4b3o39bo2bo133bobo6429b$6610bobo6566b$6610b3o6566b$13179b$13179b$13179b$13179b$6560b2o60b2o6555b$6560b2o60b2o6555b$13179b$13179b$13179b$13179b$13179b$13179b$6564b2o52b2o6559b$6564b2o52b2o6559b$13179b$13179b$13179b$6746b2o6431b$6745b2o6432b$6380bo366bo6431b$6380b2o6797b$6379bobo6797b$6431b2o6746b$6432b2o96bo6648b$6431bo97bo278bo6370b$6529b3o40b2o36b2o195b2o6370b$6572b2o36b2o195bobo6369b$13179b$6658bo6520b$6659bo6519b$6657b3o6519b$13179b$13179b$13179b$13179b$13179b$13179b$13179b$13179b$13179b$13179b$13179b$13179b$6564b2o52b2o6559b$6564b2o52b2o6559b$13179b$6806b2o6371b$6805b2o6372b$6320bo284bo201bo6371b$6320b2o284b2o6571b$6319bobo283b2o6572b$6371b2o6806b$6372b2o199bo6605b$6371bo200bob2o292bo6310b$6574b2o291b2o6310b$6575bo291bobo6309b$6573b2o35b2o6567b$6573bo36b2o6567b$13179b$13179b$13179b$13179b$13179b$13179b$13179b$13179b$13179b$13179b$13179b$13179b$13179b$13179b$13179b$13179b$6564b2o52b2o6559b$6564b2o52b2o246b2o6311b$6865b2o6312b$6260bo606bo6311b$6260b2o6917b$6259bobo6917b$6311b2o6866b$6312b2o6865b$6311bo616bo6250b$6927b2o6250b$6927bobo6249b$13179b$13179b$13179b$13179b$13179b$13179b$13179b$13179b$13179b$13179b$13179b$13179b$13179b$13179b$13179b$13179b$13179b$13179b$13179b$6926b2o6251b$6616bo308b2o6252b$6200bo414bo311bo6251b$6200b2o412b2obobo6559b$6199bobo414bobobo6558b$6251b2o316b2o50bo6557b$6252b2o308bo5bo2bo48bo6558b$6251bo317b3obo37b3o374bo6190b$6561bobo5bo3bo36bo2bo373b2o6190b$6562bo10bo36b3o374bobo6189b$6470bo6708b$6469bo6709b$6469b3o143bo6563b$13179b$13179b$6560b2o60b2o94bo6460b$6560b2o60b2o95bo6459b$6717b3o6459b$13179b$13179b$13179b$13179b$13179b$6564b2o52b2o6559b$6564b2o52b2o6559b$13179b$13179b$13179b$13179b$6986b2o6191b$6985b2o6192b$6140bo846bo6191b$6140b2o7037b$6139bobo7037b$6191b2o337bo6648b$6192b2o336bobo6646b$6191bo338b2o40b2o36b2o436bo6130b$6572b2o36b2o435b2o6130b$7047bobo6129b$6658bo6520b$6656bobo6520b$6657b2o6520b$13179b$13179b$13179b$13179b$13179b$13179b$13179b$13179b$13179b$13179b$13179b$13179b$6564b2o52b2o6559b$6564b2o52b2o6559b$13179b$13179b$7046b2o6131b$6604bobo438b2o6132b$6080bo524b2o440bo6131b$6080b2o523bo6573b$6079bobo7097b$6131b2o440bo6605b$6132b2o438bobo6604b$6131bo440bobo533bo6070b$6573b2o532b2o6070b$6572b3o35b2o495bobo6069b$6610b2o6567b$13179b$13179b$13179b$13179b$13179b$13179b$13179b$13179b$13179b$13179b$13179b$13179b$13179b$13179b$13179b$13179b$6564b2o52b2o6559b$6564b2o52b2o6559b$7106b2o6071b$7105b2o6072b$6020bo1086bo6071b$6020b2o7157b$6019bobo7157b$6071b2o7106b$6072b2o7105b$6071bo1096bo6010b$7167b2o6010b$7167bobo6009b$13179b$13179b$13179b$13179b$6410bo6768b$6409bo6769b$6409b3o6767b$6611bobo6565b$6609bo4bo6564b$6609bo4bo163bo6400b$6613b2o164bo6399b$6777b3o6399b$6609b2o2b2o6564b$6572bo36b2o2b2o6564b$6571b3o36bob3o6564b$6570bo2bo39bo6565b$6570b2o40bo6566b$6571bo6607b$6573b2o6604b$6571b4o591b2o6011b$6570bo2bo591b2o6012b$5960bo611bo594bo6011b$5960b2o600b2o57bo6557b$5959bobo600b2o7bobo36b2o10bo6556b$6011b2o559b2o36b2o10b2o6555b$6012b2o606bob2o6555b$6011bo1216bo5950b$6621bo605b2o5950b$6470bo756bobo5949b$6470bobo88bo6617b$6470b2o88bobo6616b$6560bobo6616b$6561b2o6616b$6560b3o155bo6460b$6716bobo6460b$6717b2o6460b$13179b$13179b$13179b$13179b$13179b$6564b2o52b2o6559b$6564b2o52b2o6559b$13179b$13179b$13179b$13179b$13179b$7226b2o5951b$7225b2o5952b$5900bo1326bo5951b$5900b2o7277b$5899bobo7277b$5951b2o7226b$5952b2o618b2o36b2o6567b$5951bo620b2o36b2o676bo5890b$7287b2o5890b$7287bobo5889b$13179b$13179b$13179b$13179b$13179b$13179b$13179b$13179b$13179b$13179b$13179b$13179b$6512bo6666b$6512bobo6664b$6512b2o50b2o52b2o6559b$6564b2o52b2o6559b$13179b$6676bo6502b$6674bobo6502b$6675b2o609b2o5891b$7285b2o5892b$5840bo1446bo5891b$5840b2o7337b$5839bobo7337b$5891b2o7286b$5892b2o7285b$5891bo1456bo5830b$7347b2o5830b$7347bobo5829b$13179b$13179b$13179b$13179b$13179b$13179b$13179b$13179b$6350bo6828b$6349bo6829b$6349b3o6827b$6610b3o6566b$6610bo2bo6565b$6612b2o224bo6340b$6839bo6339b$6608bo2bo225b3o6339b$6571bo37b2o6568b$6572bo39b2o6565b$6570bo2bo37b3o6565b$6562b2o9b2o37bo7b2o724b2o5831b$6562b2o10bo34bo2bo7b2o723b2o5832b$5780bo785bo3bo3bo35b2o735bo5831b$5780b2o783bo5b3o6605b$5779bobo783b3o6611b$5831b2o7346b$5832b2o7345b$5831bo790bo785bo5770b$6621bobo783b2o5770b$6622b2o783bobo5769b$6622bo6556b$6560b2o60bo6556b$6560b2o60bo6556b$6410bo6768b$6410bobo6766b$6410b2o6767b$13179b$13179b$6778bo6400b$6564b2o52b2o156bobo6400b$6564b2o52b2o157b2o6400b$13179b$13179b$13179b$13179b$13179b$13179b$13179b$13179b$7406b2o5771b$7405b2o5772b$5720bo1686bo5771b$5720b2o850b2o36b2o6567b$5719bobo850b2o36b2o6567b$5771b2o7406b$5772b2o7405b$5771bo1696bo5710b$7467b2o5710b$7467bobo5709b$13179b$13179b$13179b$13179b$6517bobo6659b$6517b2o6660b$6518bo6660b$13179b$13179b$6669bobo6507b$6670b2o6507b$6564b2o52b2o50bo6508b$6564b2o52b2o6559b$13179b$13179b$13179b$6452bo6726b$6452bobo6724b$6452b2o6725b$7466b2o5711b$7465b2o5712b$5660bo1075bo730bo5711b$5660b2o1072bobo6442b$5659bobo1073b2o6442b$5711b2o7466b$5712b2o7465b$5711bo1816bo5650b$7527b2o5650b$7527bobo5649b$13179b$13179b$13179b$13179b$13179b$13179b$13179b$13179b$13179b$13179b$13179b$13179b$6290bo6888b$6289bo274b2o52b2o6559b$6289b3o272b2o52b2o6559b$13179b$13179b$6898bo6280b$6899bo6279b$6897b3o626b2o5651b$7525b2o5652b$5600bo1926bo5651b$5600b2o7577b$5599bobo7577b$5651b2o7526b$5652b2o7525b$5651bo1936bo5590b$7587b2o5590b$7587bobo5589b$13179b$13179b$13179b$13179b$13179b$13179b$13179b$6350bo6828b$6350bobo6826b$6350b2o6827b$13179b$13179b$6838bo6340b$6836bobo6340b$6837b2o6340b$6564b2o52b2o6559b$6564b2o52b2o6559b$13179b$13179b$7586b2o5591b$7585b2o5592b$5540bo2046bo5591b$5540b2o7637b$5539bobo931b2o234b2o6468b$5591b2o880b2o234b2o6468b$5592b2o7585b$5591bo2056bo5530b$7647b2o5530b$7647bobo5529b$6752b3o6424b$6752bo6426b$6753bo6425b$13179b$13179b$6424b3o6752b$6426bo6752b$6425bo6753b$13179b$13179b$13179b$13179b$13179b$13179b$13179b$13179b$13179b$6564b2o52b2o6559b$6564b2o52b2o6559b$7646b2o5531b$6392bo1252b2o5532b$5480bo911bobo1252bo5531b$5480b2o910b2o6785b$5479bobo7697b$5531b2o7646b$5532b2o939b2o234b2o85bo6382b$5531bo941b2o234b2o83bobo911bo5470b$6795b2o910b2o5470b$7707bobo5469b$6812b3o6364b$6812bo6366b$6813bo6365b$13179b$13179b$6364b3o6812b$6366bo6812b$6365bo6813b$13179b$13179b$13179b$13179b$13179b$13179b$13179b$13179b$6230bo6948b$6229bo6949b$6229b3o6947b$6564b2o52b2o1086b2o5471b$6564b2o52b2o1085b2o5472b$5420bo1537bo748bo5471b$5420b2o1537bo6219b$5419bobo1535b3o6219b$5471b2o7706b$5472b2o7705b$5471bo2296bo5410b$6473b2o234b2o1056b2o5410b$6473b2o234b2o1056bobo5409b$6872b3o6304b$6872bo6306b$6873bo6305b$13179b$13179b$6304b3o6872b$6306bo6872b$6305bo6873b$13179b$13179b$13179b$6290bo6888b$6290bobo6886b$6290b2o6887b$13179b$13179b$6898bo6280b$6896bobo6280b$6897b2o6280b$7766b2o5411b$7765b2o5412b$5360bo1203b2o52b2o1147bo5411b$5360b2o1202b2o52b2o6559b$5359bobo7817b$5411b2o7766b$5412b2o7765b$5411bo2416bo5350b$7827b2o5350b$6479bo221b3o1123bobo5349b$6478bobo220bo2bo227b3o6244b$6700bo3bo227bo6246b$6479bo2bo217b4o229bo6245b$6471b2o4bo5bo217bo9b2o6466b$6471b2o3bo3b3o228b2o6466b$6244b3o229b3o6700b$6246bo6932b$6245bo6933b$6711bo6467b$6712bo6466b$6710b3o6466b$13179b$13179b$13179b$6469b2o242b2o6464b$6469b2o242b2o6464b$13179b$13179b$13179b$7826b2o5351b$7825b2o5352b$5300bo2526bo5351b$5300b2o1171b2o234b2o6468b$5299bobo1171b2o95b2o137b2o6468b$5351b2o979bo237b2o39b2o6566b$5352b2o978bobo237bo36bo2bo6566b$5351bo980b2o228b2o5b2obo38bo8b2o1266bo5290b$6562b2o3b2o3bo35bo2bo8b2o1265b2o5290b$6608b2o2bo1274bobo5289b$6573bo44bo237bo135b3o6184b$6572bobo35b3o3bobo235bobo135bo6186b$6568bo48b2o236b2o136bo6185b$6568bo6610b$6570bobo6606b$6184b3o6992b$6186bo294b2o88bobo127b2o6476b$6185bo295b2o89bo128b2o6476b$6560b2o10bo49b2o6555b$6560b2o60b2o6555b$13179b$13179b$13179b$13179b$13179b$6428bobo6748b$6428b2o134b2o52b2o6559b$6429bo134b2o52b2o6559b$13179b$7886b2o5291b$6758bobo1124b2o5292b$5240bo1518b2o1126bo5291b$5240b2o1517bo6419b$5239bobo7937b$5291b2o1180b2o234b2o6468b$5292b2o1179b2o234b2o6468b$5291bo2656bo5230b$6962bo984b2o5230b$6962b2o983bobo5229b$6572b2o36b2o349bobo6215b$6572b2o36b2o6567b$13179b$6226bo6952b$6225b2o298bo6653b$6225bobo297bo6653b$6526bo6652b$6522bob2o6653b$6481b2o39b4o175b2o6476b$6481b2o177b2o39b2o6476b$6522b3o135b2o6517b$6522bo2b2o6652b$6523b4o6652b$13179b$13179b$6230bo6948b$6230bobo6946b$6230b2o6947b$6564b2o52b2o6559b$6564b2o52b2o1326b2o5231b$6958bo986b2o5232b$5180bo1775bobo988bo5231b$5180b2o1775b2o6220b$5179bobo7997b$5231b2o7946b$5232b2o1376bo6568b$5231bo1241b2o134b3o97b2o1297bo5170b$6473b2o133b2ob2o96b2o191bo1104b2o5170b$6607bo294b2o1103bobo5169b$6606bo4bob2o286bobo6275b$6606bo4bobo6565b$6607bo4bo6566b$6286bo6892b$6285b2o6892b$6285bobo6891b$13179b$13179b$13179b$13179b$6481b2o218b2o6476b$6481b2o39b2o136b2o39b2o6476b$6522b2o136b2o6517b$13179b$13179b$13179b$13179b$13179b$13179b$8006b2o5171b$6564b2o52b2o1385b2o5172b$5120bo1443b2o52b2o1387bo5171b$5120b2o8057b$5119bobo8057b$5171b2o1490b3o6513b$5172b2o1489bobo6513b$5171bo1491bo3bo1400bo5110b$6661bo2b2obo174bo1224b2o5110b$6272bo200b2o188bo3bo41b2o131b2o1223bobo5109b$6272bobo198b2o189b2o43b2o130bobo6335b$6272b2o241bobo141bo6519b$6513bo4bo140bo5bo6513b$6346bo166bo4bo141bo4bo6513b$6345b2o170b2o141b3o253bo6262b$6345bobo566bobo6262b$6513b2o2b2o396b2o6262b$6513b2o2b2o6660b$6514bob3o149bobo6508b$6517bo151b2o6508b$6516bo152bo6509b$13179b$6481b2o218b2o6476b$6481b2o218b2o6476b$13179b$13179b$6525bo6653b$6514b2o10bo141b2o6509b$6514b2o10b2o140b2o6509b$6368bobo153bob2o1538b2o5111b$6368b2o1695b2o5112b$5060bo1308bo155bo44bo1496bo5111b$5060b2o1507b3o6607b$5059bobo1506bob2o39b2o6566b$5111b2o1498bobo204bobo6358b$5112b2o1448b2o5bo2b2o37bo2bo5b2o197b2o6358b$5111bo1450b2o5b2ob2o46b2o197bo1308bo5050b$6569b2o39bob2o168bo1344b2o5050b$6608bo3bo169b2o1343bobo5049b$6609bobo7bo161bobo6395b$6473b2o142bobo89b2o6468b$6473b2o143b2o89b2o6468b$6406bo6772b$6405b2o6772b$6405bobo165bo6605b$6522b2o47bo2bo85b2o6517b$6522b2o36b2o9bobo48b2o36b2o6517b$6560b2o10bo49b2o6555b$13179b$13179b$13179b$13179b$13179b$6481b2o218b2o6476b$6481b2o81b2o52b2o81b2o6476b$6564b2o52b2o6559b$13179b$13179b$6170bo343b2o152b2o1456b2o5051b$6170bobo341b2o152b2o1455b2o5052b$5000bo1169b2o1955bo5051b$5000b2o8177b$4999bobo8177b$5051b2o1965bo6160b$5052b2o1962bobo6160b$5051bo1965b2o1169bo4990b$6570b2o40b2o53b3o52bo1464b2o4990b$6570b2o40b2o51bo3b2o51b2o1463bobo4989b$6667bobo51bobo6455b$6663b4o2b2o5bo4b2o6496b$6510b3o149b2o5b2o2bob3o3bobo6495b$6466bo6b2o34bo2bo150bobo3b2o2b2o4bo3bo25b2o6468b$6465b2o6b2o33bo4bo11bo138b2o7b5o4b2o25b2o6468b$6465bobo42bo12bo2bo147bo2bo6501b$6522b2o155bo6499b$6511b2o8bo3bo6653b$6510bobo9bo2bo6653b$6510bobo10b2o6654b$13179b$6516bo6662b$6514bo153b2o35bob2o6470b$6514b2o152b2o35bo3bo6469b$6710bo6468b$6701b2o2b2o3bo6468b$6505bo194b2o6b3o6468b$6504bo59b2o52b2o81b2o6476b$6504b3o57b2o52b2o82bo6476b$8186b2o4991b$6476b3o228b2o1476b2o4992b$4940bo1534bo2bo204bo25bo1477bo4991b$4940b2o1533bo3bo204bo22b2o6470b$4939bobo1532bo2b3o202b3o6494b$4991b2o1482b4o6700b$4992b2o1512b2o168b2o31b2o6468b$4991bo1514b2o168b2o31b2o1537bo4930b$6479bobo180bo1584b2o4930b$6480b2o180b2o1583bobo4929b$6480bo180bobo6515b$13179b$13179b$6212bo313bo170bobo6479b$6212bobo310b2o170b2o6480b$6212b2o311bobo170bo6480b$13179b$13179b$6976bo6202b$6481b2o218b2o271bobo6202b$6481b2o218b2o272b2o6202b$13179b$13179b$13179b$6514b2o152b2o6509b$6514b2o152b2o6509b$13179b$13179b$6613bo6565b$6613bo1632b2o4931b$6567b2o44bo1631b2o4932b$4880bo1686bo1679bo4931b$4880b2o1680b2o2bo3bo38bo2bo7b2o6557b$4879bobo1426bobo251b2o3bo2b2o38b2o2bobo3b2o6557b$4931b2o1375b2o262b2o37bo3b2o6562b$4932b2o1375bo259b2ob2o41bo6563b$4931bo3376bo4870b$6473b2o31b2o62b2ob2o101b2o31b2o1596b2o4870b$6473b2o31b2o62b2ob2o101b2o31b2o167bobo1426bobo4869b$6572bo306b2o6298b$6879bo6299b$13179b$13179b$6560b2o60b2o6555b$6560b2o60b2o6555b$13179b$13179b$13179b$13179b$13179b$13179b$6564b2o52b2o6559b$6564b2o52b2o6559b$13179b$13179b$6514b2o152b2o6509b$6514b2o152b2o6509b$13179b$8306b2o4871b$8305b2o4872b$4820bo3486bo4871b$4820b2o8357b$4819bobo1288bo7068b$4871b2o1237bobo290b4o380b4o6388b$4872b2o1236b2o291bo3bo164b2o36b2o174bo3bo6388b$4871bo1531bo168b2o36b2o178bo1577bo4810b$6404bo2bo378bo2bo1577b2o4810b$7078bo1288bobo4809b$6473b2o234b2o365bobo6100b$6473b2o234b2o366b2o6100b$13179b$13179b$13179b$13179b$13179b$6675b3o32bo6468b$6674bo35b2o6467b$6674bo2bo31bobo6467b$6675b2o6502b$6675b2o28b3o90bo6380b$6478bo195bo2bo26bo3bo88b2o6380b$6477b2o198bo26bo2b2o88bobo6379b$6477bobo84b2o52b2o54b2o28b2o6473b$6506b3o55b2o52b2o6559b$6380bo125bo2bo196b2o6471b$6380b2o123bo3bo195bo2bo6470b$6379bobo124bo2b2o196b2o6470b$6477b2o29bo1857b2o4811b$6476bobo27b2o1857b2o4812b$4760bo1715bo28b3o8b2o148b2o1699bo4811b$4760b2o1714bobo26b3o8b2o148b2o8b2o31b2o6468b$4759bobo1717bo129bo66b2o31b2o6468b$4811b2o1664bobo128bobo6568b$4812b2o1665bo127b2o56bo6513b$4811bo1471b4o193bo127bob2o52b3o240b4o1517bo4750b$6283bo3bo229bo90bo2bo51bo3bo31bo206bo3bo1516b2o4750b$6283bo234bo90b2o51bo36bobo208bo1516bobo4749b$6284bo2bo228b3o142b2ob2o3bo29b2o205bo2bo6269b$6664b2o6513b$6661bo6b2o6509b$6518b2o142b2o6515b$6518b2o6659b$13179b$6481b2o218b2o6476b$6152bo328b2o167bo50b2o6476b$6152bobo495b2o6527b$6152b2o495bobo6527b$13179b$6514b2o152b2o188bo6320b$6514b2o22bo129b2o187b2o177bo6142b$6537b2o318bobo174bobo6142b$6537bobo495b2o6142b$13179b$6320bo242b3o6613b$6320b2o239b2obobo6612b$6319bobo239b2o3bo49bo6562b$6559bo4bo55b3o1803b2o4751b$6559bo5bo48bobo1808b2o4752b$4700bo1858bo5bo3bobo42b2o3bo3bo1803bo4751b$4700b2o1863bo3bo2bo37bo4bo4bobo6556b$4699bobo1859bo4bobo3bo37bo10bo6557b$4751b2o1720b2o31b2o53bo4bo2bo2bo37bo65b2o31b2o6468b$4752b2o1719b2o31b2o52bo5bo2bobo104b2o31b2o6468b$4751bo1809bob2o1923bo4690b$6248bobo311bo1924b2o4690b$6163b4o81b2o777b4o1456bobo4689b$6163bo3bo81bo776bo3bo6148b$6163bo396b2o60b2o406bo6148b$6164bo2bo392b2o60b2o402bo2bo6149b$6938bobo6238b$6939b2o6238b$6939bo6239b$13179b$13179b$13179b$6564b2o52b2o6559b$6564b2o52b2o6559b$6918bo6260b$6424bo334bo157b2o6260b$6424bo89b2o152b2o89bo157bobo6259b$6424bo89b2o152b2o89bo6419b$6429b2o322b2o6424b$6260bo167bo2bo320bo2bo6423b$6260b2o166bobo322bobo6423b$6259bobo167bo324bo6424b$8486b2o4691b$8485b2o4692b$4640bo3846bo4691b$4640b2o1930b2o36b2o6567b$4639bobo1930b2o36b2o6567b$4691b2o8486b$4692b2o1977b3o6505b$4691bo1781b2o196bo2bo34b2o6bo1830bo4630b$6473b2o195bo4bo33b2o6b2o1828b2o4630b$6673bo42bobo1828bobo4629b$13179b$6043b4o624b2o474b4o6028b$6043bo3bo423bo199bobo472bo3bo6028b$6043bo426b2o38bo160bobo476bo6028b$6044bo2bo422bobo37b2o197b2o435bo2bo6029b$6512bo154bo41b2o6468b$6475bobo32b2o157bo6509b$6474b2obo31bobo156b2o38bo6470b$6473b2o2b2o31bo182bo13bobo7b3o6459b$6472b2o7b3o24bobo180b2ob2o10bo9bo3bo6458b$6473b2o8bo22bo91bobo77bo16bo6b2o2bo2b2o5bo2bo223b2o6234b$6474bo6bobo22bobo55b2o33b2o17b2o59bo11bo3bo6b2ob2ob3o5bo2bo222bobo6234b$6481b2o81b2o33bo18b2o57b3o12b3o11bo2bo7bo226bo6234b$6707b2ob2o3b2o6462b$6424bo50bo231b5o47bo6419b$6244b2o178bo49bo103bobo128b3o47bo6419b$6244bobo177bo50bo102b2o179bo6419b$6244bo184b2o148bo173b2o6424b$6428bo2bo320bo2bo6423b$6428bobo42b2o31b2o168b2o31b2o42bobo1790b2o4631b$6429bo43b2o31b2o10bo157b2o31b2o43bo1790b2o4632b$4580bo3966bo4631b$4580b2o8597b$4579bobo8597b$4631b2o1939b2o36b2o6567b$4632b2o1938b2o36b2o6567b$4631bo1854bo170bo1950bo4570b$6484bobo170b2o1948b2o4570b$6485b2o169bobo1948bobo4569b$13179b$13179b$6531bo160bo6486b$5923b4o554b2o47b2o160bobo6b2o564b4o5908b$5923bo3bo553b2o47bobo159b2o7b2o563bo3bo5908b$5923bo1346bo5908b$5924bo2bo1338bo2bo5909b$13179b$6514b2o152b2o6509b$6514b2o152b2o6509b$6883b2o6294b$6882bobo6294b$6884bo6294b$13179b$6615b2o6562b$6304b2o310bo6562b$6304bobo117bo144b2o42bo3bo2b2o137bo6419b$6304bo119bo144b3o40b2o2bo3b2o137bo6419b$6424bo143b2o2bo37b2o147bo6419b$6429b2o136b3o40b2ob2o138b2o1851b2o4571b$6428bo2bo129b3o4b3o181bo2bo1849b2o4572b$4520bo1907bobo42b2o31b2o61bo39b2ob2o62b2o31b2o42bobo1851bo4571b$4520b2o1907bo43b2o31b2o101b2ob2o62b2o31b2o43bo6424b$4519bobo2089bo6567b$4571b2o8606b$4572b2o8605b$4571bo4096bo4510b$6560b2o60b2o2043b2o4510b$6560b2o60b2o2043bobo4509b$13179b$13179b$13179b$13179b$13179b$5803b4o1580b4o5788b$5803bo3bo756b2o52b2o766bo3bo5788b$5803bo760b2o52b2o770bo5788b$5804bo2bo1578bo2bo5789b$13179b$6514b2o152b2o153b2o6354b$6514b2o152b2o152bobo6354b$6824bo6354b$13179b$13179b$6364b2o6813b$6364bobo6812b$6364bo6814b$13179b$6572b2o36b2o2054b2o4511b$6572b2o36b2o2053b2o4512b$4460bo4206bo4511b$4460b2o8717b$4459bobo2011b2o234b2o6468b$4511b2o1960b2o234b2o6468b$4512b2o8665b$4511bo4216bo4450b$8727b2o4450b$8727bobo4449b$13179b$13179b$13179b$13179b$13179b$13179b$13179b$5683b4o1820b4o5668b$5683bo3bo876b2o52b2o886bo3bo5668b$5683bo880b2o52b2o890bo5668b$5684bo2bo1075b2o741bo2bo5669b$6762bobo6414b$6514b2o152b2o94bo6414b$6514b2o152b2o6509b$6605bobo6571b$6424b2o180b2o6571b$6424bobo179bo6572b$6424bo149bo6604b$6573bobo6603b$6575b2o2149b2o4451b$6572b2obo2149b2o4452b$4400bo2171bo2bo34b2o2115bo4451b$4400b2o2171b2o35b2o6567b$4399bobo8777b$4451b2o8726b$4452b2o2019b2o234b2o6468b$4451bo2021b2o234b2o2077bo4390b$8787b2o4390b$8787bobo4389b$13179b$13179b$13179b$13179b$13179b$13179b$13179b$13179b$13179b$5563b4o2060b4o5548b$5563bo3bo996b2o52b2o83b2o921bo3bo5548b$5563bo1000b2o52b2o82bobo925bo5548b$5564bo2bo1136bo921bo2bo5549b$6508b2o6669b$6507b3o166bo6502b$6484b2o21b3o165b3o23bobo6475b$6484bobo20bo167bob2o22bo2bo6474b$6484bo25b2o4b2o148b2o32bo3b2o6473b$6507b3obo4b2o148b2o32bo6478b$6507b4o2275b2o4391b$6509b2o189bo2b3o2079b2o4392b$4340bo2359b2o2085bo4391b$4340b2o2139bo185bobo32b3o6474b$4339bobo2138b3o184b2o33b3o6474b$4391b2o2086b2obo185bo6510b$4392b2o2088b2o6695b$4391bo2090b2o22bo2341bo4330b$6482b2o21bobo2339b2o4330b$6479bo25bo12b2o144b2o2181bobo4329b$6479b2o25bo11b2o144b2o6513b$6471b2o7bobo228b2o6466b$6471b2o7bo2bo217b2o8b2o6466b$6481b2o218b2o9bo6466b$6713bo6465b$6712b2o6465b$6711b3o6465b$6514b2o152b2o41b2o6466b$6471bo42b2o152b2o47bo6461b$6469b2o6708b$6469b2o147bo24b2o6534b$5443b4o1172bo22bobo1102b4o5428b$5443bo3bo1023bo146bo25bo1101bo3bo5428b$5443bo1025b2o94bo51b3o1130bo5428b$5444bo2bo1116b5obo47b2o1126bo2bo5429b$6544b2o18bo2bo3bo45b2ob2o6557b$6544bobo23bo50bo6557b$6544bo19b3o2bo45bo3bo2bo6556b$6565bo4b2o4b2o36bobo2b2obo6556b$6570b2o7bo33bo4bo3b2o2222b2o4331b$6473b2o31b2o61bo9b3o32bobo3b2o54b2o31b2o2134b2o4332b$4280bo2192b2o31b2o63bo4b2o4bo32bob2obo55b2o31b2o2136bo4331b$4280b2o2293bob3o3bo35bo6559b$4279bobo2274b2o17bo4bobo6596b$4331b2o2219bo3bobo16bo2bo6600b$4332b2o2216b2o14bo10bo6601b$4331bo2224bo3bo61b2o2284bo4270b$6552b3ob2ob2o2b2o57b2o2283b2o4270b$6563b2o2342bobo4269b$6559bo2b3o6614b$6559bo6619b$6560b2o6617b$13179b$13179b$6564b2o52b2o6559b$6564b2o52b2o6559b$13179b$13179b$6423b3o88b2o152b2o88b3o6418b$6514b2o152b2o6509b$6429b2o322b2o6424b$6428bo2bo320bo2bo6423b$5323b4o1101bobo322bobo1111b4o5308b$5323bo3bo1101bo324bo1111bo3bo5308b$5323bo2546bo5308b$5324bo2bo2538bo2bo5309b$13179b$6572b2o36b2o6567b$6572b2o36b2o2294b2o4271b$8905b2o4272b$4220bo4686bo4271b$4220b2o2251b2o234b2o6468b$4219bobo2251b2o234b2o6468b$4271b2o8906b$4272b2o8905b$4271bo4696bo4210b$8967b2o4210b$6593bo82bo2290bobo4209b$6591bobo81b2o33b2o6467b$6592b2o80bo2bo31bobo6467b$6674bobo34bo6467b$6674bo2bo28bo6472b$6585bo88bo2bo27b3o6471b$6477b2o106bobo87bobo26bo3bo6470b$6477bobo105b2o87b3o26b2o2b2o6470b$6477bo29bo56b2o52b2o84b2o6473b$6506b3o55b2o52b2o85b2o6472b$6505b2o2bo196b2o6471b$6505b2ob2o198bo6470b$6423b3o82b3o196b2o49b3o6418b$6477b2o27bob2o6669b$6429b2o45bobo26bo2bo244b2o6424b$6428bo2bo43b2o31bo7b2o148b2o84bo2bo6423b$5203b4o1221bobo46bo27bobo8b2o148b2o8b2o31b2o42bobo1231b4o5188b$5203bo3bo1221bo47bobo26bo169b2o31b2o43bo1231bo3bo5188b$5203bo1275b2o1509bo5188b$5204bo2bo1270b3o183b3o1319bo2bo5189b$6664b3o2299b2o4211b$6572b2o36b2o51b4o33bo2264b2o4212b$4160bo2355bobo53b2o36b2o49b2obo33b2o2267bo4211b$4160b2o2355b2o142b2ob2o33b2o6478b$4159bobo2355bo143b5o2b2o6509b$4211b2o2449b3o6514b$4212b2o2304b2o142bo6516b$4211bo2306b2o2508bo4150b$9027b2o4150b$6481b2o218b2o2324bobo4149b$6481b2o167b2o49b2o6476b$6649bobo6527b$6651bo6527b$13179b$6514b2o152b2o6509b$6514b2o21b2o129b2o6509b$6537bobo6639b$6537bo6641b$6564bo6614b$6562b4o6613b$6561bo2bobo6612b$6560b3o58bo6557b$6560bo4bo49bo5bo6557b$6423b3o132b3o3b2o48bo5b3o135b3o6418b$6564b3o3bo43bobo6562b$6429b2o134b2ob5o41b2o4b3o130b2o6424b$6428bo2bo133b5ob3o35b3o9bo130bo2bo6423b$5083b4o1341bobo42b2o31b2o52b2o3b2ob5o103b2o31b2o42bobo1351b4o5068b$5083bo3bo1341bo43b2o31b2o52b3o2bo4bo105b2o31b2o43bo1351bo3bo5068b$5083bo1477b3o1546bo915b2o4151b$5084bo2bo1474b2o1542bo2bo915b2o4152b$4100bo4926bo4151b$4100b2o9077b$4099bobo2458b2o60b2o86b2o6467b$4151b2o2320b2o85b2o60b2o80bobo2bobo6467b$4152b2o2319b2o234b2o6b3o6459b$4151bo2322bo228bo11bo3bo2368bo4090b$6465bo9bo217bobo4bo5bobobo2b2obo2370b2o4090b$6464b3o8b2o12b3o201bo4b3o2b2ob2ob2o3bo2bob2o2366bobo4089b$6463bo3bo5b5o10b4o201b3ob3o5bo13b2o6458b$6463b2ob3o4bobobob3o5b2o2b2o204b2o6b2o8bo2bo6460b$6465b3o7bob5o6bob2o72b2o52b2o75bo2bo6bo9b3o7bo6453b$6466bobo3bo4b2o10b3o72b2o52b2o75b2o7bo21bo6452b$6467bo4bo4bo12bo203bo29b3o6452b$6471bo4bo219b3o6480b$6472bo41b2o152b2o27b2o6480b$6473bo40b2o152b2o6509b$13179b$13179b$6473b2o234b2o6468b$6473b2o234b2o6468b$13179b$6669bo6509b$6668bo53b3o6454b$6572b2o36b2o55b2o55bo6454b$6511bo60b2o36b2o50bo12b2o4bo41bo6455b$6510b3o149bo7b2ob2o2bob2ob2o6495b$6509bo3bo147bo7bo2bo4b2o4b2o6494b$4963b4o1497b3o41b2o2b2o148b2o3b3o5b4o2bo3bo1541b4o855b2o4091b$4963bo3bo1496bo44b2o151b2ob2o3b3o2b2o2b2ob3o1541bo3bo854b2o4092b$4040bo922bo1501bo44b2o152bo12bo5bo1546bo856bo4091b$4040b2o922bo2bo1522bo20b2o1713bo2bo4949b$4039bobo2439b2o8b2o20bo187b2o6476b$4091b2o2388b2o7b2o20b2o187b2o6476b$4092b2o9085b$4091bo5056bo4030b$6688bo2458b2o4030b$6514b2o152b2o16b2o2459bobo4029b$6514b2o152b2o17b2o6490b$13179b$13179b$6600bo6578b$6505bo58b2o32bobo17b2o6559b$6503b2o59b2o33b2o17b2o6559b$6504b2o6673b$13179b$6578bo6600b$6578bobo102bo6495b$6578b2o104b2o6493b$6683b2o6494b$6473b2o31b2o168b2o31b2o6468b$6473b2o31b2o168b2o31b2o6468b$6662b3o6514b$6664bo6514b$6663bo6515b$6572b2o36b2o6567b$6572b2o36b2o6567b$6524b3o2619b2o4031b$6524bo2620b2o4032b$3980bo862b4o1678bo1821b4o796bo4031b$3980b2o861bo3bo3498bo3bo4828b$3979bobo861bo3506bo4828b$4031b2o811bo2bo3498bo2bo4829b$4032b2o2447b2o218b2o6476b$4031bo2449b2o218b2o2505bo3970b$9207b2o3970b$9207bobo3969b$13179b$6514b2o152b2o6509b$6514b2o152b2o6509b$13179b$13179b$13179b$6612b3o6564b$13179b$6570bo6608b$6562b2o4bob2o39bo8b2o6557b$6562b2o4b6o35b2ob2o2bo3b2o6557b$6571bo2bo36bo5bo6561b$6572bobo40b3o6561b$6569bo6609b$6473b2o94b3obobo133b2o6468b$6473b2o94bo5bo133b2o6468b$6571b3o6605b$6571b3o6605b$13179b$9206b2o3971b$6560b2o60b2o2581b2o3972b$3920bo2639b2o60b2o2583bo3971b$3920b2o9257b$3919bobo801b4o3740b4o4708b$3971b2o750bo3bo3738bo3bo4708b$3972b2o749bo3746bo4708b$3971bo752bo2bo3738bo2bo798bo3910b$9267b2o3910b$6564b2o52b2o2647bobo3909b$6564b2o52b2o6559b$13179b$13179b$6514b2o152b2o6509b$6514b2o152b2o6509b$13179b$13179b$6481bo6697b$6480b3o6696b$6479bo6699b$6480b2o6697b$6480bo6698b$6572b2o36b2o6567b$6572b2o36b2o6567b$13179b$13179b$6701b3o6475b$6700bo2bo6475b$6700b2obo6475b$6471b2o238b2o2553b2o3911b$6471b2o8b2o228b2o2552b2o3912b$3860bo2620b2o2784bo3911b$3860b2o9317b$3859bobo9317b$3911b2o2798bo6467b$3912b2o689b4o2102bobo1875b4o4588b$3911bo691bo3bo1862bo239b2o1874bo3bo737bo3850b$4603bo1865b3o2118bo736b2o3850b$4604bo2bo1860b2ob2o2113bo2bo737bobo3849b$6471b3o6705b$6469b2obo91b2o52b2o93b2o6464b$6470b2o92b2o52b2o93b2o6464b$6470bo6708b$13179b$13179b$13179b$6508b3o6668b$6511bo4b2o6661b$6473b2o31bo4bo4b2o191b2o6468b$6473b2o30bo4bo159b3o36b2o6468b$6506bo102b3o58bobo6506b$6505b4obo98b3o53b3o2bobo6506b$6505bo4b2o97b2obo58b2ob2o6503b$6506bo3bo97bob2o60bobo6504b$6505b2ob2o99b2o62bo6505b$6506bobo6670b$6507bo6671b$13179b$6518b2o144b2o2660b2o3851b$6518b2o144b2o2659b2o3852b$3800bo5526bo3851b$3800b2o2679b2o218b2o6476b$3799bobo2679b2o218b2o6476b$3851b2o9326b$3852b2o9325b$3851bo5536bo3790b$4483b4o2027b2o152b2o2037b4o676b2o3790b$4483bo3bo2026b2o152b2o2036bo3bo676bobo3789b$4483bo4226bo4468b$4484bo2bo4218bo2bo4469b$13179b$6564b2o52b2o6559b$6564b2o52b2o6559b$13179b$6758bo6420b$6759b2o6418b$6758b2o6419b$6563b2o6614b$6555b2o5b2obo6613b$6420bo52b2o80b6o2bobo52bo13bo76b2o6468b$6418b2o53b2o83bobo8b3o7b2o37bo8bo4bobo74b2o6468b$6419b2o136b3obo10bobo2b5o33b3obo5b2obo3b2o6545b$6556b2ob2o2b2o7bobob2o4bo31bo2b2o6b5o6549b$6554bo4bo9b2o3bob2obob2o21b3o6b5obo5b2o2b2o6548b$6555b3ob2o9b2o6bo27bo4b3o13bo2bo6548b$6559b2o7bobo9bo25bo4b2o14bobo6549b$6558b2o9bo7b3o22bob2o22bo6550b$6558bo18b2o22b2o11b3o3bo2765b2o3791b$6619bo2765b2o3792b$3740bo2879bo2766bo3791b$3740b2o9437b$3739bobo9437b$3791b2o9386b$3792b2o2770b2o52b2o6559b$3791bo2772b2o52b2o2828bo3730b$9447b2o3730b$9447bobo3729b$4363b4o2147b2o152b2o2157b4o4348b$4363bo3bo2146b2o152b2o2156bo3bo4348b$4363bo4466bo4348b$4364bo2bo4458bo2bo4349b$13179b$13179b$13179b$13179b$13179b$6572b2o26bo9b2o6567b$6572b2o26bobo7b2o6567b$6600b2o6577b$13179b$6473b2o234b2o6468b$6473b2o113bo120b2o6468b$6586bobo6590b$6587b2o6590b$13179b$13179b$9446b2o3731b$9445b2o3732b$3680bo5766bo3731b$3680b2o9497b$3679bobo9497b$3731b2o9446b$3732b2o9445b$3731bo5776bo3670b$6564b2o52b2o2887b2o3670b$6564b2o52b2o2887bobo3669b$13179b$13179b$4243b4o2267b2o152b2o2277b4o4228b$4243bo3bo2266b2o152b2o2276bo3bo4228b$4243bo4706bo4228b$4244bo2bo4698bo2bo4229b$13179b$13179b$13179b$13179b$13179b$6572b2o36b2o6567b$6572b2o36b2o6567b$13179b$13179b$6473b2o234b2o6468b$6473b2o234b2o6468b$13179b$13179b$9506b2o3671b$9505b2o3672b$3620bo5886bo3671b$3620b2o9557b$3619bobo9557b$3671b2o9506b$3672b2o9505b$3671bo5896bo3610b$9567b2o3610b$9567bobo3609b$6564b2o52b2o6559b$6564b2o52b2o6559b$13179b$13179b$4123b4o2387b2o152b2o2397b4o4108b$4123bo3bo2386b2o152b2o2396bo3bo4108b$4123bo4946bo4108b$4124bo2bo4938bo2bo4109b$13179b$13179b$6818bo6360b$6819b2o6358b$6818b2o6359b$13179b$13179b$6360bo6818b$6358b2o6819b$6359b2o112b2o234b2o6468b$6473b2o234b2o6468b$9566b2o3611b$9565b2o3612b$3560bo6006bo3611b$3560b2o9617b$3559bobo9617b$3611b2o9566b$3612b2o3095bo6469b$3611bo2853b2o6b2obo229bo3bo2917bo3550b$6463bo3bo5bo2b2o231b2o2916b2o3550b$6462bo5bo4bo5bo7bo211b3o3bo2bo2b3o2913bobo3549b$6462bo4bo7b3o8b2o210b2o3bo4b3o2bo6465b$6462bo2bo10b2o3bo3b2o210b2o2bobo2bo6bo6465b$6463bobo13bobo4bo77b2o52b2o78bo5bo2b2o2b2o6466b$6464bo12bo9bob3o72b2o52b2o79b2o2bo5b2o6468b$6477bo11b3o14b3o194bo6475b$6472b2o3bo27bo2bo6670b$4003b4o2498bo3bo163b3o2511b4o3988b$4003bo3bo2496b2obobo2676bo3bo3988b$4003bo2500b2ob2o2681bo3988b$4004bo2bo2497b3o8b2o148b2o8b2o2508bo2bo3989b$6473b2o41b2o148b2o3bo3b3o31b2o6468b$6473b2o196bobo2b2o31b2o6468b$6671b2o6506b$13179b$13179b$6517bo6661b$6515bobo6661b$6516b2o6661b$6697bo6481b$6695b2o2929b2o3551b$6518b2o144b2o30b2o2927b2o3552b$3500bo3017b2o144b2o2961bo3551b$3500b2o9677b$3499bobo2979b2o8bo209b2o6476b$3551b2o2928b2o9b2o207b2o6476b$3552b2o2937b2o6686b$3551bo6136bo3490b$9687b2o3490b$6514b2o152b2o3017bobo3489b$6514b2o152b2o6509b$13179b$13179b$13179b$6616b3o6560b$6565b2o49b5o6558b$6562bob3o45b3o6564b$6561b2obo2bo44b2o7bo6557b$3883b4o2678b3o44bo3b2o3bo2685b4o3868b$3883bo3bo2672b2o2b3ob2o41b2obob2o2bo2685bo3bo3868b$3883bo2677b2ob5obo43b6o2690bo3868b$3884bo2bo2672b4o2b2o2b2o39bo2bo3bo2687bo2bo3869b$6473b2o31b2o52b2o7b2o30bo10bo63b2o31b2o6468b$6473b2o31b2o54b2ob2o33bo2bo4bo67b2o31b2o6468b$6564bo35bobo6bo6569b$6564bo36b2o23b2o6551b$6607b3o15bo2bo6550b$6624b3ob2ob3o6545b$6560b2o61b3o2bo3b2o6545b$6560b2o60bo2b2obob2o3054b2o3491b$6618b12o3055b2o3492b$3440bo3178bo5bo3061bo3491b$3440b2o3181b2o6554b$3439bobo3178bo2bo6555b$3491b2o3129bo6556b$3492b2o9685b$3491bo3072b2o52b2o3128bo3430b$6564b2o52b2o3127b2o3430b$9747bobo3429b$13179b$6514b2o152b2o6509b$6514b2o152b2o6509b$13179b$13179b$13179b$13179b$13179b$6381bo2bo404bo2bo6386b$6380bo412bo6385b$3763b4o2613bo3bo187b2o36b2o177bo3bo2633b4o3748b$3763bo3bo2612b4o188b2o36b2o178b4o2632bo3bo3748b$3763bo5666bo3748b$3764bo2bo2743bo2914bo2bo3749b$6473b2o35bobo196b2o167bo6300b$6466b2o5b2o34b2ob2o195b2o168b2o6298b$6465b2o43bob2o364b2o6299b$6467bo39b2o2b3o6665b$6512bo6666b$6300bo90b2o118bo3234b2o3431b$6298b2o92b2o116b2o199b2o3032b2o3432b$3380bo2918b2o90bo81b2o40b2o72bobo81b2o2bo34b2o3033bo3431b$3380b2o3091bo41b2o72b2o81b2o37bo6467b$3379bobo3132b2o74bo82b2o32bo6471b$3431b2o3032bo2bo5bo39bo189b5o87b2o6381b$3432b2o3031bo2bo6bo197b2o2b2o23bo3bob2o85b2o6382b$3431bo3032bo5bo4b2o13bo106bobo72bo28bo4bo2b2o86bo3010bo3370b$6465b2obobo5bo3b2o6b2ob2o12bo92b2o75b4o22bo3bo2b2o3097b2o3370b$6465bo4bobob2obo2b2o6bo2bo13bobo56b2o32bo19b2o53bo2bo24b3o3103bobo3369b$6466b8obobo11b2o14b2o57b2o52b2o6559b$6468b9o6702b$6469bo237b2o6470b$6707b2o6470b$6708bo6470b$13179b$13179b$6473b2o31b2o156b3o9b2o31b2o6468b$6473b2o31b2o168b2o31b2o6468b$6664b3o6512b$6261bo2bo400b2o242bo2bo6266b$6260bo652bo6265b$3643b4o2613bo3bo307b2o36b2o297bo3bo2633b4o3628b$3643bo3bo2612b4o308b2o36b2o86bo211b4o2632bo3bo3628b$3643bo3053bo2852bo3628b$3644bo2bo2878b2o169b3o2846bo2bo3629b$6525b2o6652b$6527bo6651b$6490bo6688b$6331b2o158bo3314b2o3371b$6332b2o147b2o6b3o159b2o48b2o3102b2o3372b$3320bo3010bo149b2o169b2o47b2o3104bo3371b$3320b2o3329bo6527b$3319bobo9857b$3371b2o3483b2o6321b$3372b2o3140b2o152b2o185b2o6322b$3371bo3142b2o152b2o187bo3010bo3310b$9867b2o3310b$9867bobo3309b$13179b$13179b$6565bob3o6609b$6563bo6615b$6562bo5b2o6609b$6562bo3b2o44b3o6564b$6563bo6b3o38b2o2bo6563b$6570bobo37bobob2o6563b$6570bo2bo39b3o4b3o6556b$6473b2o31b2o63bobo102b2o31b2o6468b$6473b2o31b2o63b3o102b2o31b2o6468b$13179b$6141bo2bo884bo2bo6146b$6140bo892bo6145b$3523b4o2613bo3bo884bo3bo2633b4o3508b$3523bo3bo2612b4o416b2o60b2o406b4o2632bo3bo3508b$3523bo3036b2o60b2o3046bo3508b$3524bo2bo6138bo2bo3509b$13179b$6271b2o3593b2o3311b$6272b2o3591b2o3312b$3260bo3010bo3595bo3311b$3260b2o9917b$3259bobo3302b2o52b2o6559b$3311b2o3251b2o52b2o296b2o6261b$3312b2o3601b2o6262b$3311bo3112bo334bo157bo3010bo3250b$6424bo89b2o152b2o89bo3167b2o3250b$6424bo89b2o152b2o89bo3167bobo3249b$6429b2o322b2o6424b$6428bo2bo320bo2bo6423b$6428bobo322bobo6423b$6429bo324bo6424b$13179b$6459b2o54bo6663b$6458b2o54bobo6662b$6460bo52bo58b2o36b2o60bo6506b$6503bo8b2o58b2o36b2o59b2o6506b$6512b2o6b4o146b4o6505b$6498b2o19bo3bo145b2o3b3o41b2o6459b$6473b2o22b3o7b2o10bo2b2o146bo5bo32b2o8b2o6458b$6473b2o23b2o7b2o2b3obo2bo2bo154bo32b2o7bo6460b$6499bo11b3obo2b3o149bo4bo6503b$6021bo2bo490bo2b3o148b2o2bo475bo2bo6026b$6020bo648b2obo480bo6025b$3403b4o2613bo3bo447bo197b2o477bo3bo2633b4o3388b$3403bo3bo2612b4o447b3o676b4o2632bo3bo3388b$3403bo2890b3o170b3o3320bo3388b$3404bo2bo2886bo172bobo2bo6b2o3305bo2bo136b2o3251b$6295bo182b2o5bo28b2o152b2o36b5o6bo3207b2o3252b$3200bo3264b2o12bobo2b2o4b2o22b2o152b2o36b3ob2o4b2o3209bo3251b$3200b2o3263b2o11bob4o2bo4bo204b2o7bo2b2o5b2o3b2o6457b$3199bobo3262bobo12b3o4b3o2bo204bobo6b2obo11b3o159b3o6294b$3251b2o3211b3o11bob2o3b7o206bo4bob2obo8bob3o162bo6294b$3252b2o3210b3o12b2o4b2o77b2o52b2o73bo2b3o4bob3o10bobo162bo6295b$3251bo3215bo11bo5b2o77b2o52b2o60bo11bob2o9bo13bo3268bo3190b$6456bobo8b2o209bobo11bob2o9b3o3279b2o3190b$6424bo31b2o221b2o12bo65bo3227bobo3189b$6424bo32bo301bo6419b$6424bo153bo180bo6419b$6429b2o67bo77b2o175b2o6424b$6428bo2bo66bobo76b2o173bo2bo6423b$6428bobo42b2o23b2o6b2o168b2o31b2o42bobo6423b$6429bo43b2o31b2o11b2o89bo65b2o31b2o43bo6424b$6518b2o88b2obo6567b$6520bo87b2o6569b$6608bo6570b$6572b2o35b2o6568b$6572b2o36bo47b2o6519b$6659b2o6518b$6658bo6520b$13179b$13179b$13179b$5901bo2bo1364bo2bo5906b$5900bo580b2o208bo9b2o570bo5905b$3283b4o2613bo3bo449b3o124b2o207bo10b2o566bo3bo2633b4o3268b$3283bo3bo2612b4o450bo335b3o577b4o2632bo3bo75b2o3191b$3283bo3071bo3554bo74b2o3192b$3140bo143bo2bo6618bo2bo77bo3191b$3140b2o3355bo16b2o152b2o6509b$3139bobo3356bo15b2o152b2o152b3o6354b$3191b2o3303b3o325bo6354b$3192b2o3629bo6355b$3191bo3378bo3477bo3130b$6570bo3476b2o3130b$6572bo40b2o3432bobo3129b$6571b2o39b2o6565b$6424bo137b2o6b2obo39bobo4b2o137bo6419b$6424bo137b2o6b2ob2o39b2o4b2o137bo6419b$6424bo142bo3b3o40bo144bo6419b$6429b2o134b2o5bo36bo2b2o139b2o6424b$6428bo2bo134b2o42bob2obo136bo2bo6423b$6428bobo42b2o31b2o101bob2o3bo59b2o31b2o42bobo6423b$6429bo43b2o31b2o103b2o2bo60b2o31b2o43bo6424b$13179b$6609bo3bo6565b$6610b3o6566b$13179b$6560b2o60b2o6555b$6560b2o60b2o6555b$13179b$13179b$13179b$13179b$5781bo2bo629b3o972bo2bo5786b$5780bo633bo978bo2652b2o3131b$3163b4o2613bo3bo630bo148b2o52b2o769bo3bo2633b4o14b2o3132b$3080bo82bo3bo2612b4o780b2o52b2o770b4o2632bo3bo16bo3131b$3080b2o81bo6866bo3148b$3079bobo82bo2bo3594b3o3261bo2bo3149b$3131b2o3381b2o152b2o94bo6414b$3132b2o3380b2o152b2o93bo6415b$3131bo6976bo3070b$10107b2o3070b$10107bobo3069b$13179b$13179b$13179b$13179b$6572b2o36b2o6567b$6572b2o36b2o6567b$13179b$13179b$6473b2o234b2o6468b$6473b2o234b2o6468b$13179b$13179b$10054b2o3123b$10053bobo3123b$10055bo3123b$13179b$13179b$3133b2o10044b$3133bobo3338b3o29b3o6670b$3133bo3340bo6704b$5661bo2bo810bo30bobo1000bo2bo5666b$3020bo2639bo848bo1003bo5665b$3020b2o2638bo3bo840bo3bo54b2o52b2o889bo3bo5665b$3019bobo2638b4o812b3o85b2o52b2o82b3o805b4o5665b$6475bo2bo26bo2b2o194bo6474b$6475bo3bo223bo3337b2o3136b$6474bo3567b2o124bo3010b$6473b2ob3o196b2o25bo3338bo125b2o3010b$6474bo199bob2o24b2o3463bobo3009b$6474b2o3bo36b2o148b2o7bo25bo2bo6474b$3146b2o3327bo30b2o8b2o148b2o6b3o25bobo6474b$3145b2o3359b2o64b3o99b3o24bo2bo6474b$3147bo3423bo3bo98b2ob2o22bo2bo6474b$6480bobo88b2o3bo92bo31bobo6475b$6481b2o88bo4bo90b2o33b3o6474b$6481bo90bo3bo91b2o6509b$6516bo6662b$6515bo2bo54b2o6604b$6518b2o6659b$6516bo3bo6658b$6516bo2bo144b2o6513b$6517b2o145b2o3328b2o3183b$6711b2o3280bobo3183b$6481b2o218b2o8b2o3282bo3183b$6481b2o218b2o6476b$13179b$3193b2o3517b3o6464b$3193bobo3338b3o175b3o6464b$3193bo3320b2o18bo133b2o42b4o6463b$6514b2o19bo132b2o44bob2o6461b$2960bo3752b2ob2o6461b$2960b2o2579bo2bo1017bobo53bo90b2o2b5o911bo2bo5546b$2959bobo2578bo1020b2o2b2o50bobo22b3o69b3o916bo5545b$5540bo3bo1015b2obo3bo49bobo24bo71bo912bo3bo5545b$5540b4o1016b2ob2o3bo47b3o24bo986b4o2347b2o3196b$6568bo46bo2b2o3362b2o244bo2950b$6560bo2bo2b2o52bo3360bo245b2o2950b$6560bo5b2o50bobo3606bobo2949b$6562b3o51bo3bo6558b$3206b2o3354b3o50bo6bo6556b$3205b2o3365b3o39b2o4b3o6556b$3207bo3265b2o31b2o94bo12bob5o54b2o31b2o6468b$6473b2o31b2o94bo73b2o31b2o6468b$13179b$13179b$13179b$13179b$6560b2o40bo19b2o6555b$6560b2o40bo19bo6556b$13179b$9934b2o3243b$9933bobo3243b$9935bo3243b$13179b$13179b$3253b2o3309b2o52b2o6559b$3253bobo3308b2o52b2o6559b$3253bo9925b$13179b$2900bo3522b3o88b2o152b2o88b3o6418b$2900b2o3612b2o152b2o6509b$2899bobo3527b2o322b2o6424b$5421bo2bo1003bo2bo320bo2bo993bo2bo5426b$5420bo1007bobo322bobo997bo2167b2o3256b$5420bo3bo1004bo324bo994bo3bo2168b2o364bo2890b$5420b4o2326b4o2167bo365b2o2890b$10287bobo2889b$13179b$3266b2o3304b2o36b2o6567b$3265b2o3305b2o36b2o6567b$3267bo9911b$13179b$6473b2o234b2o6468b$6473b2o234b2o6468b$13179b$6467b3o40b3o6666b$6467bo41bo2bo6666b$6468bo40bo4bo6664b$6508b2ob2obo6664b$6473bo34b2obo2bo161bo3197b2o3303b$6473b3o34b4o161b3o31b3o3161bobo3303b$6471b2o2bo35b3o160b4o33bo3163bo3303b$6586bo123bo6468b$6467b5o8b3o3b2o20bo76bo120bo6472b$3313b2o3152bo3bobo2bobob3o2b2obo17b2o77b3o86b4o27b3o6471b$3313bobo3151b2obo3b2obo5bo4b2o17b2o165b4o26b2ob2o6470b$3313bo3155b2o10b3o3b2o75b2o52b2o55bo28bo6474b$6478b2o2b2o80b2o36bo15b2o6559b$2840bo3762bo102bo6472b$2840b2o3759b3o102b2o6471b$2839bobo3581b3o279bob2o49b3o6418b$13179b$6429b2o322b2o3106b2o3316b$5301bo2bo1123bo2bo234b2o84bo2bo1113bo2bo1989b2o484bo2830b$5300bo1127bobo42b2o31b2o158b2o8b2o31bo43bobo1117bo1987bo485b2o2830b$5300bo3bo1124bo43b2o31b2o168b2o31b2o43bo1114bo3bo2473bobo2829b$5300b4o2566b4o5305b$3326b2o9851b$3325b2o3337b3o6512b$3327bo3244b2o36b2o51bo3bo31bobo6477b$6572b2o36b2o51b2ob2o31b2o6478b$6662bob2ob2o31bo6478b$6661b2o5b2o6509b$6661b2obo3b2o6509b$6487bobo37b3o133bo6515b$6488b2o37bo6651b$6488bo39bo6650b$6481b2o218b2o6476b$6481b2o218b2o3111b2o3363b$6649b3o3161bobo3363b$6651bo3163bo3363b$6650bo6528b$6514b2o152b2o6509b$3373b2o3139b2o152b2o6509b$3373bobo3246b2o6555b$3373bo9805b$13179b$2780bo10398b$2780b2o3833bobo6561b$2779bobo3785b2o6610b$6566b2obo47bo3bo6557b$6423b3o141bobo44bo5b3o135b3o3040b2o3376b$6562b2o4b3o43b3o3b3o3179b2o604bo2770b$6429b2o130bob2o3b3o49b3o130b2o3046bo605b2o2770b$5181bo2bo1243bo2bo129b5obobobo37b3o97bo42bo2bo1233bo2bo2414bobo2769b$5180bo1247bobo42b2o31b2o57b3obobo104b2o30b4o41bobo1237bo5185b$3386b2o1792bo3bo1244bo43b2o31b2o63b2o103b2o25bo7bo42bo1234bo3bo5185b$3385b2o1793b4o1287b3o95b3o130bo3bo3b3o1277b4o5185b$3387bo3085bo95b2o131b5o3b4o6465b$6468bo5bob2obo89bo133bo6bo3bo6464b$6467bo6b2o3b2o222b3o2bobo6468b$6467bobo10b2o78b2o60b2o82bobobob2o6465b$6468bo5bo2b2o81b2o60b2o83bo3bo6467b$6471b3o5b2o5bo6692b$6475bo2bo6b3o6691b$6475bo11bo2b3o199b3o6484b$6463b2o20b2o206bo6485b$6462bob2ob2o6b2o7bo208bo3060b2o3423b$6461b2o2b2ob2o6b2o214b3o3058bobo3423b$6462bo6bobo8bo2bo80b2o52b2o93b2o3040bo3423b$6463b4ob2ob2o7bobo81b2o52b2o93bo2bo2bo6459b$6464bo5b2o243bo3bo6459b$3433b2o3030b2obobo9b2o233b4o6460b$3433bobo3017b2o59b2o152b2o48bo6460b$3433bo3080b2o152b2o48bo6460b$6453bo3bo259bo6461b$2720bo3733b2o2bo257b2o6461b$2720b2o3733bobo15b2o192b2o40b2o6468b$2719bobo3751b2o188bo2bo2bo39b2o6468b$6661b2ob4obo6509b$6511b2o148bo2b2o2bo3b3o3066b2o3436b$6512b2o147b2o9bo2bo3066b2o724bo2710b$6510bobo3bo3b3o49b2o36b2o61bob2o9bo3054bo725b2o2710b$6501b3o6bo3b3ob2o3bo48b2o36b2o46b2o18bob3o3bo3780bobo2709b$6500b5o6b4o3bo3b2o134b2o13b4obo7bo6492b$3446b2o1613bo2bo1434b5obo8bo4bo3bo4bo129bo2bo10bo3b2o1431bo2bo5066b$3445b2o1613bo1436b2o2b3ob2o4b3o6bobo3bobo130bo2bo10bo2bo1436bo5065b$3447bo1612bo3bo1432b2obo2b3o16bo4b2o129bo4bo9bo2bo1432bo3bo5065b$5060b4o1432b2o6bo8bo145bo3b2o9b3o1433b4o5065b$6497bo2bo11bo149b2o6515b$6481b2o15b3o149bo11bo38b2o6476b$6481b2o167bobo48b2o6476b$6650b2o6527b$13179b$13179b$6514b2o152b2o6509b$6514b2o152b2o3024b2o3483b$9693bobo3483b$6500bo3194bo3483b$6501bo6677b$6499b3o62b2o52b2o52b2o6505b$3493b2o3069b2o52b2o51bobo6505b$3493bobo3177bo6505b$3493bo3085bo98bo6500b$6578bo98bo6501b$2660bo3854b2o61b3o96b3o6499b$2660b2o3853bobo6661b$2659bobo3853bo6663b$6473b2o31b2o101bo66b2o31b2o6468b$6473b2o31b2o102bo65b2o31b2o2970b2o3496b$6494bobo111b3o3071b2o844bo2650b$6494b2o3185bo845b2o2650b$6495bo4031bobo2649b$6572b2o36b2o6567b$3506b2o3064b2o36b2o6567b$3505b2o3185bobo6484b$3507bo1433bo2bo1748b2o1534bo2bo4946b$4940bo1752bo1539bo4945b$4940bo3bo3284bo3bo4945b$4940b4o3286b4o4945b$13179b$6481b2o127b3o88b2o6476b$6481b2o126bo3bo87b2o6476b$6614bo6564b$13179b$6609b2o3bo3019b2o3543b$6514b2o95b3o54b2o2963bobo3543b$6514b2o152b2o2965bo3543b$13179b$6571b3o6605b$3553b2o3016bo2bo6604b$3553bobo3014bo3bo6604b$3553bo3016bobob2o6603b$6571b2ob2o6603b$2600bo3961b2o8b3o45b2o6557b$2600b2o3960b2o46b2o8b2o6557b$2599bobo4008b2o6567b$13179b$9621b2o3556b$6479b2o141bo2999b2o964bo2590b$6479b2o81bo58b3o2997bo965b2o2590b$6481bo80bobo55b2ob2o3962bobo2589b$6471b2o5b2obo80b2o55bo86b3o6470b$3566b2o2903b2o3b2o3bo136bo4bob2o78bo6473b$3565b2o3051bo4bobo78b2o6473b$3567bo2914bo77b2o57bo4bo79b3o3b3o6466b$6481bobo76b2o141bo4bo3bo6466b$4821bo2bo1652bo230bo3bo1636bo2bo4826b$4820bo1656bo225b4obo1644bo4825b$4820bo3bo1654bobo221bob2o1642bo3bo4825b$4820b4o1880b3o1643b4o4825b$6480bobo6696b$6481bo6697b$6469b2o10bo82b2o52b2o93b2o6464b$6469b2o93b2o52b2o47bo45b2o2859b2o3603b$6666bo2bo2903bobo3603b$6665bo3bo2905bo3603b$6665bo4bo6508b$6665b7o6507b$3613b2o3050bo2bo2b2o6506b$3613bobo2893bo154b4o3bo6507b$3613bo2859b2o32b2o156bo5bo37b2o6468b$6473b2o191b2o2bo38b2o6468b$2540bo3970b3o153b2o8bo6501b$2540b2o3967bo2bo3b3o158bo6501b$2539bobo3967b3o165bo6501b$6510bo61b2o36b2o6567b$6492b3o77b2o36b2o2949b2o3616b$6492bo3069b2o1084bo2530b$6493bo3067bo1085b2o2530b$10647bobo2529b$6518b2o144b2o6513b$3626b2o2890b2o144b2o18b3o6492b$3625b2o3059bo6492b$3627bo2853b2o202bo15b2o6476b$6481b2o218b2o6476b$13179b$13179b$4701bo2bo3764bo2bo4706b$4700bo1813b2o152b2o1803bo4705b$4700bo3bo1809b2o152b2o1799bo3bo4705b$4700b4o3766b4o4705b$13179b$9514b2o3663b$6564b2o52b2o2893bobo3663b$6564b2o52b2o2895bo3663b$6638bo6540b$6637bo6541b$3673b2o2962b3o6539b$3673bobo9503b$3673bo9505b$6550bo16bo6611b$2480bo3992b2o76bo15b2o49b3o88b2o6468b$2480b2o3991b2o74b3o5b2o3b2o3bobo47b2o3bo86b2o6468b$2479bobo4074bo2b2o3bo3b2o7b2o39bobo6558b$6556b2ob2o4b3o7b2o2bo25b2o4bo5b2o2b4o6554b$6551bobo5b2o13bo5bo23bobo3b3obo2b2o5b2o2875b2o3676b$6551b2o3bobo7b2o6bo2b2o2bo22bo3bo4b2o2b2o3bobo2877b2o1204bo2470b$6552bo3bo10b2o5b3ob2ob2o21b2o4b5o7b2o2877bo1205b2o2470b$6567b2o10bo2bo27bo2bo4093bobo2469b$6567bo11b2obo25bo6570b$3686b2o2880bo11b2o6597b$3685b2o9492b$3687bo9491b$13179b$13179b$6564b2o52b2o6559b$6564b2o52b2o6559b$13179b$4581bo2bo2121bo1882bo2bo4586b$4580bo1933b2o152b2o35b3o1885bo4585b$4580bo3bo1929b2o152b2o34bo2b2o1880bo3bo4585b$4580b4o2120b3obo1881b4o860b2o3723b$6481bo225b2o2744bobo3723b$6480bobo2972bo3723b$6479bo3bo120bo98bo6475b$6479bo2bo120bo98bo6476b$3733b2o2744bo2bo120b3o96b3o6474b$3733bobo2743bobo6697b$3733bo2838b2o36b2o6567b$6572b2o10bo25b2o6567b$2420bo4164bo6593b$2420b2o4161b3o6593b$2419bobo10757b$13179b$9441b2o3736b$6471b2o2969b2o1324bo2410b$6471b2o8b2o218b2o2738bo1325b2o2410b$6481b2o218b2o4064bobo2409b$13179b$3746b2o9431b$3745b2o9432b$3747bo2722bo6708b$6469b3o235b2o6470b$6468bo2b2o202b3o28bobo6470b$6467b3o2b2o200bo3bo29bo6470b$6468bo3b3o6704b$6564b2o52b2o53bo6505b$6470bo9b2o82b2o52b2o54b5o6500b$6480bobo194bo6501b$4461bo2bo2015bo2228bo2bo4466b$4460bo4252bo680b2o3783b$4460bo3bo2042b2o2200bo3bo679bobo3783b$4460b4o2043bobo2200b4o681bo3783b$6508b2o6b2o148b2o6511b$6473b2o33b2o6b2o148b2o8b2o31b2o6468b$3793b2o2678b2o29bobobo167b2o31b2o6468b$3793bobo2709b2o6672b$3793bo2711bob2o4bobo6663b$6514b2o6663b$2360bo4153bo57b2o36b2o6567b$2360b2o4210b2o36b2o54bo6512b$2359bobo4303bobo6511b$6667b2o6510b$6664b2obo2713b2o3796b$6518b2o144bo2bo2714b2o1444bo2350b$6518b2o145b2o2714bo1445b2o2350b$10827bobo2349b$6481b2o218b2o6476b$3806b2o2673b2o218b2o6476b$3805b2o9372b$3807bo9371b$6647b2o6530b$6514b2o130bobo19b2o6509b$6514b2o132bo19b2o6509b$13179b$6619b3o6557b$6540b2o22b3o51b4o6557b$6540bobo21b3o50bo4bo6556b$6540bo75bo2b3o6557b$6568bo2bo44bo2bo2bo2711b2o3843b$4341bo2bo2215b2o5b2o2bo44b3o2b2o2206bo2bo500bobo3843b$4340bo2219b6obo49b3o2bo2210bo501bo3843b$4340bo3bo2216bo2bo2bo3bo46b4o2207bo3bo4345b$4340b4o2217b2ob3o4bo2258b4o4345b$3853b2o2707b2o3b3o39b3o6567b$3853bobo2617b2o234b2o6468b$3853bo2619b2o105b3o126b2o6468b$6580b3o6596b$2300bo4280bo6597b$2300b2o4170bo108bo6597b$2299bobo4169bobo106b3o6596b$6468b2o4bo85b2o18b3o39b2o6555b$6467bobobobo5bo79bobo60b2o84bo2612b2o3856b$6466b2obo8b2o75bobo149b4o2611b2o1564bo2290b$6465b3o10bobo2bo2bo67bo5bo145b6o4b2o2603bo1565b2o2290b$6465b3o14bo3bo3b3o66bo145b2o4bo3bo2bo4168bobo2289b$6464bo2bo14b2o2bo209b2o17bobo3bo6457b$3866b2o2595b2ob3o8b3o215b2ob2o9bo5b2o5b2o6455b$3865b2o2596b2ob3o8b3o8bo3bo63bobo135bo4bo7b2o8bo3b2o6456b$3867bo2596bo2bo10bobo4bo2bo2bo72b2o52b2o73b3o3bo18b2o6459b$6479b2o4bo3bo74b2o52b2o72bo4b2o7bo6472b$6457bo8b3o223bobo10b2o6472b$6455b2o236b2o10b2o6472b$6456b2o56b2o152b2o6509b$6514b2o152b2o6509b$13179b$13179b$6473b2o234b2o6468b$6473b2o234b2o2563b2o3903b$6457b3o2813bobo3903b$6457bo56b2o2759bo3903b$4221bo2bo2233bo55b2o2433bo2bo4226b$4220bo2293bo57b2o36b2o57b2o2282bo4225b$3913b2o305bo3bo2288bo9bo48b2o36b2o56bobobo2276bo3bo4225b$3913bobo304b4o2273b3o12b2o8b3o142bo2b4o3bo41b3o2228b4o4225b$3913bo2583b4o10b5o5bo3bo141bo9b2o42bo6457b$6496b2o2b2o5b3obobobo4b3ob2o141bobo6bob2o40bo6458b$2240bo4256b2obo6b5obo7b3o144b2o6bobo6500b$2240b2o4255b3o10b2o4bo3bobo153b2o6501b$2239bobo4256bo12bo4bo4bo6657b$6481b2o29bo4bo183b2o6476b$6481b2o33bo152b2o19bo10b2o2558b2o3916b$6515bo174bobo2569b2o1684bo2230b$6690b2o2569bo1685b2o2230b$10947bobo2229b$6514b2o152b2o6509b$3926b2o2570bo15b2o81bo70b2o6509b$3925b2o2569bobo96bobo6581b$3927bo2569b2o97b2o6581b$13179b$6564b2o52b2o6559b$6564b2o15bo36b2o6559b$6581bobo96bo6498b$6581b2o98b2o6496b$6680b2o6497b$13179b$13179b$6498bo2715b2o3963b$6473b2o21b2o8b2o9b3o156b2o31b2o2502bobo3963b$6473b2o22b2o7b2o9bo158b2o31b2o2504bo3963b$6518bo6660b$13179b$3973b2o126bo2bo4964bo2bo4106b$3973bobo124bo2471b2o36b2o47b3o2411bo4105b$3973bo126bo3bo2467b2o36b2o49bo2407bo3bo4105b$4100b4o2556bo2409b4o4105b$2180bo10998b$2180b2o10997b$2179bobo10997b$13179b$9201b2o3976b$6481b2o218b2o2499b2o1804bo2170b$6481b2o218b2o2498bo1805b2o2170b$11007bobo2169b$13179b$3986b2o9191b$3985b2o2527b2o152b2o6509b$3987bo2526b2o152b2o6509b$13179b$13179b$13179b$6612b2o6565b$6571b2o38bob2o6564b$6570bo2bo37bob3o6563b$6562b2o6bo39b3o7b2o6557b$6562b2o7bo3bo35bob3o4b2o6557b$6571bo2582b2o4023b$6565bo6b4o2577bobo4023b$6471b3o90bo6b2o2582bo4023b$6471bo2bo89b3o6612b$6471b2ob2o6703b$4033b2o2440bo6703b$4033bobo2432bo2b2ob2o135b2o91bo6474b$3981bo2bo48bo2435bob4o227b4o2483bo2bo3986b$3980bo2629b3o93bo2486bo3985b$2120bo1859bo3bo2575b2o49bo10b2o79bo3bo4bo2476bo3bo3985b$2120b2o1858b4o2497b3o76b2o60b2o80bobo5bo2477b4o3985b$2119bobo4583bo6bo6466b$13179b$9141b2o4036b$9142b2o1924bo2110b$9141bo1925b2o2110b$11067bobo2109b$6469b2o93b2o52b2o93b2o6464b$4046b2o2421b2o93b2o52b2o93b2o6464b$4045b2o9132b$4047bo9131b$6667b3o6509b$6512bobo150b2obobo6508b$6508bo4bo2b2o147b2o3bo6508b$6507b2o6bobo145bo4bo6510b$6473b2o31b2o4bo2bob2o144bo5bo39b2o6468b$6473b2o31b2o9b2o144bo5bo3bobo33b2o6468b$6507b5obob2o152bo3bo2bo6502b$6508bo2bo153bo4bobo3bo6502b$6508bo2bo153bo4bo2bo2bo2417b2o4083b$6499bo72b2o36b2o52bo5bo2bobo2417bobo4083b$6497bo2bo22b2o47b2o36b2o53bob2o2426bo4083b$6497b3o166bo6512b$6497b3o20bo6658b$4093b2o2434bo6649b$4093bobo2423b2o3bo4bo134b2o6513b$4093bo2424bobo5bobo135b2o6513b$6518b2o4bobo6652b$2060bo1800bo2bo2616b2o35b2o4b2o156b2o17b2o2606bo2bo3866b$2060b2o1798bo2620b2o36b3o2bo156bobo17b2o2610bo3865b$2059bobo1798bo3bo2654b3o161bo2625bo3bo3865b$3860b4o5446b4o3865b$9081b2o4096b$6505b2o7b2o22bo129b2o2412b2o2044bo2050b$6505bobo6b2o20bobo129b2o2411bo2045b2o2050b$6505bo31b2o4588bobo2049b$13179b$4106b2o9071b$4105b2o2457b2o52b2o20bo6538b$4107bo2398bo57b2o52b2o20bobo6536b$6505b3o132b2o6537b$6504bo3bo6670b$6509bo6669b$6502bo3b2ob2o6668b$6506b2o65bo6605b$6502b2o6bo61b3o6604b$6473b2o33b2o61bo3bo133b2o6468b$6473b2o95bo44bobo91b2o6468b$6569b2ob2o3bo37bob2o2415b2o4143b$6572b2o40b2o2b2o2413bobo4143b$6569bo6b2o31b3o7b2o2414bo4143b$6570b2o37bo8b2o6559b$6609bobo6bo6560b$4153b2o2455b2o6567b$4153bobo2412bo6610b$4153bo2413b3o47bo6561b$6566bo2b2o47bo6560b$2000bo4564b4obo46bo77b2o6482b$2000b2o4480bo3bo78bo4bo123b3o6482b$1999bobo1739bo2bo2736bo2b2o80b2o2bo122b3o2733bo2bo3746b$3740bo2740bo2b2o81b2o49b2o2813bo3745b$3740bo3bo2873b2o2401b2o406bo3bo3745b$3740b4o2828bo2449b2o406b4o1754bo1990b$6570bobo124bo2323bo2165b2o1990b$6514b2o55b2o95b2o4517bobo1989b$6514b2o152b2o6509b$4166b2o9011b$4165b2o2439bo6572b$4167bo2438bobo6570b$6606b2o6571b$13179b$6480b3o6696b$6480bobo6696b$6479bo2bo89b2o36b2o6567b$6479b3o90b2o36b2o6567b$6479b3o6697b$6480bo2bo6695b$6480bo2493b2o4203b$6483bo218b2o2269bobo4203b$6700bo2bo2271bo4203b$6471b2o8bo220bo8b2o6466b$6471b2o9bo216bo2bo8b2o6466b$4213b2o2266b2o216b2o2bo6475b$4213bobo2493bo6469b$4213bo2487b3o3bobo6469b$6708b2o6469b$1940bo11238b$1940b2o4528bo6708b$1939bobo4527bobo6707b$6469bob2o6706b$3621bo2bo2847bo2488b2o586bo2bo3626b$3620bo2848bobo92b2o52b2o93b2o2247b2o589bo1694bo1930b$3620bo3bo2845bo93b2o52b2o93b2o2246bo587bo3bo1693b2o1930b$3620b4o5926b4o1693bobo1929b$6509bo6669b$4226b2o2254b3o24bo6669b$4225b2o2255bo26bo160bobo6506b$4227bo2255bo189bo6505b$6506bobo7b2o148b2o2bob3obo6502b$6473b2o30bo2bo2bo4b2o148b2o5bo2bo32b2o6468b$6473b2o31bobo3b2o163bo16b3o12b2o6468b$6511b2o161bob3o17bo6482b$6678bo16bo6483b$6673b3ob3o6499b$6572b2o36b2o62bo3bo6500b$6572b2o36b2o63b3o6501b$6676bo2237b2o4263b$8913bobo4263b$8915bo4263b$6518b2o144b2o6513b$6518b2o144b2o6513b$4273b2o8904b$4273bobo2205b2o218b2o6476b$4273bo2207b2o218b2o6476b$13179b$1880bo11298b$1880b2o11297b$1879bobo4632b2o152b2o6509b$6514b2o152b2o6509b$8901b2o4276b$8902b2o2404bo1870b$3501bo2bo3062bo2333bo767bo2bo1634b2o1870b$3500bo3065bo51b2o3053bo1633bobo1869b$3500bo3bo3058bo6bo47b2o3049bo3bo3505b$3500b4o782b2o2254b3o17bo2b3o3bo3098b4o3505b$4285b2o2255bo19bo9bo6606b$4287bo2255bo17b2ob4o4bo46b2o6558b$6562bob4o5bo44bobo6558b$6563bo2bo5bo45b3o2b3o6553b$6568b4o41b2o7b2ob2o7b3o6542b$6473b2o94b2o43b2o10bo9bo72b2o6468b$6473b2o105b2o24bo4bobo21bo73b2o6468b$6579bo20b3o3bo2b3o16b2o6549b$6554b4o22b3o23bo2b3o2bo13b2o6549b$6552b8o21bo31b2o6564b$6550b4ob5o52b3o10b4o2225b2o4323b$6550bo2bob2o2b2o50b2o11bob3o2224bobo4323b$6551b3o58b2o10bo3bo80b2o2144bo4323b$6553bo6b2o62b3o83bo6468b$6476bo77b3o3bo6618b$4333b2o2140b5o78b2o149bo5bo2bo6460b$4333bobo2138b2obo3bo77bo148bo6bo2bo6460b$4333bo2139b2o2bo4bo77bo132bo13b2o4bo5bo6459b$6474b2o2bo3bo208b2ob2o6b2o3bo5bobob2o6460b$1820bo4659b3o81b2o52b2o72bo2bo6b2o2bob2obobo4bo6460b$1820b2o4742b2o52b2o73b2o11bobob8o6461b$1819bobo4885b9o6463b$6475b2o237bo6464b$6475b2o37b2o152b2o2171b2o4336b$6475bo38b2o152b2o2172b2o2524bo1810b$8841bo2525b2o1810b$11367bobo1809b$3381bo2bo3088b2o234b2o3078bo2bo3386b$3380bo965b2o2125b2o234b2o3082bo3385b$3380bo3bo960b2o5442bo3bo3385b$3380b4o963bo5442b4o3385b$13179b$6572b2o36b2o6567b$6485bo86b2o36b2o6567b$6486bo185bo6506b$6484b3o184b3o6505b$6670b2ob2o42b2o6460b$6674bo41bobo6460b$6594bo98bo24bo6460b$6593bo78bo19bo2101b2o4383b$6481b2o110b3o75b2o19b3o6b2o2090bobo4383b$6470b2o9b2o187b2obo27b2o2092bo4383b$6470bobo37b2o6667b$6470bo39b2o82bo6584b$4393b2o2117bo82bo6583b$4393bobo2114b3o80b3o73bo6509b$4393bo2115bobo156b2o6509b$6510b2o6667b$1760bo4748bo6669b$1760b2o4747bo6669b$1759bobo4745bo56b2o52b2o57bobo6499b$6564b2o52b2o58b2o6499b$6678bo2102b2o4396b$8782b2o2644bo1750b$8781bo2645b2o1750b$11427bobo1749b$13179b$4406b2o8771b$3261bo2bo1140b2o2066b2o31b2o168b2o31b2o3198bo2bo3266b$3260bo1146bo2065b2o31b2o168b2o31b2o3202bo3265b$3260bo3bo6644bo3bo3265b$3260b4o6646b4o3265b$13179b$6572b2o36b2o6567b$6572b2o36b2o6567b$6657b2o6520b$6656bobo6520b$6658bo6520b$8734b2o4443b$8733bobo4443b$6530b2o2203bo4443b$6481b2o47bobo168b2o6476b$6481b2o47bo170b2o6476b$4453b2o8724b$4453bobo8723b$4453bo8725b$6514b2o152b2o6509b$1700bo4813b2o152b2o6509b$1700b2o11477b$1699bobo11477b$13179b$8721b2o4456b$6615b2o2105b2o2764bo1690b$6615b3o2103bo2765b2o1690b$6569bobo40b2o2b2o2b2o4865bobo1689b$6571bo39b3o6b2o6557b$4466b2o2099bo3bo38bo3bo6564b$4465b2o2095bo4bo42b3o6566b$4467bo2094bo4bo2bo38bo4bo93bo6470b$3141bo2bo3417bo5b3o38b2ob2o93bo3321bo2bo3146b$3140bo3332bobo133bo3bo90bob2o2bo3322bo3145b$3140bo3bo3325b2obo2bo133b3o90bobo2b4o3317bo3bo3145b$3140b4o3326b2obo2bo225bo2bo3324b4o3145b$6469bob2o233b3o2b2o6466b$6469b4o5bo223b2obo4b2o6467b$6479b2o79b2o60b2o78b2obo4bo6468b$6472b2o6bo79b2o60b2o80b2obob2o6468b$6469bo3b2obob3o2193b2o4503b$6470b5o216bobo1979bobo4503b$6473bo217bob2o1980bo4503b$6692b2o6bo16b2o6460b$6699bo15bo3b2o2bo6455b$4513b2o2184bo14bo2bob2obobo6454b$4513bobo1953b2o93b2o52b2o94bo4bo4bo6454b$4513bo1955b2o93b2o52b2o90b2o9b3o6455b$6709b6o4b3o6457b$1640bo5068b2obo5b2o6459b$1640b2o5026b2o44b2o6463b$1639bobo5026b2o43b3o6463b$6514bo6664b$6509bo3b2o2146b2o4516b$6473b2o33b2ob2obo194b2o1951b2o2884bo1630b$6473b2o31b4o2b2o195b2o1950bo2885b2o1630b$6506b3obob2o153b2o4878bobo1629b$6502bo3b2o2b4o153bobo2bobo6504b$4526b2o1972b2obo4b2obob2ob2o141b3o6b2o6509b$4525b2o1970bo2b2ob2o4bo3b3o56b2o36b2o47bo3bo11bo6503b$4527bo1969bo2b2ob2o7b3o9bo47b2o36b2o50bob2o2bobobo5bo4bobo6493b$6497bo3bo2bo7b3o5b2o2b3o131b2obo2bo3b2ob2ob2o2b3o4bo6493b$6502b2o9b2o2bo5b5o130b2o13bo5b3ob3o6493b$3021bo2bo3487b2o2bo6bo3b2o131bo2bo8b2o6b2o3467bo2bo3026b$3020bo3491bo2bo6bobo128bo7b3o9bo6bo2bo3469bo3025b$3020bo3bo3490bo3b2o2b4o125bo21bo7b2o3465bo3bo3025b$3020b4o3491b2o3bo4bo126b3o29bo3465b4o3025b$6481b2o34b3o160b3o18b2o6476b$6481b2o34b3o160b2o19b2o6476b$6535bo2078b2o4563b$6536bo2076bobo4563b$6534b3o2078bo4563b$6514b2o152b2o6509b$6514b2o152b2o6509b$4573b2o8604b$4573bobo1931b3o6669b$4573bo1933bo6671b$6508bo55b2o52b2o6559b$1580bo4983b2o52b2o60bo6498b$1580b2o5098bobo6496b$1579bobo5087b3o8b2o6497b$6505bo165bo6507b$6503b2o165bo1930b2o4576b$6503b2ob2o99bo1994b2o3004bo1570b$6504bob2o97bobo1993bo3005b2o1570b$6473b2o29bo2bo98b2o68b2o31b2o4896bobo1569b$6473b2o30b2o67bo101b2o31b2o6468b$4586b2o1987b2o6602b$4585b2o1985b2ob2o6602b$4587bo1984b2obo114bo6488b$6572bo2bo34b2o79b2o6486b$6573b2o35b2o78b2o6487b$13179b$13179b$2901bo2bo3583bo3780bo2bo2906b$2900bo3585b2o3785bo2905b$2900bo3bo3582b2o80bo3699bo3bo2905b$2900b4o3664b2o3700b4o2905b$6481b2o84bo133b2o1851b2o4623b$6481b2o85b2o131b2o1850bobo4623b$6568bobo1984bo4623b$6569bo41bo6567b$6569bobo37b2ob2o6565b$4633b2o1879b2o57bo35b2ob2o54b2o6509b$4633bobo1878b2o55bobo36bob3o53b2o6509b$4633bo1975b3o6567b$13179b$1520bo11658b$1520b2o11657b$1519bobo11657b$13179b$6620b2o1919b2o4636b$6572b2o36b2o8b2o1920b2o3124bo1510b$6561bo10b2o36b2o1929bo3125b2o1510b$11667bobo1509b$6704bo6474b$4646b2o1829bo225bobo6473b$4645b2o1830bo6701b$4647bo1828bo144b2o78bo2bo6474b$6471b2o3b2o142bo79bo5bo4b2o6466b$6471b2o3b5o138bo2bo78b3o3bo3b2o6466b$6479bobo138bobo82b3o6471b$6478b2ob2o138b2o6556b$6479bo2bo138b2o6556b$6479b2ob2o6695b$2781bo2bo3695bobo3906bo2bo2786b$2780bo3700bo3911bo2785b$2780bo3bo5709b2o1893bo3bo2785b$2780b4o5709bobo1894b4o2785b$8495bo4683b$6469b2o93b2o52b2o93b2o6464b$6469b2o93b2o52b2o93b2o6464b$4693b2o8484b$4693bobo8483b$4693bo8485b$13179b$1460bo5051bo157b3o6506b$1460b2o5054b3o151bo2bo6505b$1459bobo5011b2o35bobo157b2o37b2o6468b$6473b2o35b2o3bo3bo146b3o2bo37b2o6468b$6506bo4bo4bobo146bo3bobo3bo1805b2o4696b$6506bo10bo147bo5bo3bo16b2o1788b2o3244bo1450b$6506bo159b2obobo3bo15bobo1787bo3245b2o1450b$6572b2o36b2o58bob2o2bo16bo5033bobo1449b$6572b2o36b2o61bo2bo6502b$4706b2o1964bo2bo6503b$4705b2o1788b2o176b2o6504b$4707bo1787bobo6681b$6495bo22b2o144b2o6513b$6518b2o144b2o6513b$13179b$6481b2o218b2o6476b$6481b2o218b2o6476b$13179b$13179b$13179b$2661bo2bo3849b2o152b2o1764b2o2073bo2bo2666b$2660bo3853b2o152b2o1763bobo2077bo2665b$2660bo3bo5770bo2073bo3bo2665b$2660b4o7846b4o2665b$13179b$4753b2o1809b2o52b2o6559b$4753bobo1808b2o52b2o6559b$4753bo8425b$13179b$1400bo11778b$1400b2o5146bo6630b$1399bobo5144bobo70b2o6558b$6547b2o15b2o48b2o2bo2bo6557b$6473b2o89b2o47b3o2bo7b2o81b2o1710b2o4756b$6473b2o138b3ob2o4bo3b2o3b2o75b2o1711b2o3364bo1390b$6566bo36b2o3bobo2b3ob4o2bobo2bo2bobo1787bo3365b2o1390b$6555b3o7bobo13bo20b3o3bo2bobo9b4ob2o3bo5153bobo1389b$6554bo3bo9bo10b2ob2o19bo3bo7bo8bo3bo6550b$4766b2o1787bo2bo5b2o2bo2b2o6bo26b2o7bo8b2obo6551b$4765b2o1788bo2bo5b3ob2ob2o6bo3bo30bo10b2o6552b$4767bo1789bo7bo2bo11b3o20b4o6bo6565b$6558b2o3b2ob2o40bo3bo6566b$6563b5o36b4o6571b$6563b3o40bo6572b$13179b$6477bo6701b$6476bobo6700b$6475b2ob2o84b2o52b2o6559b$6475b2obo85b2o52b2o6559b$6475b3o2b2o1892b2o4803b$6476bo1896bobo4803b$2541bo2bo3932bo36b2o152b2o1705bo2253bo2bo2546b$2540bo3936b2o35b2o152b2o3963bo2545b$2540bo3bo3927b2o227bo2b2o3923bo3bo2545b$2540b4o2269b2o1657b2o231b2o3923b4o2545b$4813bobo1657b2o229b2o6473b$4813bo1660bo6704b$6700b2o2b2o6473b$1340bo5365bo6472b$1340b2o5141bo98bo117b4o6475b$1339bobo5139bobo88b2o6bobo27b2o90bo2bo6473b$6482b2o88b2o7b2o27b2o6567b$8361b2o4816b$8362b2o3484bo1330b$6596bo1764bo3485b2o1330b$6596bobo5248bobo1329b$6596b2o6581b$4826b2o8351b$4825b2o1654b2o218b2o9b3o6464b$4827bo1653b2o218b2o6476b$6712b3o6464b$6507bo204b2o6465b$6472b3o31b3o6670b$6472bo33b4o6669b$6473bo6705b$13179b$6506b4o6669b$6506b4o194b3o6472b$6508bo55b2o52b2o86bo1607b2o4863b$6564b2o52b2o56bo28bo1607bobo4863b$6675b3o1637bo4863b$6674b2o2bo6500b$2421bo2bo4249bo3bo4070bo2bo2426b$2420bo2452b2o1799bobo4076bo2425b$2420bo3bo2448bobo5873bo3bo2425b$2420b4o2449bo1642b2o148b2o7b2ob2o4070b4o2425b$6473b2o31b2o8b2o148b2o9bo31b2o6468b$1280bo5192b2o31b2o201b2o6468b$1280b2o11897b$1279bobo11897b$6517b3o6659b$6516bo3bo51b2o36b2o55bo1633b2o4876b$6516b2ob2o51b2o36b2o53b2o1635b2o3604bo1270b$6515b2ob2obo144b2o1633bo3605b2o1270b$6514b2o5b2o5384bobo1269b$6514b2o3bob2o6656b$4886b2o1632bo143b2o6513b$4885b2o1777b2o6513b$4887bo8291b$6481b2o218b2o6476b$6481b2o218b2o6476b$6532b3o6644b$6532bo6646b$6533bo6645b$6514b2o152b2o6509b$6514b2o152b2o6509b$6560b2o82b3o6532b$6646bo1607b2o4923b$6645bo1607bobo4923b$8255bo4923b$6566bobo48b5o6557b$6617bobob2o6556b$4933b2o1627bo3bo52bo3bo6555b$2301bo2bo2628bobo1625b3o5bo49b2ob3o4244bo2bo2306b$2300bo2632bo1627b3o3b3o42b2o5b2ob2o4249bo2305b$2300bo3bo4256b3o48b3o3bo2bo4247bo3bo2305b$1220bo1079b4o4268b3o36bo2bo3b4o4248b4o2305b$1220b2o5251b2o137b3o2bob2obo86b2o6468b$1219bobo5251b2o137b2o3bo2b3o86b2o6468b$6618bob3o6556b$8241b2o4936b$8242b2o3724bo1210b$8241bo3725b2o1210b$6560b2o60b2o5343bobo1209b$6560b2o60b2o6555b$4946b2o8231b$4945b2o8232b$4947bo8231b$13179b$13179b$13179b$6564b2o52b2o86bo6472b$6564b2o52b2o85b3o6471b$6704b2o2bo6470b$6708b2o6469b$6514b2o152b2o35b3ob2o6468b$6480b2o32b2o152b2o36bo2b2o1483b2o4983b$6480b3o222b3o1485bobo4983b$6479bo2bo225b2o1485bo4983b$6478b2ob2o225b2o6469b$6478b2ob2o6696b$4993b2o1484b2ob2o6695b$4993bobo1486bo218bo6477b$4993bo1485b3o219bobo6475b$2181bo2bo4295bo91b2o36b2o89b2o4286bo2bo2186b$1160bo1019bo4391b2o36b2o4381bo2185b$1160b2o1018bo3bo8804bo3bo2185b$1159bobo1018b4o8806b4o2185b$13179b$8181b2o4996b$8182b2o3844bo1150b$6471b2o1708bo3845b2o1150b$6471b2o8b2o218b2o5324bobo1149b$6481b2o218b2o6476b$5006b2o1462bo6708b$5005b2o1462bobo6707b$5007bo1464bo6706b$6467bo3bo6707b$6466bo4bo6707b$6465bo6713b$6584bo6594b$6470bo112bo6595b$6467bo96b2o17b3o32b2o6559b$6564b2o52b2o6559b$13179b$6604bo1529b2o5043b$6508b3o94bo1527bobo5043b$6507bo3bo91b3o69b2o1458bo5043b$6511bo162bobo6502b$6506bo9b2o148b2o6b2o6503b$5053b2o1418b2o31b2ob2o5b2o148b2o6b2o33b2o6468b$5053bobo1417b2o35bo164bobobo29b2o6468b$5053bo1623b2o6500b$6668bobo4b2obo6500b$1100bo5567b2o6509b$1100b2o959bo2bo4507b2o36b2o57bo4439bo2bo2066b$1099bobo958bo4511b2o36b2o4501bo2065b$2060bo3bo9044bo3bo2065b$2060b4o4442bo1614b2o2987b4o2065b$6506b3o1613b2o3964bo1090b$6506b3o9b2o144b2o1455bo3965b2o1090b$6518b2o144b2o5421bobo1089b$13179b$5066b2o1413b2o218b2o6476b$5065b2o1414b2o218b2o6476b$5067bo8111b$13179b$13179b$6514b2o152b2o6509b$6514b2o152b2o6509b$13179b$13179b$13179b$6564b2o6613b$6564b2o51bo1456b2o5103b$6611b2o4b5o1451bobo5103b$6610bobo5b2o1455bo5103b$6563b2o6614b$6558b3o4bo47b4ob2o2bo6556b$5113b2o1442b2o4bobo3bo40bo2b4o3b2o6557b$5113bobo1440bo3bo2b2o3b3o44bo6563b$5113bo1359b2o82b2o9bo2b2o136b2o6468b$6473b2o95b3o4bo131b2o6468b$1040bo5377bo135b2o13bo5bobo3b3o17bo2bo6574b$1040b2o5374b2o135bo2bo12b4ob2obo22bo3bo6574b$1039bobo5375b2o135bobo11bo32bobo6575b$1941bo2bo4609b2o2bo9b2ob2o29bo20b2o4604bo2bo1946b$1940bo4613b2o2b3o8bo2b2o49b2o7b2o1427b2o3170bo1945b$1940bo3bo4615bo9b3o49bobo6bo138bo1291b2o3165bo3bo914bo1030b$1940b4o4614bobo10bo49bo2bo3bob2o139b2o1288bo3168b4o913b2o1030b$6558b2o67b2o141b2o5375bobo1029b$6625bo2b2o6549b$5126b2o1495bobo6553b$5125b2o1497bo6554b$5127bo8051b$6564b2o52b2o6559b$6564b2o52b2o6559b$13179b$13179b$6514b2o152b2o6509b$6514b2o152b2o6509b$13179b$13179b$8014b2o5163b$8013bobo5163b$8015bo5163b$13179b$13179b$5173b2o1397b2o36b2o6567b$5173bobo1396b2o36b2o6567b$5173bo8005b$13179b$980bo5492b2o234b2o6468b$980b2o5491b2o234b2o6468b$979bobo12197b$6590bo6588b$6588bobo1410b2o5176b$1821bo2bo4764b2o1411b2o3345bo2bo855bo970b$1820bo6180bo3351bo853b2o970b$1820bo3bo9524bo3bo853bobo969b$1820b4o4764bo4761b4o1825b$5186b2o1400bobo6588b$5185b2o1401b2o6589b$5187bo7991b$13179b$13179b$6564b2o52b2o6559b$6564b2o52b2o6559b$13179b$13179b$6514b2o152b2o6509b$6514b2o152b2o6509b$7954b2o5223b$7953bobo5223b$7955bo5223b$13179b$13179b$5233b2o7944b$5233bobo7943b$5233bo1338b2o36b2o6567b$6572b2o36b2o6567b$920bo12258b$920b2o12257b$919bobo5551b2o234b2o6468b$6473b2o234b2o6468b$7941b2o5236b$7942b2o4324bo910b$7941bo4325b2o910b$1701bo2bo9764bo2bo794bobo909b$1700bo9772bo1705b$1700bo3bo3541b2o6221bo3bo1705b$1700b4o3541b2o6223b4o1705b$5247bo7931b$13179b$13179b$13179b$13179b$6564b2o52b2o6559b$6564b2o52b2o6559b$13179b$13179b$6514b2o152b2o1224b2o5283b$6514b2o152b2o1223bobo5283b$7895bo5283b$13179b$13179b$5293b2o7884b$5293bobo7883b$5293bo7885b$13179b$860bo12318b$860b2o12317b$859bobo12317b$13179b$6358bo114b2o234b2o1170b2o5296b$6356b2o115b2o234b2o1171b2o4444bo850b$6357b2o1522bo4445b2o850b$12327bobo849b$13179b$1581bo2bo3721b2o1522bo4758bo2bo1586b$1580bo3724b2o1524b2o4760bo1585b$1580bo3bo3722bo1522b2o4757bo3bo1585b$1580b4o10006b4o1585b$13179b$13179b$13179b$13179b$13179b$6564b2o52b2o6559b$6564b2o52b2o6559b$7834b2o5343b$7833bobo5343b$6514b2o152b2o1165bo5343b$6514b2o152b2o6509b$13179b$5353b2o7824b$5353bobo7823b$5353bo7825b$13179b$800bo12378b$800b2o12377b$799bobo12377b$13179b$7821b2o5356b$7822b2o4564bo790b$6473b2o234b2o1110bo4565b2o790b$6473b2o234b2o5676bobo789b$13179b$5366b2o7811b$5365b2o1344bo6467b$1461bo2bo3902bo1342bobo4996bo2bo1466b$1460bo5248bo4b2o4997bo1465b$1460bo3bo5010bo228bo5bobobobo4992bo3bo1465b$1460b4o5009b4o227b2o8bob2o4992b4o1465b$6466b2o4b6o219bo2bo2bobo10b3o6460b$6465bo2bo3bo4b2o212b3o3bo3bo14b3o6460b$6462bo3bobo17b2o209bo2b2o14bo2bo6459b$6460b2o5b2o5bo9b2ob2o215b3o8b3ob2o6458b$6461b2o3bo8b2o7bo4bo201bo3bo8b3o8b3ob2o6458b$6464b2o18bo3b3o73b2o52b2o72bo2bo2bo4bobo10bo2bo1054b2o5403b$6477bo7b2o4bo72b2o52b2o74bo3bo4b2o1068bobo5403b$6477b2o10bobo223b3o8bo1048bo5403b$6477b2o10b2o236b2o6450b$6514b2o152b2o56b2o6451b$5413b2o1099b2o152b2o6509b$5413bobo7763b$5413bo7765b$6473b2o234b2o6468b$740bo5732b2o234b2o6468b$740b2o12437b$739bobo12437b$13179b$6672bo1088b2o5416b$6671bobo1088b2o4684bo730b$6670bo1090bo4685b2o730b$6670bo2b3o5771bobo729b$6670b2o3b2o6502b$5426b2o1243b2ob2o6503b$5425b2o1243b2ob2o6504b$5427bo1242bo2bo6505b$6481b2o187bo2bo27b2o6476b$1341bo2bo5136b2o10bo176b2o29b2o5126bo2bo1346b$1340bo5150bobo16b3o5320bo1345b$1340bo3bo5147b2o16bo2bo5315bo3bo1345b$1340b4o5166bo2bo5316b4o1345b$6509b4o155b2o6509b$6509b2o157b2o15bo6493b$6508bo176bobo6491b$6509bo175b2o1027b2o5463b$6509bo1203bobo5463b$6564b2o52b2o1095bo5463b$6564b2o52b2o58bobo6498b$6679b2o6498b$5473b2o1204bo6499b$5473bobo7703b$5473bo7705b$13179b$680bo12498b$680b2o5791b2o31b2o168b2o31b2o6468b$679bobo5791b2o31b2o168b2o31b2o6468b$13179b$7701b2o5476b$7702b2o4804bo670b$7701bo4805b2o670b$12507bobo669b$6298bo6880b$5486b2o808b2o6881b$5485b2o810b2o6880b$5487bo7691b$13179b$6890bo6288b$6481b2o218b2o188b2o6286b$1221bo2bo5256b2o218b2o187b2o5057bo2bo1226b$1220bo10732bo1225b$1220bo3bo10724bo3bo1225b$1220b4o10726b4o1225b$6514b2o152b2o6509b$6514b2o152b2o984b2o5523b$7653bobo5523b$7655bo5523b$13179b$13179b$5533b2o1079b2o6563b$5533bobo1078b2ob3o6559b$5533bo1081b6o6558b$6569b2o48b3o6557b$620bo5947bo2b2o39bo6566b$620b2o5940bo5b2obo39b3o6565b$619bobo5940bo6bo3b2o35bo2bo6565b$6473b2o87bo47b3o96b2o6468b$6473b2o136bo97b2o930b2o5536b$7642b2o4924bo610b$7641bo4925b2o610b$12567bobo609b$13179b$5546b2o1012b2o60b2o6555b$5545b2o1013b2o60b2o6555b$5547bo7631b$13179b$13179b$13179b$13179b$13179b$1101bo2bo5459b2o52b2o5449bo2bo1106b$1100bo5463b2o52b2o5453bo1105b$1100bo3bo10964bo3bo1105b$1100b4o6490b2o4474b4o1105b$6402bo111b2o152b2o923bobo5583b$6400b2o112b2o152b2o925bo5583b$6401b2o6776b$13179b$5593b2o7584b$5593bobo1190bo6392b$5593bo1193b2o6390b$6786b2o6391b$560bo12618b$560b2o6010b2o36b2o6567b$559bobo6010b2o36b2o6567b$13179b$7581b2o5596b$6473b2o234b2o871b2o5044bo550b$6473b2o234b2o870bo5045b2o550b$12627bobo549b$13179b$5606b2o7571b$5605b2o7572b$5607bo7571b$13179b$13179b$13179b$13179b$13179b$13179b$13179b$981bo2bo5579b2o52b2o5569bo2bo986b$980bo5583b2o52b2o914b2o4657bo985b$980bo3bo6548bobo4653bo3bo985b$980b4o6551bo4654b4o985b$6514b2o152b2o6509b$6514b2o90bo61b2o6509b$5653b2o949bobo6572b$5653bobo949b2o6572b$5653bo7525b$6573bo6605b$500bo6071bobo6604b$500b2o6070bob2o6603b$499bobo6073bo6603b$6572bobo35b2o6567b$6573bo36b2o909b2o5656b$7522b2o5164bo490b$7521bo5165b2o490b$6473b2o234b2o5976bobo489b$6473b2o234b2o6468b$5666b2o7511b$5665b2o7512b$5667bo7511b$6238bo6940b$6236b2o469bo6471b$6237b2o234bo231b2o2b2o6468b$6472bobo235b2o6467b$6475bo231bo3bo3b2ob2o6459b$6475b2o8bo221b4o4bo2bo227bobobo6228b$6465b4o6b2o216b3o4b2o3bo9bob2o226bo2b2ob2o6226b$6465bo3bo19b2o208b2ob2obo12bo228bob3o6227b$6465b2o2bo10b2o7b3o202bo8bobo2bo7b2o5bo750b2o5703b$861bo2bo5602bo2bo2bob3o2b2o7b2o73b2o52b2o74bobobo4bo4bo7bo7b2o747bobo4833bo2bo866b$860bo5380b2o225b3o2bob3o11bo74b2o52b2o73bo8bo20b2o750bo4837bo865b$860bo3bo5376bobo224b3o2bo219bo4b3o5608bo3bo865b$860b4o5377bo450bo4bobo5610b4o865b$5713b2o799b2o152b2o22bo3bo6482b$5713bobo798b2o152b2o22b4o6483b$5713bo7465b$13179b$440bo6032b2o234b2o6468b$440b2o6031b2o234b2o6468b$439bobo12737b$13179b$7461b2o5716b$7462b2o5284bo430b$7461bo5285b2o430b$12747bobo429b$13179b$5726b2o7451b$5725b2o7452b$5727bo762bo180b3o6505b$6488bobo179bo2bo6505b$6481b2o6b2o179bo3bo26b2o6476b$6481b2o186bo31b2o6476b$6507bo160b2ob3o6505b$6507b2o160bo18bo6490b$6506bo2bo159b2o3bo13bobo195b2o6291b$6507bobo160bo17b2o195bobo6291b$6506bo2bo377bo6291b$6506bo2bo904b2o5763b$6506bobo166bobo735bobo5763b$6301b2o204b3o166b2o737bo5763b$741bo2bo5556bobo260b2o52b2o56bo5752bo2bo746b$740bo5560bo262b2o52b2o5813bo745b$740bo3bo5028b2o567bo6086bo3bo745b$740b4o5029bobo564b2o6088b4o745b$5773bo567b2o6836b$13179b$380bo12798b$380b2o6134b2o328bo6332b$379bobo6091b2o31b2o8b2o158b2o31b2o136b2o6330b$6473b2o31b2o168b2o31b2o135b2o6331b$7401b2o5776b$6517b3o882b2o5404bo370b$6517b3o881bo5405b2o370b$6517b4o6286bobo369b$6519bob2o6656b$5786b2o730b2ob2o6656b$5785b2o727b2o2b5o6656b$5787bo731b3o6657b$6521bo6657b$13179b$13179b$6481b2o218b2o6476b$6481b2o218b2o6476b$6826b2o6351b$6825bobo6351b$6827bo6351b$6514b2o152b2o684b2o5823b$6514b2o152b2o683bobo5823b$6361b2o199bo792bo5823b$6361bobo197b3ob2o6612b$6361bo199bo5bo6611b$621bo2bo5208b2o725b4o4bo5980bo2bo626b$620bo5212bobo724bo7bo5984bo625b$620bo3bo5208bo726bo3b2o2b2o5979bo3bo625b$620b4o5936bo5bobo5981b4o625b$320bo6240b2obo2bo48bo6562b$320b2o6293bobo6561b$319bobo6239b2ob2o48b2ob2o2bo6557b$6563bo8b3o40bobo3bo6557b$6473b2o137b2obo5bo87b2o630b2o5836b$6473b2o137b2ob2o92b2o631b2o5524bo310b$6614bo726bo5525b2o310b$12867bobo309b$13179b$5846b2o7331b$5845b2o713b2o60b2o6555b$5847bo712b2o60b2o6555b$13179b$13179b$13179b$6290bo6888b$6288bobo6888b$6289b2o475b2o6411b$6564b2o52b2o145bobo6411b$6405bo158b2o52b2o147bo6411b$6403b2o483bo405b2o5883b$6404b2o482bobo402bobo5883b$6421b2o91b2o152b2o218b2o405bo5883b$6421bobo90b2o152b2o6509b$6421bo361bo6395b$5893b2o889b2o6393b$5893bobo887b2o6394b$501bo2bo5388bo6775bo2bo506b$500bo12172bo505b$260bo239bo3bo12164bo3bo505b$260b2o238b4o12166b4o505b$259bobo6310b2o36b2o6567b$6572b2o36b2o6567b$7281b2o5896b$7282b2o5644bo250b$6473b2o234b2o570bo5645b2o250b$6473b2o234b2o6216bobo249b$13179b$5906b2o7271b$5905b2o7272b$5907bo7271b$13179b$13179b$13179b$13179b$13179b$6706b2o6471b$6676bo28bobo6471b$6675b3o29bo6471b$6564b2o52b2o54bo2bo556b2o5943b$6564b2o52b2o54b2o557bobo5943b$6481b2o120bo71bo559bo5943b$6481bobo117bobo73b2o6500b$6481bo120b2o71b4o26b3o6471b$5953b2o552b2o165bo2bo26bo2bo6471b$5953bobo549b3o168bo27b2o2bo6470b$5953bo551b2o9b2o57bo90b2o39b2o6470b$6480b3o21b2o10b2o57bobo88b2o7bobo6501b$200bo180bo2bo5897bo197b3o22bob2o66b2o99b2o26bo6084bo2bo386b$200b2o178bo5899b2o197bo2bo23b3o3bobo187b2o6089bo385b$199bobo178bo3bo5896b2o196b3o25bo5b2o188b2o6084bo3bo385b$380b4o6096b2o31bo6276b4o385b$6572b2o36b2o609b2o5956b$6572b2o36b2o53bo240bo315b2o5764bo190b$6664bobo240b2o312bo5765b2o190b$6664bobo239b2o6079bobo189b$6665b2o6512b$5966b2o550b2o144b3o6512b$5965b2o551b2o6659b$5967bo503b2o429b2o6275b$6471b2o8b2o218b2o198bobo6275b$6481b2o218b2o200bo6275b$13179b$13179b$6285b2o6892b$6285bobo226b2o130b2o20b2o6509b$6285bo183b3o42b2o129bobo20b2o6509b$6468bo3bo174bo6531b$6468b2o3bo700b2o6003b$6468bo4bo145b2o552bobo6003b$6469bo3bo67b2o21b2o52bobo554bo6003b$6541bobo19bob2o4bo46bobo6558b$6470b2o69bo20b2o2bo3b2o45b2obob2o6555b$6013b2o547b2o3b5o46b6o6555b$6013bobo546bobo2bo54bo2bo6553b$6013bo548bobobobobo53bo6554b$6562bobobob3o6608b$140bo6422bo3b2o40b3o6567b$140b2o6331b2o31b2o168b2o31b2o6468b$139bobo119bo2bo6208b2o31b2o72b3o93b2o31b2o6198bo2bo266b$260bo12652bo265b$260bo3bo6314bo3bo577b2o5746bo3bo265b$260b4o6315bo3bo578b2o5746b4o134bo130b$6560bo600bo5885b2o130b$6561bo18b3o39b2o6423bobo129b$6558bo2bo60b2o6555b$6026b2o526b3ob3o6618b$6025b2o527b2o3bo6619b$6027bo525b3o2b3o281b2o6335b$6555bobobo281bobo6335b$6557b2o284bo6335b$6557bo6621b$6564b2o52b2o6559b$6345b2o217b2o52b2o6559b$6345bobo6831b$6345bo6833b$6423b3o88b2o152b2o88b3o6418b$6514b2o152b2o444b2o6063b$6429b2o322b2o358bobo6063b$6428bo2bo320bo2bo359bo6063b$6428bobo322bobo6423b$6429bo324bo6424b$6073b2o7104b$6073bobo7103b$6073bo7105b$6572b2o36b2o6567b$80bo6491b2o36b2o6567b$80b2o13097b$79bobo13097b$6473b2o234b2o6468b$141bo2bo6328b2o234b2o390b2o5926bo2bo146b$140bo6961b2o5929bo74bo70b$140bo3bo6956bo5927bo3bo73b2o70b$140b4o6569b2o6315b4o73bobo69b$6712bobo6464b$6086b2o583b3o40bo6464b$6085b2o583bo2bo6505b$6087bo582bo2bo35bo6469b$6474b2o120bo74b4o31bo3bo6468b$6474bobo29b3o85bobo76b2o34b2o6468b$6474bo32bo87b2o78bo23b3o3bo2bo2b3o6465b$6507b3o164bo23b2o3bo4b3o2bo6465b$6674bo22b2o2bobo2bo6bo6465b$6476b3o85b2o16bo35b2o78bo5bo2b2o2b2o6466b$6476bo2bo84b2o16bobo33b2o79b2o2bo5b2o6468b$6474b2o2b2o102b2o119bo6475b$6473bo5bo574b2o6123b$6423b3o50b3o279b3o292bobo6123b$6473b2o580bo6123b$6429b2o42bo2b3o274b2o6424b$6428bo2bo42bo2bo38b2o234bo2bo6423b$6133b2o293bobo43b2o30b2o8b2o158b2o31b2o42bobo6423b$6133bobo293bo76b2o168b2o31b2o43bo6424b$6133bo7045b$6481bo6697b$20bo6461b2o6695b$20b2o6459b2o89b2o36b2o6567b$19bobo6496bo53b2o36b2o6567b$6328bo188bobo6659b$6326bobo187bo3bo176bo343b2o6136b$6327b2o187bo3bo174b2o345b2o6124bo10b$21bo2bo6491bo179b2o343bo6107bo2bo14b2o10b$20bo6496b3o133b2o6498bo13bobo9b$20bo3bo6627bobo195bo6298bo3bo25b$20b4o6122b2o333b2o171bo46b2o147bobo6297b4o25b$6145b2o334b2o218b2o147b2o6327b$6147bo7031b$6534b2o6643b$6534bobo6642b$6514b2o18bo133b2o6509b$6514b2o152b2o6509b$6562bo6616b$6561b3ob2o6612b$6561bo5bo6611b$6560b4o4bo6610b$6560bo7bo425b2o6183b$6560bo3b2o2b2o423bobo6183b$6560bo5bobo426bo6183b$3o6420b3o135b2obo2bo48bo141b3o6418b$o6614bobo6561b$bo6191b2o234b2o130b2ob2o48b2ob2o2bo131b2o6424b$6193bobo232bo2bo131bo8b3o40bobo3bo130bo2bo6423b$6193bo234bobo42b2o31b2o104b2obo5bo54b2o31b2o42bobo6423b$6429bo43b2o31b2o104b2ob2o59b2o31b2o43bo6421b3o$6614bo6563bo$13177bob$13179b$13179b$6560b2o60b2o357b2o6196b$6560b2o60b2o358b2o6195b$14bo6966bo6197b$13b2o13164b$13bobo13163b$6206b2o6971b$6205b2o6972b$6207bo6956bo14b$6564b2o52b2o6544b2o13b$6564b2o52b2o6543bobo13b$13179b$13179b$6514b2o152b2o6509b$6514b2o152b2o6509b$13179b$13179b$6934b2o6243b$6933bobo6243b$6935bo6243b$60b3o13116b$60bo6608b3o6507b$61bo6191b2o259b3o55b2o36b2o49b2o4b2o3bo6506b$6253bobo249bo8b2ob2o53b2o36b2o49bobo3bo5bo6505b$6253bo249b4o5bo6bo136bobo2b3o4bo4bo7b2o6496b$6502bob4obo2b2o5bo136bo5bo7bo9bobo6433b3o60b$6501b2o7bo7b2o136bo3bo9bo8b2obo20b3o6412bo60b$6479bo22b3obo3bobo144bo2bo10bo8b6o6431bo61b$6478b2o23b2o2bobo2bo4bo141bo21bo4bo15b2o6475b$6471b2o4bobo34b2o156b2o9bo2bo14bobo7b2o6466b$6471b2o4b2o193bo11b2o14bo3bo6b2o208b2o6256b$6482b2o217bobo4bo213b2o6255b$74bo6404bo222bo3bobo212bo6257b$73b2o6402b3obobo223b2o6470b$73bobo6401b2o4bo6695b$6266b2o209b2o2b2o31b2o152b2o6509b$6265b2o212b2ob2o30b2o152b2o6509b$6267bo211b2ob2o6620bo74b$6481bo6622b2o73b$13103bobo73b$6469b2o93b2o52b2o93b2o6464b$6469b2o93b2o52b2o93b2o6464b$6603bo6575b$6601bobo6575b$6500bobo99b2o6575b$6500b2o6677b$6501bo372b2o6303b$6575bo297bobo6303b$6473b2o31b2o67bobo98b2o31b2o164bo6303b$120b3o6350b2o31b2o67b2o99b2o8bobo20b2o6468b$120bo6566b2o6490b$121bo6191b2o372bo6491b$6313bobo6863b$6313bo258b2o36b2o6567b$6572b2o36b2o6444b3o120b$13058bo120b$13057bo121b$13179b$13179b$6861b2o6316b$6862b2o6315b$134bo6346b2o218b2o158bo6317b$133b2o6253bo92b2o218b2o6476b$133bobo6250bobo6790b$6326b2o59b2o6790b$6325b2o6852b$6327bo105bo80b2o152b2o6374bo134b$6431b2o81b2o152b2o120bo6253b2o133b$6432b2o356bobo6250bobo133b$6570bo219b2o6387b$6570bo6608b$6571bo183bo6423b$6571b2o37b3o143b2o6421b$6569bo3bo36bo2bo141b2o6422b$6562b2o4bo41bo9b2o6557b$6562b2o4bo4bo46b2o192b2o6363b$6569b4o41bo198bobo6363b$6570bo39bo2bo201bo6363b$180b3o6436bo6559b$180bo6292b2o145bo88b2o6468b$181bo6191b2o98b2o143b3o88b2o6468b$6373bobo6803b$6373bo6805b$12996b3o180b$6572b3o6423bo180b$6560b2o11b2o47b2o6373bo181b$6560b2o10bo49b2o6555b$13179b$6801b2o6376b$6802b2o6375b$194bo6606bo6377b$193b2o12984b$193bobo12983b$6386b2o176b2o52b2o6559b$6385b2o177b2o52b2o6559b$6387bo6596bo194b$12984b2o193b$6514b2o152b2o6313bobo193b$6514b2o152b2o6509b$13179b$13179b$13179b$13179b$13179b$13179b$13179b$6572b2o36b2o6567b$240b3o6329b2o36b2o6567b$240bo12938b$241bo12937b$6473b2o234b2o6468b$6473b2o234b2o6468b$12936b3o240b$12938bo240b$12937bo241b$13179b$13179b$6741b2o6436b$6742b2o6435b$254bo6486bo6437b$253b2o12924b$253bobo12923b$6446b2o6731b$6445b2o6732b$6447bo116b2o52b2o6304bo254b$6564b2o52b2o6304b2o253b$12923bobo253b$6513bo6665b$6512bo6666b$6509bob2o2bo93b2o57bobo6508b$6508bobo2b4o91bo2bo53b2obo2bo6507b$6507bo2bo154b2obo2bo6507b$6511b3o2b2o90bobo53bob2o6511b$6507b2obo4b2o147b4o5bo6505b$6507b2obo4bo158b2o6503b$6509b2obob2o151b2o6bo6503b$300b3o6361bo3b2obob3o6503b$300bo6195bobo166b5o6509b$301bo6194bob2o168bo6510b$6497b2o6bo16b2o6655b$6471b3o30bo15bo3b2o2bo6650b$6471bo2bo29bo14bo2bob2obobo6346b3o300b$6471b2ob2o43bo4bo4bo134b2o6212bo300b$6475bo39b2o9b3o135b2o6211bo301b$6468bo2b2ob2o38b6o4b3o177bo6474b$6469bob4o39b2obo5b2o177b4o6473b$6519b2o160b2o23bo6472b$6518b3o161b2o19bo3bo4bo6466b$314bo6166b3o197bo22bobo5bo6466b$313b2o6221bo168bo6bo6466b$313bobo6198b2o21b2o129b2o6509b$6506b2o6b2o20b2o130b2o6509b$6505b2o6672b$6507bo6356bo314b$6642bo6221b2o313b$6469b2o93b2o52b2o20b2o71b2o6148bobo313b$6469b2o93b2o52b2o21b2o70b2o6464b$13179b$13179b$13179b$13179b$13179b$13179b$6473b2o31b2o168b2o31b2o6468b$6473b2o31b2o107b2o59b2o31b2o6468b$360b3o6254bo6561b$360bo6251b3o3bo6560b$361bo6249b5o2bo6560b$6610b2o5b2o6560b$6611b2o6566b$6443bobo171b2o6197b3o360b$6443b2o6373bo360b$6444bo170bo82bobo6116bo361b$6567b3o46b3o81bo6478b$6485bo81bo2bo125bo6482b$6485bobo78bo2b2o124bo47bobo6433b$6481b2o2b2o79b2o126b2o2b2o44b2o6433b$374bo6106b2o135b2o75bo2b2o44bo6434b$373b2o6195bo47b2o76bo4bo6477b$373bobo6195b2o124b2o2bo6477b$6570b2o126bobo6478b$6514b2o152b2o6509b$6514b2o152b2o6134bo374b$6608bo6195b2o373b$6606b2o6195bobo373b$6607b2o6570b$13179b$6506bo6672b$6505b3o6671b$6504bo3bo6670b$6509bo62b2o36b2o6567b$6502bo3b2ob2o61b2o36b2o6567b$6506b2o6671b$6502b2o6bo6668b$420b3o6050b2o33b2o199b2o37b2o6429b$420bo6052b2o234b2o38b2o6428b$421bo6326bo6430b$13179b$13179b$6439b2o6315b3o420b$6438b2o6318bo420b$6440bo6316bo421b$13179b$13179b$13179b$13179b$434bo12744b$433b2o12744b$433bobo6128b2o52b2o6559b$6564b2o52b2o6559b$13179b$6424bo90b2o242bo5984bo434b$6424bo89bobo242bo5984b2o433b$6424bo89bobo242bo5983bobo433b$6429b2o82b2obob2o233b2o6424b$6428bo2bo82b6o232bo2bo6423b$6428bobo87bo2bo151b2o78bobo6423b$6429bo90bo151bo2b2o77bo6424b$6666bo5b2obo6503b$6505b3o158bo6bo3b2o6500b$6666bo6512b$6572b2o36b2o6567b$6572b2o36b2o6567b$480b3o6205b2o6489b$480bo6208b2o6488b$481bo6206bo6490b$6518b2o144b2o37b3o6473b$6518b2o144b2o37bo6475b$6499b2o202b2obo4b2o5983b3o480b$6475b3o20b2o204bobo4b2o5985bo480b$6474bo3bo21bo204b2o5990bo481b$6471bo7bo222b2o6475b$6471bob3obob2o219b2o3bo6473b$6471bo3bobob2o224b3o6471b$6476bo3bo33b2o152b2o31b3o6475b$494bo5981b4o34b2o152b2o33bo6475b$493b2o5983bo222b3o6475b$493bobo6205b3o6475b$6702bo6476b$6469b2o93b2o52b2o93b2o6464b$6469b2o72bo20b2o52b2o93b2o5969bo494b$6544b2o6138b2o493b$6424bo118b2o214bo5923bobo493b$6424bo334bo6419b$6424bo334bo6419b$6429b2o204bo117b2o6424b$6428bo2bo201b2o117bo2bo6423b$6428bobo42b2o31b2o57bo68b2o40b2o31b2o42bobo6423b$6429bo43b2o31b2o56bo3bo47bob2o6b2o48b2o31b2o43bo6424b$6564b2o49b2o2bo5bo3bo6549b$6561b3o2bo2bo3b3o29bo7bo5bo4bo5bo6548b$6561bo2b3o4bo3b2o28b2o8b3o7bo4bo6548b$540b3o6018bo6bo2bobo2b2o28b2o3bo3b2o10bo2bo6548b$540bo6021b2o2b2o2bo5bo29bo4bobo13bobo6549b$541bo6022b2o5bo2b2o25b3obo9bo12bo6550b$6571bo29b3o11bo6563b$6615bo3b2o6558b$12636b3o540b$6489bo6148bo540b$6489bo6147bo541b$13179b$6436bobo125b2o52b2o6559b$6436b2o126b2o52b2o6559b$6437bo6741b$554bo12624b$553b2o5959b2o152b2o6509b$553bobo5958b2o152b2o80bobo6426b$6751b2o6426b$6751bo6427b$6577bo6046bo554b$6578b2o6044b2o553b$6577b2o6044bobo553b$13179b$6424bo334bo6419b$6424bo147b2o27bo8b2o147bo6419b$6424bo147b2o25b2o9b2o147bo6419b$6429b2o169b2o151b2o6424b$6428bo2bo320bo2bo6423b$6428bobo42b2o234b2o42bobo6423b$6429bo43b2o234b2o43bo6424b$13179b$600b3o12576b$600bo12578b$601bo12577b$13179b$13179b$12576b3o600b$12578bo600b$12577bo601b$13179b$13179b$13179b$6564b2o52b2o6559b$614bo5949b2o52b2o6559b$613b2o12564b$613bobo12563b$6514b2o152b2o6509b$6514b2o152b2o6509b$12564bo614b$12564b2o613b$12563bobo613b$13179b$13179b$13179b$13179b$6572b2o36b2o6567b$6572b2o36b2o6567b$13179b$13179b$6473b2o234b2o6468b$660b3o5810b2o234b2o6468b$660bo12518b$661bo12517b$13179b$13179b$12516b3o660b$12518bo660b$12517bo661b$13179b$13179b$13179b$13179b$674bo12504b$673b2o5889b2o52b2o6559b$673bobo5888b2o52b2o6559b$13179b$13179b$6514b2o152b2o5834bo674b$6514b2o152b2o5834b2o673b$12503bobo673b$13179b$13179b$13179b$13179b$13179b$13179b$13179b$13179b$13179b$720b3o12456b$720bo5752b2o234b2o6468b$721bo5751b2o234b2o6468b$13179b$13179b$12456b3o720b$12458bo720b$12457bo721b$13179b$13179b$13179b$13179b$734bo12444b$733b2o12444b$733bobo12443b$6564b2o52b2o6559b$6564b2o52b2o6559b$12444bo734b$12444b2o733b$6514b2o152b2o5773bobo733b$6514b2o152b2o6509b$13179b$13179b$13179b$13179b$13179b$13179b$13179b$13179b$780b3o12396b$780bo12398b$781bo12397b$6473b2o234b2o6468b$6473b2o234b2o6468b$12396b3o780b$12398bo780b$12397bo781b$13179b$13179b$13179b$13179b$794bo12384b$793b2o12384b$793bobo12383b$13179b$13179b$6564b2o52b2o5764bo794b$6564b2o52b2o5764b2o793b$12383bobo793b$13179b$6514b2o152b2o6509b$6514b2o152b2o6509b$13179b$13179b$13179b$13179b$13179b$13179b$840b3o12336b$840bo12338b$841bo12337b$13179b$13179b$6473b2o234b2o5625b3o840b$6473b2o234b2o5627bo840b$12337bo841b$13179b$13179b$13179b$13179b$854bo12324b$853b2o12324b$853bobo12323b$13179b$13179b$12324bo854b$12324b2o853b$6564b2o52b2o5703bobo853b$6564b2o52b2o6559b$13179b$13179b$6514b2o152b2o6509b$6514b2o152b2o6509b$13179b$13179b$13179b$13179b$900b3o12276b$900bo12278b$901bo12277b$13179b$13179b$12276b3o900b$12278bo900b$6473b2o234b2o5566bo901b$6473b2o234b2o6468b$13179b$13179b$13179b$914bo12264b$913b2o12264b$913bobo12263b$13179b$13179b$12264bo914b$12264b2o913b$12263bobo913b$13179b$6564b2o52b2o6559b$6564b2o52b2o6559b$13179b$13179b$6514b2o152b2o6509b$6514b2o152b2o6509b$13179b$13179b$960b3o12216b$960bo12218b$961bo12217b$13179b$13179b$12216b3o960b$12218bo960b$12217bo961b$13179b$6473b2o234b2o6468b$6473b2o234b2o6468b$13179b$974bo12204b$973b2o12204b$973bobo12203b$13179b$13179b$12204bo974b$12204b2o973b$12203bobo973b$13179b$13179b$13179b$6564b2o52b2o6559b$6564b2o52b2o6559b$13179b$13179b$6514b2o152b2o6509b$6514b2o152b2o6509b$1020b3o12156b$1020bo12158b$1021bo12157b$13179b$13179b$12156b3o1020b$12158bo1020b$12157bo1021b$13179b$13179b$13179b$6473b2o234b2o6468b$1034bo5438b2o234b2o6468b$1033b2o12144b$1033bobo12143b$13179b$13179b$12144bo1034b$12144b2o1033b$12143bobo1033b$13179b$13179b$13179b$13179b$13179b$6564b2o52b2o6559b$6564b2o52b2o6559b$13179b$13179b$1080b3o5431b2o152b2o6509b$1080bo5433b2o152b2o6509b$1081bo12097b$13179b$13179b$12096b3o1080b$12098bo1080b$12097bo1081b$13179b$13179b$13179b$13179b$1094bo12084b$1093b2o5378b2o234b2o6468b$1093bobo5377b2o234b2o6468b$13179b$13179b$12084bo1094b$12084b2o1093b$12083bobo1093b$13179b$13179b$13179b$13179b$13179b$13179b$13179b$6564b2o52b2o6559b$6564b2o52b2o6559b$1140b3o12036b$1140bo12038b$1141bo5372b2o152b2o6509b$6514b2o152b2o6509b$13179b$12036b3o1140b$12038bo1140b$12037bo1141b$13179b$13179b$13179b$13179b$1154bo12024b$1153b2o12024b$1153bobo12023b$6473b2o234b2o6468b$6473b2o234b2o6468b$12024bo1154b$12024b2o1153b$12023bobo1153b$13179b$13179b$13179b$13179b$13179b$13179b$13179b$13179b$13179b$1200b3o5361b2o52b2o6559b$1200bo5363b2o52b2o6559b$1201bo11977b$13179b$6514b2o152b2o6509b$6514b2o152b2o5306b3o1200b$11978bo1200b$11977bo1201b$13179b$13179b$13179b$13179b$1214bo11964b$1213b2o11964b$1213bobo11963b$13179b$13179b$6473b2o234b2o5253bo1214b$6473b2o234b2o5253b2o1213b$11963bobo1213b$13179b$13179b$13179b$13179b$13179b$13179b$13179b$13179b$13179b$1260b3o11916b$1260bo11918b$1261bo5302b2o52b2o6559b$6564b2o52b2o6559b$13179b$11916b3o1260b$6514b2o152b2o5248bo1260b$6514b2o152b2o5247bo1261b$13179b$13179b$13179b$13179b$1274bo11904b$1273b2o11904b$1273bobo11903b$13179b$13179b$11904bo1274b$11904b2o1273b$6473b2o234b2o5192bobo1273b$6473b2o234b2o6468b$13179b$13179b$13179b$13179b$13179b$13179b$13179b$13179b$1320b3o11856b$1320bo11858b$1321bo11857b$13179b$6564b2o52b2o6559b$6564b2o52b2o5236b3o1320b$11858bo1320b$11857bo1321b$6514b2o152b2o6509b$6514b2o152b2o6509b$13179b$13179b$1334bo11844b$1333b2o11844b$1333bobo11843b$13179b$13179b$11844bo1334b$11844b2o1333b$11843bobo1333b$13179b$6473b2o234b2o6468b$6473b2o234b2o6468b$13179b$13179b$13179b$13179b$13179b$13179b$1380b3o11796b$1380bo11798b$1381bo11797b$13179b$13179b$11796b3o1380b$6564b2o52b2o5178bo1380b$6564b2o52b2o5177bo1381b$13179b$13179b$6514b2o152b2o6509b$6514b2o152b2o6509b$1394bo11784b$1393b2o11784b$1393bobo11783b$13179b$13179b$11784bo1394b$11784b2o1393b$11783bobo1393b$13179b$13179b$13179b$6473b2o234b2o6468b$6473b2o234b2o6468b$13179b$13179b$13179b$13179b$1440b3o11736b$1440bo11738b$1441bo11737b$13179b$13179b$11736b3o1440b$11738bo1440b$11737bo1441b$6564b2o52b2o6559b$6564b2o52b2o6559b$13179b$13179b$1454bo5059b2o152b2o6509b$1453b2o5059b2o152b2o6509b$1453bobo11723b$13179b$13179b$11724bo1454b$11724b2o1453b$11723bobo1453b$13179b$13179b$13179b$13179b$13179b$6473b2o234b2o6468b$6473b2o234b2o6468b$13179b$13179b$1500b3o11676b$1500bo11678b$1501bo11677b$13179b$13179b$11676b3o1500b$11678bo1500b$11677bo1501b$13179b$13179b$6564b2o52b2o6559b$6564b2o52b2o6559b$1514bo11664b$1513b2o11664b$1513bobo4998b2o152b2o6509b$6514b2o152b2o6509b$13179b$11664bo1514b$11664b2o1513b$11663bobo1513b$13179b$13179b$13179b$13179b$13179b$13179b$13179b$6473b2o234b2o6468b$6473b2o234b2o6468b$1560b3o11616b$1560bo11618b$1561bo11617b$13179b$13179b$11616b3o1560b$11618bo1560b$11617bo1561b$13179b$13179b$13179b$13179b$1574bo4989b2o52b2o6559b$1573b2o4989b2o52b2o6559b$1573bobo11603b$13179b$6514b2o152b2o6509b$6514b2o152b2o4934bo1574b$11604b2o1573b$11603bobo1573b$13179b$13179b$13179b$13179b$13179b$13179b$13179b$13179b$13179b$1620b3o4850b2o234b2o6468b$1620bo4852b2o234b2o6468b$1621bo11557b$13179b$13179b$11556b3o1620b$11558bo1620b$11557bo1621b$13179b$13179b$13179b$13179b$1634bo11544b$1633b2o11544b$1633bobo4928b2o52b2o6559b$6564b2o52b2o6559b$13179b$11544bo1634b$6514b2o152b2o4874b2o1633b$6514b2o152b2o4873bobo1633b$13179b$13179b$13179b$13179b$13179b$13179b$13179b$13179b$13179b$1680b3o11496b$1680bo11498b$1681bo4791b2o234b2o6468b$6473b2o234b2o6468b$13179b$11496b3o1680b$11498bo1680b$11497bo1681b$13179b$13179b$13179b$13179b$1694bo11484b$1693b2o11484b$1693bobo11483b$13179b$6564b2o52b2o6559b$6564b2o52b2o4864bo1694b$11484b2o1693b$11483bobo1693b$6514b2o152b2o6509b$6514b2o152b2o6509b$13179b$13179b$13179b$13179b$13179b$13179b$13179b$1740b3o11436b$1740bo11438b$1741bo11437b$13179b$6473b2o234b2o6468b$6473b2o234b2o4725b3o1740b$11438bo1740b$11437bo1741b$13179b$13179b$13179b$13179b$1754bo11424b$1753b2o11424b$1753bobo11423b$13179b$13179b$11424bo1754b$6564b2o52b2o4804b2o1753b$6564b2o52b2o4803bobo1753b$13179b$13179b$6514b2o152b2o6509b$6514b2o152b2o6509b$13179b$13179b$13179b$13179b$13179b$1800b3o11376b$1800bo11378b$1801bo11377b$13179b$13179b$11376b3o1800b$6473b2o234b2o4667bo1800b$6473b2o234b2o4666bo1801b$13179b$13179b$13179b$13179b$1814bo11364b$1813b2o11364b$1813bobo11363b$13179b$13179b$11364bo1814b$11364b2o1813b$11363bobo1813b$6564b2o52b2o6559b$6564b2o52b2o6559b$13179b$13179b$6514b2o152b2o6509b$6514b2o152b2o6509b$13179b$13179b$13179b$1860b3o11316b$1860bo11318b$1861bo11317b$13179b$13179b$11316b3o1860b$11318bo1860b$11317bo1861b$6473b2o234b2o6468b$6473b2o234b2o6468b$13179b$13179b$1874bo11304b$1873b2o11304b$1873bobo11303b$13179b$13179b$11304bo1874b$11304b2o1873b$11303bobo1873b$13179b$13179b$6564b2o52b2o6559b$6564b2o52b2o6559b$13179b$13179b$6514b2o152b2o6509b$6514b2o152b2o6509b$13179b$1920b3o11256b$1920bo11258b$1921bo11257b$13179b$13179b$11256b3o1920b$11258bo1920b$11257bo1921b$13179b$13179b$6473b2o234b2o6468b$6473b2o234b2o6468b$1934bo11244b$1933b2o11244b$1933bobo11243b$13179b$13179b$11244bo1934b$11244b2o1933b$11243bobo1933b$13179b$13179b$13179b$13179b$6564b2o52b2o6559b$6564b2o52b2o6559b$13179b$13179b$6514b2o152b2o6509b$1980b3o4531b2o152b2o6509b$1980bo11198b$1981bo11197b$13179b$13179b$11196b3o1980b$11198bo1980b$11197bo1981b$13179b$13179b$13179b$13179b$1994bo4478b2o234b2o6468b$1993b2o4478b2o234b2o6468b$1993bobo11183b$13179b$13179b$11184bo1994b$11184b2o1993b$11183bobo1993b$13179b$13179b$13179b$13179b$13179b$13179b$6564b2o52b2o6559b$6564b2o52b2o6559b$13179b$2040b3o11136b$2040bo4473b2o152b2o6509b$2041bo4472b2o152b2o6509b$13179b$13179b$11136b3o2040b$11138bo2040b$11137bo2041b$13179b$13179b$13179b$13179b$2054bo11124b$2053b2o11124b$2053bobo4417b2o234b2o6468b$6473b2o234b2o6468b$13179b$11124bo2054b$11124b2o2053b$11123bobo2053b$13179b$13179b$13179b$13179b$13179b$13179b$13179b$13179b$6564b2o52b2o6559b$2100b3o4461b2o52b2o6559b$2100bo11078b$2101bo11077b$6514b2o152b2o6509b$6514b2o152b2o6509b$11076b3o2100b$11078bo2100b$11077bo2101b$13179b$13179b$13179b$13179b$2114bo11064b$2113b2o11064b$2113bobo11063b$13179b$6473b2o234b2o6468b$6473b2o234b2o4353bo2114b$11064b2o2113b$11063bobo2113b$13179b$13179b$13179b$13179b$13179b$13179b$13179b$13179b$13179b$2160b3o11016b$2160bo4403b2o52b2o6559b$2161bo4402b2o52b2o6559b$13179b$13179b$6514b2o152b2o4346b3o2160b$6514b2o152b2o4348bo2160b$11017bo2161b$13179b$13179b$13179b$13179b$2174bo11004b$2173b2o11004b$2173bobo11003b$13179b$13179b$11004bo2174b$6473b2o234b2o4293b2o2173b$6473b2o234b2o4292bobo2173b$13179b$13179b$13179b$13179b$13179b$13179b$13179b$13179b$13179b$2220b3o10956b$2220bo10958b$2221bo10957b$6564b2o52b2o6559b$6564b2o52b2o6559b$10956b3o2220b$10958bo2220b$6514b2o152b2o4287bo2221b$6514b2o152b2o6509b$13179b$13179b$13179b$2234bo10944b$2233b2o10944b$2233bobo10943b$13179b$13179b$10944bo2234b$10944b2o2233b$10943bobo2233b$6473b2o234b2o6468b$6473b2o234b2o6468b$13179b$13179b$13179b$13179b$13179b$13179b$13179b$2280b3o10896b$2280bo10898b$2281bo10897b$13179b$13179b$6564b2o52b2o4276b3o2280b$6564b2o52b2o4278bo2280b$10897bo2281b$13179b$6514b2o152b2o6509b$6514b2o152b2o6509b$13179b$2294bo10884b$2293b2o10884b$2293bobo10883b$13179b$13179b$10884bo2294b$10884b2o2293b$10883bobo2293b$13179b$13179b$6473b2o234b2o6468b$6473b2o234b2o6468b$13179b$13179b$13179b$13179b$13179b$2340b3o10836b$2340bo10838b$2341bo10837b$13179b$13179b$10836b3o2340b$10838bo2340b$6564b2o52b2o4217bo2341b$6564b2o52b2o6559b$13179b$13179b$6514b2o152b2o6509b$2354bo4159b2o152b2o6509b$2353b2o10824b$2353bobo10823b$13179b$13179b$10824bo2354b$10824b2o2353b$10823bobo2353b$13179b$13179b$13179b$13179b$6473b2o234b2o6468b$6473b2o234b2o6468b$13179b$13179b$13179b$2400b3o10776b$2400bo10778b$2401bo10777b$13179b$13179b$10776b3o2400b$10778bo2400b$10777bo2401b$13179b$6564b2o52b2o6559b$6564b2o52b2o6559b$13179b$2414bo10764b$2413b2o4099b2o152b2o6509b$2413bobo4098b2o152b2o6509b$13179b$13179b$10764bo2414b$10764b2o2413b$10763bobo2413b$13179b$13179b$13179b$13179b$13179b$13179b$6473b2o234b2o6468b$6473b2o234b2o6468b$13179b$2460b3o10716b$2460bo10718b$2461bo10717b$13179b$13179b$10716b3o2460b$10718bo2460b$10717bo2461b$13179b$13179b$13179b$6564b2o52b2o6559b$2474bo4089b2o52b2o6559b$2473b2o10704b$2473bobo10703b$6514b2o152b2o6509b$6514b2o152b2o6509b$10704bo2474b$10704b2o2473b$10703bobo2473b$13179b$13179b$13179b$13179b$13179b$13179b$13179b$13179b$6473b2o234b2o6468b$2520b3o3950b2o234b2o6468b$2520bo10658b$2521bo10657b$13179b$13179b$10656b3o2520b$10658bo2520b$10657bo2521b$13179b$13179b$13179b$13179b$2534bo10644b$2533b2o4029b2o52b2o6559b$2533bobo4028b2o52b2o6559b$13179b$13179b$6514b2o152b2o3974bo2534b$6514b2o152b2o3974b2o2533b$10643bobo2533b$13179b$13179b$13179b$13179b$13179b$13179b$13179b$13179b$13179b$2580b3o10596b$2580bo3892b2o234b2o6468b$2581bo3891b2o234b2o6468b$13179b$13179b$10596b3o2580b$10598bo2580b$10597bo2581b$13179b$13179b$13179b$13179b$2594bo10584b$2593b2o10584b$2593bobo10583b$6564b2o52b2o6559b$6564b2o52b2o6559b$10584bo2594b$10584b2o2593b$6514b2o152b2o3913bobo2593b$6514b2o152b2o6509b$13179b$13179b$13179b$13179b$13179b$13179b$13179b$13179b$2640b3o10536b$2640bo10538b$2641bo10537b$6473b2o234b2o6468b$6473b2o234b2o6468b$10536b3o2640b$10538bo2640b$10537bo2641b$13179b$13179b$13179b$13179b$2654bo10524b$2653b2o10524b$2653bobo10523b$13179b$13179b$6564b2o52b2o3904bo2654b$6564b2o52b2o3904b2o2653b$10523bobo2653b$13179b$6514b2o152b2o6509b$6514b2o152b2o6509b$13179b$13179b$13179b$13179b$13179b$13179b$2700b3o10476b$2700bo10478b$2701bo10477b$13179b$13179b$6473b2o234b2o3765b3o2700b$6473b2o234b2o3767bo2700b$10477bo2701b$13179b$13179b$13179b$13179b$2714bo10464b$2713b2o10464b$2713bobo10463b$13179b$13179b$10464bo2714b$10464b2o2713b$6564b2o52b2o3843bobo2713b$6564b2o52b2o6559b$13179b$13179b$6514b2o152b2o6509b$6514b2o152b2o6509b$13179b$13179b$13179b$13179b$2760b3o10416b$2760bo10418b$2761bo10417b$13179b$13179b$10416b3o2760b$10418bo2760b$6473b2o234b2o3706bo2761b$6473b2o234b2o6468b$13179b$13179b$13179b$2774bo10404b$2773b2o10404b$2773bobo10403b$13179b$13179b$10404bo2774b$10404b2o2773b$10403bobo2773b$13179b$6564b2o52b2o6559b$6564b2o52b2o6559b$13179b$13179b$6514b2o152b2o6509b$6514b2o152b2o6509b$13179b$13179b$2820b3o10356b$2820bo10358b$2821bo10357b$13179b$13179b$10356b3o2820b$10358bo2820b$10357bo2821b$13179b$6473b2o234b2o6468b$6473b2o234b2o6468b$13179b$2834bo10344b$2833b2o10344b$2833bobo10343b$13179b$13179b$10344bo2834b$10344b2o2833b$10343bobo2833b$13179b$13179b$13179b$6564b2o52b2o6559b$6564b2o52b2o6559b$13179b$13179b$6514b2o152b2o6509b$6514b2o152b2o6509b$2880b3o10296b$2880bo10298b$2881bo10297b$13179b$13179b$10296b3o2880b$10298bo2880b$10297bo2881b$13179b$13179b$13179b$6473b2o234b2o6468b$2894bo3578b2o234b2o6468b$2893b2o10284b$2893bobo10283b$13179b$13179b$10284bo2894b$10284b2o2893b$10283bobo2893b$13179b$13179b$13179b$13179b$13179b$6564b2o52b2o6559b$6564b2o52b2o6559b$13179b$13179b$2940b3o3571b2o152b2o6509b$2940bo3573b2o152b2o6509b$2941bo10237b$13179b$13179b$10236b3o2940b$10238bo2940b$10237bo2941b$13179b$13179b$13179b$13179b$2954bo10224b$2953b2o3518b2o234b2o6468b$2953bobo3517b2o234b2o6468b$13179b$13179b$10224bo2954b$10224b2o2953b$10223bobo2953b$13179b$13179b$13179b$13179b$13179b$13179b$13179b$6564b2o52b2o6559b$6564b2o52b2o6559b$3000b3o10176b$3000bo10178b$3001bo3512b2o152b2o6509b$6514b2o152b2o6509b$13179b$10176b3o3000b$10178bo3000b$10177bo3001b$13179b$13179b$13179b$13179b$3014bo10164b$3013b2o10164b$3013bobo10163b$6473b2o234b2o6468b$6473b2o234b2o6468b$10164bo3014b$10164b2o3013b$10163bobo3013b$13179b$13179b$13179b$13179b$13179b$13179b$13179b$13179b$13179b$3060b3o3501b2o52b2o6559b$3060bo3503b2o52b2o6559b$3061bo10117b$13179b$6514b2o152b2o6509b$6514b2o152b2o3446b3o3060b$10118bo3060b$10117bo3061b$13179b$13179b$13179b$13179b$3074bo10104b$3073b2o10104b$3073bobo10103b$13179b$13179b$6473b2o234b2o3393bo3074b$6473b2o234b2o3393b2o3073b$10103bobo3073b$13179b$13179b$13179b$13179b$13179b$13179b$13179b$13179b$13179b$3120b3o10056b$3120bo10058b$3121bo3442b2o52b2o6559b$6564b2o52b2o6559b$13179b$10056b3o3120b$6514b2o152b2o3388bo3120b$6514b2o152b2o3387bo3121b$13179b$13179b$13179b$13179b$3134bo10044b$3133b2o10044b$3133bobo10043b$13179b$13179b$10044bo3134b$10044b2o3133b$6473b2o234b2o3332bobo3133b$6473b2o234b2o6468b$13179b$13179b$13179b$13179b$13179b$13179b$13179b$13179b$3180b3o9996b$3180bo9998b$3181bo9997b$13179b$6564b2o52b2o6559b$6564b2o52b2o3376b3o3180b$9998bo3180b$9997bo3181b$6514b2o152b2o6509b$6514b2o152b2o6509b$13179b$13179b$3194bo9984b$3193b2o9984b$3193bobo9983b$13179b$13179b$9984bo3194b$9984b2o3193b$9983bobo3193b$13179b$6473b2o234b2o6468b$6473b2o234b2o6468b$13179b$13179b$13179b$13179b$13179b$13179b$3240b3o9936b$3240bo9938b$3241bo9937b$13179b$13179b$9936b3o3240b$6564b2o52b2o3318bo3240b$6564b2o52b2o3317bo3241b$13179b$13179b$6514b2o152b2o6509b$6514b2o152b2o6509b$3254bo9924b$3253b2o9924b$3253bobo9923b$13179b$13179b$9924bo3254b$9924b2o3253b$9923bobo3253b$13179b$13179b$13179b$6473b2o234b2o6468b$6473b2o234b2o6468b$13179b$13179b$13179b$13179b$3300b3o9876b$3300bo9878b$3301bo9877b$13179b$13179b$9876b3o3300b$9878bo3300b$9877bo3301b$6564b2o52b2o6559b$6564b2o52b2o6559b$13179b$13179b$3314bo3199b2o152b2o6509b$3313b2o3199b2o152b2o6509b$3313bobo9863b$13179b$13179b$9864bo3314b$9864b2o3313b$9863bobo3313b$13179b$13179b$13179b$13179b$13179b$6473b2o234b2o6468b$6473b2o234b2o6468b$13179b$13179b$3360b3o9816b$3360bo9818b$3361bo9817b$13179b$13179b$9816b3o3360b$9818bo3360b$9817bo3361b$13179b$13179b$6564b2o52b2o6559b$6564b2o52b2o6559b$3374bo9804b$3373b2o9804b$3373bobo3138b2o152b2o6509b$6514b2o152b2o6509b$13179b$9804bo3374b$9804b2o3373b$9803bobo3373b$13179b$13179b$13179b$13179b$13179b$13179b$13179b$6473b2o234b2o6468b$6473b2o234b2o6468b$3420b3o9756b$3420bo9758b$3421bo9757b$13179b$13179b$9756b3o3420b$9758bo3420b$9757bo3421b$13179b$13179b$13179b$13179b$3434bo3129b2o52b2o6559b$3433b2o3129b2o52b2o6559b$3433bobo9743b$13179b$6514b2o152b2o6509b$6514b2o152b2o3074bo3434b$9744b2o3433b$9743bobo3433b$13179b$13179b$13179b$13179b$13179b$13179b$13179b$13179b$13179b$3480b3o2990b2o234b2o6468b$3480bo2992b2o234b2o6468b$3481bo9697b$13179b$13179b$9696b3o3480b$9698bo3480b$9697bo3481b$13179b$13179b$13179b$13179b$3494bo9684b$3493b2o9684b$3493bobo3068b2o52b2o6559b$6564b2o52b2o6559b$13179b$9684bo3494b$6514b2o152b2o3014b2o3493b$6514b2o152b2o3013bobo3493b$13179b$13179b$13179b$13179b$13179b$13179b$13179b$13179b$13179b$3540b3o9636b$3540bo9638b$3541bo2931b2o234b2o6468b$6473b2o234b2o6468b$13179b$9636b3o3540b$9638bo3540b$9637bo3541b$13179b$13179b$13179b$13179b$3554bo9624b$3553b2o9624b$3553bobo9623b$13179b$6564b2o52b2o6559b$6564b2o52b2o3004bo3554b$9624b2o3553b$9623bobo3553b$6514b2o152b2o6509b$6514b2o152b2o6509b$13179b$13179b$13179b$13179b$13179b$13179b$13179b$3600b3o9576b$3600bo9578b$3601bo9577b$13179b$6473b2o234b2o6468b$6473b2o234b2o2865b3o3600b$9578bo3600b$9577bo3601b$13179b$13179b$13179b$13179b$3614bo9564b$3613b2o9564b$3613bobo9563b$13179b$13179b$9564bo3614b$6564b2o52b2o2944b2o3613b$6564b2o52b2o2943bobo3613b$13179b$13179b$6514b2o152b2o6509b$6514b2o152b2o6509b$13179b$13179b$13179b$13179b$13179b$3660b3o9516b$3660bo9518b$3661bo9517b$13179b$13179b$9516b3o3660b$6473b2o234b2o2807bo3660b$6473b2o234b2o2806bo3661b$13179b$13179b$13179b$13179b$3674bo9504b$3673b2o9504b$3673bobo9503b$13179b$13179b$9504bo3674b$9504b2o3673b$9503bobo3673b$6564b2o52b2o6559b$6564b2o52b2o6559b$13179b$13179b$6514b2o152b2o6509b$6514b2o152b2o6509b$13179b$13179b$13179b$3720b3o9456b$3720bo9458b$3721bo9457b$13179b$13179b$9456b3o3720b$9458bo3720b$9457bo3721b$6473b2o234b2o6468b$6473b2o234b2o6468b$13179b$13179b$3734bo9444b$3733b2o9444b$3733bobo9443b$13179b$13179b$9444bo3734b$9444b2o3733b$9443bobo3733b$13179b$13179b$6564b2o52b2o6559b$6564b2o52b2o6559b$13179b$13179b$6514b2o152b2o6509b$6514b2o152b2o6509b$13179b$3780b3o9396b$3780bo9398b$3781bo9397b$13179b$13179b$9396b3o3780b$9398bo3780b$9397bo3781b$13179b$13179b$6473b2o234b2o6468b$6473b2o234b2o6468b$3794bo9384b$3793b2o9384b$3793bobo9383b$13179b$13179b$9384bo3794b$9384b2o3793b$9383bobo3793b$13179b$13179b$13179b$13179b$6564b2o52b2o6559b$6564b2o52b2o6559b$13179b$13179b$6514b2o152b2o6509b$3840b3o2671b2o152b2o6509b$3840bo9338b$3841bo9337b$13179b$13179b$9336b3o3840b$9338bo3840b$9337bo3841b$13179b$13179b$13179b$13179b$3854bo2618b2o234b2o6468b$3853b2o2618b2o234b2o6468b$3853bobo9323b$13179b$13179b$9324bo3854b$9324b2o3853b$9323bobo3853b$13179b$13179b$13179b$13179b$13179b$13179b$6564b2o52b2o6559b$6564b2o52b2o6559b$13179b$3900b3o9276b$3900bo2613b2o152b2o6509b$3901bo2612b2o152b2o6509b$13179b$13179b$9276b3o3900b$9278bo3900b$9277bo3901b$13179b$13179b$13179b$13179b$3914bo9264b$3913b2o9264b$3913bobo2557b2o234b2o6468b$6473b2o234b2o6468b$13179b$9264bo3914b$9264b2o3913b$9263bobo3913b$13179b$13179b$13179b$13179b$13179b$13179b$13179b$13179b$6564b2o52b2o6559b$3960b3o2514bo86b2o52b2o6559b$3960bo2515b3o6700b$3961bo2513b2o2bo6699b$6476b2obo34b2o152b2o6509b$6473b2ob2o36b2o152b2o6509b$6474bo5bo220b3o2512b3o3960b$6474bo4bo224bo2513bo3960b$6475bo2bo222bo2bo2512bo3961b$6476bo225b2o6475b$6481bo220b2o6475b$6482bo218bo2bo6474b$6480b3o218bo6477b$3974bo2728b2o6474b$3973b2o9204b$3973bobo9203b$13179b$13179b$9204bo3974b$9204b2o3973b$6711b2o2490bobo3973b$6481b2o218b2o8b2o6466b$6481b2o218b2o6476b$13179b$6713bo6465b$6712b3o6464b$6711bo3bo6463b$6716bo6462b$6709bo3b2ob2o6461b$6713b2o6464b$4020b3o2686b2o6bo6461b$4020bo2543b2o52b2o95b2o6462b$4021bo2542b2o52b2o6559b$13179b$13179b$6674b2o2480b3o4020b$6507b2o165bobo2481bo4020b$6506bobo164bo2bo2480bo4021b$6506b3o7b2o148b2o4b2o2b2o6501b$6473b2o29b5o7b2o148b2o4b2obo33b2o6468b$6473b2o29b2o203b2o6468b$6505b2obo4bo163bo6501b$4034bo2472bo6b2o161bo6501b$4033b2o2472bo5b2o6664b$4033bobo2637bo6505b$13179b$6675b2o6502b$6676bo2467bo4034b$6675b3o2466b2o4033b$6518b2o144b2o2477bobo4033b$6518b2o144b2o6513b$13179b$6481b2o218b2o6476b$6481b2o218b2o6476b$13179b$13179b$13179b$6514b2o152b2o6509b$6514b2o152b2o6509b$4080b3o9096b$4080bo9098b$4081bo2485bo6611b$6566bo51b2o6559b$6563bo6bo47b2o6559b$6562bo2b3o3bo2524b3o4080b$6562bo9bo2525bo4080b$6561b2ob4o4bo46b2o2476bo4081b$6562bob4o5bo44bobo6558b$6563bo2bo5bo45b3o2b3o6553b$6568b4o41b2o7b2ob2o6552b$6473b2o94b2o43b2o10bo82b2o6468b$4094bo2378b2o105b2o24bo4bobo95b2o6468b$4093b2o2484bo20b3o3bo2b3o16b2o134bobo6412b$4093bobo2458b4o22b3o23bo2b3o2bo13b2o135b2o6412b$6552b8o21bo31b2o150bo6413b$6550b4ob5o52b3o10b4o6550b$6550bo2bob2o2b2o50b2o11bob3o2455bo4094b$6412bobo136b3o58b2o10bo3bo2455b2o4093b$6412b2o139bo6b2o62b3o2456bobo4093b$6413bo140b3o3bo6618b$6558b2o6619b$6559bo6619b$6560bo6618b$13179b$6564b2o52b2o6559b$6564b2o52b2o6559b$13179b$13179b$4140b3o2371b2o152b2o6509b$4140bo2373b2o152b2o6509b$4141bo9037b$13179b$13179b$9036b3o4140b$9038bo4140b$9037bo4141b$13179b$6572b2o36b2o6567b$6572b2o36b2o6567b$13179b$4154bo9024b$4153b2o2318b2o234b2o6468b$4153bobo2317b2o234b2o6468b$6594bo6584b$6593bo6585b$6593b3o2428bo4154b$9024b2o4153b$9023bobo4153b$6594bo6584b$6595bo6583b$6593b3o6583b$13179b$13179b$13179b$13179b$6564b2o52b2o6559b$6564b2o52b2o6559b$4200b3o8976b$4200bo8978b$4201bo2312b2o152b2o6509b$6514b2o152b2o6509b$13179b$8976b3o4200b$8978bo4200b$8977bo4201b$13179b$13179b$13179b$6572b2o36b2o6567b$4214bo2357b2o36b2o6567b$4213b2o8964b$4213bobo8963b$6473b2o234b2o6468b$6473b2o234b2o6468b$8964bo4214b$8964b2o4213b$8963bobo4213b$13179b$13179b$13179b$13179b$13179b$13179b$13179b$13179b$13179b$4260b3o2301b2o52b2o6559b$4260bo2303b2o52b2o6559b$4261bo8917b$13179b$6514b2o152b2o6509b$6514b2o152b2o2246b3o4260b$8918bo4260b$8917bo4261b$13179b$13179b$13179b$13179b$4274bo8904b$4273b2o8904b$4273bobo8903b$13179b$13179b$6473b2o234b2o113bobo2077bo4274b$6473b2o234b2o114b2o2077b2o4273b$6825bo2077bobo4273b$13179b$13179b$6352bobo6824b$6352b2o6825b$6353bo6825b$13179b$13179b$13179b$13179b$4320b3o8856b$4320bo8858b$4321bo2242b2o52b2o6559b$6564b2o52b2o6559b$13179b$8856b3o4320b$6514b2o152b2o2188bo4320b$6514b2o152b2o2187bo4321b$13179b$13179b$13179b$13179b$4334bo8844b$4333b2o8844b$4333bobo8843b$13179b$13179b$8844bo4334b$8844b2o4333b$6473b2o234b2o2132bobo4333b$6473b2o234b2o6468b$13179b$13179b$13179b$13179b$13179b$13179b$13179b$13179b$4380b3o8796b$4380bo8798b$4381bo8797b$13179b$6564b2o52b2o6559b$6564b2o52b2o2176b3o4380b$8798bo4380b$8797bo4381b$6514b2o152b2o6509b$6514b2o152b2o6509b$13179b$13179b$4394bo8784b$4393b2o8784b$4393bobo8783b$13179b$13179b$8784bo4394b$8784b2o4393b$8783bobo4393b$13179b$6473b2o234b2o6468b$6473b2o234b2o6468b$13179b$13179b$13179b$13179b$13179b$13179b$4440b3o8736b$4440bo8738b$4441bo8737b$13179b$13179b$8736b3o4440b$6564b2o52b2o2118bo4440b$6564b2o52b2o2117bo4441b$13179b$13179b$6514b2o152b2o6509b$6514b2o152b2o6509b$4454bo8724b$4453b2o8724b$4453bobo8723b$13179b$13179b$8724bo4454b$8724b2o4453b$8723bobo4453b$13179b$6884bobo6292b$6885b2o6292b$6473b2o234b2o174bo6293b$6473b2o234b2o6468b$13179b$6292bobo6884b$6292b2o6885b$6293bo6885b$4500b3o8676b$4500bo8678b$4501bo8677b$13179b$13179b$8676b3o4500b$8678bo4500b$8677bo4501b$6564b2o52b2o6559b$6564b2o52b2o6559b$13179b$13179b$4514bo1999b2o152b2o6509b$4513b2o1999b2o152b2o6509b$4513bobo8663b$13179b$13179b$8664bo4514b$8664b2o4513b$8663bobo4513b$13179b$13179b$13179b$13179b$13179b$6473b2o234b2o6468b$6473b2o234b2o6468b$13179b$13179b$4560b3o8616b$4560bo8618b$4561bo8617b$13179b$13179b$8616b3o4560b$8618bo4560b$8617bo4561b$13179b$13179b$6564b2o52b2o6559b$6564b2o52b2o6559b$4574bo8604b$4573b2o8604b$4573bobo1938b2o152b2o6509b$6514b2o152b2o6509b$13179b$8604bo4574b$8604b2o4573b$8603bobo4573b$13179b$13179b$13179b$13179b$13179b$13179b$13179b$6473b2o234b2o6468b$6473b2o234b2o6468b$4620b3o8556b$4620bo8558b$4621bo8557b$13179b$13179b$8556b3o4620b$8558bo4620b$8557bo4621b$13179b$13179b$13179b$13179b$4634bo1929b2o52b2o6559b$4633b2o1929b2o52b2o6559b$4633bobo8543b$13179b$6514b2o152b2o6509b$6514b2o152b2o1874bo4634b$8544b2o4633b$8543bobo4633b$13179b$13179b$13179b$13179b$13179b$6944bobo6232b$6945b2o6232b$6945bo6233b$13179b$4680b3o1790b2o234b2o6468b$4680bo1551bobo238b2o234b2o6468b$4681bo1550b2o6945b$6233bo6945b$13179b$8496b3o4680b$8498bo4680b$8497bo4681b$13179b$13179b$13179b$13179b$4694bo8484b$4693b2o8484b$4693bobo1868b2o52b2o6559b$6564b2o52b2o6559b$13179b$8484bo4694b$6514b2o152b2o1814b2o4693b$6514b2o152b2o1813bobo4693b$13179b$13179b$13179b$13179b$13179b$13179b$13179b$13179b$13179b$4740b3o8436b$4740bo8438b$4741bo1731b2o234b2o6468b$6473b2o234b2o6468b$13179b$8436b3o4740b$8438bo4740b$8437bo4741b$13179b$13179b$13179b$13179b$4754bo8424b$4753b2o8424b$4753bobo8423b$13179b$6564b2o52b2o6559b$6564b2o52b2o1804bo4754b$8424b2o4753b$8423bobo4753b$6514b2o152b2o6509b$6514b2o152b2o6509b$13179b$13179b$13179b$13179b$13179b$13179b$13179b$4800b3o8376b$4800bo8378b$4801bo8377b$13179b$6473b2o234b2o6468b$6473b2o234b2o1665b3o4800b$8378bo4800b$8377bo4801b$13179b$13179b$13179b$13179b$4814bo8364b$4813b2o8364b$4813bobo8363b$13179b$13179b$8364bo4814b$6564b2o52b2o1744b2o4813b$6564b2o52b2o1743bobo4813b$13179b$13179b$6514b2o152b2o6509b$6514b2o152b2o6509b$13179b$13179b$13179b$13179b$13179b$4860b3o2141bobo6172b$4860bo2144b2o6172b$4861bo2143bo6173b$13179b$13179b$6172bobo2141b3o4860b$6172b2o299b2o234b2o1607bo4860b$6173bo299b2o234b2o1606bo4861b$13179b$13179b$13179b$13179b$4874bo8304b$4873b2o8304b$4873bobo8303b$13179b$13179b$8304bo4874b$8304b2o4873b$8303bobo4873b$6564b2o52b2o6559b$6564b2o52b2o6559b$13179b$13179b$6514b2o152b2o6509b$6514b2o152b2o6509b$13179b$13179b$13179b$4920b3o8256b$4920bo8258b$4921bo8257b$13179b$13179b$8256b3o4920b$8258bo4920b$8257bo4921b$6473b2o234b2o6468b$6473b2o234b2o6468b$13179b$13179b$4934bo8244b$4933b2o8244b$4933bobo8243b$13179b$13179b$8244bo4934b$8244b2o4933b$8243bobo4933b$13179b$13179b$6564b2o52b2o6559b$6564b2o52b2o6559b$13179b$13179b$6514b2o152b2o6509b$6514b2o152b2o6509b$13179b$4980b3o8196b$4980bo8198b$4981bo8197b$13179b$13179b$8196b3o4980b$8198bo4980b$8197bo4981b$13179b$13179b$6473b2o234b2o6468b$6473b2o234b2o6468b$4994bo8184b$4993b2o8184b$4993bobo8183b$13179b$13179b$8184bo4994b$8184b2o4993b$8183bobo4993b$13179b$13179b$13179b$13179b$6564b2o52b2o6559b$6564b2o52b2o6559b$13179b$13179b$6514b2o152b2o6509b$5040b3o1471b2o152b2o6509b$5040bo8138b$5041bo8137b$13179b$7064bobo6112b$7065b2o1069b3o5040b$7065bo1072bo5040b$8137bo5041b$13179b$6112bobo7064b$6112b2o7065b$6113bo7065b$5054bo1418b2o234b2o6468b$5053b2o1418b2o234b2o6468b$5053bobo8123b$13179b$13179b$8124bo5054b$8124b2o5053b$8123bobo5053b$13179b$13179b$13179b$13179b$13179b$13179b$6564b2o52b2o6559b$6564b2o52b2o6559b$13179b$5100b3o8076b$5100bo1413b2o152b2o6509b$5101bo1412b2o152b2o6509b$13179b$13179b$8076b3o5100b$8078bo5100b$8077bo5101b$13179b$13179b$13179b$13179b$5114bo8064b$5113b2o8064b$5113bobo1357b2o234b2o6468b$6473b2o234b2o6468b$13179b$8064bo5114b$8064b2o5113b$8063bobo5113b$13179b$13179b$13179b$13179b$13179b$13179b$13179b$13179b$6564b2o52b2o6559b$5160b3o1401b2o52b2o6559b$5160bo8018b$5161bo8017b$6514b2o152b2o6509b$6514b2o152b2o6509b$8016b3o5160b$8018bo5160b$8017bo5161b$13179b$13179b$13179b$13179b$5174bo8004b$5173b2o8004b$5173bobo8003b$13179b$6473b2o234b2o6468b$6473b2o234b2o1293bo5174b$8004b2o5173b$8003bobo5173b$6468bo4bo6705b$6466bo2bo2bobo3bo6700b$6465bo3bob2obo2bob2o226b2o6470b$6465bo2bo3b2o2b2ob2o225b3o6470b$6477bo3bo225bob2o5b2o6461b$6477b5ob4o221bo2b2o3b3o6460b$6463b2o16b2o3bo3b3o201bo12b3o8bo6460b$6462bo2b2o10bobobo2b2o207bobo4b2o4bo4b2o2b2o6462b$6461b3o3bo8bo5bo217bobo3bo8b2o6462b$5220b3o1239bo4b2o7bo2b2ob2o211bo6bo3bo2bo6bo5bobo6454b$5220bo1242b3obob2o6bo4b2o80b2o52b2o75bo3bob2o4bobo7bo5b2o6454b$5221bo1244b2ob2o8bo2bo81b2o52b2o71bo3bo2b2o23bo6455b$6466b2ob2o8b3o213bo3b2o6478b$6467b2o11bo210bo3b2o6482b$6454bobo57b2o152b2o22b2obo1260b3o5220b$6454b2o58b2o152b2o24bo1263bo5220b$6455bo1501bo5221b$7124bobo6052b$6473b2o234b2o414b2o6052b$6473b2o234b2o414bo6053b$13179b$5234bo7944b$5233b2o817bobo7124b$5233bobo816b2o459b2o6664b$6053bo457bobobo6663b$6506bo3b4o2bo6662b$6505b2o9bo1427bo5234b$6504b2obo6bobo1427b2o5233b$6505bobo6b2o1427bobo5233b$6506b2o6671b$6671b3o6505b$6481b2o188bo2bo26b2o6476b$6481b2o30b2o154bo4bo26b2o6476b$6669bob2ob2o13bo6489b$6669bo2bob2o12bo6490b$6670b4o14b3o6488b$6514b2o154b3o6506b$6056b3o455b2o6663b$5280b3o773bo442bo175bo6503b$5280bo776bo442bo175b2o6501b$5281bo1216b3o174b2o6502b$6564b2o52b2o6559b$6564b2o52b2o500b3o6056b$6503bo618bo773b3o5280b$6501b2o618bo776bo5280b$6502b2o1393bo5281b$13179b$13179b$13179b$6473b2o31b2o168b2o31b2o6468b$5294bo1178b2o31b2o168b2o31b2o6468b$5293b2o7884b$5293bobo7883b$13179b$13179b$7884bo5294b$7884b2o5293b$7883bobo5293b$13179b$13179b$13179b$13179b$6481b2o218b2o6476b$6481b2o218b2o6476b$13179b$13179b$6116b3o7060b$5340b3o773bo397b2o152b2o6509b$5340bo776bo396b2o152b2o6509b$5341bo7837b$13179b$7060b3o6116b$7062bo773b3o5340b$7061bo776bo5340b$6570bo1266bo5341b$6562b2o4bob2o40bo6566b$6562b2o4b6o38bo6566b$6571bo2bo41bo6562b$6572bobo40b3o3bo6557b$5354bo1214bo43bo3bo3bo6557b$5353b2o1118b2o94b3obobo37bobo5bo87b2o6468b$5353bobo1117b2o94bo5bo37b3o93b2o6468b$6571b3o6605b$6571b3o6605b$7824bo5354b$7824b2o5353b$6560b2o60b2o1199bobo5353b$6560b2o60b2o6555b$13179b$13179b$13179b$13179b$13179b$13179b$6564b2o52b2o6559b$6176b3o385b2o52b2o6559b$5400b3o773bo7002b$5400bo776bo7001b$5401bo1112b2o152b2o6509b$6514b2o152b2o6509b$6782bobo215b3o6176b$6783b2o217bo773b3o5400b$6783bo217bo776bo5400b$7777bo5401b$13179b$6394bobo6782b$6394b2o692bo6090b$6395bo176b2o36b2o475bo6091b$5414bo1157b2o36b2o475b3o6089b$5413b2o7764b$5413bobo7763b$6100bo372b2o234b2o6468b$6101bo371b2o234b2o6468b$6099b3o1662bo5414b$7764b2o5413b$7763bobo5413b$13179b$13179b$6509b3o6667b$6511bo6667b$6509b3o6667b$13179b$6510bo165bo6502b$6508b3o164bobo6501b$6236b3o267b3o165b2ob2o6500b$5460b3o773bo270b2o55b2o52b2o54bo2bo6501b$5460bo776bo326b2o52b2o53bo3bo6501b$5461bo1215bo6501b$13179b$6940b3o6236b$6478bo463bo773b3o5460b$6477b2o97bo364bo776bo5460b$6476bo41bo56bo90b2o1049bo5461b$6477b2o27b2o10bo56b3o88b2o9bo6501b$6477bobo26b2o168b2o6501b$6478bo38bobo89b3o90bo6476b$6478bobo36bobo89b3o88b2ob2o6474b$5474bo1007bo126b2obo87b2ob2o6474b$5473b2o1005bobo89b2o34bob2o89bob3o6473b$5473bobo1096b2o35b2o54bo34b3o6476b$6664bob2o6511b$6666b2o6511b$6667bo1036bo5474b$6665b2o1037b2o5473b$6665bo1037bobo5473b$6711b2o6466b$6481b2o218b2o8b2o6466b$6470bo10b2o218b2o6476b$13179b$13179b$13179b$6514b2o152b2o6509b$6514b2o152b2o42b2o6465b$6296b3o412bo6467b$5520b3o773bo413bo2bo6465b$5520bo776bo321b2o90bobo6465b$5521bo1096bobo91b2o6465b$6618bobo91b2o6465b$6617b2obob2o256b3o6296b$6618b6o258bo773b3o5520b$6398b3o168b2o51bo2bo255bo776bo5520b$6398bo169bo2b2o51bo1032bo5521b$6399bo162bo5b2obo6607b$6562bo6bo3b2o34b3o6567b$6473b2o31b2o54bo113b2o31b2o6468b$6473b2o31b2o168b2o31b2o67b3o6398b$5534bo1245bo6398b$5533b2o1244bo6399b$5533bobo7643b$13179b$6560b2o60b2o6555b$6560b2o60b2o1020bo5534b$7644b2o5533b$7643bobo5533b$13179b$13179b$13179b$13179b$6564b2o52b2o6559b$6564b2o52b2o6559b$13179b$13179b$6356b3o155b2o152b2o6509b$5580b3o773bo157b2o152b2o6509b$5580bo776bo6821b$5581bo7597b$13179b$6820b3o6356b$6822bo773b3o5580b$6458b3o54bo270bo34bo776bo5580b$6458bo55b2o269bo811bo5581b$6459bo52b3o57b2o36b2o59b2o112b3o6391b$6514bo6b2o49b2o36b2o58bo6508b$6512b2o6b4o145bo3b3o6503b$6402bo94bobo19bo4bo144bo2b5o41b3o40bobo6415b$5594bo808bo69b2o22bo2bo6b2o3bo5b3ob2o145b2o5b2o31b2o9bo41b2o6415b$5593b2o806b3o69b2o22bo2bo6b2o2bobo4bo2b2o152b2o32b2o8bo42bo6416b$5593bobo902b2o11bobob3o3bo147b2o357bo6150b$6512bobo3bobo506bo6151b$6415bobo101bo152bo354b3o6149b$6415b2o252b3o912bo5594b$6416bo1167b2o5593b$6160bo1422bobo5593b$6161bo7017b$6159b3o352b2o152b2o6509b$6514b2o152b2o6509b$13179b$13179b$13179b$6477bo86b2o16bo35b2o6559b$6476b3o85b2o16bobo33b2o59bo6499b$6475bo2b2o102b2o96b2o6497b$5640b3o831b2o203b2o6498b$5640bo832b2ob3o6700b$5641bo831b2o2bo128bo95b2o6475b$6476b3o20bo104bobo94b3o6475b$6474b2o21b2o106b2o94bo2bo6474b$6474b2o22b2o6b2o168b2o23b2ob2o830b3o5640b$6506b2o10b3o155b2o23b2ob2o832bo5640b$6518bo181b2ob2o832bo5641b$6482bo36bo181bo6477b$6480bobo219b3o6474b$6481b2o89b2o36b2o91bo6475b$6572b2o36b2o46b3o6518b$5654bo1005bo6518b$5653b2o1004bo6519b$5653bobo7523b$13179b$13179b$6711b2o811bo5654b$6481b2o218b2o8b2o811b2o5653b$6481b2o218b2o820bobo5653b$6713bo6465b$6712bobo6464b$6711bo6467b$6514b2o152b2o42bo3bo6462b$6514b2o152b2o42bo4bo6461b$6718bo6460b$13179b$6713bo6465b$6571bo144bo6462b$5700b3o869bo39b3o6564b$5700bo869bo2bo38bo6566b$5701bo860b2o9b2o37b2obo4b2o6557b$6562b2o10bo38bobo4b2o6557b$6566bo3bo3bo39b2o6563b$6565bo5b3o37b2o863b3o5700b$6565b3o41b2o3bo863bo5700b$6473b2o31b2o106b3o59b2o31b2o766bo5701b$6473b2o31b2o102b3o63b2o31b2o6468b$6612bo6566b$6610b3o6566b$6610b3o6566b$5714bo896bo6567b$5713b2o845b2o60b2o6555b$5713bobo844b2o60b2o6555b$13179b$13179b$7464bo5714b$7464b2o5713b$7463bobo5713b$13179b$6564b2o52b2o6559b$6564b2o52b2o6559b$13179b$13179b$6514b2o152b2o6509b$6514b2o152b2o6509b$13179b$13179b$5760b3o7416b$5760bo7418b$5761bo7417b$13179b$13179b$6572b2o36b2o804b3o5760b$6572b2o36b2o806bo5760b$7417bo5761b$13179b$6473b2o234b2o6468b$6473b2o234b2o6468b$6765bo6413b$5774bo991b2o6411b$5773b2o990b2o6412b$5773bobo7403b$13179b$6413bo6765b$6411b2o991bo5774b$6412b2o554bo435b2o5773b$6967bo435bobo5773b$6967b3o6209b$13179b$13179b$6220bo343b2o52b2o6559b$6221bo342b2o52b2o6559b$6219b3o6957b$13179b$6514b2o152b2o6509b$6514b2o152b2o6509b$5820b3o7356b$5820bo7358b$5821bo751bo6605b$6572b3o6604b$6571bo2b2o6603b$6570b3o2b2o779b3o5820b$6571bo3b3o780bo5820b$7357bo5821b$6573bo6605b$13179b$13179b$6473b2o234b2o6468b$5834bo638b2o234b2o6468b$5833b2o7344b$5833bobo7343b$13179b$13179b$7344bo5834b$7344b2o5833b$7343bobo5833b$13179b$13179b$13179b$13179b$13179b$6564b2o52b2o6559b$6564b2o52b2o6559b$13179b$13179b$5880b3o631b2o152b2o6509b$5880bo633b2o152b2o6509b$5881bo7297b$13179b$13179b$7296b3o5880b$7298bo5880b$7297bo5881b$13179b$13179b$13179b$13179b$5894bo7284b$5893b2o578b2o234b2o6468b$5893bobo577b2o234b2o6468b$13179b$13179b$7284bo5894b$7284b2o5893b$7283bobo5893b$13179b$13179b$13179b$13179b$13179b$13179b$13179b$6564b2o52b2o6559b$6564b2o52b2o6559b$5940b3o7236b$5940bo7238b$5941bo572b2o152b2o6509b$6514b2o152b2o6509b$13179b$7236b3o5940b$7238bo5940b$6363bo456bo416bo5941b$6363b3o452b3o6358b$6366bo450bo6361b$6365b2o450b2o6360b$13179b$5954bo7224b$5953b2o7224b$5953bobo7223b$6473b2o234b2o6468b$6473b2o234b2o6468b$7224bo5954b$7224b2o5953b$7223bobo5953b$13179b$13179b$6908bo6270b$6907bo6271b$6907b3o6269b$13179b$6414b2o6763b$6280bo133bobo6762b$6281bo132bo6764b$6000b3o276b3o282b2o52b2o6559b$6000bo563b2o52b2o6559b$6001bo761b2o6414b$6762bobo6414b$6514b2o152b2o94bo6414b$6514b2o152b2o506b3o6000b$7178bo6000b$7177bo6001b$13179b$6363bo456bo6358b$6363b3o452b3o6358b$6366bo450bo6361b$6014bo350b2o450b2o6360b$6013b2o7164b$6013bobo7163b$13179b$13179b$6473b2o234b2o453bo6014b$6473b2o234b2o453b2o6013b$7163bobo6013b$13179b$13179b$13179b$13179b$13179b$13179b$6474b2o6703b$6474bobo29b3o6670b$6474bo32bo6671b$6060b3o444b3o6669b$6060bo7118b$6061bo414b3o85b2o52b2o83b2o6474b$6476bo2bo84b2o52b2o82bobo6474b$6474b2o2b2o224bo6474b$6473bo5bo636b3o6060b$6476b3o197bo441bo6060b$6473b2o200b3o23bobo413bo6061b$6473bo2b3o196bob2o22bo2bo6474b$6474bo2bo38b2o148b2o32bo3b2o6473b$6474b2o30b2o8b2o148b2o32bo6478b$6363bo142b2o312bo6358b$6074bo288b3o334bo2b3o112b3o6358b$6073b2o291bo114bo218b2o115bo6361b$6073bobo289b2o115b2o183bobo32b3o112b2o6360b$6481b2o184b2o33b3o6474b$6518bo149bo6510b$6517bobo584bo6074b$6516bo3bo583b2o6073b$6516bo3bo582bobo6073b$6516bo147b2o6513b$6517b3o144b2o6513b$6711b2o6466b$6481b2o218b2o8b2o6466b$6481b2o218b2o9bo6466b$6713bo6465b$6534b2o176b2o6465b$6534bobo174b3o6465b$6514b2o18bo133b2o41b2o6466b$6120b3o391b2o152b2o47bo6461b$6120bo441bo6616b$6121bo439b3ob2o51bo24b2o6534b$6561bo5bo51bo22bobo6534b$6560b4o4bo49bo25bo6534b$6560bo7bo48b3o436b3o6120b$6560bo3b2o2b2o48b2o438bo6120b$6560bo5bobo48b2ob2o435bo6121b$6561b2obo2bo53bo6557b$6615bo3bo2bo6556b$6561b2ob2o48bobo2b2obo6556b$6563bo8b3o38bo4bo3b2o6555b$6134bo338b2o31b2o106bobo3b2o54b2o31b2o6468b$6133b2o228bo109b2o31b2o107bob2obo55b2o31b2o109bo6358b$6133bobo227b3o253bo198b3o6358b$6366bo450bo6361b$6365b2o450b2o6360b$7044bo6134b$6560b2o60b2o420b2o6133b$6560b2o60b2o419bobo6133b$13179b$13179b$13179b$13179b$13179b$13179b$6564b2o52b2o228bo6330b$6564b2o52b2o227bo6331b$6847b3o6329b$6180b3o6996b$6180bo333b2o152b2o6509b$6181bo158bo173b2o152b2o6509b$6341bo6837b$6339b3o6837b$6996b3o6180b$6998bo6180b$6997bo6181b$13179b$13179b$6572b2o36b2o6567b$6572b2o36b2o6567b$6194bo6984b$6193b2o6984b$6193bobo277b2o234b2o6468b$6363bo109b2o234b2o109bo6358b$6363b3o452b3o6358b$6366bo450bo166bo6194b$6365b2o450b2o165b2o6193b$6983bobo6193b$13179b$13179b$13179b$6475bo31bo6671b$6474b2o31bo6671b$6474bobo29bobo76bo6593b$6585bobo6591b$6508b2o75b2o6592b$6564b2o52b2o83bo6475b$6240b3o265b2o54b2o52b2o83b2o6474b$6240bo362bo98bobo6474b$6241bo359bobo6575b$6602b2o6575b$6675b3o6501b$6674bo2bo258b3o6240b$6516b2o148b2o9bo260bo6240b$6481bo24b2o8b2o148b2o269bo6241b$6481bo24b2o165bo6505b$6480bobo191bo2bo6501b$6668bo6510b$6479b2o186bo6511b$6254bo317b2o36b2o55b3o6509b$6253b2o224b2o91b2o36b2o6567b$6253bobo261b3o6659b$6517b3o6659b$6517b2obo6658b$6363bo152bob2o144b2o35b3o116bo103bo6254b$6363b3o151b2o145b2o35bo2bo113b3o103b2o6253b$6366bo104b2o228bo9b2o104bo105bobo6253b$6365b2o104b2o8b2o228b2o104b2o6360b$6481b2o222bo6473b$6701bo2bo6474b$6535bo174bo6468b$6534b2o175bo6467b$6514b2o18bobo131b2o39b3o6467b$6514b2o152b2o6509b$6469b3o6707b$6469b3o89b3obo52bo24bo6535b$6300b3o165bob2o88bo3b3o50bobo23b2o6534b$6300bo168b2obo90bob3o51bo22bobo68b2o6464b$6301bo168b2o88b2ob2o2b2o47bo96b2o6464b$6560b5o3bo47bob2o6559b$6566bobo49bobo6558b$6561b2ob4o52b2o254b3o6300b$6561b2ob2o53bobo256bo6300b$6562bobo8bo40b3o3bobo254bo6301b$6563bo9bo40b2o2bo3bo6556b$6473b2o31b2o65bo40b3ob2o2bo53b2o31b2o6468b$6473b2o31b2o110b3o55b2o31b2o6468b$13179b$6314bo6864b$6313b2o6864b$6313bobo6863b$6560b2o60b2o6555b$6560b2o60b2o6555b$6864bo6314b$6864b2o6313b$6363bo456bo42bobo6313b$6363b3o452b3o6358b$6366bo450bo6361b$6365b2o450b2o6360b$6564b2o52b2o6559b$6564b2o52b2o6559b$13179b$13179b$6514b2o152b2o6509b$6514b2o152b2o6509b$6360b3o6816b$6360bo427bo6390b$6361bo425bo6391b$6787b3o6389b$13179b$6816b3o6360b$6400bo356bobo58bo6360b$6401bo170b2o36b2o146b2o57bo6361b$6399b3o170b2o36b2o146bo6420b$13179b$13179b$6419bobo51b2o234b2o6468b$6374bo44b2o52b2o234b2o6468b$6373b2o45bo6758b$6373bobo6803b$13179b$13179b$6804bo6374b$6804b2o6373b$6803bobo6373b$13179b$6363bo456bo6358b$6363b3o219bobo230b3o6358b$6366bo218b2o230bo6361b$6365b2o219bo230b2o6360b$6564b2o52b2o6559b$6564b2o52b2o6559b$6601bobo6575b$6602b2o6575b$6514b2o86bo65b2o6509b$6514b2o152b2o6509b$13179b$13179b$13179b$13179b$13179b$13179b$13179b$6572b2o36b2o6567b$6572b2o36b2o6567b$13179b$6434bo6744b$6433b2o38b2o234b2o6468b$6433bobo37b2o234b2o6468b$13179b$13179b$6744bo6434b$6744b2o6433b$6743bobo6433b$13179b$13179b$13179b$6363bo456bo6358b$6363b3o452b3o6358b$6366bo450bo6361b$6365b2o450b2o6360b$6564b2o52b2o6559b$6564b2o52b2o6559b$13179b$6666b3o6510b$6666bo2bo6509b$6666b2ob2o6508b$6670bo6508b$6509bo153bo2b2ob2o6508b$6507b4o153bob4o6509b$6511bo6667b$6508bo3bo4bo6661b$6509bobo5bo158b3o6500b$6510bo6bo6661b$13179b$6494bo6684b$6493b2o6684b$6493bobo6683b$6479b2o6698b$6479b2o37b2o144b2o6513b$6481bo36b2o144b2o18bo6494b$6471b2o5b2obo202b2o20b3o6470b$6471b2o3b2o3bo201bobo19bo6473b$6704b2o6473b$6482bo221b3o3b3o6466b$6481bobo219bo4bo3bo6466b$6477bo230bo3bo6466b$6477bo36b2o152b2o33b4obo6470b$6363bo115bobo32b2o152b2o33bob2o113bo6358b$6363b3o338b3o111b3o6358b$6366bo113bobo334bo6361b$6365b2o114bo335b2o6360b$6469b2o10bo82b2o52b2o93b2o6464b$6469b2o93b2o52b2o93b2o6464b$6638bobo6538b$6638b2o6539b$6639bo6539b$13179b$13179b$6548bobo6628b$6473b2o31b2o41b2o14b3o108b2o31b2o6468b$6473b2o31b2o41bo7b2o4b2o3bo49b3o55b2o31b2o6468b$6557bobo3bo5bo39bo8b2ob2o6556b$6552bobo2b3o4bo4bo7b2o28b4o5bo6bo6555b$6552bo5bo7bo9bobo27bob4obo2b2o5bo6555b$6552bo3bo9bo8b2obo26b2o7bo7b2o6555b$6553bo2bo10bo8b6o24b3obo3bobo6562b$6555bo21bo4bo24b2o2bobo2bo4bo6557b$6568b2o9bo2bo35b2o6559b$6568bo11b2o6597b$13179b$13179b$13179b$13179b$6564b2o52b2o126bo6432b$6564b2o52b2o127b2o6430b$6746b2o6431b$13179b$6514b2o152b2o6509b$6363bo68bo81b2o152b2o150bo6358b$6363b3o64b2o386b3o6358b$6366bo64b2o384bo6361b$6365b2o450b2o6360b$6604bobo6572b$6604b2o6573b$6605bo6573b$13179b$6572b2o36b2o6567b$6572b2o8bobo25b2o6567b$6583b2o6594b$6583bo6595b$6473b2o234b2o6468b$6473b2o234b2o6468b$13179b$13179b$13179b$13179b$13179b$13179b$13179b$13179b$13179b$13179b$13179b$13179b$6564b2o52b2o6559b$6564b2o52b2o6559b$13179b$13179b$6514b2o152b2o6509b$6363bo150b2o152b2o150bo6358b$6363b3o452b3o6358b$6366bo450bo6361b$6365b2o450b2o6360b$13179b$13179b$13179b$13179b$6572b2o36b2o6567b$6572b2o36b2o6567b$13179b$13179b$6434b2o37b2o234b2o6468b$6433b2o38b2o234b2o6468b$6435bo6743b$13179b$13179b$6743b2o6434b$6744b2o6433b$6743bo6435b$13179b$6410b2o360b2o6405b$6410b2o360b2o6405b$13179b$13179b$13179b$6564b2o52b2o6559b$6564b2o52b2o6559b$13179b$6667b2o6510b$6667bobo6509b$6363bo303bobo150bo6358b$6363b3o298b2obob2o147b3o6358b$6366bo297b6o147bo6361b$6365b2o142b2o151bo2bo151b2o6360b$6507b2o2bo151bo6515b$6508bob2o5bo6661b$6505b2o3bo6bo158b3o6500b$6517bo6661b$13179b$13179b$6494b2o6683b$6493b2o6684b$6495bo6683b$6478b3o37b2o144b2o6513b$6480bo37b2o144b2o6513b$6471b2o4bob2o202b2o6494b$6471b2o4bobo204b2o20b3o6470b$6477b2o204bo21bo3bo6469b$6480b2o222bo7bo6466b$6478bo3b2o219b2obob3obo6466b$6476b3o224b2obobo3bo6466b$6410b2o68b3o31b2o152b2o33bo3bo64b2o6405b$6410b2o68bo33b2o152b2o34b4o64b2o6405b$6480b3o222bo6473b$6480b3o6696b$6481bo6697b$6469b2o93b2o52b2o93b2o6464b$6469b2o93b2o52b2o20bo72b2o6464b$6638b2o6539b$6639b2o6538b$13179b$6363bo456bo6358b$6363b3o182bo269b3o6358b$6366bo182b2o266bo6361b$6365b2o106b2o31b2o40b2o68bo57b2o31b2o106b2o6360b$6473b2o31b2o48b2o6b2obo47bo3bo56b2o31b2o6468b$6554bo3bo5bo2b2o49b2o6559b$6553bo5bo4bo5bo7bo29b3o3bo2bo2b3o6556b$6553bo4bo7b3o8b2o28b2o3bo4b3o2bo6556b$6553bo2bo10b2o3bo3b2o28b2o2bobo2bo6bo6556b$6554bobo13bobo4bo29bo5bo2b2o2b2o6557b$6555bo12bo9bob3o25b2o2bo5b2o6559b$6568bo11b3o29bo6566b$6563b2o3bo6610b$13179b$6694bo6484b$6694bo6484b$13179b$6564b2o52b2o125bobo6431b$6564b2o52b2o126b2o6431b$6746bo6432b$13179b$6410b2o102b2o152b2o102b2o6405b$6410b2o19bobo80b2o152b2o102b2o6405b$6431b2o44b3o6699b$6432bo44bo6701b$6477b3o126bo6572b$6604b2o6573b$6478bo126b2o95bo6476b$6478b3o220bobo6475b$6480b3o217b2ob2o6474b$6480b2o90b2o8bo27b2o89bo2bo6474b$6363bo208b2o9b2o25b2o89bo3bo114bo6358b$6363b3o216b2o117bo116b3o6358b$6366bo450bo6361b$6365b2o450b2o6360b$13179b$13179b$6470bo240b2o6466b$6470bo10b2o218bo9b2o6466b$6481b2o218b2o6476b$6469bobo6707b$6469bobo6707b$13179b$13179b$6713bo6465b$6711b2obo6464b$6711b2o6466b$6711bo6467b$6564b2o52b2o92b2o6465b$6564b2o52b2o93bo6465b$6773bobo6403b$6507bobo261b2o2b2o6402b$6510bo259bo3bob2o6401b$6506bo2bo162b2o95bo3b2ob2o6401b$6507bob2o157b3ob2o95bo6409b$6417bo89bob3o4b2o149b6o97b2o2bo2bo6401b$6417bo55b2o32bo3bo4b2o148b3o40b2o59b2o5bo6401b$6413bo59b2o32bo3bo163bo33b2o62b3o6403b$6408bo3b3o95bo163b3o96b3o6403b$6408bo3bo3bo257bo2bo85b3o6413b$6408bo5bobo258b3o6501b$6414b3o155b2o36b2o64bo6502b$6363bo208b2o36b2o208bo6358b$6363b3o452b3o6358b$6366bo139bo310bo6361b$6365b2o138bo311b2o6360b$6406b2o97bo12b2o144b2o110b2o6401b$6406b2o110b2o144b2o110b2o6401b$13179b$6481b2o218b2o6476b$6481b2o218b2o6476b$13179b$13179b$13179b$6410b2o102b2o152b2o102b2o6405b$6410b2o102b2o152b2o102b2o6405b$13179b$13179b$13179b$6564bo53b2o6559b$6563bob2o51b2o6559b$6563bo3bo2b3o6606b$6563bo5bo232bobo6374b$6563b2obobo50bo183b2o6374b$6562bobobo4bo41b2o3bob5o178bo6375b$6562bobobob3o41bo2b4o2b4ob2o6551b$6473bo89bo3b2o42bobob2o2b3o6557b$6374bobo95b4o131b2ob2o97b2o52bo6415b$6374b2o91bo7bo105bo19bo4b4o3b3o93b2o6468b$6375bo90bo3bo3b3o103b3o18bo4bo8bo11b3o77b3o6469b$6466b5o3b4o101bobobo17bo5bobob2o13b2o3bo77bo6469b$6467bo6bo3bo100bobobo24bobo2b4o7b2o3bobo72bo5bob2obo6463b$6467b3o2bobo84b2o19b3o32b2o6bobo5bo71bo6b2o3b2o6462b$6363bo106bobobob2o79bo3bo19bo30b3o7bo4b3o73bobo10b2o102bo6358b$6363b3o105bo3bo79bo5bo47b2o2b2o6bo6bo75bo5bo2b2o103b3o6358b$6366bo188bobob2o50bobo8bo84b3o5b2o5bo94bo6361b$6365b2o187bo4bo51b3o9b4o84bo2bo6b3o93b2o6360b$6456b3o95bo4bo78bo72bo11bo2b3o6450b$6457bo96bo4bo76bobo60b2o20b2o6456b$6457bo98b3o78b2o59bob2ob2o6b2o7bo6458b$6456b3o238b2o2b2ob2o6b2o6465b$6477b2o85b2o52b2o78bo6bobo8bo2bo6459b$6477bo2bo2bo56bo23b2o52b2o79b4ob2ob2o7bobo6460b$6479bo3bo56bobo157bo5b2o6471b$6479b4o57b2o159b2obobo9b2o6461b$6410b2o70bo31b2o152b2o102b2o6405b$6410b2o70bo31b2o152b2o19bobo43bo36b2o6405b$6481bo207b2o43bo6444b$6480b2o208bo43b3o68bobo6371b$6473b2o234b2o95b2o6371b$6473b2o234b2o95bo6372b$6453bo43bobo6679b$6454bo43b2o6679b$6371bobo78b3o43bo6680b$6371b2o199b2o36b2o6567b$6372bo199b2o36b2o6567b$13179b$13179b$13179b$13179b$13179b$13179b$6465b2o125bobo122b2o6460b$6465b2o125b2o123b2o6460b$6363b2o228bo225b2o6358b$6363b2o454b2o6358b$13179b$6594bobo6582b$6595b2o6582b$6595bo6583b$6736bo6442b$6737bo6441b$6564b2o52b2o115b3o6441b$6564b2o52b2o6559b$13179b$6442bo6736b$6410b2o29bo72b2o152b2o102b2o6405b$6410b2o29b3o70b2o152b2o102b2o6405b$13179b$13179b$6473b2o234b2o6468b$6473b2o234b2o6468b$13179b$13179b$13179b$6572b2o36b2o6567b$6572b2o36b2o6567b$13179b$13179b$13179b$13179b$13179b$13179b$13179b$13179b$13179b$13179b$13179b$13179b$13179b$13179b$13179b$13179b$13179b$13179b$6558b3o6618b$6561bo4b2o6611b$6410b2o102b2o40bo4bo4b2o100b2o102b2o6405b$6410b2o102b2o39bo4bo59b3o45b2o102b2o6405b$6556bo63bobo6556b$6555b4obo54b3o2bobo6556b$6473b2o80bo4b2o59b2ob2o83b2o6468b$6473b2o81bo3bo61bobo84b2o6468b$6555b2ob2o63bo6555b$6556bobo6620b$6557bo6621b$13179b$6568b2o44b2o6563b$6568b2o44b2o6563b$13179b$13179b$13179b$13179b$13179b$13179b$6564b2o52b2o6559b$6564b2o52b2o6559b$13179b$6698bo6480b$6696bobo6480b$6697b2o6480b$13179b$13179b$6480bo6698b$6480bobo6696b$6480b2o6697b$6550b2o6627b$6549b3o75bo3bo6547b$6514b2o32b3o31bo43bo2b2o37b2o6509b$6514b2o66bobo41bo2b2o37b2o6509b$6582b2o6595b$13179b$6473b2o77bo156b2o6468b$6473b2o131bo102b2o6468b$6604bobo6572b$6605b2o6572b$13179b$13179b$13179b$13179b$13179b$13179b$13179b$13179b$13179b$13179b$6564b2o52b2o6559b$6564b2o52b2o6559b$13179b$13179b$13179b$13179b$13179b$6660bobo6516b$6661b2o6516b$6661bo6517b$13179b$13179b$13179b$6668b2o6509b$6668b2o6509b!