x = 2879, y = 2871, rule = B3/S23
2710b2o5b2o160b$2709bo2bobobo2bo159b$2709b2o3bobob2o159b$2696b2o18bobo160b$2697bo15b4obo160b$2697bobo18b3o158b$2595b2o101b2o18b2o159b$2595b2o109b2o10bobo158b$2705bo2bo10bob3o155b$2706b2o171b$2879b$2879b$2596bo5bo276b$2595b3o3b3o275b$2594bo2b2ob2o2bo104b2o168b$2594bo3bobo3bo104bo169b$2596bobobobo107b3o166b$2680bo4b2o13b2o3b2o5bo166b$2593b2ob2o3b2ob2o74b2o3b3o2bo11bobo174b$2595bo7bo73bo2b2o5bo2bo8bo7bo171b$2677b3o2bob2o2bob2o8b2o3b2o10bo161b$2682bobo5bo3bo21bobo160b$2679b3o2bo4bo4bo21bobo160b$2679bo4b2o4b2obob2obo16b2ob2o159b$2696bobo180b$2698b2o179b$2879b$2590b2o15b2o270b$2590bobo13bobo270b$2591bo15bo90b2o179b$2595b2o5b2o93bo2bo6b2o54bo115b$2595b2o5b2o94b2o7bo53b3o115b$2705bobo52bo118b$2705b2o53b2o117b$2603b2o6b2o81b2o183b$2601bo4bo2bo4bo78bo2bo182b$2601bo4bo2bo4bo79b2o17bo7bo157b$2601bo4bo2bo4bo6b2o89b4o3b4o156b$2603b2o6b2o8b2o89bo3bobo3bo156b$2653b2o6b2o13bo36bo2bobo2bo157b$2597b2o53bo2bo4bo2bo11bobo35b3o3b3o157b$2597bobo52bo2bo4bo2bo11bobo77b2o3b2o117b$2598bo17bo35bo2bo4bo2bo10b2ob2o200b$2604bo5bo3bo2bo35b2o6b2o34bo58bo3bo118b$2601b2o2b2ob2ob4o3bo77bobo58b3o119b$2599b2o2b2o5b3obo3bo77bobo58b3o119b$2598bo4bo7b2o5bo78bo76b2o103b$2598b2o17bo83b2o17b2o52bo104b$2599bobo12bo42b2o42bobo16b2o7b2o33bo7bobo104b$2600bo31b2o22bo2bo6b2o5bo5bo23bo25b2o31bobo7b2o105b$2606b2o25bo23b2o7bo5b3o3b3o22b2o55b2o117b$2606b2o7b2o16bobo28bobo5bob2ob2obo41bo13bo23b2o117b$2615b2o17b2o28b2o8b2ob2o41b2obo11b3o22b2o117b$2639bo13b2o19b2ob2o40b2o14bo2bo23bobo114b$2638bobo11bo2bo18b2ob2o39bo3b2ob2o5b2o2b2o26bo114b$2638bobo12b2o64b3o3b3o3b3o145b$2639bo80bo4b2o5b2o145b$2738bo140b$2737bobo139b$2738b2o139b$2672b3o89b2o113b$2615b3o3b3o48b3o39b2o8b2o6b2o31bo113b$2615bo2bobo2bo32bo57b2o7bo2bo4bo2bo27b3o114b$2615bo7bo17b2o12bobo13b2ob2o47bo2bo4bo2bo27bo116b$2640bo2bo11bobo13bo3bo47bo2bo4bo2bo144b$2616bo5bo18b2o13bo15b3o49b2o6b2o21b2o122b$2617b2ob2o8b2o28b2o11bo5b2o74b2o122b$2629bobo28bobo16b2o7b2o189b$2629bo7b2o23bo25b2o29b2ob2o3bo151b$2628b2o6bo2bo22b2o56bobobo2bobo149b$2637b2o81bo3bo3bo150b$2721b3ob3o151b$2675b4o25b2o17bobo153b$2674bo5bo7bo4bo9bobo2b2o13bobob3o149b$2632b2o8b2o31b2o10b2o5bo7bo2bobobo14b2obo2bo148b$2632bo10bo34bobo5bo2bo2b2o8b2obobo21b2o148b$2617b2ob2o11b10o43bo5bo4bo7bob2o170b$377bo2240bobo9b3o2b6o2b3o41bo8bobob4obo17bo13bo141b$353bo2bo4bo2bo11bobo2239bobo9bo2bo2b4o2bo2bo51b2obo2bobo16bobo12b3o5b2o132b$351b3o2b6o2b3o9bobo2240bo11b2o10b2o59bo4b2o11bo2bo14bo4b2o132b$353bo2bo4bo2bo10b2ob2o2293b2o33bo2bo11b2o14b2o138b$2631b2o4b2o4b2o11bo16b2o9b8o8b2o2bo4b2o168b$2630bo2bobo4bobo2bo9bobo26bob4obo8bo2bobo20b2o151b$2630b3o10b3o9bobo26b8o10b2obo20bobo11b2o137b$2633b2o6b2o11b2ob2o46bob2o19bo11b2o3b2o132b$2632bo2b6o2bo58b2obobo14b2o4b2o15b2o132b$358b2o2272b2o8b2o58bo2bobobo12bo156b$357bo2bo6b2o2334bobo2b2o5b2o6b3o106bo46b$358b2o7bo2336b2o9b2o8bo104b3o46b$365bobo2357bobo101bo49b$365b2o2270b2o87b2o7b2o92b2o48b$354b2o2280bo2bo6b2o44bo14bo28bo142b$353bo2bo2280b2o7bo45b3o11bobo27bobo140b$354b2o2288bobo6bo5bo35bo10bobo28b2o140b$372b3o5b3o2261b2o6bobo3bobo33b2o9b2ob2o169b$372bo2b2ob2o2bo2250b2o16bo3bobo3bo43bo173b$373b3o3b3o2250bo2bo15bo3bobo3bo44b4o169b$374bo5bo2252b2o16bo9bo48bo106b2o60b$2708bobo105bobo60b$2652b2o5b2o47b2o9b2o95bo8b5o17b2o30b$357bo2338b3o20b2o94b2o7bob3obo16bo31b$356bobo2233b2o6b2o13bo79bo3bo5b2o118bo3bo5bo9bobo31b$356bobo2232bo2bo4bo2bo11bobo77bo5bo3bobo119b3o5bobo8b2o32b$357bo2233bo2bo4bo2bo11bobo37bo3bo35b2obob2o3bo122bo5bob2o42b$361b2o17b2o2209bo2bo4bo2bo10b2ob2o18bo15b2o49b2o127b2ob2o42b$361bobo16b2o7b2o2201b2o6b2o33bobo13bo3bobo3b2o170bob2o42b$363bo25b2o2244bobo13bo3bobo39bo18b2o94b2o20bobo42b$363b2o2271bo15b3o41bobo17bo95b2o21bo43b$375bo13bo2250b2o17bo2bo33bobo19bo160b$374bobo11bobo2249bobo16b2o7b2o18bo7bo5b2o13b2o160b$374bobo10bo3bo2250bo25b2o17b4o11bobo174b$375bo11bo3bo2213b2o35b2o42b2ob4o12bo173b$387b2ob2o2205b2o6bo5bo7bo66b3o2b2o9bo2bo173b$2597b2o4bobo4bo2bo3bo2bo55bobo8b2o3b2o11bo173b$398bo2204b2o9bobo38b3o6bobobo8bo10bo13bobo6b2o166b$397bobo2214bobo43bo8bo2bo16bobo10b2o7bobo165b$388b2o8b2o2214bobo38bobobo12b2o16b2o21bo79b2o4b2o78b$386bo4bo2218bo2bo3bo2bo35bo3bo4bob2obobo16b2o2b3o17b2o78b2o4b2o78b$374b2o9bo6bo2218b3o3b3o41bo4b2o9bo11b2o3b2o183b$374b2o8bo8bo2282bobo16bo183b$384bo8bo2283b2o13bob2o183b$384bo8bo2298b3o8b2o89b2o83b$385bo6bo10b2o4b2o11bo2230b2o38bo10bo89b2o2b2o79b$386bo4bo6b2obo4bobo2bo9bobo2229b2o6bo2b2o4b2o2bo26b3o94bobo18b2o58b$388b2o8bo10b3o9bobo2171bo64bo3b3o2b3o3bo25bo83b2o13bo18bobo57b$399b2o6b2o11b2ob2o2169bobo64bo2b2o4b2o2bo110bo14b2o18bo58b$396b3o2b6o2bo2184bobo97b2o90b3o90b$396bo2bo8b2o2185bo98b2o92bo25b3o62b$343bo53b2o2200b2o17b2o259b$343bo2255bobo7b3o6b2o7b2o29b2ob2o150bo3bo5b3o53b$356bo2244bo7bo17b2o30bobobo2b2o145bo3bo4bo2bo53b$343bo11bobo45b2o2196b2o7bo48bo3bo3bo154b2obo53b$342bobo10bobo44bo2bo6b2o2246b3ob3o136b2o9b3o12b2o48b$356bo8b2o36b2o7bo2230b2o17bobo128bo9bobo24bo48b$342b3o6bo12bo2bo42bobo2213b3o13bobo2b2o13bobob3o124b3o9bo2b2o69b$350bobo12b2o43b2o8bo3bo2200bo3bo11bo2bobobo14b2obo2bo118b2o6bo7b2obobo4b3o5b2obo53b$350bobo46b2o19bo3bo2200b2ob2o11b2obobo21b2o118bo6b2o10bo14bo2bo53b$342b3o6bo46bo2bo2242bob2o141b3o7bo4b4o5bo3bo5b3o53b$368b2o29b2o2235bo4b2obo17bo13bo114bo6bobo3bo3b2o3bo3bo61b$342bobo23bo48b2obo3bob2o2207bobobo2bobo16bobo12b3o5b2o105bobo4bo2bo3b3o2bo59bo8b$343bo25b3o46b3o3b3o2209b2ob2o2bo4b2o11bo2bo14bo4b2o106b2o5b2o6bob2o3b3o52bobo7b$371bo47bo5bo2221bo2bo11b2o14b2o127bo22b2o12b2o2bo30b$343bo9b2o2220b4o33b2o29bo4b2o128b2o28b3o19b2o12bob2o4bobo14bo2bo6b$343bo10bo2219b6o15bo16b2o9b8o8bo2bobo20b2o111b2o30bo34bo6bo2bo14bobobob2ob$351b3o2219b8o13bobo26bob4obo8b4obo20bobo11b2o88b2o74b3o4b2ob3o13bo3b2obo$351bo50bo2169b2o6b2o12bobo26b8o13bob2o19bo11b2o3b2o83bo2bo85bo14bo4bo$401bobo2169b8o12b2ob2o43b2obobo14b2o4b2o15b2o85b2o17b2o53b3o4b2ob3o16b4ob$401bobo2170b6o14bobo44bo2bobobo12bo128b2o24b2o27bo6bo2bo20bo2b$356bo45bo2172b4o15bobo45bobo2b2o5b2o6b3o96bo54b2o26bob2o4bobo18bo2bo2b$355b2o8b2o39b2o17b2o2167bobo46b2o9b2o8bo96b3o80b2o2bo25b3o2b$354b3obo5bo2bo38bobo16b2o7b2o2157b2ob2o66bobo97bo96b2o13b2ob$353b2o8b2ob3o13b2o24bo26bo2229b3o6b2o87b2o33bo63bo14bob$344bo9b2o8b2obo14b2o24b2o2166b2o68bo20b3o5bo104b2o15bobo62bobo11bobo$342b3o10bo10bo2208bo2bo6b2o5bo5bo32bo13bobo19b2o6bobo9bo91bo2bobo6b2o4bobo4b2o57b2o11b2ob$341bo2234b2o7bo5b2o5b2o31b3o11bobo21bo6b2o8b3o90b2obob3o4bo2bo3bo3bo2bo42bo21bo8b$342b3o10bo74b3o3b3o2144bobo4bob2o3b2obo33bo9b2ob2o36b2o2bo92bo4bo4b3o7b3o41b3o10bo9bobo7b$344bo9b2o74bo7bo2144b2o5bob2o3b2obo32b2o9bo40b2ob2o75b3o8b2o4bob3o58bo12bo2bo7bobo7b$353b2o13b2o60bobo3bobo2133b2o17b3o3b3o45b4o39b3o73bo3bo8bo5b2o5b7o3b7o38b2o11bo2bo8bo8b$354b3obo9b2o14bo46b2o3b2o2133bo2bo4b3o9b3o3b3o49bo36bob2o66b2o16b3o13bo6bobo6bo21bo31bo18b$355b2o27bo58bo2128b2o73bobo35bo2bo66bobo5bo5bo4bo16bobob2o3b2obobo22b3o48b$356bo26b3o56bobo2135b2o65b2o9b2o95bo7b2o3b2o22b2obo5bob2o26bo28bo18b$377b2o64b2o2213b2o25bo2bo65b2o41bo3bo28b2o26bo2bo17b$376b3o2256b3o6b2o40b2o87b2o19b2o2b2o46bo9bo2bo17b$376b2obo3b3o33b2o8b2o6b2o2195bo3bo4bobo120b2o7bo2bo68bobo3bo5bo12b2o5b$378bo5bo34b2o6bo4bo2bo4bo2192bo5bo3bo41b2ob2o75bo4b2o7bo20b2o31b2o12bobo3b3o16bo6b$377b2o5bo42bo4bo2bo4bo2192b2obob2o2b2o44bo64b2o10bo6bo6bo20bo4b2o25bo2bo12bo24b3o3b$369b2o4b3o6bo42bo4bo2bo4bo7b2o4b2o11bo2209b2o5bo5b2o60b2obo10b6o7bo21b2o4bo25b2o8bo10b2o19bo3b$369b2o4bo8bo44b2o6b2o4b2obo4bobo2bo9bobo2104b3obo77b2o20b2o5bo5b2o60bo2bo19bo2bo5b2o20b2o34bobo10bo23b$383b3o57bo10b3o9bobo2103b2ob3o58bo18bo35bo19bo3bo31b3ob2ob2o19b2o7bobo55bobo11b2o21b$444b2o6b2o11b2ob2o2101b2ob2o59bobo19bo27bo4bo13bo4b2obo3bo30bo2b2o2bo31bo15bo2bo37bo11bo23b$415bo25b3o2b6o2bo2117bobo4b2o17b2o35bobo18b2o29bo2bo12bo5b2obo3bo30bo5bo32b2o8bo82b$383b3o30b2o23bo2bo8b2o2118b2o4bobo16b2o7b2o27bo4b2o44b3o13bo3b4ob2o2bo31b2o2bo42b3o5b3o49bo2bo20b$384bo30b2o25b2o2108bo28bo25b2o32bobo58bo4bo2b2o4bo2bo2bo27b2o42b2ob2o56bob4o18b$384bo2142b2o3bo2bo3b2o10bobo27b2o53b2o6bo57b5o7bo2bobo2bo4bobo63b3ob3o10b2o44bo22b$379bo9b2o2136b5o4b5o10bobo81bo2bo2bo2bo7b2o48bo3bo8b3obo3bo6bo62b3ob3o10b2o46bo20b$378bobo8bobo56b2o2077b2o3bo2bo3b2o9b2ob2o81b2o6bo7b2o49bobo10bo3bobo3bo3b2o61b3ob3o59b2o18b$379b2o5b2obobo8bo46bo2bo6b2o2182bobo52bo7b2o11b2o3bo3bo4bo61b3ob3o60b2o17b$386bobobo8bobo46b2o7bo5b3o3b3o2134b3o32b2o46bo6bobo18b4o10bo6b2o54b2ob2o4b3o49bo2bob2o17b$388bo10bobo53bobo4bo2bo3bo2bo2133b3o78b2o7b2o21bo7bo2bo7b2o55b3o57b4o20b$386bo2bo10bo8b2o44b2o9bobo2137bobo79b2o106bo5bo2bo73b$389bo5bo12bo2bo32b2o20bobo2147bo240b2o20b$385bo3bo4bobo12b2o32bo2bo19bobo2134bo11bobo73bobo112b2o11bo3b2o31bo2b2o18b$385bo3bo4bobo47b2o16bo2bo3bo2bo2069b2o72b2o73b2o40b2o69bo2bo3b2o4b2obob3o31bo2b3o17b$389bo5bo67bo7bo2062b2o6bo99b2o48bo40b2o2b2o65b3o4b2o4bo4b3o30b2obo20b$386bo2bo22b2o2120b2o4bobo5b3o3b3o35b2o49bo67b2o24bobo18b2o57bo3bo14bo21bo20b$388bo23bo2127b2o5bo3bobo3bo34b2o6bo2b2o4b2o2bo26b3o68b2o11b2o13bo18bobo57b3o15b3o19b2o19b$386bobobo22b3o2130bo3b2ob2o3bo40bo3b3o2b3o3bo25bo83bo14b2o18bo3bo75bo39b$385bobob2o24bo48bo2081bob2o5b2obo41bo2b2o4b2o2bo111b3o34b3o53b3o15b3o40b$385bobo9b2o63b2ob2o97bo1983bo7bo76b2o92bo33b2o2bo31b2o18bo3bo14bo42b$386b2o10bo48bo115bobo10b2o3bo2bo3b2o2043b2o126b2ob2o31b2o18bo4b3o54b$395b3o48bobo13b2ob2o96bobo10b5o4b5o2164bo9b3o50b2obob3o54b$395bo50bobo13bo3bo95b2ob2o9b2o3bo2bo3b2o2007b2ob2o152bo7bob2o53bo3b2o54b$447bo15b3o2132bobobo2b2o146bobo7bo115b$451b2o17b2o2126bo3bo3bo135b2o10bo13b2o109b$451bobo16b2o7b2o2061bo5b3o48b3ob3o126bo9bobo9bo13b2o109b$402b2o49bo25b2o2008bo6bo14bo20bo8b2o5bobo31b2o17bobo128b3o9bo2b2o5bo74bo49b$402bobo48b2o2033b2o6b2o12bobo18bobo7bobo3bo3bo29bobo2b2o13bobob3o119b2o6bo7b2obobo5bo8bo63b3o49b$402bob2o20b2o2059b3o6b3o11bobo18bobo13bo3bo28bo2bobobo14b2obo2bo118bo6b2o10bo6bobo6bob2o60bo52b$388bo14b2o21b2o145b2o1913b2o6b2o11b2ob2o18bo47b2obobo21b2o119b3o7bo4b4o7bo9b3o59b2o8b3o40b$386b3o14bo156b3o3b3o5bo6b2o1906bo6bo39b2o10b3o4b2o26bob2o143bo6bobo3bo3b2o5bo6b2ob2o43bo69b$385bo93b2o78bo2bo3bo2bo4bobo4b2o1953bobo16b2o7b2o14b2obo17bo13bo114bobo4bo2bo3b3o2bo11b2o2bo43b3o23bo3bo39b$386b3o14bo70bob2o85bobo9b2o1961bo25b2o12bo2bobo16bobo12b3o5b2o106b2o5b2o6bob2o12b3o14b2o31bo22bo3bo39b$388bo14b2o14bo59bo83bobo1972b2o38b2o2bo4b2o11bo2bo14bo4b2o121bo16bo5b2o7bobo30b2o66b$402bob2o6b2o4b3o53bo3b2o8bo74bobo1990b2o12b3o13bo2bo11b2o14b2o98b2o28b3o19b2o6b2obo48bo6b3o40b$402bobo7b2o3bo2bo54b3o9bobo69bo2bo3bo2bo1984b4o12bobo5b2o2bo4b2o128b2o30bo28b2o14bo33bobo48b$402b2o13b2o69b2o70bo7bo1932b2o51b2o2b2o9b2o2bo4bo2bobo20b2o102b2o69bo14b3o17b2o12bobo48b$418bo2074b2o6bo51bo3bob2obo3bob2ob2o7b2obo20bobo11b2o88bo2bo85bo15bo2bo12bo6b3o40b$427b3o34b2o2027b2o4bobo52b4o4bo3bo2bo13bob2o19bo11b2o3b2o85b2o17b2o48bo14b3o17b2o8bo54b$419bobo4bo3bo33b2o7bo2bob2obo2bo2014b2o7bo5bo39b3o3bobo3bobo11b2obobo14b2o4b2o15b2o104b2o24b2o21b2o14bo28bobo9bo3bo39b$420bo4bo5bo41b4ob2ob4o82bo1939b3o3b3o57bo6bo2bobobo12bo109b2o43b2o20b2obo42bobo9bo3bo39b$420bo52bo2bob2obo2bo14b2o11bo52b2ob2o1936bo3bobo3bo55bobo6bobo2b2o5b2o6b3o106bo67bobo43bo54b$424bo7bo55b2o8bo2bo9bobo70bo1921bo9bo56b2o7b2o9b2o8bo104bobo68b2o55b3o40b$413b2o9bo7bo55bo10b3o9bobo51b2ob2o13bobo1921b3o3b3o87bobo102b2o27bo141b$413b2o74b10o11b2ob2o50bo3bo13bobo1963b2o8b2o6b2o35b2o7b2o104b2o15bobo140b$420bo4bo5bo54b3o2b6o2bo66b3o15bo1964b2o7bo2bo4bo2bo15bo28bo103bo2bobo6b2o4bobo4b2o134b$420bo5bo3bo55bo2bo2b4o2b2o60b2o17b2o1976b6o2b6o13bobo27bobo101b2obob3o4bo2bo3bo3bo2bo42bo91b$419bobo5b3o57b2o62b2o7b2o16bobo1977bo2bo4bo2bo14bobo28b2o104bo4bo4b3o7b3o41b3o91b$551b2o25bo1930b2ob2o45b2o6b2o14b2ob2o127b2o4bob3o58bo10b2o3b2o77b$418bo158b2o1912bo18bobo70bo132bo5b2o5b7o3b7o38b2o9bobobobo77b$417b2o14b2o58b2o49b3o12b2o5bo1923bobo13b2ob2ob2ob2o67b4o115b2o4b2o2b3o13bo6bobo6bo21bo24b2obobobobob2o9bo64b$417bobo3bo9bobo56bo2bo6b2o40bobo12b4o2bobo1922bobo14bobo3bo2bo37b2ob2o4bo24bo114b2o4b2o2bo16bobob2o3b2obobo22b3o22bobobo3bobobo8bobo63b$418bo3bobo5b2obobo8bo48b2o7bo40bo2b2o9b2o2b2ob2obo1923bo16bo7bo38bobobo2bo23bobo142b2obo5bob2o26bo23bo7bo10bobo63b$423b2o5bobobo8bobo54bobo41b2ob2obo3bob2obo3bo2bo1928b2o16bo2bo38bo3bo3bo22b2o9b2o137bobo30b2o22bo2bo4b2o11bo8b2o54b$432bo10bobo54b2o45bo2bo3bo4b4o1932bobo16b2o7b2o31b3ob3o34b2o136b2ob2o47bo5bo6b3o6bo12bo2bo53b$432b2o10bo8b2o34b2o17b2o5b2o31bobo3bobo3b3o1934bo25b2o14b2o17bobo22b2o119b2o80bobo4bo3bo2b3o5bobo12b2o54b$432b3o4bo12bo2bo32bo2bo15bo2bo3bo2bo25bo1953b2o39bobo2b2o13bobob3o17bobo119b2o2b2o62b2o12bobo4bo3bo2b3o5bobo68b$432b3o3bobo12b2o34b2o19b2ob2o27bobo1974bo7bo9bo2bobobo14b2obo2bo16bo125bobo18b2o40bo2bo12bo5bo6b3o6bo69b$432b3o3bobo68bobobobo26b2o1973b4o5b4o7b2obobo21b2o15b2o112b2o13bo18bobo40b2o8bo10bo2bo4b2o23b2o51b$432b3o4bo69bobobobo1943b6o15bo35bob3o5b3obo9bob2o151bo14b2o18bo50bobo10bo7bo23bo52b$432b2o22b2o49bo9bo30b2o6b2o8b2o1890bo6bo13bobo33b2o4bo3bo4b2o3b4obo17bo13bo18bo2b2o100b3o82bobo8bobobo3bobobo22b3o49b$432bo23bo49bo11bo28bo2bo4bo2bo7b2o1889bo8bo12bobo34b3obo5bob3o4bo2bobo16bobo12b3o5b2o7b3o2bo103bo34bo48bo9b2obobobobob2o24bo49b$430bobobo22b3o86b6o2b6o1898bo6bo12b2ob2o34b2o9b2o9bo4b2o11bo2bo14bo4b2o6bo7bo134b2o62bobobobo9b2o66b$429bobob2o24bo50b2ob2o32bo2bo4bo2bo1900b6o67bo10bo2bo11b2o14b2o12b2o5b2o128bo5b3o61b2o3b2o10bo66b$429bobo9b2o49bo15bo2bobo2bo31b2o6b2o1973bobob2o2bo4b2o178bobo82b3o67b$430b2o10bo48bobo14b3o3b3o2015b2obo2bobo20b2o160bo3bo81bo69b$439b3o49bobo2043b2obo20bobo11b2o136b2o8bo3bo5bo5b2o138b$439bo52bo60bo4b2ob2o1945b2o30bob2o19bo11b2o3b2o121bo9bobo7bo3bo4b3o4b2o138b$496b2o17b2o37bo2bobobo1946b2o10bo4bo11b2obobo14b2o4b2o15b2o121b3o9bo2b2o3bo3bo3bob2o84bobo3bobo51b$496bobo16b2o7b2o27bo3bo3bo1908b2o46b2ob4ob2o9bo2bobobo12bo140b2o6bo7b2obobo3bo3bo3b2o73b2o2bobo8bo3bo53b$449bobo3bobo40bo25b2o28b3ob3o1901b2o6bo49bo4bo12bobo2b2o5b2o6b3o137bo6b2o10bo5bo3bo77b3obo3bo3bo11bo49b$436b2o2bobo8bo3bo42b2o56bobo17b2o1884b2o4bobo68b2o9b2o8bo116b2o20b3o7bo4b4o6bobo77b2o6bo3bo3bo5bo3bo9b2o37b$435b3obo3bo3bo11bo92b3obobo13b2o2bobo1889b2o8b2ob2o77bobo114bo23bo6bobo3bo3b2o5bo76bo2bob5o5bo11bo10b2o37b$434b2o6bo3bo3bo5bo3bo9b2o79bo2bob2o14bobobo2bo1897bo5bo77b2o7b2o103bobo12bo10bobo4bo2bo3b3o2bo79b3o3b3o12bo3bo53b$432bo2bob5o5bo11bo10b2o79b2o21bobob2o1962bo28bo103b2o12b3o10b2o5b2o6bob2o78bo19bobo3bobo51b$430b3o3b3o12bo3bo7b2o59bo48b2obo1899bo7bo56bobo27bobo114b2o2bo24bo22b2o14b3o41b3o3b3o70b$429bo19bobo3bobo4b3o58b3o32bo17bob2o1896bo2bobo2bo56bobo28b2o115b4o25b3o12bo6b2o12bo3bo43bo2bob5o67b$430b3o3b3o24b2o55bo36bobo16bobo2bo1894b3o3b3o55b2ob2o142bobo30bo32bo4bo6bo38b2o6bo13b2o51b$432bo2bob5o77bo4bo8bo22bo2bo11b2o4bo2b2o1958bo138b2o5bo2bo45b2o16bo3bo7b3o37b3obo3bo12b2o51b$434b2o6bo13b2o66bo7bobo22b2o11bo2bo1967b4o134bo2bo3bo2bo45b2o31bo37b2o2bobo66b$435b3obo3bo12b2o5b3o54b2o11b2o36b2o4bo2b2o1963bo135b2o4b2o11b2o31bobo7b3o7bo3bo7b3o73b3o35b$436b2o2bobo20b3o5b3o80b2o20bobo2bo1961bobo124b2o4b2o22b2o24b2o6bo6b2obob2o5bo4bo6bo66b3o7bo36b$464bobo4b3o35b2o42bobo20bob2o1880bo82b2o9b2o114b2o4b2o48b2o13b2o5bo5bo3bo72bo2bo7bo36b$463b2o7bo36b2o6b2o3bo2bo3b2o22bo19b2obo1882bobo92b2o185b2obob2o8b3o72bo3bo5b3o35b$463b2o7bo44b5o4b5o21b2o4b2o14bobob2o1879bobo78b2o201b3o86b4o43b$463b3o6bo44b2o3bo2bo3b2o28bo12bobobo2bo1880bo68bobo7bobo166bo125bo6b3o6b2o27b$462b2obo5bobo59b2o21b3o6b2o5b2o2bobo1885b2o17b2o44b2obo6bo131b2o17b2o15bobo117b2o12b3o5bobo27b$463b3o67b2o21bo8b2o9b2o1886bobo16b2o7b2o38bo5b2o131b2o2b2o12bo2bobo6b2o4bobo4b2o111b2o5bo15bo28b$457b2o4bobo88bobo1909bo25b2o14b2o19b3ob2o140bobo11b2obob3o4bo2bo3bo3bo2bo42bo73b4o5b3o35b$457b2o4b2o6bobo80b2o1910b2o39bobo2b2o14bo2bobo2bo14b2o109b2o13bo14bo4bo4b3o7b3o41b3o72bo3bo6bo13b2o21b$464b2o6bo101bo1931bo2bobobo14b2o5b2o14bo110bo14b2o7b2o4bob3o58bo75bo2bo7bo4b2o6bo2b2o19b$464bo7bo100bobo1930b2obobo41bo109b3o21bo5b2o5b7o3b7o38b2o9bo65b3o6b3o3b2o5b6o19b$463b3o6bo100bobo1933bob2o39b2o111bo18b3o13bo6bobo6bo21bo26b3o88b4o19b$471b3o98b2ob2o1915bo11b4obo17bo13bo18bo123bo16bobob2o3b2obobo22b3o23bobobo110b$471b3o102bo1914b3o10bo2bobo16bobo12b3o5b2o7b3o141b2obo5bob2o26bo22bobobo68bo41b$478b2o92b4o1912bo19bo4b2o11bo2bo14bo4b2o6bo123b2o24bo3bo28b2o23b3o68bobo40b$460b2o5bo10bobo90bo1915bo4bo8bo10bo2bo11b2o14b2o12b2o122bo24b2o2b2o46bo7bo70b2o17b4o19b$462bo3bobo6b2obobo8bo81bobo1918bo7bobob2o2bo4b2o168bo73bobo87b2o5b6o11b2o6b$460b2o5b2o6bobobo8bobo70b2o9b2o1874bo39b2o11b2obo2bobo20b2o138bo11b2o22b2o5bo29b2o12bobo87b2o6bo2b2o11b2o6b$477bo10bobo70b2o1861bo2bob2obo2bo11bobo56b2obo20bobo11b2o124b3o11b2o20bobo3bobo27bo2bo12bo7bo89b2o21b$477b2o10bo8b2o75b2o1847b4ob2ob4o11bobo27b2o30bob2o19bo11b2o3b2o114b2o6bo8b2o2bo20bo2bo4bo27b2o8bo11b3o111b$477b3o4bo12bo2bo22b2o50bobo1846bo2bob2obo2bo10b2ob2o26b2o6b2o3bo2bo3b2o7b2obobo14b2o4b2o15b2o114bo6b2o9bobo27bo38bobo9bobobo81bo28b$477b3o3bobo12b2o23b2o52bo1907b5o4b5o7bo2bobobo12bo117b2o20b3o7bo4bobob2o22bo42bobo9bobobo80bobo27b$477b3o3bobo91b2o1867b2ob2o34b2o3bo2bo3b2o8bobo2b2o5b2o6b3o114bo23bo6bobo3b2o18b3o6bobo40bo11b3o82b2o27b$477b3o4bo2023b2o9b2o8bo112bobo23bobo4bo2bo23bo7bobo53bo112b$477b2o22b2o60bob2o1879b2ob2o78bobo110b2o25b2o5b2o24bo176b$477bo23bo42b2o17b2o2bo1962b2o7b2o160b3o6b3o166b$475bobobo22b3o39bobo19b2o1943bo28bo114b2o53bo5b2o161b$474bobob2o24bo41bo1891b2o70bobo27bobo112b2o44b3o12b2o161b$474bobo9b2o58b2o33bo1848b2o6bo5bo7bo57bobo28b2o103b2o53b3o6bo168b$475b2o10bo69b2o2b4o2b2o11bobo1847b2o4bobo70b2ob2o132bo2bo59b3o167b$484b3o70bo2b6o2bo11bobo1853b2o4b3o7b3o54bo138b2o17b2o32b3o4b2obo167b$484bo73b10o11b2ob2o1859b2ob2ob2ob2o56b4o123b2o4b2o22b2o33bo5b3o168b$555b3o10b3o1873b3o3b3o61bo122b2o4b2o57bo176b$555bo2bo8bo2bo1837bo36bo5bo60bobo186b3o5bo2bo17b2o147b$556b2o10b2o1817bo4bo14bobo102b2o9b2o184bobo20bo146b$486bo3bo1894b2ob4ob2o12bobo113b2o150bo33bobo5b2o10b2o2bo145b$485bo5bo1895bo4bo13b2ob2o98b2o127b2o17b2o15bobo40b2o11bo2bo145b$491bo23b2o45b2o1934bobo7bobo127b2o2b2o12bo2bobo6b2o4bobo4b2o26bo2bo18bobo8bo136b$477bo8bo3b2o23b2o44bo2bo6b2o1925b2obo6bo133bobo11b2obob3o4bo2bo3bo3bo2bo26bo21b2o9b3o134b$475b3o9b3o18b2o52b2o7bo1929bo5b2o120b2o13bo14bo4bo4b3o7b3o28b3o32bo133b$474bo32b3o59bobo1856bo48b2o19b3ob2o125bo14b2o7b2o4bob3o56b2o9b2o9b3o134b$475b3o9b3o18b2o59b2o1856bobo46bobo2b2o14bo2bobo2bo14b2o108b3o21bo5b2o5b7o3b7o19b2o13bo3b2o7bobo8bo136b$477bo8bo3b2o66b2o1829b2o14bo5bo15bobo45bo2bobobo14b2o5b2o14bo111bo18b3o13bo6bobo6bo19b2o13bo4bo6bo2bo145b$491bo9b2o54bo2bo1827bo2bo6b2o4b3o3b3o15bo46b2obobo41bo128bo16bobob2o3b2obobo35bo3b2o5b2o2bo145b$485bo5bo9b2o5b3o47b2o17bo7bo1803b2o7bo4b2obo3bob2o18b2o17b2o25bob2o39b2o146b2obo5bob2o38b2o10bo146b$486bo3bo17b3o5b3o57b4o3b4o1809bobo33bobo16b2o7b2o13b2obo17bo13bo18bo118b2o24bo3bo51b2o147b$509bobo4b3o57bo3bobo3bo1809b2o36bo25b2o11bo2bobo16bobo12b3o5b2o7b3o118bo24b2o2b2o200b$508b2o7bo19bobo37bo2bobo2bo1799b2o19bo3bo23b2o37b2o2bo4b2o11bo2bo14bo4b2o6bo123bo228b$508b2o7bo20b2o37b3o3b3o1798bo2bo18bo3bo70bo2bo11b2o14b2o12b2o109bo11b2o22b2o60bo143b$508b3o6bo20bo1846b2o86b2o2bo4b2o153b3o11b2o20bobo57b3o143b$507b2obo5bobo1954bo2bobo20b2o131b2o6bo8b2o2bo20bo57bo146b$508b3o50bo1897b2o14b2obo20bobo11b2o117bo6b2o9bobo50bo28b2o145b$502b2o4bobo49bobo1894b2o2b2o15bob2o19bo11b2o3b2o113b3o7bo4bobob2o15bo32b2o11bo163b$502b2o4b2o6bobo41bobo1842bo51bo2b5o10b2obobo14b2o4b2o15b2o115bo6bobo3b2o18b3o31bobo10b3o25bo135b$509b2o6bo43bo1842bobo50b3o3b2o4bo5bo2bobobo12bo139bobo4bo2bo21bobobo6bo39bo24bo135b$509bo7bo47b2o17b2o1817b2ob2o50bobo7bobo5bobo2b2o5b2o6b3o137b2o5b2o22bobobo5b3o37b2o23bobo134b$508b3o6bo47bobo16b2o7b2o1793bo14bo3bo61b2o6b2o9b2o8bo169b3o5b2obo55bo7bo135b$516b3o48bo25b2o1792bobo12b3ob3o89bobo121b2o45bo13b2o49bobo6bo135b$516b3o48b2o1818bobo13bo3bo37b2o9bo6bo35b2o7b2o112b2o60bo35b2o12bobo6bo135b$523b2o1863bo14bo3bo37b2o8b2o6b2o15bo28bo103b2o68bo35bo2bo12bo7bo135b$505b2o5bo10bobo1866b2o10bobo4b2o41b3o6b3o13bobo27bobo101bo2bo52bo6b2obo40b2o8bo11bobo134b$507bo3bobo6b2obobo8bo45b4o1808bobo10bo5b2o7b2o33b2o6b2o14bobo28b2o103b2o17b2o32b3o6b3o49bobo11bo135b$505b2o5b2o6bobobo8bobo20bo22bo5bo7bo4bo1795bo25b2o34bo6bo14b2ob2o151b2o31bobobo6bo50bobo11bo135b$522bo10bobo18bobo23b2o10b2o5bo1794b2o82bo136b2o50bobobo58bo148b$520bo2bo10bo8b2o10b2o26bobo5bo2bo2b2o1880b4o132bo52b3o208b$523bo5bo12bo2bo45bo5bo4bo1813b2o5b2o25b2ob2o3bobo22bo129bobo53bo24b2o183b$519bo3bo4bobo12b2o47bo8bobo1811bo2bo3bo2bo25bobobo2b2o21bobo129b2o27bo41b2o6b2ob2o182b$519bo3bo4bobo71b2o1811bo2bo3bo2bo25bo3bo3bo21b2o9b2o130b2o15bobo40b2o6bo2bo183b$523bo5bo1885b2ob2ob2ob2o26b3ob3o33b2o129bo2bobo6b2o4bobo4b2o42bo2bo13bo169b$520bo2bo22b2o30b2o1837b2o3b2o11b2o17bobo21b2o143b2obob3o4bo2bo3bo3bo2bo43b2o14b3o167b$522bo23bo31b2o9b8o1832bo4bobo2b2o13bobob3o16bobo146bo4bo4b3o7b3o63bo166b$520bobobo22b3o39bob4obo1831bobo2bo2bobobo14b2obo2bo15bo142b2o4bob3o62b2o14b3o167b$519bobob2o24bo39b8o17b2o11bo1801b2o2b2obobo21b2o14b2o143bo5b2o5b7o3b7o19b2o20bo2bo13bo169b$519bobo9b2o70b2o2b4o2bo2bo9bobo1807bob2o168b2o4b2o2b3o13bo6bobo6bo19b2o20bo2bo183b$520b2o10bo70bo2b6o2b3o9bobo1776b2o26b2obo17bo13bo18bob2o117b2o4b2o2bo16bobob2o3b2obobo42b2ob2o182b$529b3o32bobo37b10o11b2ob2o1775b2o7bo2bob2obo2bo5bo2bobo16bobo12b3o5b2o7b3obo146b2obo5bob2o36bo8b2o183b$529bo35b2o34b3o10bo1799b4ob2ob4o5b2o2bo4b2o11bo2bo14bo4b2o6bo6bo149bobo42bo192b$565bo35bo2bo8b2o1799bo2bob2obo2bo13bo2bo11b2o14b2o12b2o4b2o148b2ob2o39b3o192b$602b2o1783bo43b2o2bo4b2o167b2o268b$527bo1835bo2bob2obo2bo11bobo42bo2bobo20b2o150b2o2b2o87bo176b$528bo3bo1830b4ob2ob4o11bobo44b2obo20bobo11b2o140bobo18b2o64b3o176b$525bo7bo74b2o1753bo2bob2obo2bo10b2ob2o46bob2o19bo11b2o3b2o122b2o13bo18bobo62bo179b$523bo5b2o2bo26b2o45bo2bo6b2o5bo5bo1802b2obobo14b2o4b2o15b2o122bo14b2o18bo63b2o8b3o167b$522bob2o5b2o27b2o46b2o7bo5b3o3b3o1801bo2bobobo12bo147b3o78bo26b3o167b$520b3ob2o3b3o83bobo5bob2ob2obo1802bobo2b2o5b2o6b3o146bo78b3o25bo168b$519bo95b2o8b2ob2o1805b2o9b2o8bo228bo24bo168b$520b3ob2o3b3o72b2o19b2ob2o1826bobo171bo53b2o24bo168b$522bob2o5b2o70bo2bo18b2ob2o1738b2o87b2o7b2o111b2o49bo69b2o7bobo167b$523bo5b2o2bo12b2o56b2o1761bo2bo6b2o59bo28bo111bo49bobo6bo61b2o177b$525bo7bo12b2o1820b2o7bo59bobo27bobo107bobo38b2o10bo7b2o4b2o41b2o190b$528bo3bo29bo1812bobo59bobo28b2o107b2o29bo9bobo9bo8b2o3b2o40bo2bo19bobo167b$527bo33b3o1811b2o59b2ob2o167b3o9bo2b2o5bo7b2o47b2o21bo168b$2364b2o70bo166b2o6bo7b2obobo5bo7bo71bo168b$555b3o65b3o1737bo2bo15b3o5b3o44b4o162bo6b2o10bo6bobo78bo168b$556b3o2b3o59b3o1738b2o16b3o5b3o48bo162b3o7bo4b4o7bo78b3o167b$555b3o49bo1775b2o5b2o47bobo164bo6bobo3bo3b2o5bo78b3o167b$554bob2o3bobo42bobo13b2ob2o1758bo3bo49b2o9b2o154bobo4bo2bo3b3o2bo253b$547b2o5b3o4bobo42bobo13bo3bo1756bo2bobo2bo58b2o120b2o4b2o27b2o5b2o6bob2o253b$547b2o5bo52bo15b3o1756bo3bobo3bo43b2o134b2o4b2o42bo22b2o9b2o221b$561b3o47b2o11bo5b2o1751bo2bobo2bo43bobo155b2o28b3o19b2o8b2o222b$611bobo16b2o7b2o1742b3o3b3o43bo157b2o30bo30b5o9bo208b$613bo25b2o1726bo66b2o148b2o71b4o9b3o206b$561b3o49b2o1751bobo204b2o9bo2bo85bo205b$562bo1803bobo68bobo7b2o124b2o2b2o7b2o17b2o33b2o15b4o9b3o206b$567b2o69b3o1726bo69b2obo6bo129bobo25b2o24b2o6bo2bo13b5o9bo208b$557bo9bobo68b3o1730b2o17b2o48bo8bo114b2o13bo51b2o7b2o13b2o222b$556bobo5b2obobo8bo58bo3bo1729bobo16b2o7b2o15b2o19b3ob2o5b2o114bo14b2o75b2o221b$557b2o5bobobo8bobo23bo33b2ob2o1731bo25b2o14bobo2b2o14bo2bobo2bo120b3o311b$566bo10bobo24b2o1767b2o39bo2bobobo14b2o5b2o122bo45bo265b$565b2o11bo8b2o14b2o43bo1765b2obobo175b2o15bobo264b$564b3o6bo12bo2bo57bobo1681b2o6b2o13bo62bob2o173bo2bobo6b2o4bobo4b2o258b$564b3o5bobo12b2o59b2o1680bo2bo4bo2bo11bobo58b2obo17bo13bo18bo114b2o9b2obob3o4bo2bo3bo3bo2bo42bo215b$564b3o5bobo62b4o1688b6o2b6o10bobo42b2o12bo2bobo16bobo12b3o5b2o7b3o114bo13bo4bo4b3o7b3o41b3o215b$564b3o6bo50b2o10b6o1688bo2bo4bo2bo10b2ob2o39b2o2b2o10b2o2bo4b2o11bo2bo14bo4b2o6bo119bo5b2o4bob3o58bo218b$565b2o23b2o32b2o9b8o1688b2o6b2o55bo2b5o16bo2bo11b2o14b2o12b2o105bo11b2o2bo3bo5b2o5b7o3b7o38b2o217b$566bo23bo43b2o6b2o1752b3o3b2o4bo3b2o2bo4b2o149b3o11b6o13bo6bobo6bo21bo27bo207b$564bobobo22b3o41b8o1754bobo7bobo2bo2bobo20b2o127b2o6bo8b2o20bobob2o3b2obobo22b3o24b3o206b$563bobob2o24bo42b6o17b2o11bo1735b2o4b2obo20bobo11b2o113bo6b2o9bob3o17b2obo5bob2o26bo22b5o205b$563bobo9b2o60b4o7b2o2b4o2bo2bo9bobo1743bob2o19bo11b2o3b2o109b3o7bo4bobobo2bo21bo3bo28b2o232b$564b2o10bo71bo2b6o2b3o9bobo1661b2o47b2o9bo6bo11b2obobo14b2o4b2o15b2o111bo6bobo3b2o3b2o21b2o2b2o44b2o216b$573b3o73b10o11b2ob2o1659bo2bo6b2o38b2o8b2o6b2o10bo2bobobo12bo135bobo4bo2bo80b2o216b$573bo72b3o10bo1675b2o7bo48b3o6b3o10bobo2b2o5b2o6b3o108b2o23b2o5b2o35b2o31b2o229b$646bo2bo8b2o1682bobo49b2o6b2o12b2o9b2o8bo109bo67bobo29bo2bo228b$647b2o1693b2o51bo6bo34bobo105bo11b2o57bo31b2o229b$2331b2o17bo7bo79b2o7b2o96b2o10b2o110b5o205b$580b2o1748bo2bo15bobo5bobo59bo28bo98bo63bo58b3o206b$580bobo70b2o1676b2o19bo3bo61bobo27bobo96bo3bo58b3o58bo207b$582bo21b2o46bo2bo6b2o1685bo2bo3bo2bo58bobo28b2o94bobob3o17b2o38bobobo265b$566bo13b3o21b2o47b2o7bo1687bobo3bobo58b2ob2o123b2obo20b2o38bobobo265b$564b3o93bobo1689b2ob2o60bo130bob2o58b3o266b$563bo96b2o1687b2ob2ob2ob2o58b4o126bo2bo59bo7bo5b2o252b$564b3o82b2o1698b2o2bobo2b2o62bo126b2o69b2o3b2o252b$566bo13b3o65bo2bo15b3o5b3o1672b3o3b3o61bobo154bo42b2o257b$582bo7b2o57b2o16b3o5b3o1656bo16bo5bo62b2o9b2o126b2o15bobo32bo4b5o258b$580bobo7b2o32bo43b2o5b2o1656bobo95b2o125bo2bobo6b2o4bobo4b2o25b3o3b2ob2o258b$580b2o43bo44bo3bo1658bobo67bobo11b2o121b2o4b2o10b2obob3o4bo2bo3bo3bo2bo24bobobo3b2o260b$605b3o15b3o42bo2bobo2bo1643bo13bo68b2obo9bobo121b2o4b2o13bo4bo4b3o7b3o25bobobo265b$596b3o7bo60bo3bobo3bo1620bobo2bobo13bobo16b2o17b2o47bo9bo138b2o4bob3o44b3o266b$595bo2bo7bo61bo2bobo2bo1617b2obo2bo2bo2bob2o9bobo16bobo16b2o7b2o14b2o19b3ob2o6b2o139bo5b2o5b7o3b7o25bo26bo3bo236b$595bo3bo5b3o60b3o3b3o1621bobo2bobo12b2ob2o17bo25b2o13bobo2b2o14bo2bobo2bo142b3o13bo6bobo6bo40b2o9bo5bo235b$596b4o52bo1687b2o38bo2bobobo14b2o5b2o17b2o111b2o10bo16bobob2o3b2obobo41b2o9bo241b$598bo6b3o43bobo1726b2obobo42bo112b2o2b2o24b2obo5bob2o53b2o3bo8bo227b$591b2o12b3o43bobo1700b2o27bob2o42bo115bobo28bobo60b3o9b3o225b$591b2o5bo53bo1700b3o24b2obo17bo13bo12b2o4bo97b2o13bo27b2ob2o74bo224b$596b4o5b3o48b2o17b2o1675bo12b2o11bo2bobo16bobo12b3o5b2o7b3o97bo14b2o90b3o9b3o225b$595bo3bo6bo49bobo16b2o7b2o1615b2o50bo3bo7b3o2bobo5b2o2bo4b2o11bo2bo14bo4b2o6bo101b3o76b2o23b2o3bo8bo227b$595bo2bo7bo51bo25b2o1614bo2bo6b2o52bobo3b2o14bo2bo11b2o14b2o12b2o102bo34b2o40b2o23bo241b$596b3o6b3o50b2o115bo15b6o1504b2o7bo5b3o3b3o39b2o4b2o3bo6bo4b2o181bobo64bo5bo235b$774bobo13bo6bo1510bobo4bo2bo3bo2bo48bobobo2bobo20b2o165bo66bo3bo236b$612b2o63bo3bo5bo3bo82bobo12bo8bo1509b2o9bobo53b2ob4obo20bobo11b2o131b2o326b$601bo10bobo61b2o13b2o80b2ob2o12bo6bo1499b2o20bobo61bob2o19bo11b2o3b2o126bo22bo304b$600bobo6b2obobo60b2o4bo5bo4b2o97b6o1499bo2bo19bobo29b2o10b6o11b2obobo14b2o4b2o15b2o88b2o38bo19bobo303b$601b2o6bobobo62b6o5b6o1604b2o16bo2bo3bo2bo25b2o9bo6bo10bo2bobobo12bo112bo26bo11b2o12bo5bo2bo68bo234b$611bo66b3o7b3obo1623bo7bo36bo8bo10bobo2b2o5b2o6b3o107bobo21b2o3b3o11b2o10bo6bo68b3o234b$609bo2bo19b2o58b2o1668bo6bo12b2o9b2o8bo107b2o22bobo5bo8b2o2bo8bobo73bo237b$612bo18bo2bo57bobo1668b6o34bobo131bo4b2o9bobo10bo7bo5b2o59b2o8b3o225b$608bo3bo19b2o59b2o1709b2o7b2o122b2o7bo4bobob2o9bo5bobo5b2o42bo26b3o225b$608bo3bo6b2o163b2o1531bo67bo28bo123bo6bobo3b2o13bo4bo2bo49b3o25bo226b$612bo6b2o48b2o10b6o98bo6b2o1521b2ob2o64bobo27bobo121bobo4bo2bo17bo5b2o53bo24bo226b$609bo2bo22b2o32b2o9bo6bo83b3o3b3o5bobo4b2o1506bo83bobo28b2o122b2o5b2o17bobo58b2o24bo226b$611bo23bo43bo8bo81bo3bobo3bo5b2o1511bobo13b2ob2o63b2ob2o178bo77bo6bobo225b$609bobobo22b3o41bo6bo81bo3b2ob2o3bo1517bobo13bo3bo63bo122b2o4b2o11b2o39bo76bobo233b$608bobob2o24bo42b6o17b2o11bo51bob2o5b2obo1518bo15b3o65b4o118b2o4b2o11b2o68b2o32b2o12bobo233b$608bobo9b2o71b2o8bo2bo9bobo52bo7bo1524b2o17b2o63bo127b2o76bo33bo2bo12bo6bobo225b$609b2o10bo71bo2b6o2b3o9bobo1585bobo16b2o7b2o52bobo127bo2bo53b2o6b2o10bo2b2o31b2o8bo12bo226b$618b3o73b2o6b2o11b2ob2o1586bo25b2o52b2o9b2o119b2o17b2o34b3o5b2o10bo2bo41bobo11bo226b$618bo72b3o10bo11bobo1587b2o61bobo25b2o108b2o28b2o35b2o17bobo10bo31bobo11bo226b$691bo2bobo4bob2o11bobo1650b2obo10b2o122b2o2b2o62bo18b2o10b3o30bo11b3o225b$692b2o4b2o16bobo1653bo9bobo126bobo60bobo32bo41b3o225b$618b2o10bo3bo80b2ob2o57b3o1568b2o19b3ob2o7bo115b2o13bo60b3o17b2o10b3o270b$616b5o7b2obobob2o140bobo15bo1536b2o13bobo2b2o14bo2bobo2bo4b2o115bo14b2o30bo21b2o24bobo10bo272b$615bo4bo6bob2o3b2obo138bo3bo13bobo1531b2o2bo13bo2bobobo14b2o5b2o25bo96b3o25b2o15bobo20b2o24bo2bo282b$615bo2b3o5bo2bo5bo2bo10b2o56b2o5bo5bo55bo3bo13bobo1530b3ob2o13b2obobo42b2o4b3o98bo24bo2bobo6b2o4bobo4b2o40bo2b2o281b$611bo3b2o2bo7bob2o3b2obo11b2o48b2o6bo5b2o5b2o73bo1531b2ob2o9bo7bob2o41bo4bo126b2obob3o4bo2bo3bo3bo2bo41bo284b$609b3o5b2o9b2obobob2o62b2o4bobo4bob2o3b2obo48b2o4b3o10b2o1537bo10bobob4obo17bo13bo13b3o2bo128bo4bo4b3o7b3o43b2o282b$608bo21bo3bo7bo62b2o5bob2o3b2obo39b2o7b2o16bobo1549b2obo2bobo16bobo12b3o5b2o7b3o116b2o4b2o4bob3o345b$609b3o5b2o22b3o69b3o3b3o40b2o25bo1558bo4b2o11bo2bo14bo4b2o6bo119bo6bo5b2o5b7o3b7o325b$611bo3b2o2bo21b4o68b3o3b3o66b2o1527b2o33bo2bo11b2o14b2o12b2o120bob3o13bo6bobo6bo45bo279b$615bo2b3o14b2o1654bo25b2o7bo2bo4bo2bo6b2o2bo4b2o151bo11b2obo16bobob2o3b2obobo44b3o279b$615bo4bo14b2o6b2o6bo107b2o5b2o1501b8o13bobo31b3o2b6o2b3o4bo2bobo20b2o134b3o11bo18b2obo5bob2o44bo282b$616b5o21b3o6bo105b2o2bo3bo2b2o1499bob4obo13bobo33bo2bo4bo2bo8b2obo20bobo11b2o115b2o6bo8b2o3b2o19bo3bo47b2o281b$618b2o21bo8b3o104bo2b3ob3o2bo1499b8o12b2ob2o55bob2o19bo11b2o3b2o110bo6b2o9bobo2bo18b2o2b2o30bo27bo271b$641bo2bo112bo4bobo4bo1576b2obobo14b2o4b2o15b2o111b3o7bo4bobob2o56b3o24b3o270b$644bo113b5ob5o1577bo2bobobo12bo137bo6bobo3b2o28b2o33bo22b5o269b$641bo2bo5b3o101bo5b2o3b2o1580bobo2b2o5b2o6b3o111b2o21bobo4bo2bo32bobo31b2o296b$642b3o6bo45bo55bobo1592b2o9b2o8bo111bo23b2o5b2o34bo50bo279b$651bo44bobo54b2o1614bobo107bobo61bo54bobo278b$636b2o13bo44bobo1573b2o96b2o7b2o98b2o10b2o50bo40b2o12bobo278b$636b2o13bo45bo79b2o1492bo2bo6b2o68bo28bo110b2o90bo2bo12bo279b$642b3o5b3o48b2o17b2o35b2o3bo2bo3b2o6b2o1493b2o7bo68bobo27bobo99b2o59bo40b2o8bo284b$641b2o48bo9bobo16b2o7b2o26b5o4b5o1508bobo68bobo28b2o99bo2bo56bobo48bobo9b5o269b$641b2o46bobo11bo25b2o26b2o3bo2bo3b2o1508b2o8b2ob2o55b2ob2o130b2o17b2o46bo41bobo10b3o270b$643bo6b3o37b2o11b2o1563b2o19b2ob2o55bo153b2o37b3o5bobo4b2o35bo12bo271b$642b2o7bo1615bo2bo18b2ob2o56b4o199bo3b2o320b$638bob4o7bo4b2o1610b2o17bob2ob2obo58bo119b2o4b2o68bobo326b$639b2obo3bo9bobo57b2o51b2ob2o1513b3o3b3o56bobo119b2o4b2o60b3o6bo327b$639b3o3bobo5b2obobo57bob3o12b2o29b2o2bobobo1515bo5bo57b2o9b2o146bo367b$646b2o5bobobo58b2ob3o6b3o4bo28bo3bo3bo1590b2o128b2o15bobo29bobo334b$655bo64b2o5bo4bobo30b3ob3o1569bobo5b2o141bo2bobo6b2o4bobo4b2o24bo335b$654b2o20b2o49bobo3bo4bo28bobo17b2o1442b6o15bo88b2obo3bobo124b2o15b2obob3o4bo2bo3bo3bo2bo360b$653b3o19bo2bo49bo8bobo23b3obobo13b2o2bobo1440bo6bo13bobo90bo3bo126b2o2b2o14bo4bo4b3o7b3o25bo335b$653b3o20b2o60b2o22bo2bob2o14bobobo2bo1438bo8bo12bobo17bo48b2o19b3ob2obo130bobo7b2o4bob3o43bo14b2o2b2o4bo2b2o306b$653b3o7b2o97b2o21bobob2o1439bo6bo12b2ob2o15bobo46bobo2b2o14bo2bobobo118b2o13bo8bo5b2o5b7o3b7o38b2ob2o6b2obo306b$653b3o7b2o49b2o68b2obo1443b6o33bobo45bo2bobobo14b2o18b2o104bo14b2o4b3o13bo6bobo6bo42bobo6bo11bo295b$654b2o23b2o33b2o10bo4bo23bo13bo17bob2o1480bo46b2obobo36bo3bo102b3o17bo16bobob2o3b2obobo44b2o4b3o11b3o293b$655bo23bo44b2ob4ob2o12b2o5b3o12bobo16bobo2bo1482b2o17b2o25bob2o36b4o104bo35b2obo5bob2o68bo292b$653bobobo22b3o43bo4bo14b2o4bo14bo2bo11b2o4bo2b2o1482bobo16b2o7b2o13b2obo17bo13bo18bo135bo3bo50b2o4b3o11b3o293b$652bobob2o24bo69b2o14b2o11bo2bo1492bo25b2o11bo2bobo16bobo12b3o5b2o7b3o135b2o2b2o30b2o16bobo6bo11bo295b$652bobo9b2o116b2o4bo2b2o1440b2o42b2o37b2o2bo4b2o11bo2bo14bo4b2o6bo115b2o57b2o15b2o6b2obo306b$653b2o10bo99b2o20bobo2bo1439bo2bo6b2o80bo2bo11b2o14b2o12b2o114bo22b2o52b2o4bo2b2o306b$662b3o86b2o11bobo20bob2o1442b2o7bo56b2o5b2o8b2o2bo4b2o160bo20bobo2bo365b$662bo83b2o3b2o11bo19b2obo1452bobo6bo5bo42bo2bo3bo2bo7bo2bobo20b2o130bo11b2o21b6o364b$677b3o66b2o15b2o4b2o14bobob2o1449b2o6b3o3b3o40b2o2bo3bo2b2o8b2obo20bobo11b2o91b2o23b3o11b2o22bob2o363b$677bo54b2o36bo12bobobo2bo1438b2o16b2ob2ob2ob2o40b2o2bobo2b2o12bob2o19bo11b2o3b2o86bo19b2o6bo8b2o2bo20b2o366b$678bo52bobo33b3o6b2o5b2o2bobo1438bo2bo14b3o7b3o40b4ob4o10b2obobo14b2o4b2o15b2o84bobo19bo6b2o9bobo21b2o63bo302b$667b2o3bo58bo35bo8b2o9b2o1440b2o81bo5bo2bobobo12bo108b2o21b3o7bo4bobob2o13bo6b2o61b3o302b$667b3obob2o55b2o33bobo1480bo7bo54bobo5bobo2b2o5b2o6b3o130bo6bobo3b2o16bobo6b2obo57bo305b$667b3o4bo18b2o61b2o7b2o1545b2o6b2o9b2o8bo130bobo4bo2bo19bo3bo66b2o304b$655bo14bo3bo18b2o61bo28bo1555bobo129b2o5b2o20bo3bo11b2o36bo322b$653b3o15b3o80bobo27bobo1501b2o52b2o7b2o149bo3bo11b2o36b3o24b3o293b$652bo101b2o28bobo1501b2o7bo2bob2obo2bo14bo28bo98b2o6b2o41bo3bo52bo22bo3bo292b$653b3o15b3o109b2ob2o1461bo46b2o2bo4bo2b2o12bobo27bobo96bo7b2o41bo3bo51b2o21bo5bo291b$655bo14bo3bo112bo1444bo15b3o46bo2bob2obo2bo13bobo28b2o87b2o4b2obo50bo3bo5b2obo60bo302b$667b3o4bo4b2o102b4o1444bobo13bo2bo70b2ob2o116b2o4b2obobo49bobo5b2o62bobo2bo7bo290b$667b3obob2o4b2o101bo1448bobo13bobobo69bo130b2o17b2o31bo6b2o48b2o12bobo2bo7bo290b$667b2o3bo22bo86bobo1447bo15b3o71b4o145b2o38b2o47bo2bo12bo302b$686bo7b3o75b2o9b2o1451b2o11bo5b2o69bo185bob2o45b2o8bo9bo5bo291b$685b3o84b2o1462bobo16b2o7b2o58bobo116b2o67b3o4b2o12b4o33bobo9bo3bo292b$684bo2b2o97b2o1450bo25b2o58b2o9b2o106b2o2b2o64bo5b2o12bob2o5bo27bobo10b3o293b$684bo3bo5b3o89bobo1449b2o61bobo31b2o110bobo29bo53bo6b2o2bo26bo307b$685b2obo99bo1483bobo26b2obo16b2o111b2o13bo11b2o15bobo53b2o5b6o332b$687b2o5bobo91b2o1482bobo29bo15bobo111bo14b2o9bo2bobo6b2o4bobo4b2o60bo331b$680b2o12bobo1555bo9bo10bo6b2o19b3ob2o13bo114b3o22b2obob3o4bo2bo3bo3bo2bo47b2o5b6o332b$680b2o5b2o85bob2o1473b3o2b2ob7o2bo10bobo2b2o14bo2bobo2bo10b2o116bo25bo4bo4b3o7b3o19b2o26bo6b2o2bo334b$685b2obo5b3o77b2o2bo1472b3o2b6obob4o9bo2bobobo14b2o5b2o148b2o4bob3o37b2o26bob2o5bo336b$684bo3bo88b2o1477b2o3b4obobo9b2obobo48b2o124bo5b2o5b7o3b7o45b4o342b$684bo2b2o1569bo14bo7bob2o47bo122b3o13bo6bobo6bo391b$685b3o6b3o83b2o11bo1478bobob4obo17bo13bo19bo120bo17bobob2o3b2obobo392b$686bo8bo73b2o8bo2bo9bobo1478b2obo2bobo16bobo12b3o5b2o7b3o122bo17b2obo5bob2o393b$701b2o66bo10b3o9bobo1485bo4b2o11bo2bo14bo4b2o6bo112bo11b2o22bo3bo396b$690bo10bobo66b10o11b2ob2o1409b2o42b2o33bo2bo11b2o14b2o12b2o111b3o11b2o19b2o2b2o54bo341b$689bobo6b2obobo63b3o2b6o2bo9bo5bo1406bo4bo40b2o6b2o3bo2bo3b2o5b2o2bo4b2o150b2o6bo8b2o2bo76b3o341b$690b2o6bobobo64bo2bo2b4o2b2o11bobo1407bo6bo14bo32b5o4b5o5bo2bobo20b2o133bo6b2o9bobo23b2o51bo344b$700bo67b2o20b3ob3o1404bo8bo12bobo31b2o3bo2bo3b2o7b2obo20bobo11b2o120b3o7bo4bobob2o22bobo50b2o9bo333b$698bo2bo19b2o1478bo8bo12bobo55bob2o19bo11b2o122bo6bobo3b2o27bo34bo26b3o332b$701bo18bo2bo1477bo8bo11b2ob2o51b2obobo14b2o4b2o111b2o21bobo4bo2bo66b3o23bobobo331b$697bo3bo19b2o51b2o1426bo6bo68bo2bobobo12bo118bo23b2o5b2o27bo42bo22bobobo331b$697bo3bo6b2o63bo2bo6b2o4bo7bo1405bo4bo70bobo2b2o5b2o6b3o113bobo58b3o40b2o23b3o332b$701bo6b2o64b2o7bo6bobobobo1408b2o73b2o9b2o8bo20b2o91b2o10b2o108bo7bo333b$698bo2bo22b2o55bobo6bobobobo1504bobo19bo103b2o107bobo340b$700bo23bo56b2o6bob2ob2obo1504b2o7b2o8bobo94b2o56b3o43b2o12bobo340b$698bobobo22b3o42b2o17b2o5b2o1407b2o76bo28bo8bobo94bo2bo63bo5b2o28bo2bo12bo7bo333b$697bobob2o24bo41bo2bo1431bo2bo6b2o66bobo27bobo8b4o93b2o17b2o35bobo4b3o5b2o29b2o8bo11b3o332b$697bobo9b2o59b2o1433b2o7bo67bobo28b2o7b2o2bo112b2o35bobo3b2obo45bobo9bobobo331b$698b2o10bo1501bobo66b2ob2o37b3o156b3o46bobo9bobobo331b$707b3o1502b2o67bo42bo85b2o4b2o58b3o2b3o48bo11b3o332b$707bo1493b2o79b4o124b2o4b2o64b3o60bo333b$2200bo2bo15b3o5b3o56bo160bo431b$2201b2o16b3o5b3o54bobo142b2o15bobo27b3o26b2o372b$891bo1328b2o5b2o55b2o9b2o131bo2bobo6b2o4bobo4b2o22bo29bo371b$714bo58bo116bobo10bo2b2o4b2o2bo1305bo3bo68b2o114b2o15b2obob3o4bo2bo3bo3bo2bo37b2o10b2o2bo370b$714b2o56bobo115bobo9bo3b3o2b3o3bo1302bo2bobo2bo47b2o3b2o38bo4b2o83b2o2b2o14bo4bo4b3o7b3o38b2o11bo2bo370b$715b2o21b2o32bobo114b2ob2o9bo2b2o4b2o2bo1302bo3bobo3bo47bo2bobo37b2o6bo86bobo7b2o4bob3o70bobo8bo361b$700bo9b2o2b2o22b2o33bo1446bo2bobo2bo46bo4bo42bo5bo72b2o13bo8bo5b2o5b7o3b7o50b2o9b3o359b$698b3o76b2o17b2o1385bo36b3o3b3o46b2o2b2o43b2o3bo72bo14b2o4b3o13bo6bobo6bo64bo358b$697bo79bobo16b2o7b2o1352bo2bob2obo2bo11bobo19bo73bo35b2o13bo73b3o17bo16bobob2o3b2obobo40b2o9b2o9b3o359b$698b3o78bo25b2o1352b4ob2ob4o11bobo18bobo48b2o19b3ob2o11b2o20b2o10bobo76bo35b2obo5bob2o24b2o13bo3b2o7bobo8bo361b$700bo9b2o2b2o63b2o1378bo2bob2obo2bo10b2ob2o17bobo47bobo2b2o14bo2bobo2bo9bo34b2o115bo3bo29b2o13bo4bo6bo2bo370b$715b2o7b2o1478bo47bo2bobobo14b2o5b2o11bo149b2o2b2o43bo3b2o5b2o2bo370b$714b2o8b2o14bo63b3o93b2o1306b2o17b2o23b2obobo35b2o126b2o72b2o10bo371b$714bo24bobo62b3o94bo6b2o1298bobo16b2o7b2o17bob2o162bo22b2o59b2o372b$803bo3bo79bo7bo5bobo4b2o1300bo25b2o14b2obo31bo18bo19b2o95bo20bobo432b$803b2ob2o77bob2o5b2obo4b2o1306b2o38bo2bobo31b3o5b2o7b3o18b2obo81bo11b2o21bo433b$735bo3b3o143bo3b2ob2o3bo1334bo7bo9b2o2bo4b2o7b2ob2o17bo4b2o6bo22b3o81b3o11b2o14bo69bo368b$739b3o72bo71bo3bobo3bo1276b2o55b3o7b3o15bo2bo6bo3bo16b2o12b2o18b2o80b2o6bo8b2o2bo13bo67b3o368b$740bo32bo39bobo71b3o3b3o1269b2o6bo55bo3bo5bo3bo6b2o2bo4b2o8b3o50bo82bo6b2o9bobo13b3o7bo57bo371b$731b3o40bo39b2o1349b2o4bobo5b3o3b3o41bo4bo3bo4bo6bo2bobo14bo5b2o48bo79b3o7bo4bobob2o21b3o56b2o370b$725b2o4b2o24b2o13b3o28b4o1364b2o5bo3bobo3bo40b2obobo3bobob2o8b2obo20bobo11b2o31bo84bo6bobo3b2o24bo2b2o38bo388b$725b2o4b3o6bo16b2o31b2o10b6o1369bo3b2ob2o3bo41bo9bo13bob2o19bo11b2o3b2o27b3o81bobo4bo2bo20b3o5b3o40b3o386b$739b3o48b2o9b8o1368bob2o5b2obo55bo6b2obobo14b2o4b2o15b2o112b2o5b2o22bo13b2o37bo23b3o359b$739b3o58b2o6b2o1369bo7bo20bo35bobo5bo2bobobo12bo167bo13b2o36b2o23bobo359b$761bo39b8o16b2o11bo1370bo35b2o6bobo2b2o5b2o6b3o119b2o43bo69bo6b3o359b$760bobo39b6o6b2o8bo2bo9bobo71bo1295b3o44b2o9b2o8bo119b2o43bo6b3o59bobo5b3o359b$739bobo6bo5bo5bobo40b4o7bo2b6o2b3o9bobo70bobo1308b2o52bobo161b3o5bo2b2o43b2o12bobo5b3o359b$740bo9bo2bo3b2o56b2o6b2o11b2ob2o69bobo1308b2o9bobo2bobo36b2o7b2o99b2obo58b3o43bo2bo12bo6b3o359b$735bo9bo4bo8bo7b2o7bo35b3o10bo85bo1316b2obo2bo2bo2bob2o13bo28bo99bob2o17b2o40bo45b2o8bo11bobo359b$734bobo23bobo2b2ob2o4bobo35bo2bobo4bob2o61b2o17b2o1271b3o50bobo2bobo16bobo27bobo72bo22bobo20b2o30b3o62bobo10b3o359b$735b2o5b2o9b2o10b2obo6b2o36b2o4b2o57b2o7b2o16bobo1255bo15bobo74bobo28b2o72b2o21b2o2b2o50bo29b2o32bobo372b$742bo7bo2b2o2b2o8bo110b2o25bo1256bobo13bo3bo72b2ob2o91b2o3b2o3bobo25bo50bo14b2o12bo2bo32bo373b$749bo8bob3ob3o137b2o1256bobo13bo3bo72bo94bo2b2o3bo3b2o7b2o14bo67b2o11b2o2bo4bo401b$743bo21bo1397bo62b2ob2o25b4o90b2ob2o4b3o7b2o3bo12b2o26bo53bo2bo3bo3bo398b$828b2o1337b2o10b3o4b2o39bobobo2b2o24bo84bobo5b2o13bo5bo22b2o15bobo53bo5b7o396b$820b2o6bo50bo1287bobo16b2o7b2o30bo3bo3bo22bobo84b2o3bobo7b2o6bo2b2ob2o20bo2bobo6b2o4bobo4b2o60bo395b$820b2o4bobo49bo3bo1286bo25b2o31b3ob3o23b2o9b2o75bo3bo10b2o5b3o2bo2b2o18b2obob3o4bo2bo3bo3bo2bo47bo5b7o396b$826b2o7bo5bo37bo3bo1244b2o6b2o13bo17b2o40b2o17bobo36b2o90b2o12bo9b2o12bo4bo4b3o7b3o19b2o26bo2bo3bo3bo398b$834b3o3b3o37bo2bo1243bo2bo4bo2bo11bobo28bo28bobo2b2o13bobob3o18b2o104bo23b2o6b2o4bob3o37b2o25b2o2bo4bo401b$713b2o118bo3bobo3bo26bo9bo2bo1242b6o2b6o10bobo27bobo4b3o11b3o5bo2bobobo14b2obo2bo16bobo105bo31bo5b2o5b7o3b7o45bo2bo406b$712bobo118bo9bo25bobo9bobo1243bo2bo4bo2bo10b2ob2o26bobo2b2ob2o11bo2bo4b2obobo21b2o16bo136b3o13bo6bobo6bo46b2o407b$713bo48b2o70b3o3b3o26b2o1257b2o6b2o43bo3bo2bo3bo5bo3b2o8bob2o37b2o136bo16bobob2o3b2obobo456b$762bo1422b3o3b2o5b2o7b4obo17bo13bo18bo116b2o27b2obo5bob2o457b$763b3o109b2o6b2o8b2o1297bo5bo8bo2bobo16bobo12b3o6b2o6b3o2b2o112b2o2b2o28bobo462b$717b3o45bo107bo4bo2bo4bo6b2o1309bo6bo4b2o11bo2bo14bo5b2o5bo5bo60bobo28b2o24bobo26b2ob2o55bo405b$711b2o3bo3bo152bo4bo2bo4bo1316bobo9bo2bo11b2o14b2o12b2o6bo58b2o29b2o11b2o13bo84b3o405b$716bo3bo115b2ob2o32bo4bo2bo4bo1317b2o5bo4b2o49b2o59bo42bo14b2o82bo10bo397b$717b3o98bo18bobo35b2o6b2o1256b2o67bobo20b2o137b3o33b2o60b2o9bo397b$703b2o4bo19b2o86bobo13b2ob2ob2ob2o1289b2o6bo38b2o9bo6bo9b3obo20bobo11b2o125bo33bo4b2o38bo425b$703b2o4bobo12bo3bobo9bo76bobo14bobo3bo2bo1289b2o4bobo38b2o8b2o6b2o7bo4bob2o19bo11b2o3b2o155b2o4bo37b3o25bo397b$709bo15bo2bo9b3o65bo11bo16bo7bo41b2ob2o1249b2o48b3o6b3o6bob2obobo14b2o4b2o15b2o160b2o40bo23bobo396b$709b2o2bo9b2obob2o7bo6b2o18b2o38bobo15b2o16bo2bo36b2o2bobobo1301b2o6b2o6b2obo2bobobo12bo160b2o63b2o422b$710bob2o3b3o6bo10b2o6bo19bo39b2o15bobo16b2o7b2o28bo3bo3bo1302bo6bo11bobo2b2o5b2o6b3o68bo88bo19bo2bo59bo6b3o396b$711bo4bo3bo5b4o4bo7b3o20bobo56bo25b2o29b3ob3o1259bo7bo55b2o9b2o8bo68bobo88bo11bo67bobo404b$716bo3bo3b2o3bo3bobo6bo23b2o56b2o57bobo17b2o1241b4o3b4o75bobo66b2o76bo11b2o10b3o5b3o44b2o12bobo404b$717b3o3bo2b3o3bo2bo4bobo107bo28b3obobo13b2o2bobo1240bo3bobo3bo76b2o7b2o135b3o11b2o7b2ob2o50bo2bo12bo6b3o396b$685b2o36b2obo6b2o5b2o107bobo26bo2bob2o14bobobo2bo1240bo2bobo2bo58bo28bo130b2o6bo8b2o2bo5b3ob3o10b2o38b2o8bo410b$684bobo15b2o22bo121bo3bo25b2o21bobob2o1240b3o3b3o57bobo27bobo128bo6b2o9bobo6b3ob3o10b2o47bobo10bobo396b$684bo17b2o19b3o28b2o6b2o84bo3bo47b2obo1309bobo28b2o129b3o7bo4bobob2o5b3ob3o59bobo11bo397b$678bo5b3o36bo30b2o7bo84b2ob2o32bo17bob2o1305b2ob2o160bo6bobo3b2o9b3ob3o60bo410b$676b3o84bob2o117bobo16bobo2bo1222bo80bo164bobo4bo2bo14b2ob2o4b3o67bo397b$675bo23bo61bobob2o4b2o86bo23bo2bo11b2o4bo2b2o1221bobo80b4o161b2o5b2o16b3o75bo397b$676b3o17b2o3bo40b2o17b2o8b2o85bobo23b2o11bo2bo1229bobo84bo186bo5bo2bo465b$678bo5b3o9b2obob2o13b2o24b2o105b2o8b2o37b2o4bo2b2o1222bo83bobo146b2o63b2o448b$684bo10bo6b2o12b2o129bo4bo28b2o20bobo2bo1226b2o17b2o59b2o9b2o136b2o48b2o11b5o447b$684bobo9b2obob2o132b2o9bo6bo26bobo20bob2o1228bobo16b2o7b2o61b2o127b2o55bo2bo3b2o5bo4bo447b$685b2o9b2o3bo68b2o63b2o8bo8bo25bo19b2obo1233bo25b2o36bobo8b2o141bo2bo53b3o4b2o5bo2b3o447b$699bo35bo30b2o2b2o47bo25bo8bo24b2o4b2o14bobob2o1230b2o62b2obo6bobo139bobob2o17b2o48b2o2bo13bo434b$734bobo15b2o11bobo52b2o23bo8bo31bo12bobobo2bo1297bo6bo141b2obo19b2o50b2o14b3o432b$728b2o4bobo4b2o6bobo2bo3b2o5bo13b2o38b2o25bo6bo6b2o21b3o6b2o5b2o2bobo1257bo16b2o19b3ob2o3b2o144bo90bo431b$685bo42bo2bo3bo3bo2bo4b3obob2o4bo2b2obo14bo66bo4bo7b2o21bo8b2o9b2o1257b3o14bobo2b2o14bo2bobobo92bo55b2o70b2o14b3o432b$685b3o41b3o7b3o4bo4bo7bobo2bo12b3o69b2o30bobo1277bo3bo12bo2bobobo14b2o5bo15b2o75bobo102b2o19b2o2bo13bo434b$688bo58b3obo4b2obo2b2o13bo103b2o1278b2ob2o12b2obobo23b2o14bo76b2o82bo20b2o19bo2b3o447b$677bo9b2o38b7o3b7o5b2o5bo2bo141bo1279bob2o39b3o139b2o15bobo40bo4bo447b$676b3o26bo21bo6bobo6bo13b2o141bobo1219bo49bo5b2obo17bo13bo12bo5bo132bo2bobo6b2o4bobo4b2o35b5o447b$703b3o22bobob2o3b2obobo19bo137bobo1195bo2bob2obo2bo11bobo47bobo2bo2bobo16bobo12b3o5b2o7b3o115b2o4b2o9b2obob3o4bo2bo3bo3bo2bo37b2o448b$702bo26b2obo5bob2o18b3o50b2o84b2ob2o1194b4ob2ob4o11bobo48b2o2b2o2bo4b2o11bo2bo14bo4b2o6bo118b2o4b2o12bo4bo4b3o7b3o488b$676b3o23b2o30bo3bo20bo53b2o88bo1194bo2bob2obo2bo10b2ob2o59bo2bo11b2o14b2o12b2o131b2o4bob3o506b$685bo47b2o2b2o20b2o11bo126b4o1245b2o10b6o10b2o2bo4b2o176bo5b2o5b7o3b7o44bo441b$676bobo5bobo70b2o11b3o125bo1249b2o9bo6bo9bo2bobo20b2o156b3o13bo6bobo6bo42b3o441b$676bobo5bobo12b2o32b2o21bo2b2o8bo6b2o120bobo1257bo8bo10b2obo20bobo11b2o51bo79b2o9bo16bobob2o3b2obobo42bo444b$685bo12bo2bo30bobo22bobo9b2o6bo110b2o9b2o1258bo6bo14bob2o19bo11b2o3b2o45bo80b2o2b2o23b2obo5bob2o43b2o8b3o432b$676b3o11bo8b2o32bo22b2obobo4bo7b3o111b2o1270b6o12b2obobo14b2o4b2o15b2o45b3o82bobo27bobo31bo461b$689bobo68b2o3bobo6bo127b2o1274bo2bobobo12bo141b2o13bo26b2ob2o30b3o23bo3bo431b$689bobo38bo33bo2bo4bobo75b2o50bobo1207b2o65bobo2b2o5b2o6b3o138bo14b2o63bo22bo3bo431b$676b3o11bo40b2o32b2o5b2o76b2o52bo1199b2o6bo67b2o9b2o8bo139b3o75b2o458b$677bo52b3o5bo59b2o104b2o1198b2o4bobo88bobo84bo54bo34b2o57bo6b3o432b$737bobo46b2o10b2o45bo1264b2o90b2o7b2o75bobo87bobo3bo51bobo440b$736bo3bo45b2o55bobo44bob2o1224b2o5b2o56bo28bo75b2o89bo3bob2o35b2o12bobo440b$723b2o5bo5bo3bo22bobo3b2o24b2o47b2o25b2o17b2o2bo1222bo2bo3bo2bo54bobo27bobo144b2o22bo2bo34bo2bo12bo6b3o432b$723b2o4b3o4bo3bo28bobo21bo2bo74bobo19b2o1223bo2bobo2bo55bobo28b2o144bo14bo9b3o35b2o8bo446b$729b2obo3bo3bo21bo6bo2bob2o17b2o78bo1247bobo57b2ob2o175bo11b3o6b3o46bobo9bo3bo431b$731b2o3bo3bo21bo2bo3bo4b2o97b2o14b2o17bo1210b3ob3o55bo166bo11b2o10bobobo4bobo47bobo9bo3bo431b$736bo3bo22bo6b2o112b2obo4bob2o11bobo1207b3o5b3o54b4o162b3o11b2o8bobobo55bo446b$737bobo24b2o3bo83bo30bo10bo11bobo1207b2o7b2o58bo72bo83b2o6bo8b2o2bo8b3o5b3o60b3o432b$738bo115bo30b2o6b2o11b2ob2o1206b2o7b2o56bobo70b2o84bo6b2o9bobo10bo13b2o489b$852b3o27b3o2b6o2b3o1220bob2ob2obo57b2o9b2o61b2o63b2o19b3o7bo4bobob2o23b2o489b$784b2o32b2o62bo2bo8bo2bo1204bo15b3o3b3o68b2o126bo22bo6bobo3b2o518b$705b3o14b2o36b2o4b3o4b2o6bobo2bo31bo64b2o10b2o1204bobo15bo5bo55b2o138bobo22bobo4bo2bo17bo6b3o495b$705bo3bo12b2o6bo29bo2b2ob3ob2o2bo4b3obob2o32b3o1279bobo68bobo5bobo73bo64b2o24b2o5b2o17b3o503b$698bo6bo4bo50b3o7b3o4bo4bo37bo1280bo69b2obo4bo4bo68b2o116bobobo4bobo495b$696b3o7bo3bo16b2o50b3obo4b2o1316b2o17b2o48bo5b5o69b2o76b2o37bobobo6b2o494b$695bo31b2o30b7o3b7o5b2o5bo109b2o1206bobo16b2o7b2o15b2o19b3ob2o146b2o7b2o38b3o8bo494b$696b3o7bo3bo7b3o7bobo28bo6bobo6bo13b3o98b2o6bo1209bo25b2o14bobo2b2o14bo2bobo2bo3bo8b2o131bo48bo7b2ob2o492b$698bo6bo4bo5b2obob2o6bo6b2o22bobob2o3b2obobo10b2o4bo98b2o4bobo1209b2o24b2o13bo2bobobo14b2o5b2o2bobo7bo132bobo10bob2o39b2o2b2o2b2o2b2o4bo2b2o475b$705bo3bo5bo5b2o13b2o23b2obo5bob2o7b2obobo9bo99b2o1189bo46bo14b2obobo28bo9bo132b2o9bo2b2o2b3o34b2ob2o3b2ob2o6b2obo475b$705b3o8b2obob2o43bobo13bobo9b3o107bo7bo1149bo2b2o4b2o2bo10bobo44b3o16bob2o36b2o122b2o4b2o13bo6b2o35b2ob2o7bobo6bo11bo464b$718b3o44b2ob2o12bob2o7bo6b2o101bobo5bobo1147bo3b3o2b3o3bo9bobo43b2ob2o12b2obo17bo13bo18bo112b2o4b2o13b2o4b2o38bo10b2o4b3o11b3o462b$779b2obo10b2o6bo104bo3bo1151bo2b2o4b2o2bo9b2ob2o41b2o3b2o9bo2bobo16bobo12b3o5b2o7b3o135bo77bo461b$779bo2b4o4bo7b3o24b2o76bo2bo3bo2bo1218b2ob2o10b2o2bo4b2o11bo2bo14bo4b2o6bo63bo76b2o51b2o4b3o11b3o462b$780b2o3bo3bobo6bo26bobo76bobo3bobo1242bo2bo11b2o14b2o12b2o62bobo86bo21b2o16bobo6bo11bo464b$705bo76b3o3bo2bo4bobo23b2obobo78b2ob2o1232bo3b2o2bo4b2o106b2o51b2o16b2o15bobo20b2o15b2o6b2obo475b$705b3o74bo6b2o5b2o24bobobo76b2ob2ob2ob2o1228bobo2bo2bobo20b2o142b2o2b2o11bo2bobo6b2o4bobo4b2o32b2o4bo2b2o475b$708bo71bobo41bo78b2o2bobo2b2o1229b2o4b2obo20bobo11b2o132bobo10b2obob3o4bo2bo3bo3bo2bo518b$697bo9b2o71b2o28b2o12b2o19b2o57b3o3b3o1239bob2o19bo11b2o3b2o114b2o13bo13bo4bo4b3o7b3o519b$696b3o26bo84b2o12b3o17bo2bo40bo16bo5bo1165b2o40b2o9bo6bo11b2obobo14b2o4b2o15b2o114bo14b2o6b2o4bob3o537b$695bobobo23b3o22b2o67b2o5b3o18b2o40bobo1179b2o6bo41b2o8b2o6b2o10bo2bobobo12bo139b3o20bo5b2o5b7o3b7o517b$695bobobo22bo24bobo68bo5b3o5b2o53bobo1179b2o4bobo50b3o6b3o10bobo2b2o5b2o6b3o138bo17b3o13bo6bobo6bo45bo471b$696b3o23b2o24bo49b2o17bo6b3o5b2o32bo21bo1186b2o52b2o6b2o12b2o9b2o8bo156bo16bobob2o3b2obobo44b3o471b$697bo7bo92b2o17bobo4b2o22b2o14bobo25b2o17b2o1217bo6bo34bobo172b2obo5bob2o44bo474b$704bobo111b2o4bo23bo16b2o25bobo16b2o7b2o1251b2o7b2o142bo23bo5bo47b2o8b3o462b$704bobo12b2o22b3o6b3o67bobobo22b3o42bo25b2o1160b2o7b2o61bo28bo142b3o18b3o5b2o30bo26b3o462b$697bo7bo12bo2bo20bo2bo7bo67bobob2o24bo42b2o1186bob2o3b2obo60bobo27bobo143bo17bo39b3o25bo463b$696b3o11bo8b2o21bo3bo6bo37bo29bobo9b2o1247bo3bobo3bo60bobo28b2o130bo11b2o22b2o36bo24bo463b$695bobobo9bobo31b4o5b3o35bobo15b2o12b2o10bo1247b2o2bobo2b2o59b2ob2o101bo57b3o11b2o20bobo34b2o24bo463b$695bobobo9bobo26b2o5bo38b2o4bobo4b2o6bobo2bo20b3o73b4o1172b3o3b3o60bo103b2o32b2o19b2o6bo8b2o2bo20bo53bo6bobo462b$696b3o11bo27b2o12b3o29bo2bo3bo3bo2bo4b3obob2o20bo74bo5bo7bo4bo1158bo5bo62b4o100b2o31bo20bo6b2o9bobo74bobo470b$697bo47bo6b3o30b3o7b3o4bo4bo99b2o10b2o5bo1230bo130bobo21b3o7bo4bobob2o59b2o12bobo470b$743b4o56b3obo4b2o96bobo5bo2bo2b2o1141bo87bobo130b2o24bo6bobo3b2o19bo42bo2bo12bo6bobo462b$742bo3bo5b3o28b7o3b7o5b2o5bo105bo5bo4bo1136bobo86b2o9b2o146bobo4bo2bo22b3o4b2o36b2o8bo12bo463b$742bo2bo7bo29bo6bobo6bo13b3o20b2o7b2o72bo8bobo1135bobo68bobo26b2o147b2o5b2o22b5o3b2o45bobo11bo463b$743b3o7bo30bobob2o3b2obobo16bo18b2o2bo6b2o82b2o1136bo69b2obo11b2o91bo109b2o44bobo11bo463b$752b3o30b2obo5bob2o36b6o4bo2bo14b2o1207b2o17b2o48bo10bobo89b2o56b2o52b2o5b2o38bo11b3o462b$725b2o7b4o52bobo31bo9b4o5bob2o15b2o41b2o1147bo16bobo16b2o7b2o15b2o19b3ob2o8bo92b2o55b2o50bobobo4b2o50b3o462b$724bo2bo6bo3bo50b2ob2o28b3o18bob2o58b2o9b8o1105b2o3bo2bo3b2o10bobo17bo25b2o14bobo2b2o14bo2bobo2bo5b2o202bo2bo521b$723b2o2bo10bo82bo94bob4obo1105b5o4b5o10bobo17b2o39bo2bobobo14b2o5b2o138b2o4b2ob2obo57b2obo522b$713bo10bo2bo4bob2obo84b3o18bob2o69b8o1105b2o3bo2bo3b2o9b2ob2o57b2obobo40b2ob2o118b2o4b2obob2o17b2o39b3o522b$711b3o11bo6b3o89bo9b4o5bob2o93b2o11bo1163bob2o40bobo149b2o31b5o528b$710bo123b6o4b3ob2o79b2o8bo2bo9bobo1144bo14b2obo17bo13bo11bobo4bo178b3o529b$711b3o11bo6b3o99b2o2bo6bobobo79bo10b3o9bobo1141bo3bo11bo2bobo16bobo12b3o5b2o3bo3b3o179bo31b2o497b$713bo10bo2bo4bob2o15b2o83b2o7b4o81b10o11b2ob2o1139bo3bo12b2o2bo4b2o11bo2bo14bo4b2o6bo118b2o93b5o495b$723b2o2bo8bo14b2o93b2o15b3o61b3o2b6o2bo11bobo1140bo2bo21bo2bo11b2o14b2o12b2o117b2o2b2o31bo41b2o14bo4bo494b$724bo2bo6b2o118b3o7bo62bo2bo2b4o2b2o10b2ob2o1139bo2bo9bo3b2o2bo4b2o165bobo12b2o15bobo40b2o14b3o2bo494b$725b2o7bo118bo2bo7bo63b2o22bobo1089b2o49bobo9bobo2bo2bobo20b2o135b2o13bo6b2o3bo2bobo6b2o4bobo4b2o51bo2b2o3bo490b$853bo3bo5b3o85b2ob2o1080b2o6bo63b2o4b2obo20bobo11b2o121bo14b2o2bo2bo4b2obob3o4bo2bo3bo3bo2bo52b2o5b3o488b$854b4o1178b2o4bobo72bob2o19bo11b2o3b2o117b3o14bobobo7bo4bo4b3o7b3o37bo3bo21bo487b$856bo6b3o1176b2o40b2o8b2o6b2o10b2obobo14b2o4b2o15b2o119bo15bo2bob2o4bob3o53b2obobob2o9b2o5b3o488b$720bo128b2o12b3o77b2o4b2o5b2o1126b2o6bo4bo2bo4bo8bo2bobobo12bo162bo2bo5b2o5b7o3b7o19b2o11bob2o3b2obo7bo2b2o3bo490b$720b3o126b2o5bo78b2o6bo1105b3o5b3o32bo4bo2bo4bo9bobo2b2o5b2o6b3o160b2o13bo6bobo6bo19b2o10bo2bo5bo2bo5b3o2bo494b$723bo130b4o5b3o69b2o4bobo4bo9bo1090b3o5b3o32bo4bo2bo4bo10b2o9b2o8bo156b2o18bobob2o3b2obobo33bob2o3b2obo6bo4bo494b$722b2o129bo3bo6bo76b2o5bo3bobo3bo1091b2o5b2o35b2o6b2o33bobo154bo20b2obo5bob2o35b2obobob2o7b5o495b$740bo112bo2bo7bo83bo3bobo3bo1093bo3bo81b2o7b2o147bo23bobo42bo3bo10b2o497b$712bo25b3o113b3o6b3o83bobo3bobo1092bo2bobo2bo60bo28bo134bo11b2o22b2ob2o555b$712bo24bo212bo5bo1092bo3bobo3bo58bobo27bobo132b3o11b2o580b$711bobo23b2o131b2o1178bo2bobo2bo59bobo28b2o127b2o6bo8b2o2bo81bo497b$712bo8b2o136bo10bobo1177b3o3b3o58b2ob2o156bo6b2o9bobo23b2o22b2o31b3o497b$712bo8b2o135bobo6b2obobo1161bo82bo161b3o7bo4bobob2o22bobo2bo17b2o31bo500b$712bo21b2o123b2o6bobobo1161bobo82b4o159bo6bobo3b2o27b6o18bo30b2o499b$712bo20bo2bo132bo1163bobo86bo158bobo4bo2bo34bob2o31bo26b3o488b$711bobo20b2o133b2o19b2o1142bo85bobo159b2o5b2o34b2o34b3o25bo489b$712bo156b3o17bo2bo40bo1104b2o17b2o61b2o9b2o192b2o37bo24bo489b$712bo156b3o18b2o40bobo1103bobo16b2o7b2o63b2o125b2o8b2o48bo6b2o36b2o23b3o488b$869b3o5b2o53bobo1105bo25b2o35bobo11b2o139bo9b2o47bobo6b2obo51bo497b$869b3o5b2o54bo1106b2o61b2obo9bobo137bobo57bo3bo59bobo5b3o488b$869b2o22b2o42b2o17b2o1148bo9bo139b2o4bo53bo3bo11b2o32b2o12bobo5b3o488b$869bo23bo43bobo16b2o7b2o1115b2o19b3ob2o6b2o143b3o17b2o34bo3bo11b2o31bo2bo12bo497b$867bobobo22b3o42bo25b2o1098b2o14bobo2b2o14bo2bobo2bo148bo20b2o34bo3bo45b2o8bo11b3o488b$866bobob2o24bo42b2o1122b4o13bo2bobobo14b2o5b2o17b2o129b2o55bo3bo54bobo11bo489b$866bobo9b2o1183b2o2bo12b2obobo42bo187bo3bo5b2obo45bobo11bo489b$867b2o10bo1145bo36bobo18bob2o42bo187bobo5b2o49bo11b3o488b$876b3o86bo1037b8o13bobo35b3o10bo4b2obo17bo13bo12b2o4bo153bo29bo6b2o552b$876bo87b3o1036bob4obo13bobo36b2o9bobobo2bobo16bobo12b3o5b2o7b3o116b2o4b2o11b2o15bobo35b2o552b$963b2ob2o1035b8o12b2ob2o47b2ob2o2bo4b2o11bo2bo14bo4b2o6bo119b2o4b2o10bo2bobo6b2o4bobo4b2o30bob2o549b$2023bo3bo58bo2bo11b2o14b2o12b2o136b2obob3o4bo2bo3bo3bo2bo30b3o4b6o5b4o531b$878bo8b2o3b2o80bo1046b3o3b3o21b2o8b2o6b2o11bo4b2o183bo4bo4b3o7b3o32bo5b4o7b2obo531b$874b2o2bo7bo2bobo2bo78bobo1044bo2bo3bo2bo20b2o7bo2bo4bo2bo6bo2bobo20b2o160b2o4bob3o59b2obo7bo10bo520b$873bo5bo5bo9bo78b2o1048bobo32b6o2b6o5b4obo20bobo11b2o132b2o13bo5b2o5b7o3b7o41b2o5b2o11b3o518b$872b2o2bobo5b2o9b2o10b2o1111b2o7b2o29bo2bo4bo2bo11bob2o19bo11b2o3b2o127b2o2b2o6b3o13bo6bobo6bo64bo517b$869bo3b2o3bo6bo9bo11b2o41b2o1068b2o7b2o30b2o6b2o9b2obobo14b2o4b2o15b2o131bobo5bo16bobob2o3b2obobo42b2o5b2o11b3o518b$867b3o4b3o9bo2bobo2bo55b2o10bo4bo1047b2o6bo3bo52bo2bobobo12bo142b2o13bo23b2obo5bob2o24b2o15b2obo7bo10bo520b$866bo20b2o3b2o66b2ob4ob2o1037b2o6bo7b2ob2o53bobo2b2o5b2o6b3o139bo14b2o27bobo29b2o15bo7b2obo531b$867b3o4b3o85bo4bo18b2o11bo1007b2o4bobo5b3o3b3o52b2o9b2o8bo140b3o39b2ob2o45b3o5b4o531b$869bo3b2o3bo96b2o2b4o2bo2bo9bobo1012b2o6b2o5b2o73bobo140bo632b$872b2o2bobo14b2o80bo2b6o2b3o9bobo1020bo7bo74b2o7b2o764b$873bo5bo13b2o81b10o11b2ob2o1083bo28bo168b2o594b$874b2o2bo30bo63b3o10bo1097bobo27bobo145b2o19bobo51bo541b$878bo29b3o62bo2bo8b2o1035bo61bobo28b2o145bo21bo50bobo13bo527b$907bobobo62b2o1046bo60b2ob2o176bo71b2o11b3o527b$900bo6bobobo1171bo167bo11b2o13b3o6b3o58bo530b$899b3o6b3o1173b4o163b3o11b2o11b3o5bo2bo58b2o9bo519b$899bob2o6bo1109b2o3b2o62bo157b2o6bo8b2o2bo11bo6bo3bo40bo26b3o518b$895bo93b2o1095bobo157bo6b2o9bobo12bo5b2obobo40b3o23bobobo517b$894bo86b2o6bo1015bo80b2o9b2o148b3o7bo4bobob2o11bo5b2ob2o44bo22bobobo517b$894b2o13bo71b2o4bobo6bo5bo1001bobo90b2o150bo6bobo3b2o14bobo5b3o4b2o38b2o23b3o518b$899bob2o5b3o76b2o6b3o3b3o1000bobo67bobo6b2o164bobo4bo2bo33b2o54b2o8bo519b$899b3o5bobobo82b2ob2ob2ob2o1000bo68b2obo4bobo141b2o22b2o5b2o27b3o60b2o528b$900bo6bobobo81b3o7b3o985bo17b2o8b2o3b2o2b2o47bo4bo4bo138bo51bobo4b2ob2o46b2o541b$908b3o1056bo2bo4bo2bo11bobo16bobo16b2o7b2o14b2o19b3ob2o3b5o136bobo9b2o41bo5b2obobo44bo2bo20bo519b$909bo85bo7bo961b3o2b6o2b3o9bobo18bo25b2o13bobo2b2o14bo2bobobo143b2o10b2o41bo6bo3bo45b2o20b3o518b$914b2o1051bo2bo4bo2bo10b2ob2o17b2o9bo28bo2bobobo14b2o5bo4bo7b2obo182bo6bo2bo67bobobo517b$904bo9bobo1105bo28b2obobo23b2o2bobo5bo2b2o130b2obo47b3o6b3o67bobobo517b$903bobo5b2obobo1116b2o5b2o12bob2o26bobo5b2o133bob2o17b2o28b3o77b3o518b$904b2o5bobobo1116bo2bo3bo2bo8b2obo17bo12bo19bo142b2o44b2o2b2o4bo2b2o50bo519b$913bo82bo990b3o3b3o35b2o2bo3bo2b2o5bo2bobo16bobo12b3o6b2o6b3o188b2ob2o6b2obo570b$912b2o20b2o43bo15b3o988bo2bo3bo2bo35b2o2bobo2b2o6b2o2bo4b2o11bo2bo14bo5b2o5bo195bobo6bo11bo559b$911b3o19bo2bo41bobo13bo2bo988bo3bobo3bo36b4ob4o15bo2bo11b2o14b2o12b2o115b2o4b2o72b2o4b3o11b3o557b$911b3o20b2o42bobo13bobobo982b2o2b2obobobobob2o48bo6bo4b2o159b2o4b2o29bo65bo556b$911b3o7b2o56bo15b3o975b2o6bo3b2ob2o3b2ob2o47bobobo2bobo20b2o161b2o15bobo41b2o4b3o11b3o557b$911b3o7b2o60b2o11bo5b2o99bo869b2o4bobo4b3o5b3o49b2ob4obo20bobo11b2o146bo2bobo6b2o4bobo4b2o16b2o16bobo6bo11bo559b$912b2o23b2o44bobo16b2o7b2o89bobo11bo2bo4bo2bo851b2o73bob2o19bo11b2o3b2o141b2obob3o4bo2bo3bo3bo2bo16b2o15b2o6b2obo570b$913bo23bo47bo25b2o89bobo9b3o2b6o2b3o892b2o27b2obobo14b2o4b2o15b2o124b2o18bo4bo4b3o7b3o35b2o4bo2b2o570b$911bobobo22b3o44b2o114b2ob2o10bo2bo4bo2bo894b2o7bo2bob2obo2bo8bo2bobobo12bo148b2o2b2o8b2o4bob3o634b$910bobob2o24bo1089b2o2bo4bo2b2o8bobo2b2o5b2o6b3o149bobo8bo5b2o5b7o3b7o614b$910bobo9b2o1107bo2bob2obo2bo10b2o9b2o8bo136b2o13bo5b3o13bo6bobo6bo614b$911b2o10bo1064bo85bobo134bo14b2o4bo16bobob2o3b2obobo615b$920b3o87b2o975bobo85b2o7b2o126b3o35b2obo5bob2o49bo566b$920bo87b2o2b2o86bo5bo879bo3bo65bo28bo128bo40bobo52b3o566b$1008bo2b5o83b3o3b3o878b5o64bobo27bobo166b2ob2o50bo569b$1008b3o3b2o4bo77bo2b2ob2o2bo3b2o871bobobobo63bobo28b2o221b2o568b$934bo74bobo7bobo76b3o5b3o4bo6b2o849bo14bo3bo63b2ob2o171b2o60bo586b$921bo10b5o83b2o91bobo4b2o848bobo81bo175bo22b2o37b3o25bo558b$920b2o9b2obo2bo176b2o854bobo13bo3bo64b4o173bo20bobo39bo23bobo557b$919b2o9bo7bo12b2o43b2o9bo6bo956bo13bobobobo67bo159bo11b2o21bo2b3o34b2o22bo3bo556b$913bo6b2o2b2o5b2obo2bo13b2o43b2o8b2o6b2o10b2o4b2o11bo929b2o9b5o3b2o61bobo159b3o11b2o21bo2bo50b2o6bo3bo556b$911b3o18b5o68b3o6b3o4b2obo4bobo2bo9bobo928bobo8bo3bo3b2o7b2o52b2o9b2o124b2o18b2o6bo8b2o2bo24bo49b2o6bo3bo556b$910bo23bo71b2o6b2o5bo10b3o9bobo930bo9bobo13b2o35bobo25b2o124bo19bo6b2o9bobo21b2o39b2o19bo3bo556b$911b3o93bo6bo7b2o6b2o11b2ob2o929b2o9bo51b2obo10b2o136bobo20b3o7bo4bobob2o20b2o3bo34bo2bo18bo3bo556b$913bo6b2o2b2o93b3o2b6o2bo970bo39bo9bobo136b2o23bo6bobo3b2o16b3o10bo35b2o19bo3bo556b$919b2o16b2o80bo2bo8b2o72b3o894bobo14b2o19b3ob2o7bo163bobo4bo2bo20bobo7b2o59bobo557b$920b2o15b2o14bo66b2o82bo3bo892bo3bo12bobo2b2o14bo2bobo2bo4b2o164b2o5b2o21b3o12b2o55bo558b$921bo22bo7bobo149b2ob2o892bo3bo11bo2bobobo14b2o5b2o25bo174b3o12b2o614b$943b3o159bobo15bo877b2ob2o11b2obobo42b2o4b3o130b2o42b3o628b$942b2o2bo175bobo837bo57bob2o41bo4bo133b2o42b3o7b2o619b$942bo3bo5b3o80b2o68bobo14bobo812b2o3bo2bo3b2o10bobo48bo4b2obo17bo13bo13b3o2bo121b2o2b2o49bobo10bo617b$942bobo7b3o72b2o6bo68b2ob2o14bo813b5o4b5o10bobo47bobobo2bobo16bobo12b3o5b2o7b3o115b2o4b2o2bo50b3o5b2o3bo617b$953bo73b2o4bobo63b2o3bo3bo9b2o817b2o3bo2bo3b2o9b2ob2o37b2o8b2ob2o2bo4b2o11bo2bo14bo4b2o6bo118b2o9bo17b2o38b2o621b$943b2ob2o85b2o8b2ob2o42b2o7b2o4b3o9bobo880bo4bo17bo2bo11b2o14b2o12b2o126bobo17b2o42bo618b$938b2o103b2ob2o42b2o25bo870b2o9bo6bo12bo4b2o170b2o58bo2bo16bo3bo598b$938b2o3b2ob2o5bo89b2ob2o68b2o870b2o8bo8bo7bo2bobo20b2o214b3o4b2o9bo5bo597b$952b3o86bob2ob2obo948bo8bo7b4obo20bobo11b2o131b2o74b2o15bo597b$942bobo7b3o86b3o3b3o33b2o13b2o898bo8bo12bob2o19bo11b2o3b2o126b2o2b2o30bo51bo3b2o7bo589b$942bo3bo95bo5bo33bob2o11b2obo898bo6bo10b2obobo14b2o4b2o15b2o130bobo11b2o15bobo51b3o9b3o587b$942b2o2bo136bo3bo7bo4b2o850b2o46bo4bo11bo2bobobo12bo141b2o13bo5b2o3bo2bobo6b2o4bobo4b2o60bo586b$943b3o6bobo133b2o3b2o4b2o843b2o6bo49b2o14bobo2b2o5b2o6b3o138bo14bob2o2bo4b2obob3o4bo2bo3bo3bo2bo35b2obo6b3o9b3o587b$944bo8bo5b2o126bo7bo848b2o4bobo66b2o9b2o8bo139b3o12bo2bobo7bo4bo4b3o7b3o19b2o14bobobo5bo3b2o7bo589b$948bo10bobo120bo867b2o88bobo139bo13b2o2bob2o4bob3o37b2o14bo4bo9bo597b$947bobo6b2obobo63bo55bobo957b2o7b2o148bo2bo5b2o5b7o3b7o33bobobo4bo5bo597b$948b2o6bobobo63bobo54b2o8b2o865bo7bo55bo28bo149b2o13bo6bobo6bo34b2obo5bo3bo598b$958bo65bobo62bo4bo861b2ob2o3b2ob2o52bobo27bobo143bo19bobob2o3b2obobo647b$957bo2bo18b2o44bo62bo6bo9b2o914bobo28b2o143b3o18b2obo5bob2o648b$957bo20bo2bo47b2o17b2o37bo8bo8b2o852bobobobo54b2ob2o175bo20bo3bo653b$957bo3bo17b2o48bobo16b2o7b2o28bo8bo860bo3bobo3bo52bo166bo11b2o20b2o2b2o55bo596b$957bo3bo4b2o63bo25b2o28bo8bo860bo2b2ob2o2bo53b4o162b3o11b2o77b3o596b$957bo8b2o63b2o55bo6bo862b3o3b3o58bo156b2o6bo8b2o2bo21b2o52bo599b$957bo2bo21b2o105bo4bo864bo5bo57bobo156bo6b2o9bobo22bobo51b2o598b$958bo23bo108b2o849bo80b2o9b2o147b3o7bo4bobob2o22bo3bo31bo26b3o587b$956bobobo22b3o111b2ob2o839bobo90b2o130b2o17bo6bobo3b2o29b3o30b3o23bo3bo586b$955bobob2o24bo69b4o33b2o2bobobo840bobo67bobo6b2o144bo18bobo4bo2bo32b2o2bo32bo22bo3bo586b$955bobo9b2o85b2o36bo3bo3bo841bo68b2obo4bobo141b2obo19b2o5b2o33b2ob2o31b2o23b3o587b$956b2o10bo84bo3bo3bo31b3ob3o846b2o17b2o47bo4bo4bo138bobo55bo9b3o46b2o597b$965b3o86bo6bo4bo28bobo17b2o829bobo16b2o7b2o14b2o19b3ob2o3b5o136bobo8b2o47bo7bob2o47b2o597b$965bo88b2o9bobo23b3obobo13b2o2bobo830bo25b2o13bobo2b2o14bo2bobobo143b2obo7b2o46bobo7bo36b2o610b$1066b2o22bo2bob2o14bobobo2bo829b2o38bo2bobobo14b2o5bo4bo7b2obo130bo56bo13b2o29bo2bo609b$1090b2o21bobob2o809bo37b2o12b3o5b2obobo23b2o2bobo5bo2b2o130bobo54bo13b2o30b2o20b3o587b$979bo62b2o8b2o6b2o50b2obo790b8o13bobo34b4o12bobo8bob2o26bobo5b2o134b2o17b2o35bo66bo3bo586b$965b2o9b2o3bo60b2o7bo2bo4bo2bo20bo13bo17bob2o787bob4obo13bobo34b2o2b2o9b2o2bo4b2obo17bo12bo19bo141b2o35bo8bo57bo3bo586b$964bobo9b2obob2o68bo2bo4bo2bo11b2o5b3o12bobo16bobo2bo785b8o12b2ob2o32bo3bob2obo3bob2ob2o3bo2bobo16bobo12b3o6b2o6b3o177bobo6bob2o56b3o587b$964bo10bo6b2o12b2o53bo2bo4bo2bo11b2o4bo14bo2bo11b2o4bo2b2o843b4o4bo3bo2bo6b2o2bo4b2o11bo2bo14bo5b2o5bo181bo9b3o645b$958bo5b3o9b2obob2o13b2o54b2o6b2o18b2o14b2o11bo2bo851b3o3bobo3bobo15bo2bo11b2o14b2o12b2o115b2o4b2o57bo6b2ob2o646b$956b3o17b2o3bo128b2o4bo2b2o862bo6bo4b2o159b2o4b2o28bo35b2o2bo646b$955bo23bo113b2o20bobo2bo861bobobo2bobo20b2o160b2o15bobo35b3o21bo625b$956b3o120b2o11bobo20bob2o864b2ob4obo20bobo11b2o145bo2bobo6b2o4bobo4b2o30bo5b2o15b2o624b$958bo5b3o107b2o3b2o11bo19b2obo672bo202bob2o19bo11b2o3b2o140b2obob3o4bo2bo3bo3bo2bo36b2o16b2o623b$964bo17b2o90b2o15b2o4b2o14bobob2o644bo2b2o4b2o2bo10bobo128b2o39b2o8b2o6b2o9b2obobo14b2o4b2o15b2o124b2o17bo4bo4b3o7b3o50b2o2b2o6bo617b$964bobo15b2o76b2o36bo12bobobo2bo643bo3b3o2b3o3bo9bobo120b2o6bo40b2o7bo2bo4bo2bo8bo2bobobo12bo148b2o2b2o7b2o4bob3o80b3o615b$965b2o92bobo33b3o6b2o5b2o2bobo645bo2b2o4b2o2bo9b2ob2o119b2o4bobo48b6o2b6o8bobo2b2o5b2o6b3o149bobo7bo5b2o5b7o3b7o39bo23bo614b$997b3o59bo35bo8b2o9b2o799b2o8b2ob2o37bo2bo4bo2bo10b2o9b2o8bo136b2o13bo4b3o13bo6bobo6bo37b5o18b3o615b$990bobo5bo59b2o33bobo829bo5bo37b2o6b2o32bobo134bo14b2o3bo16bobob2o3b2obobo22b2o13bo2bob2o5b2o2b2o6bo617b$993bo4bo85b2o7b2o690bo5bo220b2o7b2o126b3o34b2obo5bob2o23b2o12bo7bo9b2o623b$990bo2bo3b3o84bo28bo670b3o3b3o131bo7bo60bo28bo128bo37bo3bo43bo2bob2o9b2o624b$990bo2bo88bobo27bobo668bo2b2ob2o2bo130bo2bobo2bo59bobo27bobo164b2o2b2o43b5o10bo625b$992bo4b3o82b2o28bobo668bo3bobo3bo130b3o3b3o59bobo28b2o215bo638b$983b2o4bob2o4b3o111b2ob2o662b2o5bobobobo199b2ob2o171b2o20b2o688b$983b2o4bo125bo654b2o6bo212bo175bo21bobo687b$997b3o111b4o655b2o4bobo3b2ob2o3b2ob2o47bo149b4o173bo20bo63bo624b$998bo111bo665b2o6bo7bo28bo4bo14bobo152bo159bo11b2o82b3o624b$998bo111bobo706b2ob4ob2o12bobo64bo85bobo159b3o11b2o79bo627b$997b3o100b2o9b2o708bo4bo13b2ob2o62bobo84b2o9b2o124b2o18b2o6bo8b2o2bo18bo59b2o626b$1100b2o792bo12bobo67bobo25b2o124bo19bo6b2o9bobo12b3o4bo42bo27bo616b$1004b2o108b2o756bobo2bobo13bobo12bo68b2obo10b2o136bobo20b3o7bo4bobob2o10bo3bo4bo41b3o24b3o615b$993bo10bobo107bobo668bo82b2obo2bo2bo2bob2o9bobo16b2o17b2o47bo9bobo136b2o23bo6bobo3b2o13bo5bo3bo44bo22b5o614b$992bobo6b2obobo109bo667b3o85bobo2bobo12b2ob2o15bobo16b2o7b2o14b2o19b3ob2o7bo163bobo4bo2bo28bo5b2o35b2o641b$993b2o6bobobo110b2o665bo3bo126bo25b2o13bobo2b2o14bo2bobo2bo4b2o164b2o5b2o17bo7bo2bobo4b2o51b2o625b$1003bo778bo5bo102bo5bo16b2o38bo2bobobo14b2o5b2o25bo170bo7bobobo58b2o625b$1002b2o20b2o77b2o8bo668bo5bo43b2o56b3o3b3o55b2obobo42b2o4b3o130b2o48b3o45b2o638b$1001b3o19bo2bo62b2o8b2o3bo7bobo653bo14bo3bo36b2o6bo56b2o2bobo2b2o36b2o5b2o12bob2o41bo4bo133b2o39bo5bo3bo45bo2bo637b$1001b3o20b2o63bo10bo2bo8bobo652bobo54b2o4bobo5bo7bo42b2ob2ob2ob2o35bo2bo3bo2bo8b2obo17bo13bo13b3o2bo121b2o2b2o47bo3bo51b2o638b$1001b3o7b2o77b10o3b2o6b2ob2o651bobo13bo3bo42b2o4bob2o5b2obo43b2ob2o37b2o2bo3bo2b2o5bo2bobo16bobo12b3o5b2o7b3o115b2o4b2o2bo49b3o73b5o614b$1001b3o7b2o74b3o2b6o2b3o665bo13bo5bo47bo3b2ob2o3bo35b2o4bobo3bobo36b2o2bobo2b2o6b2o2bo4b2o11bo2bo14bo4b2o6bo118b2o9bo17b2o106b3o615b$1002b2o23b2o58bo2bo2b4o2bo2bo669b2o8bo5bo2b2o44bo3bobo3bo28b2o6bo4bo2bo3bo2bo36b4ob4o15bo2bo11b2o14b2o12b2o126bobo17b2o55b2o50bo616b$1003bo23bo60b2o10b2o670bobo8bo3bo3b2o7b2o36b3o3b3o29b2o4bobo7bo3bo52bo6bo4b2o170b2o65b2o7bobo667b$1001bobobo22b3o743bo9b3o13b2o80b2o5bobo5bobo48bobobo2bobo20b2o220b2o6b2obo667b$1000bobob2o24bo743b2o9bo104bo7bo50b2ob4obo20bobo11b2o131b2o82b2o14bo653b$1000bobo9b2o96bo5bo840bob2o19bo11b2o3b2o126b2o2b2o30bo48bo14b3o651b$1001b2o10bo89b2o4b3o3b3o807b2o27b2obobo14b2o4b2o15b2o130bobo11b2o15bobo65bo650b$1010b3o82b2o6bo4b2obo3bob2o681bo90bo33b2o7bo2bob2obo2bo8bo2bobobo12bo141b2o13bo5b2o3bo2bobo6b2o4bobo4b2o26bo14bo14b3o651b$1010bo84b2o4bobo693bo3bo88bobo40b2o2bo4bo2b2o8bobo2b2o5b2o6b3o138bo14bob2o2bo4b2obob3o4bo2bo3bo3bo2bo17b2o7bo13b2o14bo653b$1101b2o693bo3bo21bo111bo2bob2obo2bo10b2o9b2o8bo139b3o12bo2bobo7bo4bo4b3o7b3o18b2o20b2obo667b$1111bo3bo680bo2bo21bobo64bo5bo82bobo139bo13b2o2bob2o4bob3o59bobo667b$1020bo90bo3bo680bo2bo9bo11bobo67bo86b2o7b2o148bo2bo5b2o5b7o3b7o40b2o667b$1015bo3bo776bobo9bobo11bo65b2o3b2o64bo28bo149b2o13bo6bobo6bo709b$1014bo8b2o784b2o15b2o17b2o27bo83bobo27bobo143bo19bobob2o3b2obobo710b$1014bo2b2o5bo16b2o783bobo16b2o7b2o17bobo82bobo28b2o143b3o18b2obo5bob2o711b$1003bo11b2o5bobo16b2o742b2o8b2o6b2o23bo25b2o17bobo81b2ob2o175bo20bo3bo55bo660b$1001b3o12b3o3b2o86bo674b2o6bo4bo2bo4bo21b2o44bo13b2o3b2o62bo166bo11b2o20b2o2b2o52b3o660b$1000bo108bobo681bo4bo2bo4bo71b2o11bo5b2o59b4o162b3o11b2o75bo10bo652b$1001b3o12b3o3b2o10bo73b2ob2o680bo4bo2bo4bo43b2o5b2o19bobo7bo5bo2b2o7b2o54bo156b2o6bo8b2o2bo21b2o5b2o44b2o9bo652b$1003bo11b2o5bobo7b2ob2o56bo14bo3bo682b2o6b2o44bo2bo3bo2bo20bo25b2o52bobo156bo6b2o9bobo22bobo3bo29bo26b3o651b$1014bo2b2o5bo2b2o3b2ob2o55bobo12b3ob3o735bo2bo3bo2bo20b2o8bobo67b2o9b2o147b3o7bo4bobob2o22bo5b2o27b3o678b$1014bo8b2o2b2o2b2o2b2o55bobo13bo3bo736b2ob2ob2ob2o31bo51bobo25b2o130b2o17bo6bobo3b2o64bo677b$1015bo3bo11b2ob2o7bo49bo14bo3bo738b2o3b2o85b2obo10b2o144bo18bobo4bo2bo24b3o40b2o23b3o651b$1020bo12bo8b3o52b2o10bobo4b2o745bo82bo9bobo141b2obo19b2o5b2o25b3o56b2o8bo652b$1033b2o6bobobo51bobo10bo5b2o7b2o735bobo41b2o14b2o19b3ob2o7bo143bobo55bo6b3o48b2o8bo652b$1034bobo4bobobo53bo26bo736b2o37b2o2bo14bobo2b2o14bo2bobo2bo4b2o141bobo8b2o47bo7bo36b2o21bo652b$1042b3o54b2o800b3ob2o13bo2bobobo14b2o5b2o25bo121b2obo7b2o47bo6b2o35bo2bo20bo652b$1034b3o6bo795b2o60b2ob2o9bo4b2obobo42b2o4b3o124bo55bobo6b2o4b2o29b2o20b3o651b$1839b2o7bo2bob2obo2bo43bo10bobo6bob2o41bo4bo127bobo61bobo4b2o705b$1028b2o91b3o3b3o718b4ob2ob4o55b2o3b2obo17bo13bo13b3o2bo127b2o17b2o42b3o711b$1028b2o13bo77bo7bo718bo2bob2obo2bo59bobobo16bobo12b3o5b2o7b3o146b2o34bobo5bob2o56b3o651b$1034b3o5b3o76bobo3bobo761b2o26bo2bo4b2o11bo2bo14bo4b2o6bo186bo6b3o58bo652b$1041bobobo76b2o3b2o762b2o7bo2bo4bo2bo6b2o6bo2bo11b2o14b2o12b2o185bo7b2o58bo652b$1034bobo4bobobo88bo763b3o2b6o2b3o8bo4b2o164b2o4b2o57bo7b2o711b$1033b3o6b3o88bobo764bo2bo4bo2bo9bobo20b2o147b2o4b2o28bo27b3o4bobo712b$1031b3o9bo90b2o783b3obo20bobo11b2o151b2o15bobo26b3o5b3o711b$1031bo2bo883bo4bob2o19bo11b2o3b2o145bo2bobo6b2o4bobo4b2o28b3o5b2o9b2o693b$1031b2obo3bo9b2o60b2o8b2o6b2o788bob2obobo14b2o4b2o15b2o145b2obob3o4bo2bo3bo3bo2bo36b2o8b2o694b$1033bo3bobo8bobo59b2o6bo4bo2bo4bo785b2obo2bobobo12bo153b2o17bo4bo4b3o7b3o48b5o9bo680b$1038b2o5b2obobo67bo4bo2bo4bo8b2o4b2o11bo761bobo2b2o5b2o6b3o150b2o2b2o7b2o4bob3o48b2o17b4o9b3o678b$1045bobobo68bo4bo2bo4bo3b2obo4bobo2bo9bobo761b2o9b2o8bo154bobo7bo5b2o5b7o3b7o28b3o32bo677b$1047bo72b2o6b2o5bo10b3o9bobo782bobo139b2o13bo4b3o13bo6bobo6bo28b2o17b4o9b3o678b$1045bo2bo19b2o66b2o6b2o11b2ob2o782b2o7b2o130bo14b2o3bo16bobob2o3b2obobo22b2o23b5o9bo680b$1048bo18bo2bo62b3o2b6o2bo778bo28bo131b3o34b2obo5bob2o23b2o22b2o694b$1044bo3bo19b2o63bo2bo8b2o777bobo27bobo131bo37bo3bo53b2o693b$1044bo3bo6b2o77b2o788bobo28b2o169b2o2b2o747b$1048bo6b2o866b2ob2o951b$1045bo2bo22b2o850bo180b2o20b2o751b$1047bo23bo852b4o176bo21bobo750b$1045bobobo22b3o74b2o4b3o3b3o764bo177bo20bo63bo687b$1044bobob2o24bo66b2o6bo5bo2bobo2bo762bobo164bo11b2o82b3o687b$1044bobo9b2o83b2o4bobo5bo7bo762b2o9b2o154b3o11b2o79bo690b$1045b2o10bo89b2o767b2o19b2o149b2o6bo8b2o2bo12bo65b2o689b$1054b3o99bo5bo748b2o2bobo5b2o163bo6b2o9bobo12b3o47bo707b$1054bo102b2ob2o585b2o162bo3bo4bobobo164b3o7bo4bobob2o10b5o6bo39b3o25bo679b$1745bo4bo161b3ob5obo149b2o17bo6bobo3b2o24b3o41bo23bobo678b$1744bo6bo14bo128b2o17bobo5bo149bo18bobo4bo2bo28bob2ob3o35b2o22bo3bo677b$1743bo8bo12bobo126bobo2b2o13bobob3ob2o145b2obo19b2o5b2o32b5o51b2o6bo3bo677b$1743bo8bo12bobo125bo2bobobo14b2obo2bo2bo6b2ob2o133bobo58bob2o55b2o6bo3bo677b$1060b2o94bo586bo8bo11b2ob2o124b2obobo21bo2bo8bobo132bobo8b2o50b3o43b2o19bo3bo677b$1061b2o22b2o68bobo586bo6bo144bob2o21b2o9bobo132b2obo7b2o51bo43bo2bo18bo3bo677b$1047bo9b5o23b2o68bobo587bo4bo142b2obo17bo13bo4bo13bo122bo49b5o51b2o19bo3bo677b$1045b3o9b4o78bo14bo3bo588b2o13b3o3b3o120bo2bobo16bobo12b3o5b2o7b3o122bobo48b3o74bobo678b$1044bo93bobo13b2ob2o603bo2bobo2bo120b2o2bo4b2o11bo2bo14bo4b2o6bo126b2o17b2o30bo76bo679b$1045b3o9b4o77bobo13bo3bo602bo3bobo3bo127bo2bo11b2o14b2o12b2o144b2o61b4o722b$1047bo9b5o77bo15b3o589b2o13bo2bobo2bo120b2o2bo4b2o235b2o14bo2b2o721b$1061b2o8b2o70b2o10b3o4b2o583b2o7b2o6bo3bo122bo2bobo20b2o218b2o15bo2b2o720b$1060b2o9b2o70bobo16b2o7b2o583bo5b2o5b2o122b2obo20bobo11b2o129b2o4b2o84bo2bo4bo716b$1145bo25b2o581bobo4b3o5b3o25b2o6b2o13bo75bob2o19bo11b2o3b2o124b2o4b2o28bo56b2o5b3o714b$1086b3o56b2o607b2o5b3o5b3o23bo4bo2bo4bo10bobo71b2obobo14b2o4b2o15b2o142b2o15bobo39bo3bo21bo713b$1077b3o7bo707bo4bo2bo4bo10bobo71bo2bobobo12bo165bo2bobo6b2o4bobo4b2o32bobobobo10b2o5b3o714b$1076bo2bo7bo707bo4bo2bo4bo9b2ob2o71bobo2b2o5b2o6b3o162b2obob3o4bo2bo3bo3bo2bo17b2o11b2o2bobo2b2o7bo2bo4bo716b$1076bo3bo5b3o708b2o6b2o88b2o9b2o8bo146b2o17bo4bo4b3o7b3o18b2o11b2o7b2o7bo2b2o720b$1077b4o90bo744bobo144b2o2b2o7b2o4bob3o49b2o2bobo2b2o6bo2b2o721b$1079bo6b3o81b3o589b3o152b2o7b2o139bobo7bo5b2o5b7o3b7o31bobobobo8b4o722b$1072b2o12b3o14b2o62bo594b3o133bo28bo126b2o13bo4b3o13bo6bobo6bo32bo3bo735b$1072b2o5bo23b2o61bo4bo8bo580b5o131bobo27bobo124bo14b2o3bo16bobob2o3b2obobo773b$1077b4o5b3o82bo7bobo578b2o3b2o34b2o94bobo28b2o125b3o34b2obo5bob2o774b$1076bo3bo6bo79b2o11b2o578b2o3b2o34b2o7b2o84b2ob2o156bo37bo3bo55bo723b$1076bo2bo7bo658bo63bo85bo198b2o2b2o52b3o723b$1077b3o6b3o67b2o587bobo60bobo86b4o251bo726b$1156b2o6b2o3bo2bo3b2o567bobo60b2o91bo171b2o20b2o55b2o725b$1164b5o4b5o568bo13b2o3b2o132bobo171bo21bobo37bo26b3o714b$1082bo81b2o3bo2bo3b2o14b2o11bo544b2o8b2o3b2o2b2o128b2o9b2o163bo20bo38b3o25bo715b$1081bobo97b2o2b4o2bo2bo9bobo543bobo8b5o3b2o7b2o130b2o125b2o23bo11b2o15bo46bo24bo715b$1082b2o4b2o91bo2b6o2b3o9bobo545bo9b3o13b2o35b3o5b3o70b2o139bo24b3o11b2o13bo45b2o23b3o714b$1088b2o92b10o11b2ob2o544b2o8b3o50bo2b2ob2o2bo69bobo137bobo19b2o6bo8b2o2bo11b3o60b2o724b$1179b3o10bo623b3o3b3o70bo139b2o20bo6b2o9bobo75b2o7b3o714b$1179bo2bo8b2o573bo20bo29bo5bo70b2o162b3o7bo4bobob2o61b2o20b3o714b$1180b2o584bo20bo272bo6bobo3b2o15b3o46bo2bo736b$1765bob2o13b2o123b2o151bobo4bo2bo20bo8bo4b2o33b2o20b3o714b$1766bo2b2o7b2o2b2o16bo106bo153b2o5b2o21bo6b3o4b2o56bo715b$1766bo3bo6b2o2b3o15bobo107bo181bo5b2o64bo715b$1195b2o579b3o8bo11bobo106b2o137b2o42bo5bo64b3o714b$1059b2o126b2o6bo590bobo11bo229b2o4b2o9b2o41b3o3bob2o779b$1058bobo126b2o4bobo591b2o15b2o17b2o205b2o4b2o59b3o779b$1055bo3bo48b2o83b2o609bobo16b2o7b2o207bo55b2o780b$1054b3o51bo654b2o41bo25b2o36bobo166b3o17b2o29b3o786b$1053bo2b2o51b3o651b2o9bobo2bobo24b2o62b2obo164bo20b2o30bo26bo3bo756b$1053b2ob2o53bo658b2obo2bo2bo2bob2o87bo157b2o6b3o49bo14b2o9bo5bo755b$1052b3o9bo135b2obo3bob2o563bobo2bobo49b3o15b2o19b3ob2o155b2o2b2o4bo64b2o15bo755b$1053b2obo7bo135bo2bo3bo2bo620b3o14bobo2b2o14bo2bobo2bo157bobo80bo3b2o7bo747b$1055bo7bobo135b3o3b3o620bo3bo12bo2bobobo14b2o5b2o144b2o13bo29bo51b3o9b3o745b$1049b2o13bo10b2o753b2ob2o12b2obobo169bo14b2o10b2o15bobo65bo744b$1049b2o13bo9bobo9bo763bob2o43b2o124b3o22bo2bobo6b2o4bobo4b2o34b2obo6b3o9b3o745b$1064bo5b2o2bo9b3o754bo5b2obo17bo13bo14bobo125bo22b2obob3o4bo2bo3bo3bo2bo17b2o14bobobo5bo3b2o7bo747b$1055bo8bo5bobob2o7bo6b2o23b2o68bo654bobo2bo2bobo16bobo12b3o5b2o7b3o149bo4bo4b3o7b3o18b2o14bo4bo9bo755b$1053b2obo6bobo6bo10b2o6bo23bobo66bobo654b2o2b2o2bo4b2o11bo2bo14bo4b2o6bo3bo138bo3b2o4bob3o52bobobo4bo5bo755b$1052b3o9bo7b4o4bo7b3o21b2obobo66bobo643b4o19bo2bo11b2o14b2o12b2o2bo137bobo3bo5b2o5b7o3b7o33b2obo5bo3bo756b$1053b2ob2o6bo5b2o3bo3bobo6bo23bobobo68bo631b2o10b6o10b2o2bo4b2o47b2o134bo2b4o13bo6bobo6bo803b$1053bo2b2o11bo2b3o3bo2bo4bobo25bo74b2o17b2o607b2o9b8o9bo2bobo20b2o31bo134bobo18bobob2o3b2obobo804b$1038b2o14b3o12b2obo6b2o5b2o25bo2bo18b2o52bobo16b2o7b2o608b2o6b2o10b2obo20bobo11b2o17bobo123bo9bobob2o15b2obo5bob2o805b$1038bobo7b2o5bo16bo40bo20bo2bo53bo25b2o609b8o14bob2o19bo11b2o3b2o13b2o123b3o9bobo19bo2b3o54bo754b$1040bo7b2o19b3o28b2o11bo3bo2b2o13b2o54b2o636b6o12b2obobo14b2o4b2o15b2o133b2o6bo7b2obo16b3o3bo54b3o754b$1024bo13b3o28bo30b2o11bo3bo2b2o88bo13bo605b4o13bo2bobobo12bo157bo6b2o10bob2o13bo59bo10bo746b$1022b3o82b2o4bo94b2obo11b3o622bobo2b2o5b2o6b3o155b3o7bo4b4o2bo22b2o49b2o9bo746b$1021bo86bo4bo2bo21b2o67b2o14bo2bo622b2o9b2o8bo157bo6bobo3bo3b2o23bobo3bo27bo774b$1022b3o63b2o17bo6bo23bo67bo3b2ob2o5b2o2b2o644bobo155bobo4bo2bo3b3o26bo3bob2o25b3o25bo746b$1024bo13b3o21b2o24b2o17bobo2bobobo22b3o65b3o3b3o3b3o649b2o7b2o123b2o22b2o5b2o6bo30bo2bo28bo23bobo745b$1040bo21b2o44b2o2b2obobo23bo66bo4b2o5b2o630bo28bo123bo38bobo19bo9b3o27b2o771b$1038bobo74bobo5b2o101bo624bobo27bobo119bobo9b2o28b2o18b3o6b3o45b2o7b3o745b$1038b2o75b2o7bo100bobo540bo82bobo28b2o119b2o10b2o47bobobo4bobo46b2o755b$1081bo39b3o102b2o518b8o13bobo80b2ob2o209bobobo40b2o768b$1080bobo15b2o21bo624bob4obo13bobo80bo155b2obo55b3o5b3o32bo2bo19b3o745b$1074b2o4bobo4b2o6bobo2bo101b2o8b2o6b2o524b8o12b2ob2o80b4o151bob2o17b2o37bo13b2o27b2o768b$1031bo42bo2bo3bo3bo2bo4b3obob2o101b2o7bo2bo4bo2bo632bo171b2o51b2o49bobo745b$1031b3o41b3o7b3o4bo4bo113bo2bo4bo2bo630bobo276bo746b$1034bo58b3obo4b2o107bo2bo4bo2bo8b2o4b2o11bo602b2o9b2o200bo6b3o803b$1033b2o38b7o3b7o5b2o5bo22b2o2bo4b2o76b2o6b2o4b2obo4bobo2bo9bobo612b2o132b2o4b2o59b3o64bo746b$1023bo27bo21bo6bobo6bo13b3o19bob2o6b2o15b2o72bo10b3o9bobo598b2o146b2o4b2o29bo28bobobo4bobo56bo746b$1022b3o24b3o22bobob2o3b2obobo16bo8bo11bo6bobo16b2o73b2o6b2o11b2ob2o496b2o98bobo165b2o15bobo27bobobo6b2o802b$1021b5o22bo26b2obo5bob2o24b3o11b3o4b2o89b3o2b6o2bo11bobo497b2o7b2o89bo166bo2bobo6b2o4bobo4b2o22b3o8bo16bo785b$1048b2o30bobo28bo112bo2bo8b2o11bobo506bo89b2o166b2obob3o4bo2bo3bo3bo2bo23bo7b2ob2o10b2o2bo785b$1032b2o45b2ob2o28b3o11b3o4b2o90b2o22bobo504bobo240b2o18bo4bo4b3o7b3o31b2o2b2o2b2o5bo5bo784b$1032b2o80bo11bo6bobo112b2ob2o503b2o103b2o136b2o2b2o8b2o4bob3o49b2ob2o3b2o4b2o2bobo785b$1045b2o78bob2o6b2ob2o721bo141bobo8bo5b2o5b7o3b7o29b2ob2o10b2o3bo12bo772b$1044bo2bo77b2o2bo4b2o2b2o91b2o630bo126b2o13bo5b3o13bo6bobo6bo31bo13b3o14b3o770b$1045b2o106b3o75b2o7b2o5bo5bo510bo7bo89b2o126bo14b2o4bo16bobob2o3b2obobo66bo769b$1021b5o214bo5b2o5b2o508b4o3b4o217b3o35b2obo5bob2o47b3o14b3o770b$1022b3o127bo3bo81bobo4bob2o3b2obo507bo3bobo3bo219bo40bobo30b2o19b2o3bo12bo772b$1023bo120b3o5bo3bo81b2o5bob2o3b2obo508bo2bobo2bo260b2ob2o29b2o18b2o2bobo785b$1144bo2bo98b3o3b3o509b3o3b3o315bo5bo784b$1144bob2o5b3o90b3o3b3o754b2o78b2o2bo785b$2009bo22b2o59bo785b$1139bo95bo512bo262bo20bobo844b$1139b2o12b3o78b2o511bobo248bo11b2o21bo845b$1144bob2o86bobo510bobo248b3o11b2o85bo779b$1144bo2bo4bo3bo591bo244b2o6bo8b2o2bo21bo60b3o779b$1144b3o5bo3bo595b2o17b2o220bo6b2o9bobo21bobo58bo782b$1752bobo16b2o7b2o36bobo173b3o7bo4bobob2o13bo5bo2bo58b2o8b3o770b$1153b3o74bo523bo25b2o36b2obo174bo6bobo3b2o17bo6bo43bo26b3o770b$1160b2o67bobo522b2o65bo174bobo4bo2bo20bobo49b3o25bo771b$1149bo10bobo66bobo565b2o19b3ob2o173b2o5b2o22bo7bo5b2o38bo24bo771b$1148bobo6b2obobo67bo565bobo2b2o14bo2bobo2bo202bo5bobo5b2o37b2o24bo771b$1149b2o6bobobo72b2o17b2o540bo2bobobo14b2o5b2o157b2o43bo4bo2bo60b2o7bobo770b$1159bo74bobo16b2o7b2o531b2obobo182b2o43bo5b2o61b2o780b$1158bo2bo18b2o54bo25b2o515b3o16bob2o43b2o127b2o51bobo54b2o793b$1158bo20bo2bo53b2o538bobobo14b2obo17bo13bo14bobo126bo2bo50bo54bo2bo19bobo770b$1158bo3bo2b2o13b2o594b5o8bo3bo2bobo16bobo12b3o5b2o7b3o104b2o20b2o17b2o31bo55b2o21bo771b$1158bo3bo2b2o609b4o8bobo2b2o2bo4b2o11bo2bo14bo4b2o6bo3bo103bo40b2o59b2o49bo771b$1158bo618bo11b2o10bo2bo11b2o14b2o12b2o2bo104b3o100bo48bo771b$1158bo2bo21b2o77bo530b2o2bo4b2o47b2o104bo77b2o6b2o10b2o2bo46b3o770b$1159bo23bo77b3o501b2o26bo2bobo20b2o31bo105b2o75b3o5b2o11bo2bo46b3o770b$1157bobobo22b3o71bo506b2o7bo2bob2obo2bo9b2obo20bobo11b2o17bobo105bo42bo32b2o19bobo8bo810b$1156bobob2o24bo70bo4bo8bo501b2o2bo4bo2b2o11bob2o19bo11b2o3b2o13b2o105bo24b2o15bobo32bo19b2o9b3o808b$1156bobo9b2o92bo7bobo501bo2bob2obo2bo9b2obobo14b2o4b2o15b2o118bob2o22bo2bobo6b2o4bobo4b2o25bobo32bo807b$1157b2o10bo88b2o11b2o522bo2bobobo12bo142b2o2bo21b2obob3o4bo2bo3bo3bo2bo25b3o7b2o9b2o9b3o808b$1166b3o627bobo2b2o5b2o6b3o142b2o24bo4bo4b3o7b3o19b2o13bo3b2o7bobo8bo810b$1166bo80b2o548b2o9b2o8bo162b2o4bob3o37b2o13bo4bo6bo2bo819b$1247b2o6b2o3bo2bo3b2o549bobo161bo5b2o5b7o3b7o32bo3b2o5b2o2bo819b$1255b5o4b5o550b2o7b2o149b3o13bo6bobo6bo34b2o10bo820b$1255b2o3bo2bo3b2o14b2o11bo503bo28bo149bo16bobob2o3b2obobo45b2o821b$1272b2o8bo2bo9bobo501bobo27bobo165b2obo5bob2o869b$1167b4o101bo2b6o2b3o9bobo501bobo28b2o121b2o4b2o41bobo874b$1161bo5b2obo26b2o74b2o6b2o11b2ob2o499b2ob2o150b2o4b2o40b2ob2o55bo817b$1159bo2b2o6bo26b2o71b3o10bo11bobo500bo260b3o817b$1157b6o5b2o19bobo78bo2bobo4bob2o11bobo501b4o255bo820b$1156bo32bo2bo78b2o4b2o16bobo505bo254b2o819b$1157b6o5b2o19bobo102b2ob2o502bobo150b2o85bo27bo809b$1159bo2b2o6bo630b2o9b2o140b2o2b2o81b3o24b3o808b$1161bo5b2obo12b2o6bo620b2o144bobo60b2o21bo22b5o807b$1167b4o12b2o5bobo6bo86b2o5bo5bo498b2o145b2o13bo60bobo19b2o834b$1193bo4bobo77b2o6bo5b2o5b2o487bobo6bobo145bo14b2o60bo36b2o818b$1278b2o4bobo4bob2o3b2obo486b2obo5bo148b3o110b2o818b$1284b2o5bob2o3b2obo489bo4b2o150bo67b3o6b3o18b2o831b$1189bo8b3o91b3o3b3o466b2o19b3ob2o222b3o5bo2bo17bo2bo830b$1192bo5b3o91b3o3b3o465bobo2b2o14bo2bobobo14b2o206bo6bo3bo17b2o831b$1189bo3bo5bo565bo2bobobo14b2o5bo14bo154b2o51bo5b2obobo38b5o807b$1192b2o377b2o192b2obobo23b2o14b3o151bo52bo5b2ob2o40b3o808b$1184b2o3bo2bo21b2o355bobo3bo190bob2o40bo153bo49bobo5b3o4b2o36bo809b$1184b2o4bo8bo14b2o356bo3bobo186b2obo17bo13bo18bo133bo11b2o64b2o846b$1192bo5b3o376b2o184bo2bobo16bobo12b3o5b2o7b3o133b3o11b2o55b3o852b$1198b3o376bo185b2o2bo4b2o11bo2bo14bo4b2o6bo131b2o6bo8b2o2bo46bobo4b2ob2o851b$1190b3o578bo2bo11b2o14b2o12b2o130bo6b2o9bobo48bo5b2obobo850b$1191bo84bo289b3o5bobo186b2o2bo4b2o175b3o7bo4bobob2o47bo6bo3bo850b$1198bobo74bobo287bo3bo5bo187bo2bobo20b2o160bo6bobo3b2o51bo6bo2bo851b$1199bo75bobo286bo5bo4bo189b2obo20bobo11b2o146bobo4bo2bo54b3o6b3o851b$1188bo5bo81bo304b2o185bob2o19bo11b2o3b2o142b2o5b2o55b3o23b2o835b$1189bo3bobo84b2o17b2o262bo7bo9b2o182b2obobo14b2o4b2o15b2o222b2o7bobo835b$1188bo5b2o3b2o79bobo16b2o7b2o253bo7bo193bo2bobobo12bo152b2o92b2o7bo837b$1199b2o81bo24bo2bo264bo103bo6bo14bo64bobo2b2o5b2o6b3o149b2o101b3o13bo821b$1282b2o23bo256bo5bo4bo102b2o6b2o12bobo64b2o9b2o8bo140b2o126b3o819b$1565bo3bo4bobo100b3o6b3o11bobo85bobo138bo2bo127bo818b$1306bo3bo234b4o12b2o3b3o109b2o6b2o11b2ob2o85b2o7b2o131b2o17b2o105b3o819b$1305bo5bo227bo5b2obo12b2o14bo101bo6bo83bo28bo150b2o66b2o21b3o13bo821b$1305bo5bo225bo2b2o6bo28b2o11bo3b2o173bobo27bobo216b2o21bo837b$1305b3ob3o223b6o5b2o27bo2bo3b2o4b2obob3o173bobo28b2o239bobo835b$1534bo40b3o4b2o4bo4b3o172b2ob2o269b2o835b$1170b2o145bo217b6o5b2o28bo11bo3bo14bo160bo189bo920b$1165b2o4bo144bobo218bo2b2o6bo40b3o15b3o72b2o85b4o167b2o15bobo919b$1164bo4b2o48b2o96b2o220bo5b2obo61bo71b2o7b2o80bo165bo2bobo6b2o4bobo4b2o913b$1164b2o53bo325b4o40b3o15b3o81bo79bobo165b2obob3o4bo2bo3bo3bo2bo84bo828b$1220b3o70b2o8b2o6b2o255b2o18bo3bo14bo81bobo79b2o9b2o158bo4bo4b3o7b3o83b3o828b$1166bo2bo52bo70b2o7bo2bo4bo2bo254b2o18bo4b3o93b2o91b2o152b2o4bob3o100bo831b$1175bo126bo2bo4bo2bo274b2obob3o172b2o167bo5b2o5b7o3b7o80b2o830b$1166b3o5b3o125bo2bo4bo2bo14b2o11bo248bo3b2o171bobo164b3o13bo6bobo6bo63bo848b$1173b2ob2o125b2o6b2o4b2o2b4o2bo2bo9bobo424bo136b2o28bo16bobob2o3b2obobo64b3o25bo820b$1160b2o10b3ob3o7b2o37b2o90bo2b6o2b3o9bobo353b2obo3bob2o59b2o136bo47b2obo5bob2o68bo23bobo819b$1160b2o10b3ob3o6bobo9bo27bobo90b10o11b2ob2o352bo2bo3bo2bo195bobo52bobo72b2o22bo3bo818b$1172b3ob3o2b2o2bo9b3o24b2obobo87b3o10bo271bo96b3o3b3o73b2o121b2o52b2ob2o87b2o6bo3bo818b$1172b3ob3o2bobob2o7bo6b2o19bobobo88bo2bo8b2o269b3o178bo268b2o6bo3bo818b$1166b3o4b2ob2o5bo10b2o6bo21bo91b2o279bo10bo171b3o252b2o19bo3bo818b$1174b3o6b4o4bo7b3o20bo2bo19b2o350b2o9bo145bo11b2o4b2o8bo172b2o77bo2bo18bo3bo818b$1166bo2bo5bo5b2o3bo3bobo6bo25bo18bo2bo332bo26b3o71bo71bobo9bo2bobo4bob2o176bobo77b2o19bo3bo818b$1180bo2b3o3bo2bo4bobo21bo3bo4b2o13b2o333b3o97bobo70bobo9b3o10bo177bo100bobo819b$1142b2o20b2o14b2obo6b2o5b2o22bo3bo4b2o99b2o250bo96bobo69b2ob2o11b2o6b2o280bo820b$1141bobo15b2o3bo2bo15bo41bo97b2o6bo6bo5bo237b2o23b3o71bo85bo2b6o2b3o116b2o4b2o974b$1141bo17b2o4b3o12b3o28b2o9bo2bo22b2o73b2o4bobo5b3o3b3o262bo76b2o17b2o61b2o8bo2bo116b2o4b2o974b$1135bo5b3o36bo30b2o11bo23bo80b2o5b2o2bobo2b2o253b2o6bo76bobo16b2o7b2o63b2o171bo927b$1133b3o82b2o2bobobo22b3o83bob4ob4obo237b2o13b2o6bo78bo25b2o235b3o926b$1132bo23bo62bo2b2obobo23bo85b3o3b3o238bo2bo20bo78b2o260b2ob2o5b2o918b$1133b3o17b2o3bo40b2o17bo6bobo5b2o101b3o5b3o238b2o20b3o162b2o124b2o48b3ob3o4bob2o2b2o912b$1135bo5b3o9b2obob2o13b2o24b2o17bobo4b2o7bo528b2o7b2o124b2o2b2o44b3ob3o6b2o2b2o912b$1141bo10bo6b2o12b2o44b2o10b3o479bo50bo137bobo43b3ob3o4bob2o916b$1141bobo9b2obob2o71bo375b3o102b3o34b3o5b3o4bobo122b2o13bo43b3ob3o4b2o72b2o5bo838b$1142b2o9b2o3bo449bo102b2ob2o34b3o3b3o6b2o122bo14b2o43b2ob2o79bobo3bo839b$1156bo35bo145bo269bo139bob4ob4obo129b3o57b3o81bo5bo838b$1191bobo15b2o20b2o10bo3bo89bobo235bo146bo26b2o2bobo2b2o132bo58bo77bo849b$1185b2o4bobo4b2o6bobo2bo17b5o7b2obobob2o71bo14b2ob2o233bobo144bobo26b3o3b3o269bobo848b$1142bo42bo2bo3bo3bo2bo4b3obob2o16bo4bo6bob2o3b2obo69bobo13b2ob2o233bobo145b2o27bo5bo219bo59bo841b$1142b3o41b3o7b3o4bo4bo19bo2b3o5bo2bo5bo2bo10b2o56bobo203bo46b2ob2o330b2o56b2o8b2o58b3o840b$1145bo58b3obo4b2o9bo3b2o2bo7bob2o3b2obo11b2o57bo15b3o185bobo170b2o208bo57b2o7b2o51b3o848b$1133b3o8b2o38b7o3b7o5b2o5bo8b3o5b2o9b2obobob2o5bo69b2o11bo5b2o179bobo170b2o10bo4bo194bo51bo13b2o2b2o9bo36b3o5bo842b$1162bo21bo6bobo6bo13b3o4bo21bo3bo5b2ob2o67bobo10bo5b2o7b2o169b2ob2o179b2ob4ob2o179bo11b2o50bobo27b3o35bo8bo4b2o834b$1132bo3bo23b3o22bobob2o3b2obobo16bo5b3o5b2o23bo71bo25b2o355bo4bo181b3o11b2o51b2o28bo41bo2bo3b2o834b$1132bo3bo22bo26b2obo5bob2o25bo3b2o2bo22bo71b2o445bo117b2o6bo8b2o2bo47bo2b2o25b3o41b2o842b$1159b2o30bobo34bo2b3o14b2o6bo516bobo116bo6b2o9bobo39b2o4b2obo14b2o2b2o9bo37bo5bo3bo839b$1133b3o54b2ob2o33bo4bo14b2o6b2o6bo96bobo409bobo117b3o7bo4bobob2o38b2o4bo2b4o10b2o51b3o5bo842b$1141b2o86b5o30bo75b3o6bobobo8bo340b2ob2o66bo120bo6bobo3b2o66b2o50b3o8bo839b$1141b2o13b2o73b2o112bo8bo2bo346bobobo2b2o37b2o17b2o124bobo4bo2bo52bob2o15bo901b$1133b3o19bo2bo105bo75bobobo12b2o213bo5bo125bo3bo3bo28b2o7b2o16bobo125b2o5b2o52b2ob2o917b$1156b2o105bobo75bo3bo4bob2obobo213b3o3b3o125b3ob3o29b2o25bo190b3o66bobo4bo25bo817b$1132bo3bo209bo4b2o9bo207bo3bobo3bo107b2o17bobo57b2o113b2o145bo6bobo5b2o15b2o816b$1132bo3bo121bo4b3o95bobo206bo9bo106bobo2b2o13bobob3o159b2o7b2o100bo52bo6b2o16b2o815b$1257b2o103b2o158b3o3b3o40b3o3b3o106bo2bobobo14b2obo2bo159bo107b3o72b2o2b2o6bo809b$1133b3o113b2o5b3o263bo2bobo2bo155b2obobo21b2o27bo125b2o4bobo104bo55bobo29b3o807b$1249b2o5bo6b3o72b2o182b2obobob2o158bob2o48bo3bo121bobo5b2o17b2o85b2o8b3o42bo2bo8bo23bo806b$1338b2o6bo2b2o4b2o2bo14b2o11bo134b2o5b2o155b2obo17bo34bo3bo120bobob2o21b2o68bo72bobo6b5o18b3o807b$1257bo5bobo79bo3b3o2b3o3bo2b2o8bo2bo9bobo295bo2bobo16bobo34bo2bo121bobobo91b3o23bo3bo35b2o13bo2bob2o5b2o2b2o6bo809b$1255b3o6bo81bo2b2o4b2o2bo3bo10b3o9bobo184b2ob2o106b2o2bo4b2o11bo2bo23bo9bo2bo123bo96bo22bo3bo35b2o12bo7bo9b2o815b$1255b3o106b10o11b2ob2o184bobo115bo2bo11b2o23bobo9bobo101b2o18bo2bo94b2o77bo2bob2o9b2o816b$1264bo96b3o2b6o2bo195b2ob2ob2ob2o103b2o2bo4b2o37b2o113bo2bo20bo30bo88b3o52b5o10bo817b$1264bo4b2o90bo2bo2b4o2b2o149b2ob2o42bobo3bobo104bo2bobo20b2o136b2o13b2o2bo3bo12b2o15bobo80b2o62bo830b$1259bo9bobo90b2o158bo2bobo2bo41bo5bo107b2obo20bobo25b2o6b2o8b2o105b2o2bo3bo11bo2bobo6b2o4bobo4b2o59b2o13b2o893b$1253b2o3bobo5b2obobo250bobo3bobo158bob2o19bo23bo4bo2bo4bo6b2o113bo11b2obob3o4bo2bo3bo3bo2bo58bo2bo19b3o885b$1259b2o5bobobo251b3o3b3o48b2o4bo2b2o96b2obobo14b2o4b2o22bo4bo2bo4bo95b2o21bo2bo14bo4bo4b3o7b3o60b2o91bo816b$1268bo99b2o152b2o54b2o6b2obo96bo2bobobo12bo29bo4bo2bo4bo96bo23bo9b2o4bob3o99bo3bo65b3o816b$1268b2o19b2o77b2o7b2o143b2o55bobo6bo11bo86bobo2b2o5b2o6b3o21b2o5b2o6b2o95b3o22bobobo8bo5b2o5b7o3b7o79bo3bo64bo819b$1268b3o17bo2bo85bo6bo5bo131b2o56b2o4b3o11b3o85b2o9b2o8bo21b2o110bo24b2obobo4b3o13bo6bobo6bo148b2o818b$1268b3o3b2o13b2o84bobo5b3o3b3o211bo105bobo148b2o9bobo4bo16bobob2o3b2obobo81b3o48bo836b$1268b3o3b2o99b2o5b2o2bobo2b2o187b2o4b3o11b3o107b2o148bo10b2o23b2obo5bob2o133b3o25bo808b$1268b3o110bob4ob4obo185bobo6bo11bo90bo169b3o37bobo141bo23b3o807b$1268b2o22b2o89b3o3b3o120bo2bob2obo2bo51b2ob2o6b2obo100bobo170bo36b2ob2o139b2o22b2ob2o806b$1268bo23bo89b3o5b3o118b2o2bo4bo2b2o50b2o2b2o4bo2b2o100bobo367b2o5b3ob3o805b$1266bobobo22b3o216bo2bob2obo2bo7b2o156b2ob2o366b2o5b3ob3o805b$1265bobob2o24bo235b2o156bo154bo14bo187b2o18b3ob3o805b$1265bobo9b2o411b4o150b2o12bo2bo104b2o78bo2bo17b3ob3o805b$1266b2o10bo228b2o11bo173bo148bobo11b5o104bobo78b2o19b2ob2o806b$1275b3o106bo122bobo8b4o170bobo136b2o23b2ob3o105bo101b3o807b$1275bo100b2o5bobo122bo8b5o170b2o9b2o126b2o24bob2o9bo199bo808b$1367bo8bobo3b2ob2o130bobobo181b2o153b2o10b3o96bo909b$1366bobo7bo5b2ob2o77bo51b3o170b2o182bo94bo910b$1366bobo94bobo13b8o201bobo50b2o115b2o10b3o89bo5bobo908b$1280b2o3bo81bo15b3o77bobo13bob4obo201bo52b2o114bob2o9bo90b3o5bo909b$1280b3obob2o83b2o11bo5b2o70b2ob2o12b8o200b2o156b2o9b2ob3o98b2ob2o914b$1280b3o4bo18b2o63bobo10bo5b2o7b2o444b2o10b5o97b3ob3o3b3o4b2o901b$1268bo14bo3bo18b2o65bo25b2o130b3o8b2o155b2obo155bo2bo97b3ob3o10b2o901b$1266b3o15b3o86b2o31bo109b2o13b3o9bo154bo2b2o17b2o137bo99b3ob3o2bo2bo907b$1265bo126bo12bobo108b2o7b2o3b5o8bobo152b2o19bobo108bo128b3ob3o2b3o908b$1266b3o15b3o102bo17b2o116b2o2b2o3b2o8b2o173bo110bo129b2ob2o914b$1268bo14bo3bo100bo5b2o7bo4bo73b2o45b2o3b2o13bo134bo17b2o14b2o109bobo129b3o915b$1280b3o4bo4b2o94bo3bob3o5b2o2b2o65b2o7b2o18bob2o42bobo132bobo11b2obo4bob2o121bo7bo123bo916b$1280b3obob2o4b2o94bo3b4ob2ob2o2b2o68bo27b2o2bob2o38bobo132bobo11bo10bo121bo7b2o1039b$1280b2o3bo103bo2bo3bo5bo57b3o3b3o5bobo28bo3bo39bo132b2ob2o11b2o6b2o104b2o16bo8b2o3b2o1033b$1307b3o80bo17bo50bo3bobo3bo5b2o24bob2ob2o21b2o3b2o159b3o2b6o2b3o101b2o16bo7b2o4b2o131b2o12b2o2bo883b$1300bobo5bo98bobo48bo3b2ob2o3bo30b2obo3b4o17b2o3b2o159bo2bo8bo2bo118bobo6bo138b2o12bob2o4bobo877b$1303bo4bo99b2o48bob2o5b2obo34bo2bo2bo18b5o161b2o10b2o120bo161bo6bo2bo876b$1300bo2bo3b3o150bo7bo37bobobo20b3o296bo141b2o18b3o4b2ob3o874b$1300bo2bo80b2o8b2o6b2o105bo21b3o471bo873b$1302bo4b3o74b2o6bo4bo2bo4bo93bo9b2o191b2o268b2o18b3o4b2ob3o874b$1293b2o4bob2o4b3o82bo4bo2bo4bo14b2o11bo64bobo7b3o182b2o7b2o259b2o6bo20bo6bo2bo876b$1293b2o4bo92bo4bo2bo4bo3b2o8bo2bo9bobo63bobo7bobob2o180bo140bo127b2o26bob2o4bobo877b$1307b3o84b2o6b2o5bo10b3o9bobo62b2ob2o7bo3b3o164b3o3b3o5bobo137bobo154b2o2bo883b$1308bo101b10o11b2ob2o30b3o45b2obo6b3o5b3o5b2o137bo3bobo3bo5b2o130b2o5b2o1043b$1308bo98b3o2b6o2bo45bobo15bo31b3o5b3o5b3o4bobo136bo3b2ob2o3bo136b2o1050b$1307b3o97bo2bo2b4o2b2o44bo3bo13bobo39b2o5b2o5bo138bob2o5b2obo1188b$1408b2o55bo3bo13bobo41bo3bo6b2o7b2o131bo7bo1190b$1484bo40bo2bobo2bo13b2o446bo883b$1303bo9b2o115bo5bo23b2o4b3o10b2o14b3o3b3o13b2o5bo3bobo3bo458b3o883b$1302bobo8bobo98b2o13b3o3b3o13b2o7b2o16bobo13bo2bo3bo2bo3b2o7b2o6bo2bobo2bo458bo886b$1303b2o5b2obobo98b2o7b2o3bo2b2ob2o2bo12b2o25bo15b2obo3bob2o4bo15b3o3b3o458b2o8b3o874b$1310bobobo108bo4b3o5b3o38b2o30bobo463bo903b$1312bo108bobo86b2o174b3o167b2o117b3o23bo3bo873b$1311b2o20b2o86b2o104b2ob2o12b8o134bobo15bo151bobo119bo22bo3bo873b$1310b3o19bo2bo192bobo13bob4obo133bo3bo13bobo101b2o48bo119b2o900b$1310b3o5b2o13b2o193bobo13b8o133bo3bo13bobo102bo193b3o874b$1310b3o5b2o131b3o75bo174bo100b3o44bo142b2o882b$1310b3o139bobobo223b2o4b3o10b2o104bo45b3o126b2o13b2o882b$1311b2o23b2o105bo8b5o214b2o7b2o16bobo149bobobo6bo117bo2bo19b3o874b$1312bo23bo105bobo8b4o45bo168b2o25bo151bobobo5b3o117b2o897b$1310bobobo22b3o89b3o10b2o11bo44b2ob2o192b2o152b3o5b2obo138bo3bo873b$1309bobob2o24bo88bo3bo67b2ob2o335b2o10bo13b2o133bo3bo873b$1309bobo9b2o105b2ob2o33b2o51bo310bo9bobo24bo1011b$1310b2o10bo90bo15bobo15bo2bob2obo2bo7b2o31bobobobo12bobo309b3o9bo2bobo18bo135b3o874b$1319b3o90bobo31b2o2bo4bo2b2o58bobo150b3o151b2o6bo7b2obobo5bo6b2obo1016b$1319bo92bobo14bobo15bo2bob2obo2bo41b2ob2o14bo151b3o126b2o23bo6b2o10bo6b3o6b3o1016b$1413bo14b2ob2o62b2o4b3o10b2o155bobo125bobo24b3o7bo4b4o5bobobo6bo1017b$1417b2o9bo3bo3b2o48b2o7b2o5bo10bobo147bo135bobob2o23bo6bobo3bo3b2o3bobobo1024b$1321bo8b2o3b2o80bobo9b3o4b2o7b2o39b2o25bo148bobo11bo123bobobo23bobo4bo2bo3b3o2bo3b3o1025b$1317b2o2bo7bo2bobo2bo81bo25b2o65b2o148b2o138bo26b2o5b2o6bob2o4bo24b2o1000b$1316bo5bo5bo9bo80b2o113bob2o242b2o19b2o41bo22b2o7bobo1000b$1315b2o2bobo5b2o9b2o10b2o85b2o12b3o80b2o2bob2o144b2o91bo2bo17b3o12b2o28b3o19b2o7bo1002b$1312bo3b2o3bo6bo9bo11b2o83b4o12bobo32b3o48bo3bo124bo2b2o4b2o2bo6b2o92b2o13b2o3b3o12b2o30bo28b3o13bo986b$1310b3o4b3o9bo2bobo2bo97b2o2b2o9b2o2bo30bo3bo43bob2ob2o125bo3b3o2b3o3bo114b2o3b3o5b2o82b3o984b$1309bo20b2o3b2o97bo3bob2obo3bob2ob2o31b2ob2o43b2obobob4o94bo11b2o14bo2b2o4b2o2bo120b3o5bo86bo983b$1310b3o4b3o115b4o4bo3bo2bo86bo2bo2bo93bobo9bo2bo8b2o114b2o22b2o6bo17b2o63b3o984b$1312bo3b2o3bo113b3o3bobo3bobo28bo60b2obo94bobo9b3o2b6o2bo115bo23bo4bobo17b2o24b2o21b3o13bo986b$1315b2o2bobo14b2o116bo22bobo60bo95b2ob2o11b2o6b2o113b3o22bobobo2b2o44b2o21bo1002b$1316bo5bo13b2o115bobo21b2o52bo104bo3bo10bo10b3o110bo23bobob2o71bobo1000b$1317b2o2bo30bo101b2o74bobo7bo93b3o3b3o8b2obo4bobo2bo127b2o5bobo75b2o1000b$1321bo21bo7b3o147b2o27bobo7bob4o87bo2bo3bo2bo12b2o4b2o128bo7b2o33bo1043b$1342b3o85b2o8b2o6b2o34b8o9b2o26b2ob2o7bo2bo2b2o88bobo153b3o21b2o15bobo1042b$1341bo2b2o84b2o7bo2bo4bo2bo33bob4obo53bo3b2o82b2o7b2o151bo20bo2bobo6b2o4bobo4b2o1036b$1341bo3bo5b3o84b6o2b6o32b8o55b4o82b2o7b2o12b2o158b2obob3o4bo2bo3bo3bo2bo42bo993b$1342b2obo93bo2bo4bo2bo98bo86bo3bo6b2o7b2o161bo4bo4b3o7b3o41b3o993b$1344b2o5bobo86b2o6b2o186b2ob2o7bo141bo22b2o4bob3o58bo996b$1337b2o12bobo114bo165b3o3b3o5bobo129b2o8b2o22bo5b2o5b7o3b7o38b2o8b3o984b$1337b2o5b2o121bobo79b2o83b2o5b2o6b2o128bo2bo5bob3o18b3o13bo6bobo6bo21bo26b3o984b$1342b2obo5b3o113b2o71b2o7b2o83bo7bo120b2o13b3ob2o8b2o17bo16bobob2o3b2obobo22b3o25bo985b$1341bo3bo182bo5bo6bo221b2o14bob2o8b2o9bo26b2obo5bob2o26bo24bo985b$1341bo2b2o181b3o3b3o5bobo236bo10bo10b3o29bobo30b2o24bo985b$1342b3o6b3o172b2o2bobo2b2o5b2o97bo163bo27b2ob2o45b2o7bobo984b$1343bo8bo172bob4ob4obo103bo149bo10b3o78b2o994b$1527b3o3b3o255b2o9bo67b2o1007b$1347bo7b2o169b3o5b3o240b2o13b2o75bo2bo19bobo984b$1346bobo6bobo280b2o3b2o132b2o9bob3o77b2o21bo985b$1347b2o3b2obobo432b2o101bo985b$1352bobobo301bo131bo102bo985b$1354bo124bobo175bobo102bo129b3o984b$1354b2o19b2o101bob2o52bo122bobo102bo129b3o984b$1354b3o17bo2bo100bo54bobo122bo102bobo1115b$1354b3o3b2o13b2o99b2ob3o19b2o29b2ob2o14bo82b2o2b2o3b2o8b2o107bo7bo1108b$1354b3o3b2o112bo2bobo2bo14b2o2bobo28b2ob2o13bobo72b2o7b2o16bobo107bo7b2o1107b$1354b3o117b2o5b2o14bobobo2bo45bobo72b2o25bo109bo8b2o3b2o1101b$1354b2o22b2o119bobob2o28b3o15bo89bo9b2o109bo7b2o4b2o1101b$1354bo23bo119b2obo25b2o5bo11b2o93bo119bobo6bo1108b$1352bobobo22b3o68bo18bo13bo17bob2o13b2o7b2o5bo10bobo74b2o5b2o131bo1116b$1351bobob2o24bo68b3o7b2o5b3o12bobo16bobo2bo11b2o25bo75bo2bo3bo2bo130bo1116b$1351bobo9b2o88bo6b2o4bo14bo2bo11b2o4bo2b2o37b2o75bo2bo3bo2bo1247b$1352b2o10bo87b2o12b2o14b2o11bo2bo122b2ob2ob2ob2o1247b$1361b3o132b2o4bo2b2o116b2o3b2o1249b$1361bo117b2o20bobo2bo12bo97bo138b2o9bo1111b$1465b2o11bobo20bob2o13bo3bo93bobo136bobo8bobo1110b$1460b2o3b2o11bo19b2obo17bo3bo92b2o137bobob2o5b2o1111b$1373bo3bo82b2o15b2o4b2o14bobob2o15bo2bo232bobobo1118b$1360b4o8bobobobo105bo12bobobo2bo5bo9bo2bo116b2o116bo1120b$1359b2o2bo6b2o2bobo2b2o100b3o6b2o5b2o2bobo5bobo9bobo97bo2bob2obo2bo7b2o94b2o19b2o1120b$1358b2o2bo7b2o7b2o11b2o87bo8b2o9b2o6b2o110b4ob2ob4o102bo2bo17b3o1120b$1354bo4bo2bo7b2o2bobo2b2o11b2o85bobo139bo2bob2obo2bo103b2o13b2o3b3o1120b$1352b3o5b2o10bobobobo91b2o7b2o34b2o6b2o8b2o216b2o3b3o1120b$1351bo21bo3bo92bo28bo13bo4bo2bo4bo6b2o59bo11b2o4b2o142b3o1120b$1352b3o5b2o106bobo27bobo12bo4bo2bo4bo66bobo9bo2bobo4bob2o114b2o22b2o1120b$1354bo4bo2bo105b2o28bobo12bo4bo2bo4bo66bobo9b3o10bo115bo23bo1120b$1358b2o2bo15b2o117b2ob2o13b2o6b2o67b2ob2o11b2o6b2o113b3o22bobobo1118b$1359b2o2bo14b2o121bo105bo2b6o2b3o110bo24b2obobo1117b$1360b4o29b3o101b4o106b2o8bo2bo127b2o9bobo1117b$1393b3o100bo121b2o128bo10b2o1118b$1388bo5bo101bobo250b3o1127b$1387bo2bo3bo91b2o9b2o252bo1127b$1370b2o18bo3bo91b2o31bobo90b2o1265b$1369bobo21bobo104b2o16bob2o81b2o7b2o1265b$1370bo15bo113bobo15bo85bo1274b$1379b2o4b2ob2o112bo13b2ob3o19b2o47b3o3b3o5bobo141b2o1129b$1365b3o6b3o2b2o5bo6bobo106b2o10bo2bobo2bo14b2o2bobo45bo3bobo3bo5b2o140bo2bo1128b$1365bo2bo5b3o17bo119b2o5b2o14bobobo2bo43bo3b2ob2o3bo118b2o25b2o2bo4bo1123b$1364bo3bo6bo18bo94b2o48bobob2o43bob2o5b2obo118b2o26bo2bo3bo3bo1120b$1364bobob2o5bo18bo95bo47b2obo48bo7bo149bo5b7o1118b$1365b2ob2o5bo17b3o93bo19bo13bo17bob2o216bo1117b$1360b2o4b3o5bobo16b3o94b3o7b2o5b3o12bobo16bobo2bo180bo20bo5b7o1118b$1360b2o131bo6b2o4bo14bo2bo11b2o4bo2b2o178b2ob2o17bo2bo3bo3bo1120b$1366b3o20bo102b2o12b2o14b2o11bo2bo186b2ob2o3b2o11b2o2bo4bo1123b$1365b2ob2o4bobo11bobo145b2o4bo2b2o178b2o2b2o2b2o12bo2bo1128b$1364bobob2o5bo13b2o128b2o20bobo2bo49b3o119bo7b2ob2o17b2o1129b$1364bo3bo6bo129b2o11bobo20bob2o51bobo15bo102b3o8bo1150b$1365bo2bo6bo26b2o96b2o3b2o11bo19b2obo53bo3bo13bobo100bobobo6b2o1150b$1365b3o6b3o25bobo95b2o15b2o4b2o14bobob2o50bo3bo13bobo100bobobo4bobo1151b$1374b3o22b2obobo119bo12bobobo2bo69bo102b3o1159b$1343b4o12b2o38bobobo117b3o6b2o5b2o2bobo46b2o4b3o10b2o107bo6b3o1151b$1337bo5b2obo12b2o40bo119bo8b2o9b2o38b2o7b2o16bobo1268b$1335bo2b2o6bo53bo2bo18b2o95bobo59b2o25bo123b2o1145b$1333b6o5b2o54bo20bo2bo85b2o7b2o54bo31b2o109bo13b2o1145b$1332bo67bo3bo2b2o13b2o86bo28bo34bobo12bo127b3o5b3o1151b$1333b6o5b2o54bo3bo2b2o99bobo27bobo32b2o17bo123bobobo1158b$1335bo2b2o6bo26b2o25bo107b2o28bobo32bo4bo7b2o5bo122bobobo4bobo1151b$1337bo5b2obo26b2o25bo2bo21b2o110b2ob2o32b2o2b2o5b3obo3bo123b3o6b3o1150b$1343b4o54bo23bo115bo34b2o2b2ob2ob4o3bo116b2o6bo9b3o1148b$1399bobobo22b3o108b4o38bo5bo3bo2bo116bobo15bo2bo1148b$1398bobob2o24bo107bo36bo17bo117bobob2o8bo3bob2o1148b$1398bobo9b2o124bobo33bobo135bobobo7bobo3bo1150b$1399b2o10bo114b2o9b2o33b2o138bo9b2o1155b$1342bo65b3o115b2o162b2o19bo2bo1164b$1342b3o63bo131b2o36b2o6b2o8b2o91bo2bo18bo1167b$1345bo194bobo33bo4bo2bo4bo6b2o92b2o13b2o4bo3bo1163b$1344b2o196bo33bo4bo2bo4bo115b2o4bo3bo1163b$1362bo43bo135b2o32bo4bo2bo4bo121bo1167b$1334bo25b3o44bo3bo166b2o6b2o99b2o22bo2bo1164b$1333bobo23bo44bo7bo116b2o157bo23bo1166b$1332bo3bo22b2o41bo5b2o2bo26b2o89bo154b3o22bobobo1164b$1332bo3bo64bob2o5b2o27b2o87bo156bo24b2obobo1163b$1332bo3bo4b2o56b3ob2o3b3o117b2o172b2o9bobo1163b$1332bo3bo4b2o13b2o40bo303bo10b2o1164b$1332bo3bo18bo2bo40b3ob2o3b3o292b3o1173b$1332bo3bo19b2o43bob2o5b2o293bo1173b$1333bobo66bo5b2o2bo12b2o1452b$1334bo69bo7bo12b2o14bo1437b$1407bo3bo29bo1437b$1406bo291bo1180b$1441bo255b2o1180b$1440bobo230b2o21b2o1181b$1673b2o22b2o2b2o9bo1166b$1433bo6b3o269b3o1164b$1432bobo280bo1163b$1426b2o3bo280b3o1164b$1426b2o4bobo5b3o254b2o2b2o9bo1166b$1433bo253b2o7b2o1181b$1440bobo244b2o8b2o1180b$1441bo229b3o24bo1180b$2879b$1441bo228bo3bo1204b$1441bo228bo3bo5b3o1196b$1436bo242bo2bo1196b$1435bobo233b3o5b2obo1196b$1436b2o1441b$1687bo1191b$1671b3o12b2o1191b$1679b2obo1196b$1670bo3bo4bo2bo1196b$1670bo3bo5b3o1196b$2879b$1671b3o1205b$2879b$1677bo1201b$1676bobo55bo1144b$1676b2o55bobo1143b$1733bobo1143b$1732b2ob2o1142b$2879b$2879b$2879b$2879b$1730b3o3b3o1140b$1730bo2bobo2bo1140b$1729bo3bobo3bo1139b$1729b4o3b4o1139b$1730bo7bo1140b$2879b$2879b$2879b$2879b$1773bo1105b$1772bobo1104b$1759b2o11bobo1104b$1759bobo9b2ob2o1103b$1760bo1118b$1755b2o1122b$1754b5o1120b$1754bo4bo2b2o1115b$1754b3o2bo2b2o1115b$1735b2o18bo2b2o1119b$1730b2o3b2o19b2o1121b$1494b2o234b2o1147b$1493bobo243bo16b2o1121b$1494bo243b3o14bo2b2o1119b$1737bo3bo12b3o2bo2b2o1115b$1499bo238b3obo11bo4bo2b2o1115b$1498b3o238b3o12b5o9b2o7b2o1100b$1497bobobo253b2o11bob2o3b2obo1100b$1497bobobo258bo7bo3bobo3bo1100b$1498b3o258bobo6b2o2bobo2b2o1100b$1484b2o5bo7bo259b2o8b3o3b3o1101b$1484b2o3b2o279bo5bo1102b$1489b2o1388b$1490b5o4bo1379b$1490b2ob2o3b3o1378b$1492b2o3bobobo1377b$1497bobobo1377b$1498b3o275b2o1101b$1499bo276b2o1101b$1466bo2b2o12b2o1394b$1460bobo4b2obo12b2o1394b$1459bo2bo6bo20b2o1387b$1457b3ob2o4b3o20b3o285bobo2bobo1093b$1456bo32bo3b2o279b2obo2bo2bo2bob2o1089b$1457b3ob2o4b3o18bob5o272b2o9bobo2bobo1093b$1459bo2bo6bo17bo2bo4b4o268b2o1110b$1460bobo4b2obo17bo2b4ob3o1380b$1466bo2b2o17bo2bob2o296b2o1086b$1790bobo1086b$1489bobo288b3o8bo1087b$1490bo279bo3bo6b2o2b3o1091b$1770bo2b2o7b2o2b2o1091b$1466bo302bob2o13b2o1091b$1466b3o301bo20bo1087b$1457b2o10bo169b2o129bo20bo1087b$1456bobo9b2o169bobo1237b$1456bobob2o24bo153bo115b2o1121b$1457bobobo22b3o269bo25b2o1095b$1459bo23bo150b3o117bobo16b2o7b2o1095b$1458b2o23b2o269b2o11bo5b2o1104b$1457b3o173bo3bo112bo15b3o1110b$1457b3o5b2o166bo3bo111bobo13bo3bo1109b$1457b3o5b2o2b2o9b2o267bobo13b2ob2o1109b$1457b3o9bobo7bo2bo151b3o7bo4b2o99bo1128b$1458b2o10b2o8b2o161bobo3b2o115b3o1110b$1459bo181b2o123b3o1110b$1450b2o5bobobo172b3o3bo1238b$1449bobo5b2obobo181bo1234b$1450bo9bobo170bo3bo2b4o1235b$1460b2o171bo3bo1241b$1446bo8bo232b3o1188b$1445b3o6b3o177b3o23b2o25bo3bo76b2ob2o1106b$1444bo2b2o201b2o7bobo24bo5bo18b2o55b2ob2o1106b$1444bo3bo201b2o7bo50bo2bo44b2o8b2ob2o1106b$1445b2obo5b3o202b3o13bo9bo7bo2b2o13b2o45bobo5bob2ob2obo1104b$1440b2o5b2o226b3o7bo7bo2b2o62bo5b3o3b3o1104b$1440b2o12bobo221bo72b2o7b2o5bo5bo1105b$1447b2o5bobo218b3o8bo5bo21b2o35b2o1126b$1445b2obo187b2o21b3o13bo11bo3bo22bo1164b$1444bo3bo5b3o179b2o21bo28b3o24b3o1161b$1444bo2b2o210bobo55bo1161b$1445b3o212b2o37b2o45b2o2b4o2b2o1121b$1425b2o19bo7b3o243bo45bo2b6o2bo1121b$1427bo27bo241b3o47b10o11b2ob2o1106b$1424b2o2bo10b2o256bo46b3o10b3o9bobo1107b$1425bo2bo10b2o227bo75bo2bo8bo2bo9bobo1107b$1415bo10bobo237b3o76b2o10b2o11bo1108b$1413b3o10b2o237bo10b2o1201b$1412bo252b2o9bobo24b4o1172b$1413b3o10b2o220bo24b2obobo24bo2b2o1171b$1415bo10bobo24b2o193b3o22bobobo26bo2b2o19b2o1149b$1425bo2bo24b2o196bo23bo14bo13bo2bo20b2o20bo3b3o1122b$1424b2o2bo221b2o23b2o11b3o14b2o42bobo2b5o1120b$1427bo134bo2bob2obo2bo101b3o9bo61bo3b2o1124b$1425b2o135b4ob2ob4o94b2o5b3o10b3o14b2o43bo2bo3b2obo1118b$1553b2o7bo2bob2obo2bo79b2o13b2o5b3o12bo13bo2bo43b3o3b2ob3o1116b$1553b2o97bo2bo19b3o26bo2b2o5b2o47bo1115b$1422bo230b2o20b2o26bo2b2o6b2o14bo20b3o3b2ob3o1116b$1422b3o152b2o96bo27b4o13b3o7bo19bo2bo3b2obo1118b$1413b2o10bo150bobo94bobobo41bo2bo12b2o12bo3b2o1124b$1412bobo9b2o138b2o11bo94bobob2o5b2o34bo3bo6bo4b2o12bobo2b5o1120b$1412bobob2o24bo114b2ob3ob3o7bo97bobo8bobo32b2o2bo6bobo18bo3b3o1122b$1413bobobo22b3o113b3o5bob2ob2ob2o2bo96b2o9bo35bo1158b$1415bo23bo114bob2ob3o3b2o3bo150b2o6b3o1147b$1414b2o23b2o112b2o2b2o3bo7bob2o3bo109bo1191b$1413b3o137bobob2o16bo2bo106b2o28b2o1162b$1413b3o5b2o131b4o19bo101bo5b3o27b2o12b3o1147b$1413b3o5b2o13b2o104b2o11b2o19bo101bobo40b2o1156b$1413b3o19bo2bo103bo25b2o107bo3bo38bo8bobo1147b$1414b2o20b2o102bobo10bo5b2o7b2o107bo3bo5bo5b2o23b2o2bo7bo1148b$1415bo124b2o10bobo4b2o116bo3bo4b3o4b2o24bo3bo1155b$1413bobobo118bo14bo3bo121bo3bo3bob2o30bo2bo7bo1148b$1413b2obobo116bobo13bo3bo121bo3bo3b2o33b3o7bo1148b$1416bobo116bobo12b3ob3o120bo3bo43bo1153b$1416b2o118bo14bo3bo122bobo43bobo1152b$1411b2o138b2ob2o123bo45b2o1152b$1406b2o4bo139bobo1324b$1405bo4b2o141bo1325b$1405b2o287b2o12b2o2bo1166b$1687bo6b2o12bob2o4bobo1160b$1407bo2bo298bo6bo2bo1159b$1416bo272b2o18b3o4b2ob3o1157b$1407b3o5b3o117b2o17bo3bo130b2o31bo1156b$1414b2ob2o116bobo16bo3bo128bobo19b3o4b2ob3o1157b$1401b2o10b3ob3o116b2o6b2o134b2o6bo20bo6bo2bo1159b$1401b2o10b3ob3o124bobo133b2o26bob2o4bobo1160b$1413b3ob3o126bo4b2obo3bob2o146b2o2bo1166b$1413b3ob3o117b2o7b2o4b3o3b3o1318b$1407b3o4b2ob2o118b2o14bo5bo1319b$1415b3o1461b$1407bo2bo5bo1462b$1531b2o179bo1166b$1385b2o18b2o123bo2bo8b2o166b3o1166b$1384bo2bo12b2o3bo2bo121b3o10bo165bo10b2o1157b$1379bo4bo2b2o11b2o4b3o124b10o11b2ob2o36b2o6b2o104b2o9bobo1156b$1376bo3bo3bo2bo144bo2b6o2b3o9bobo35bo4bo2bo4bo85bo24b2obobo1156b$1374b7o5bo145b2o2b4o2bo2bo9bobo35bo4bo2bo4bo85b3o22bobobo1157b$1373bo146bo4bo17b2o11bo36bo4bo2bo4bo6b2o80bo23bo1159b$1374b7o5bo131b2ob4ob2o67b2o6b2o8b2o79b2o23b2o1158b$1376bo3bo3bo2bo26b2o92b2o10bo4bo193b3o1157b$1379bo4bo2b2o25b2o92b2o79b2o121b2o5b3o1157b$1384bo2bo201bobo105b2o13b2o5b3o1157b$1385b2o145b2o56bo17bo87bo2bo19b3o1157b$1531bobo62bo5bo3bo2bo87b2o20b2o1158b$1532bo60b2o2b2ob2ob4o3bo108bo1159b$1517b2o9b2o61b2o2b2o5b3obo3bo106bobobo5b2o1150b$1383bo132b3obo5bob3o59bo4bo7b2o5bo105bobob2o5bobo1149b$1383b3o129b2o4bo3bo4b2o58b2o17bo106bobo9bo1150b$1374b2o10bo129bob3o5b3obo60bobo12bo110b2o1160b$1373bobo9b2o130b4o5b4o62bo31b2o105bo1147b$1373bobob2o24bo115bo7bo70b2o25bo104bobo1146b$1374bobobo22b3o93b2o99b2o7b2o16bobo101b2o1148b$1376bo23bo96bo25b2o81bobo17b2o94b3o1154b$1376b2o22b2o93bobo16b2o7b2o80b3o6bo16bo90bobo1154b$1376b3o116b2o17b2o89b2ob3ob2ob2o13bobo89b3o5bo6b2o1140b$1376b3o3b2o107bo114b5ob2ob2o13bobo89b3o6b2o4b2o1140b$1376b3o3b2o13b2o91bobo115bo5bo16bo90b3o3bo2bo1147b$1376b3o17bo2bo90bobo116b2ob2o108b3o4b2o1148b$1376b2o19b2o92bo230bobo1154b$1376bo345b3o1154b$1367b2o5bobobo1500b$1362bo3bobo5b2obobo228bo5bo1264b$1361bobo3bo9bobo227b2o5b2o137bo3b3o1119b$1360b2obo13b2o128b3o3b3o90bob2o3b2obo113bobo5b2o12bobo2b5o1117b$1361b2o144bo2bobo2bo90bob2o3b2obo121b2o12bo3b2o1121b$1371b3o133bo7bo91b3o3b3o114bo2bo19bo2bo3b2obo1115b$1363b3o4bo3bo232b3o3b3o6b2o109bo20b3o3b2ob3o1113b$1363b3o4bo3bo133bo5bo106bobo107bobo32bo1112b$1364bo6b3o125b2o8b2ob2o107bo109bobo20b3o3b2ob3o1113b$1357b2o140bobo118b2o7b2o93b2o6bo20bo2bo3b2obo1115b$1357b2o142bo127b2o93b2o26bo3b2o1121b$1492b2o7b2o249bobo2b5o1117b$1364bo127b2o259bo3b3o1119b$1363b3o5b3o261b2o1242b$1363b3o4bo3bo97b4o148b2o8bo2bo1241b$1370bo3bo96b6o9b2o136bo10b3o1241b$1361bobo7b3o96b8o7bo2bo8b2o110b2ob2o11b10o121bo1122b$1344b2o3bo10bo2bo105b2o6b2o6b3o10bo111bobo9b3o2b6o2bo8b2o108b3o1122b$1344b3obob2o4b2o3bo2bo94b2o9b8o10b10o11b2ob2o96bobo9bo2bo2b4o2b2o6bo4bo105bo10b2o1113b$1344b3o4bo4b2o3b2ob2o93b2o10b6o10bo2b6o2b3o9bobo98bo11b2o16bo6bo104b2o9bobo1112b$1332bo14bo3bo10bobo107b4o11b2o2b4o2bo2bo9bobo127bo8bo86bo24b2obobo1112b$1330b3o15b3o12bo119b2o13b2o11bo128bo8bo86b3o22bobobo1113b$1329bo152bobo155bo8bo8b2o79bo23bo1115b$1330b3o15b3o121b2o4b2o3bo157bo6bo9b2o78b2o23b2o1114b$1332bo14bo3bo18b2o100bo2bobo2bo161bo4bo115b3o1113b$1344b3o4bo18b2o100bo2bo2bo155b2o8b2o110b2o5b3o1113b$1344b3obob2o108bo12bobo158bobo104b2o13b2o5b3o1113b$1344b2o3bo111bobo171bo104bo2bo19b3o1113b$1461bobo277b2o20b2o1114b$1642b2ob2o116bo1115b$1448b2o192bo3bo114bobobo1113b$1339bo108bo25b2o166bo3bo113bobob2o1113b$1339b3o104bobo16b2o7b2o167bobo114bobo1116b$1330b2o10bo103b2o17b2o177bo116b2o5b2o1109b$1329bobo9b2o99bo226b2o97bobo1108b$1329bobob2o24bo81bobo199b2o25bo98bo1109b$1330bobobo22b3o81bobo199b2o7b2o16bobo1206b$1332bo23bo85bo209b2o17b2o1206b$1331b2o23b2o318bo87bo1114b$1330b3o342bobo85b3o4b2o1107b$1330b3o5b2o119bo5bo209bobo84b5o3b2o1107b$1330b3o5b2o13b2o103b3o3b3o209bo94b2o1106b$1330b3o19bo2bo101bo2b2ob2o2bo303b2o5b2o1099b$1331b2o20b2o102b3o5b3o301bobobo4b2o1099b$1332bo437bo2bo1105b$1323b2o5bobobo434b2obo1106b$1322bobo5b2obobo434b3o1106b$1323bo9bobo114b2o310b5o1112b$1333b2o115bobo310b3o1113b$1327b3o122bo311bo1114b$1185b3o255b2o7b2o198b2o5b2o133b2o1083b$1184bo3bo137bo3bo112b2o207bob2ob2obo6b2o110b2o11b2o2bo1082b$1184bo3bo137bo3bo322bobobobo6bobo110b2o11b6o1081b$1185b3o20b2o443bobobobo6bo125b4o4bo3bo1074b$1207bo2bo102b2o4bo7b3o107b2o213bo7bo4b2o7b2o124b7o1072b$1193b2o13b2o103b2o3bobo115bo2bo8b2o224b2o131bo1071b$1193b2o126b2o113b3o2b6o2bo350b7o1072b$1323bo3b3o109b2o6b2o11b2ob2o300b2o25b4o4bo3bo1074b$1185b3o23b2o106bo118bo10b3o9bobo189b3ob3o20b2o83b2o25b6o1081b$1184bo3bo22bo108b4o2bo3bo107b2obo4bobo2bo9bobo191bobo11b2o8bo2bo109b2o2bo1082b$1184bo3bo23b3o111bo3bo92bo2bo4bo2bo8b2o4b2o11bo190bo5bo9bo10b3o111b2o1083b$1185b3o26bo87b2o117b3o2b6o2b3o217b2ob2o11b10o7bo2bob2obo2bo1180b$1196b2o103b5o21b3o84b2o7bo2bo4bo2bo220bobo9b3o2b6o2bo5b2o2bo4bo2b2o1179b$1197bo103bo4bo5b2o100b2o239bobo9bo2bo2b4o2b2o6bo2bob2obo2bo7b2o1171b$1194b3o104b3o2bo5b2o342bo11b2o36b2o89bo1081b$1194bo93bo13bo2b2o131b2o355b3o1081b$1286b3o14b2o132bobo242b2o11bo98bo10b2o1072b$1285bo152bo243bobo8b4o97b2o9bobo1071b$1197bo55b2ob2o28b3o14b2o121b2o3b2o250bo8b5o80bo24b2obobo1071b$1197b2o55bobo31bo13bo2b2o19b2o97bobo3bobo258bobobo80b3o22bobobo1072b$1195bob3o49b2obo5bob2o39b3o2bo19b2o96b2obo3bob2o256b3o86bo23bo1074b$1199b2o24b2o21bobob2o3b2obobo16bo21bo4bo118b2o5b2o345b2o21bo2bo1073b$1187bobobo6b2o18bo6b2o20bo6bobo6bo13b3o21b5o120bo5bo372bo1073b$1185b3obobo6bo18bobo27b7o3b7o5b2o5bo25b2o493b2o2bo3bo1073b$1184bo32bobo47b3obo4b2o125b2o377b2o13b2o2bo3bo1073b$1185b3obobo6bo18bo31b3o7b3o4bo4bo131bo25b2o286b2o62bo2bo20bo1073b$1187bobobo6b2o17bo2bo27bo2bo3bo3bo2bo4b3obob2o20bo105bobo16b2o7b2o260b2o25bo63b2o18bo2bo1073b$1199b2o10b2o35b2o4bobo4b2o6bobo2bo20b3o103b2o17b2o269b2o7b2o16bobo83bo1074b$1195bob3o11b2o5bobo33bobo15b2o12b2o10bo98bo302b2o4b3o10b2o81bobobo5b2o1065b$1197b2o56bo29bobo9b2o97bobo307b3o15bo76bobob2o5bobo1064b$1197bo87bobob2o24bo80bobo306bo3bo13bobo75bobo9bo1065b$1286bobobo22b3o81bo307b2ob2o13bobo76b2o1075b$1226b3o53b2o4bo23bo392bo3bo14bo91bo1062b$1226bobo33b2o17bobo3b2o23b2o392bobo106bobo1061b$1220b2o4b3o33b2o17bo4b3o417bobo99bo5bo2bo1061b$1219bo2bo3b3o53bo3b3o5b2o411bo100bo6bo1063b$1212b2o4b2o6b3o52b2o3b3o5b2o13b2o496bobo1069b$1212b2o6bo5b3o45b2o10b3o19bo2bo496bo7bo5b2o1055b$1226bobo45b2o11b2o20b2o102b3o3b3o386bo5bobo5b2o1055b$1226b3o59bo123bo3bobo3bo385bo4bo2bo1062b$1220b2o31b2o5b2o24bobobo120bo3b2ob2o3bo278b2ob2o101bo5b2o1063b$1218bobo31bo2bo4bobo23b2obobo113b2o4bob2o5b2obo277bo5bo99bobo1069b$1164b3o52bo28b2o3bobo6bo26bobo113bobo5bo7bo293b2o91bo1070b$1163bo3bo76b2obobo4bo7b3o24b2o116bo292bo7bo5bobo91bo1070b$1163bo3bo54bo22bobo9b2o6bo132b2o7b2o291bo2bobo2bo5bo1164b$1164b3o20b2o32bobo20bo2b2o8bo6b2o132b2o300b3o3b3o4b2o7b2o1155b$1186bo2bo32b2o21b2o11b3o461b2o91b2o6b2o14b2o1038b$1172b2o13b2o58b2o11bo554b3o5b2o15b2o1037b$1172b2o73bo144b2o422b2o18b5o7bo1030b$1221b2ob2o22b3o140bo2bo8b2o323b2o87bo18b4o8b3o1028b$1164b3o23b2o30bobo25bo140b3o10bo312b2o8bo2bo85bobo32bo1027b$1163bo3bo22bo26b2obo5bob2o164b10o11b2ob2o297bo2b6o2b3o85b3o7b2o8b4o8b3o1028b$1163bo3bo23b3o22bobob2o3b2obobo16bo145bo2b6o2b3o9bobo283b2ob2o11b2o6b2o81b2o14bobob2o5b5o7bo1030b$1164b3o26bo21bo6bobo6bo13b3o17bo113b2o6b2o4b2o2b4o2bo2bo9bobo284bobo9b3o10bo80b2o13b2o3b2o9b2o1037b$1175b2o38b7o3b7o5b2o5bo20b3o109bo4bo2bo4bo13b2o11bo285bobo9bo2bobo4bob2o96bobob2o8b2o1038b$1176bo58b3obo4b2o6b2o14bo108bo4bo2bo4bo313bo11b2o4b2o8bo2bo4bo2bo82b2o1051b$1173b3o41b3o7b3o4bo4bo13bo13b2o100b2o6bo4bo2bo4bo339b3o2b6o2b3o1133b$1173bo42bo2bo3bo3bo2bo4b3obob2o10bobo113b2o8b2o6b2o343bo2bo4bo2bo7b2o1126b$1216b2o4bobo4b2o6bobo2bo11b2o2b2o491b2o1126b$1222bobo15b2o16b2o133b2o446bo1037b$1223bo168bobo332b2o110b3o1037b$1178b2o3bo209bo333bobo108bo10b2o1028b$1178b3obob2o195b2o3b2o340bo109b2o9bobo1027b$1178b3o4bo18b2o47b2o4b2o119bobo3bobo346bo3b4ob2obo73bo24b2obobo1027b$1166bo14bo3bo18b2o24b2o21b2o4b2o119bo7bo341b3o2bo3bo4b2ob2o72b3o22bobobo1028b$1164b3o15b3o45b2o17b2o129b3o3b3o340b3ob3o3bo4bo2b3o74bo23bo1030b$1163bo85bobo476bobo2b2o5bob2o3b2o74b2o22b2o1030b$1164b3o15b3o66bo476b3o108b2o5b3o1030b$1166bo14bo3bo25bo30b2o7b2o105b2o368b2o109b2o5b3o1030b$1178b3o4bo4b2o19b3o28b2o114bo26bo344bo31b2o62b2o18b3o1030b$1178b3obob2o4b2o22bo141bobo16b2o7b2o350b2o25bo61bo2bo17b3o1030b$1178b2o3bo27b2obo6b2o5b2o24b2o100b2o17bo2bo357b2o7b2o16bobo60b2o19b2o1030b$1211bo2b3o3bo2bo4bobo22bobo96bo15b3o374b2o17b2o82bo1030b$1212b2o3bo3bobo6bo22bo97bobo13bo3bobo395bo76bobobo1028b$1205b3o6b4o4bo7b3o19b2o97bobo13bo3bobo3b2o389bobo74bobob2o5b2o1021b$1205bobo6bo10b2o6bo118bo15b2o398bobo74bobo8bobo2bo1017b$1197b2o6b3o4bobob2o7bo6b2o136bo3bo394bo76b2o9b6o1016b$1196bobo6b3o4b2o2bo9b3o631bob2o1015b$1191b2o3bo8b3o8bobo9bo630b2o1018b$1191b2o3bobo6b3o9b2o526b3o3b3o105b2o1018b$1197b2o6bobo160b2o5b2o368bo2bobo2bo98bo6b2o1018b$1205b3o536bo3bobo3bo96bobo6b2obo1015b$1367bo9bo366b4o3b4o95bo3bo1024b$1253bo113bo3bobo3bo367bo7bo96bo3bo11b2o1011b$1251b3o113bo3bobo3bo472bo3bo11b2o1011b$1250bo109b2o6bobo3bobo473bo3bo1024b$1201bo48b2o108bobo6bo5bo384b2o88bo3bo1024b$1200bobo159bo396bobo88bo3bo5b2obo1015b$1201b2o150b2o7b2o395bo91bobo5b2o1018b$1353b2o403b2o7b2o83bo6b2o1018b$1767b2o90b2o18bo999b$1860bob2o11b2o2bo999b$1347b2o4b2o505b3o4b2o5bo5bo998b$1346bo2bobo4bob2o413b2o86bo5b2o4b2o2bobo999b$1346b3o10bo402b2o2b4o2bo2bo98b2o3bo12bo986b$1349b2o6b2o11b2ob2o387bo2b6o2b3o99b3o14b3o984b$1223b2o5b2o116bo2b6o2b3o9bobo373b2ob2o11b10o122bo983b$1218b2o4bo5b2o116b2o8bo2bo9bobo374bobo9b3o10bo101b3o14b3o984b$1217bo4b2o135b2o11bo375bobo9bo2bo8b2o79b2o19b2o3bo12bo986b$1217b2o530bo11b2o17b8o65b2o18b2o2bobo999b$1356b2o422bob4obo86bo5bo998b$1219bo2bo130b2o2bo422b8o9b2o76b2o2bo999b$1228bo124bob2o440b2o80bo999b$1219b3o5b3o1649b$1226b2ob2o136b2o404b2o1104b$1213b2o10b3ob3o135bo405bobo109bo993b$1213b2o10b3ob3o13b2o118bobo406bo108b3o993b$1225b3ob3o13b2o118b2o409bob2o7b2obo91bo10b2o984b$1225b3ob3o119b2o422bo2b2o7b2o2bo90b2o9bobo983b$1219b3o4b2ob2o120b2o9b2o411bo5bo3bo5bo73bo24b2obobo983b$1227b3o131bobo411b2o4bo3bo4b2o73b3o22bobobo984b$1097bo121bo2bo5bo132bo415bo11bo78bo23bo986b$1096b3o101bo161b4o413b2o5b2o79b2o21bo2bo985b$1199b2o16b2o147bo441b2o73b2o8bo985b$1198b3obo9b2o3bo2bo141b2ob2o415b2o25bo73b2o4bo3bo985b$1096b3o20b2o76b2o13b2o4b3o112b2o28bobo416b2o7b2o16bobo58b2o17bo3bo985b$1118bo2bo66bo9b2o133bobo27bobo425b2o17b2o57bo2bo20bo985b$1096bobo5b2o13b2o65b3o10bo135bo28bo450bo54b2o18bo2bo985b$1096bobo5b2o79bo149b2o7b2o468bobo75bo986b$1153b2ob2o28b3o10bo10bo133bobo467bobo73bobobo984b$1096b3o23b2o30bobo31bo9b2o8b2obo14b2o118bo8b2o9b2o447bo73bobob2o3b2o5b2o972b$1122bo26b2obo5bob2o35b2o8b2ob3o13b2o118b3o6b2o5b2o2bobo520bobo6bobo3bo974b$1123b3o22bobob2o3b2obobo16bo18b3obo5bo2bo137bo12bobobo2bo520b2o7bo5b2o972b$1096b3o26bo21bo6bobo6bo13b3o19b2o8b2o114b2o15b2o4b2o14bobob2o1509b$1097bo9b2o38b7o3b7o5b2o5bo23bo124b2o3b2o11bo19b2obo526b3o983b$1108bo58b3obo4b2o152b2o11bobo20bob2o523b3o983b$1105b3o41b3o7b3o4bo4bo172b2o20bobo2bo522bo6b3o975b$1105bo42bo2bo3bo3bo2bo4b3obob2o20bo165b2o4bo2b2o522bo7bo976b$1148b2o4bobo4b2o6bobo2bo20b3o119b2o12b2o14b2o11bo2bo530bo6b2o976b$1154bobo15b2o12b2o10bo119bo6b2o4bo14bo2bo11b2o4bo2b2o419b2o5b2o93bobo6b2o4b2o969b$1155bo29bobo9b2o106b2o8b3o7b2o5b3o12bobo16bobo2bo419bob2ob2obo6b2o93bobo4b2o969b$1119b2o64bobob2o24bo89bo9bo5bo12bo13bo17bob2o422bobobobo6bobo93b3o975b$1106b2o8b2obobo64bobobo22b3o87bobo15b3o39b2obo425bobobobo6bo87bobo5bob2o974b$1105b2o9b2o3b2o13b2o44b2o4bo23bo90b2o19bo14b2o23bobob2o421bo7bo4b2o7b2o79bo6b3o975b$1098bo7b5o5b2obobo14b2o24b2o17bobo4b2o22b2o109b2o15bo5b2o14bobobo2bo443b2o79bo7b2o975b$1096b3o8b4o8b2o41b2o17bo6b3o149bobobo2bo14b2o2bobo525bo7b2o975b$1095bo86bo5b3o3b2o140b2o3b2ob3o19b2o525b3o4bobo976b$1096b3o8b4o18bo51b2o5b3o3b2o13b2o71b2o52bo6bo448b3ob3o20b2o72b3o5b3o22b2o951b$1098bo7b5o17bobo12bo30b2o12b3o17bo2bo70b2o50bobo6bob2o447bobo11b2o8bo2bo79b3o5b2o14b2ob2o949b$1105b2o15b2o3b2ob2o11b3o28b2o12b2o19b2o123b2o8bobo445bo5bo9bo10b3o87b2o15bo2bo949b$1106b2o14b2o3bo2bo15bo41bo131b2o471b2ob2o11b10o10b2o95bo2bo4bo944b$1126bo2bo13b2obo6b2o5b2o24bobobo129b2o9b2o461bobo9b3o2b6o2bo7bo4bo69b2o23b2o5b3o942b$1127bobo7b3o3bo2b3o3bo2bo4bobo23b2obobo138bobo461bobo9bo2bo2b4o2b2o6bo6bo68b3o32bo941b$1136bo3bo3b2o3bo3bobo6bo26bobo138bo464bo11b2o16bo8bo67b2o6b3ob3o10b2o5b3o942b$1129b3o4bo3bo5b4o4bo7b3o24b2o140b4o490bo8bo60b2o12bob2ob2obo8bo2bo4bo944b$1129b3o5b3o6bo10b2o6bo169bo489bo8bo8b2o50b2o11b2o7b2o7bo2bo949b$1130bo12b2obob2o7bo6b2o165b2ob2o490bo6bo9b2o64bob2ob2obo7b2ob2o949b$1145bo2bo9b3o171bobo492bo4bo77b3ob3o9b2o951b$1123b2o19bo3bobo9bo171bobo484b2o8b2o1048b$1123b2o24b2o182bo485bobo1057b$1130bo6b3o173b2o505bo3b2o4b2o1047b$1129b3o4bo3bo172bobo510b2obob2o94bo951b$1129b3o4bo3bo151b2o21bo8b2o9b2o491bob2o93b3o951b$1137b3o45bo106b2o21b3o6b2o5b2o2bobo491bo94bo10b2o942b$1127b2o54b3o90bo2b2o4b2o2bo28bo12bobobo2bo11bo6bo484b2o80b2o9bobo941b$1126b2obo52bo92bo3b3o2b3o3bo20b2o4b2o14bobob2o10b2o6b2o548bo24b2obobo941b$1127bobo3bo48b2o84b2o6bo2b2o4b2o2bo22bo19b2obo12b3o6b3o547b3o22bobobo942b$1128bo3bobo133b2o42bobo20bob2o10b2o6b2o8b2o485b2o54bo23bo944b$1133b2o178b2o20bobo2bo9bo6bo9b2o459b2o25bo53b2o21bo2bo943b$1292b2o36b2o4bo2b2o487b2o7b2o16bobo77bo943b$1291bobo22b2o11bo2bo10b2o492b2o17b2o69b2o2bo3bo943b$1276bo4b2o9bo22bo2bo11b2o4bo2b2o2bobo7bobo505bo50b2o13b2o2bo3bo943b$1271bo3bo4bob2obobo28bobo16bobo2bo3bo4b2o3b3o503bobo48bo2bo20bo943b$1270bobobo12b2o28bo17bob2o10b5o2bo503bobo49b2o18bo2bo943b$1275bo8bo2bo44b2obo15b2o2b2o504bo72bo8b2o934b$1270b3o6bobobo8bo17b2o21bobob2o14b2o577bobobo6bobo933b$1155b2o5b2o127bobo16bo2bob2o14bobobo2bo499bo5bo86bobob2o7bo934b$1154bobo5b2o147b3obobo13b2o2bobo499b3o3b3o85bobo945b$1155bo101b2o56bobo17b2o499b2o2bobo2b2o85b2o5bo939b$1257bo25b2o28b3ob3o58b2o456bo3bobo3bo91b3o938b$1151bo8bo94bobo10bo5b2o7b2o27bo3bo3bo31b2o25bo456bob2o3b2obo90bobobo937b$1150b3o6b3o93b2o10bobo4b2o36b2o2bobobo31b2o7b2o16bobo454b2o7b2o90bobobo937b$1149bo2b2o97bo14bo3bo40bobo3b2ob2o39b2o17b2o556b3o938b$1149bo3bo96bobo13bo3bo114bo553bo7bo5b2o924b$1150b2obo5b3o88bobo12b3ob3o112bobo465b2o94b2o3b2o924b$1145b2o5b2o97bo14bo3bo37bo6bo68bobo464bobo94b2o929b$1145b2o12bobo15b2o87b2ob2o36b2o6b2o68bo465bo87bo4b5o930b$1152b2o5bobo15b2o88bobo36b3o6b3o532b2o7b2o77b3o3b2ob2o930b$1150b2obo114bo38b2o6b2o8b2o532b2o76bobobo3b2o932b$1149bo3bo5b3o146bo6bo9b2o610bobobo937b$1149bo2b2o784b3o15b2o921b$1150b3o148b2o59bo5bo496b2o72bo15b4o7b2o911b$1151bo7b3o139bobo57b3o3b3o484b2o8bo2bo86bobobo6bo2b2o909b$1160bo108bo3bo28bo58bob2ob2obo484bo2b6o2b3o86b2ob3o4b6o909b$1131b4o5b6o123bo3bo89b2ob2o471b2ob2o11b2o6b2o92b2obo5b4o9bo899b$1131bob2o7b4o113b2o48b2ob2o49b2ob2o472bobo9b3o10bo91b2obo18b3o897b$1120bo10bo7bob2o110b2o4bobo46b2o3b2o48b2ob2o8b2o462bobo9bo2bobo4bob2o7b4o105bo896b$1118b3o11b2o5b2o112b2o6bo4b2obo3bob2o32b2ob2o61bobo463bo11b2o4b2o11b6o79b2obo18b3o897b$1117bo143b2o4b3o3b3o34b3o62bo495b8o61b2o15b2obo5b4o9bo899b$951b2o11bo153b3o11b2o5b2o127bo5bo36bo62b2o7b2o485b2o6b2o60b2o14bo2bo4b6o909b$940b2o2b4o2bo2bo9bobo154bo10bo7bob2o15b2o150b2o24b2o45b2o486b8o9b2o67b2o6bo2b2o909b$940bo2b6o2b3o9bobo165bob2o7bo15b2o150b2o25bo534b6o10b2o67b2o7b2o911b$941b10o11b2ob2o164b4o5b3o103b2o62b2o7b2o16bobo533b4o1002b$938b3o10bo293bo2bo8b2o60b2o17b2o524b2o1013b$938bo2bo8b2o293b3o10bo84bo520bobo1012b$939b2o307b10o11b2ob2o68bobo521bo2bo9bo92bo906b$1247bo2b6o2b3o9bobo46b3o3b3o14bobo18b2ob2o10bo2bob2obo2bo481bo5bo92b3o906b$1127bo119b2o2b4o2bo2bo9bobo46bo2bobo2bo15bo20bobo11b4ob2ob4o481bo5bo4b2o85bo10b2o897b$1127b3o105b2o21b2o11bo49b2ob2o38bobo11bo2bob2obo2bo475bo3bobo5bobo3bo85b2o9bobo896b$954b2o162b2o10bo104bo129bo499bobo13bobo68bo24b2obobo896b$946b2o6bo162bobo9b2o102bobo19b2o60bo11bo536b2o13b2o69b3o22bobobo897b$946b2o4bobo162bobob2o24bo85b2o17b2o2bo61bo9bo626bo23bo899b$952b2o164bobobo22b3o104bob2o64bobobobo572b2o53b2o22b2o899b$1120bo23bo175bobobobo546b2o25bo69b2o5b3o899b$1119b2o23b2o120b2o53b2ob2o547b2o7b2o16bobo67b2o5b3o899b$1118b3o91b2o52bo51bo2bo3bo2bo553b2o4b3o10b2o54b2o18b3o899b$959b2obo3bob2o148b3o5b2o84b2o50bobo52b2o5b2o560b3o15bo49bo2bo17b3o899b$959bo2bo3bo2bo148b3o5b2o13b2o121b2o68b2o551bo3bo13bobo49b2o19b2o899b$960b3o3b3o149b3o19bo2bo106b2o81bobo551b2ob2o13bobo71bo899b$1119b2o20b2o107b2o9b2o70bo553bo3bo14bo70bobobo5b2o890b$1120bo139bobo69b2o7b2o545bobo85bobob2o5bobo889b$1118bobobo137bo80b2o545bobo85bobo9bo890b$944bo167b2o4b2obobo137b4o624bo87b2o900b$943bobo165bobo7bobo141bo717bo895b$943bobo166bo8b2o138b2ob2o716b3o894b$944bo317bobo716bobobo893b$948b2o17b2o140bo152bobo716bobobo893b$948bobo16b2o7b2o132b2o151bo57b2ob2o10bo2bob2obo2bo536b2ob2o93b3o894b$950bo25b2o131b3o5bo125b2o77bobo11b4ob2ob4o535bo5bo93bo7bo5b2o880b$950b2o164bobo124bobo76bobo11bo2bob2obo2bo549b2o93b2o3b2o880b$1115bo3bo102b2o21bo8b2o9b2o56bo558bo7bo5bobo93b2o885b$968b2o13b2o117b2o5bo5bo3bo102b2o21b3o6b2o5b2o2bobo614bo2bobo2bo5bo86bo4b5o886b$967bob2o11b2obo116b2o4b3o4bo3bo89b8o31bo12bobobo2bo613b3o3b3o4b2o7b2o76b3o3b2ob2o886b$966b2o4bo7bo3bo123b2obo3bo3bo89bob4obo24b2o4b2o14bobob2o635b2o75bobobo3b2o888b$967b2o4b2o3b2o130b2o3bo3bo78b2o9b8o25bo19b2obo715bobobo893b$972bo7bo134bo3bo78b2o42bobo20bob2o713b3o894b$985bo130bobo124b2o20bobo2bo639b2o71bo20bob2o871b$984bobo130bo104b2o36b2o4bo2b2o628b2o8bo2bo85b2o3bo2b2o2b3o866b$975b2o8b2o234bobo22b2o11bo2bo636bo2b6o2b3o85b2o3bo6b2o867b$973bo4bo105b2o136bo22bo2bo11b2o4bo2b2o613b2ob2o11b2o6b2o93b2o3b3o12bo855b$961b2o9bo6bo103bobo15b2o103bob2o7b2obo25bobo16bobo2bo614bobo9b3o10bo94bo3bo13b3o853b$961b2o8bo8bo101b2obo15b2o6bo95bo2b2o7b2o2bo25bo17bob2o616bobo9bo2bobo4bob2o115bo852b$971bo8bo16b2o11bo66bo5b2o120bo5bo3bo5bo40b2obo620bo11b2o4b2o9bo2bo4bo2bo78bo3bo13b3o853b$971bo8bo5b2o8bo2bo9bobo63b3o6bo21b2o97b2o4bo3bo4b2o18b2o21bobob2o644b3o2b6o2b3o55b2o17b2o3b3o12bo855b$972bo6bo6bo10b3o9bobo62bo31b2o99bo11bo20bo2bob2o14bobobo2bo646bo2bo4bo2bo7b2o48b2o17bo6b2o867b$973bo4bo8b10o11b2ob2o62b3o6bo10b2o3b2o5bobo99b2o5b2o23b3obobo13b2o2bobo666b2o67bo2b2o2b3o866b$975b2o7b3o2b6o2bo79bo5b2o9bob2ob2obo5bo6b2o70b2o56bobo17b2o737bob2o871b$984bo2bo2b4o2b2o84b2obo8bo7bo12b2o70bo25b2o28b3ob3o660b2o967b$985b2o96bobo8bob2ob2obo82bobo16b2o7b2o27bo3bo3bo659bobo10bo955b$1084b2o9b2o3b2o83b2o10b3o4b2o36b2o2bobobo660bo9b2ob2o953b$1181bo65b2ob2o668b2ob3o90bo862b$880b3o124bo5bo166bobo13bo3bo719bo2b2o89b3o862b$1000b2o4b3o3b3o165bobo13bo3bo718b2o92bo10b2o853b$879bo3bo108b2o6bo4b2obo3bob2o68bo96bo15bobo813b2o9bobo852b$879bo3bo108b2o4bobo83b3o110b3o36bo2bob2obo2bo748bo24b2obobo852b$903b2o93b2o75b2o10bo147b2o2bo4bo2b2o747b3o22bobobo853b$880b3o19bo2bo102bo3bo61bobo9b2o148bo2bob2obo2bo7b2o688b2o52bo23bo855b$903b2o103bo3bo61bobob2o24bo150b2o662b2o25bo51b2o23b2o854b$890b2o183bobobo22b3o814b2o7b2o16bobo65b2o7b3o853b$880b3o7b2o185bo23bo129b2o695b2o17b2o65b2o7b3o853b$906b2o169b2o22b2o94bo7bo25bobo718bo48b2o20b3o853b$879bo3bo22bo170b3o5b2o108bob2o5b2obo24bo10bob2obo702bobo46bo2bo19b3o853b$879bo3bo23b3o97bo69b3o5b2o108bo3b2ob2o3bo28bo5bo5bo3bo698bobo47b2o20b2o854b$909bo96bobo68b3o18b2o89b2o5bo3bobo3bo29bob3obo2b3o2bo2bo698bo70bo855b$880b3o8b2o112b2ob2o67b3o17bo2bo88bobo5b3o3b3o33bo2b3o3bo4b2o766bobobo5b2o846b$892bo97bo14bo3bo67b2o19b2o91bo46bo9bo3bo767bobob2o5bobo845b$889b3o97bobo12b3ob3o66bo104b2o7b2o38b3o786bobo9bo846b$889bo99bobo13bo3bo52bo5b2o5bobobo102b2o48b2o695bo5bo85b2o856b$990bo14bo3bo51b2o4bobo5b2obobo185b2o660b3o3b3o942b$994b2o10bobo4b2o46b2o5bo9bobo159b2o14bo10bo659b2obo3bob2o88b3o850b$892bo101bobo10bo5b2o7b2o54b2o96b2o62b2o7b2o4b3o9bobo755bo3bo849b$892b2o102bo25b2o49bo101bo2bo8b2o60b2o3bo3bo9b2o755bo3bo5b3o841b$890bob3o101b2o67b2o5b3o100b3o2b6o2bo65b2ob2o14bo656bo3bo91b3o6bo2bo2bo837b$894b2o24b2o256b2o6b2o11b2ob2o50b2ob2o13bobo655bo3bo8b2o90bo6bo836b$882bobobo6b2o25b2o141bobo98b6o7bo10b3o9bobo69bobo667bobo97bo836b$880b3obobo6bo127b2o41b2o6b3o88bo6bo6b2obo4bobo2bo9bobo51b2ob2o14bo668bo92bo4b2o837b$879bo139b4o35b2o5bo96bo8bo10b2o4b2o11bo52b2ob2o682b2o7b2o83bo2bo840b$880b3obobo6bo125b2o2bo34b2o12bobo77b2o9bo6bo83bo3bo691b2o74b3o6b3o841b$882bobobo6b2o123bobo43b3o5bobo77b2o10b6o85b3o767bo3bo849b$894b2o10b2o4b3o103b3o10bo32bo2bo188bo768bo3bo849b$890bob3o11b2o3bo2bo104b2o9bobo31bo7b3o101b2o772b2o4b2o68b3o850b$892b2o17b2o118b2o32bobo107bobo767b2obo4bobo2bo93b2o825b$892bo172bobo108bo768bo10b3o83b2o7bobo825b$913bo2bo5bo84b2o8b2o6b2o38bo6b3o855b2ob2o11b2o6b2o86b2o6b2obo825b$921b3o83b2o7bo2bo4bo2bo14bo3bo16b2ob2o5bo91b2ob2o761bobo9b3o2b6o2bo94b2o14bo811b$913b3o4b2ob2o90b6o2b6o12bo5bo9b2o106bo3bo94b2o665bobo9bo2bo8b2o4b2o6b2o81bo14b3o809b$919b3ob3o90bo2bo4bo2bo13bo15b2o6bo100b3o80bo7bo5bobo666bo11b2o14bo2bo4bo2bo98bo808b$919b3ob3o91b2o6b2o6bo7b2o3bo120bo80b4o3b4o4bo695b6o2b6o79bo14b3o809b$907b2o10b3ob3o105b3o9b3o17bo2bo181bo3bobo3bo3b2o7b2o687bo2bo4bo2bo7b2o47b2o21b2o14bo811b$907b2o10b3ob3o104bo33b2o75b2o106bo2bobo2bo13b2o688b2o6b2o8b2o47b2o20b2obo825b$920b2ob2o106b3o9b3o6bob2o8bo76bo25b2o80b3o3b3o793bobo825b$913b3o5b3o109bo7b2o3bo5bobobo14b2o66bobo16b2o7b2o786b2o85bo9b2o825b$922bo118bo9bo4bo14b2o66b2o17b2o795bobo9b2o74b2o834b$913bo2bo124bo5bo4bobobo78bo820bo10b3o72b2o835b$1042bo3bo5bob2o78bobo830bobo909b$911b2o221bobo114b2ob2o12b8o688bo2b2o91bo818b$911bo4b2o217bo116bobo13bob4obo689b4o89b3o818b$912b2o4bo333bobo13b8o689b2o90bo10b2o809b$917b2o121bo212bo803b2o9bobo808b$1040b3o997bo24b2obobo808b$1031b2o10bo946b2o48b3o22bobobo809b$1030bobo9b2o920b2o13b3o9bo51bo23bo811b$1030bobob2o24bo903b2o7b2o4b3o9bobo48b2o22bo2bo809b$1031bobobo22b3o912b2o3bo3bo9b2o72bo812b$899bo133bo23bo919bo5bo13bo62b2o4bo3bo808b$898b3o131bo2bo21b2o92b3o3b3o818b2ob2o13bobo46b2o13b2o4bo3bo808b$897b2ob2o19b2o61b2ob2o43bo8b2o100b2o6bo2bobo2bo836bobo45bo2bo18bo812b$896b3ob3o17bo2bo61bobo44bo3bo4b2o94b2o4bobo5b2obobob2o818b2ob2o14bo47b2o19bo2bo809b$896b3ob3o18b2o57b2obo5bob2o39bo3bo17b2o81b2o6bo5b2o5b2o817bo5bo83bo811b$896b3ob3o5b2o69bobob2o3b2obobo16bo21bo20bo2bo88b2o831bo3bo82bobobo5b2o802b$896b3ob3o5b2o68bo6bobo6bo13b3o21bo2bo18b2o923b3o82bobob2o5bobo801b$897b2ob2o22b2o52b7o3b7o5b2o5bo25bo945b3o82bobo9bo802b$898b3o23bo73b3obo4b2o22bobobo117bo3bo907b2o812b$899bo25b3o52b3o7b3o4bo4bo28b2obobo93b2o21b2ob2o1721b$927bo51bo2bo3bo3bo2bo4b3obob2o28bobo92bo2bo8b2o9bobobobo1720b$909b2o68b2o4bobo4b2o6bobo2bo28b2o93b3o2b6o2bo11bobo914bo807b$910bo74bobo15b2o127b2o6b2o11b2ob2o912bobo806b$907b3o76bo144bo10b3o9bobo831b2o79bo3bo5b2o798b$907bo223b2obo4bobo2bo9bobo815b2o7b2o4bobo4b2o73bo3bo5bobo3b2o792b$1118b8o10b2o4b2o11bo816bob2o3b2obo4bo6b2o73bo3bo7b2o2b2o792b$1118bob4obo846bo3bobo3bo3b2o81bo3bo5bobo797b$993b2o112b2o9b8o846b2o2bobo2b2o86bo3bo5b2o798b$920b3o70b2o17b2o93b2o864b3o3b3o87bo3bo805b$907b3o8b2obob2o87bo2bo958bo5bo89bobo806b$907bo3bo5bo5b2o13b2o74b2o115b2o868b2o68bo807b$900bo6bo4bo5b2obob2o13b2o65b2o114bo8bobo857b2o2b4o2bo2bo92b2o781b$898b3o7bo3bo7b3o82b2o113bo5bo4bo858bo2b6o2b3o90b5o780b$897bo214bobo5bo2bo2b2o847b2ob2o11b10o85b2o5bo4bo780b$898b3o7bo3bo71b2o5b2o116b2o10b2o5bo847bobo9b3o10bo84b2o5bo2b3o780b$900bo6bo4bo70bo2bo4bobo114bo5bo7bo4bo848bobo9bo2bo8b2o91b2o2bo13bo767b$907bo3bo12b2o53b2o3bobo6bo115b4o864bo11b2o14bo2bob2obo2bo78b2o14b3o765b$907b3o14b2o14bo34b2obobo4bo7b3o1009b4ob2ob4o97bo764b$939bobo34bobo9b2o6bo1008bo2bob2obo2bo7b2o69b2o14b3o765b$975bo2b2o8bo6b2o99b2o926b2o46b2o19b2o2bo13bo767b$976b2o11b3o104bo25b2o948b2o19bo2b3o780b$935bo3b3o36b2o11bo102bobo9b3o4b2o7b2o876b2o91bo4bo780b$939b3o36bo115b2o9bo3bo3b2o885bobo9b3o79b5o780b$940bo39bo109bo14b2ob2o891bo8b2o3bo80b2o781b$931b3o45b2o32b2o74bobo14bobo901bo868b$925b2o4b2o80bo75bobo920b2obo863b$925b2o4b3o6bo70bobo76bo15bobo900b2o93bo774b$888bo50b3o54bo14b2o92b2ob2o992b3o774b$888bo50b3o54b3o106bo3bo991bo10b2o765b$887bobo20b2o71b2o14bo106b3o992b2o9bobo764b$888bo20bo2bo71bo13b2o1035b2o47bo24b2obobo764b$888bo21b2o27bobo42bobo1022b2o25bo47b3o22bobobo765b$888bo8b2o41bo44b2o2b2o1018b2o7b2o16bobo48bo23bo767b$888bo8b2o36bo8b2ob2o40b2o1027b2o17b2o47b2o22b2o767b$887bobo23b2o19bobo8bobo1094bo66b3o767b$888bo24bo21b2o3b2obo5bob2o1088bobo60b2o3b3o767b$888bo25b3o22bobob2o3b2obobo16bo127b2o941bobo45b2o13b2o3b3o767b$916bo21bo6bobo6bo13b3o13b2o4b2o100b2o4bobo941bo45bo2bo17b3o767b$898b2o38b7o3b7o5b2o5bo16b2o4b2o100b2o6bo4b3o5b3o973b2o19b2o767b$899bo58b3obo4b2o131b2o3bo2b2ob2o2bo995bo767b$896b3o41b3o7b3o4bo4bo143b3o3b3o921bo72bobobo6b2o757b$896bo42bo2bo3bo3bo2bo4b3obob2o141bo5bo923b2o69bobob2o6bobo756b$939b2o4bobo4b2o6bobo2bo1070b2o70bobo10bo757b$945bobo15b2o120b2o1022b2o768b$903b2o41bo137bo2bo8b2o1781b$902b5o177b3o10bo1018bo762b$902bo4bo179b10o11b2ob2o905b3o3b3o88b3o761b$902b3o2bo19b2o157bo2b6o2b3o9bobo906bo2bobo2bo6b2o79b5o6bo753b$889bo13bo2b2o19b2o24b2o131b2o2b4o2bo2bo9bobo906b2obobob2o5bobo89b3o752b$887b3o14b2o47b2o17b2o123b2o11bo907b2o5b2o5bo91bob2ob3o747b$886bo32b3o50bo2bo1055b2o7b2o85b5o747b$887b3o14b2o16bo51b2o1064b2o82bob2o751b$889bo13bo2b2o11bo2bo11bo30b2o101b8o1048b3o752b$902b3o2bo5b2o19b3o28b2o101bob4obo944bo3bo100bo753b$902bo4bo5b2o5bobo14bo119b2o9b8o944b2ob2o9b2o4b2o4b2o66b5o128bo631b$902b5o13bobo11b2obo6b2o5b2o104b2o960bobobobo7bo2bobo4bobo2bo66b3o128b3o630b$903b2o14bo2bo5b3o3bo2b3o3bo2bo4bobo1067bobo9b3o10b3o67bo128bobobo629b$929bo5b2o3bo3bobo6bo127b2o937b2ob2o11b2o6b2o100b2o97bobobo629b$921b3o5bo7b4o4bo7b3o29b2o93bobo938bobo11bo2b6o2bo84b2o12bo2bo75b2o20b3o630b$920bob2o4b3o6bo10b2o6bo27bo2bo93bo939bobo11b2o8b2o84b2o11b2o2bo4bo69bo2bo20bo631b$920b3o12bobob2o7bo6b2o28b2o1035bo32b2o88bo2bo3bo3bo67b2o653b$921bo6b3o4b2o2bo9b3o118b2ob2o981bo89bo5b7o78b2o640b$914b2o12b3o8bobo9bo118bo3bo960b2o19bobo100bo27b2ob2o45b2o8bo631b$914b2o5bo18b2o129b3o961bo2b2o17b2o87bo5b7o29bobo30b2o23b3o630b$919b3o6b3o1105b2obo77b2o26bo2bo3bo3bo26b2obo5bob2o26bo22bobobo629b$929bo1187b2o25b2o2bo4bo11bo16bobob2o3b2obobo22b3o23bobobo629b$919bobo7bo116b2o976b2o119bo2bo16b3o13bo6bobo6bo21bo26b3o630b$919bobo6b3o115bo25b2o951bo52b2o66b2o20bo5b2o5b7o3b7o38b2o9bo631b$922bo33bo87bobo9b3o4b2o7b2o951bobo50b2o87b2o4bob3o58bo642b$918bo37b3o85b2o9bo3bo3b2o961b2o145bo4bo4b3o7b3o41b3o639b$916bo4bo2bo18b2o14bo80bo14b2ob2o980b2o128b2obob3o4bo2bo3bo3bo2bo42bo639b$917bobo3bobo18bo13b2o79bobo14bobo17b8o945b2o9b2o107bo20bo2bobo6b2o4bobo4b2o682b$918bo5b2o18bobo92bobo34bob4obo945bobo115b3o21b2o15bobo688b$945b2o2b2o89bo15bobo17b8o9b2o936bo114bo7b2o33bo689b$949b2o104b2ob2o33b2o932b4o115b2o5bobo66b2o3b2o9b2o639b$1055bo3bo966bo102bo23bobob2o62bob2ob2obo8bobo638b$1056b3o10b2o955b2ob2o98b3o22bobobo2b2o44b2o12bo7bo8bob2o637b$1069bobo955bobo102bo23bo4bobo17b2o24b2o12bob2ob2obo9b2o5bo632b$944b2o4b2o118bo956bobo101b2o22b2o6bo17b2o39b2o3b2o10bo6b3o630b$944b2o4b2o120bob2o7b2obo941bo118b2o5b3o5bo86bo629b$1071bo2b2o7b2o2bo959b2o98b2o5b3o5b2o75bo6b3o630b$1071bo5bo3bo5bo958bobo85b2o18b3o12b2o30bo37b2o5bo632b$1071b2o4bo3bo4b2o937b2o9b2o8bo21b2o63bo2bo17b3o12b2o28b3o13bo5b2o15bob2o637b$1048b2o23bo11bo938bobo2b2o5b2o6b3o21b2o3bo2b2o4b2o2bo47b2o19b2o41bo15b3o4b2o15bobo638b$1042b2o4bobo24b2o5b2o939bo2bobobo12bo28bo3b3o2b3o3bo68bo26b2o5b2o6bob2o12bob2o20b2o639b$939b2o101b2o6bo4b3o5b3o38b2o917b2obobo14b2o4b2o22bo2b2o4b2o2bo6b2o59bobobo23bobo4bo2bo3b3o2bo11b2o664b$938bobo109b2o3bo2b2ob2o2bo12b2o25bo920bob2o19bo43b2o58bobob2o23bo6bobo3bo3b2o5bo6b2o664b$939bo116b3o3b3o13b2o7b2o16bobo915b2obo20bobo103bobo24b3o7bo4b4o6bobo5b2o664b$1057bo5bo23b2o17b2o913bo2bobo20b2o20b2o83b2o23bo6b2o10bo5bo3bo5b2obo661b$944bo166bo909b2o2bo4b2o37bobo107b2o6bo7b2obobo3bo3bo670b$943b3o89b2o73bobo916bo2bo11b2o24bo9b2o4bo97b3o9bo2b2o3bo3bo670b$1034bo2bo2b4o2b2o62bobo908b2o2bo4b2o11bo2bo28bobob2obo4bo3bo92bo9bobo7bo3bo11b2o657b$952b2o80b3o2b6o2bo63bo909bo2bobo16bobo28b2o12bobobo101b2o8bo3bo11b2o657b$943b3o6bo84b10o11b2ob2o960b2obo17bo30bo2bo8bo116bo3bo670b$929b2o5bo16b3o80bo10b3o9bobo964bob2o40bo8bobobo6b3o112bobo6b2obo661b$929b2o5b3o4bobo9bo80b2o8bo2bo9bobo961b2obobo21b2o17bobo134bo6b2o664b$936bob2o3bobo101b2o11bo26b3o3b3o927bo2bobobo14b2obo2bo107bo53b2o664b$937b3o146bo2bo3bo2bo927bobo2b2o13bobob3o53b2o53b3o51b2o664b$938b3o2b3o140b2obo3bob2o928b2o17bobo31b2o25bo56bo51bob2o661b$937b3o1102b3ob3o29b2o7b2o16bobo53b2o48b6o662b$2041bo3bo3bo37b2o17b2o102bobo2bo663b$943b3o1095bobobo2b2o61bo98b2o667b$912bo31bo157b2o936b2ob2o65bobo766b$911b2o15b2o171bobo4b2o1000bobo766b$910b2o16b2o171bo6b2o938b4o59bo767b$904bo6b2o2b2o183b2o945b6o826b$902b3o1141b8o34bo5bo784b$901bo23bo1119b2o6b2o32b3o3b3o783b$902b3o18b5o1107b2o9b8o32b2o2bobo2b2o782b$904bo6b2o2b2o5b2obo2bo13b2o171b2o918b2o10b6o33bo3bobo3bo84b2o696b$910b2o9bo7bo12b2o160b2o2b4o2bo2bo930b4o34bob2o3b2obo84b2o5b2o5bo683b$911b2o9b2obo2bo98b2o75bo2b6o2b3o941b2o25b2o7b2o91bobo3bo684b$912bo10b5o99bo61b2ob2o11b10o943bobo128bo5bo683b$925bo103bo60bobo9b3o10bo932b2o4b2o3bo124bo694b$1028b2o60bobo9bo2bo8b2o932bo2bobo2bo45b2o79bobo693b$1091bo11b2o943bo2bo2bo46bobo4b2o82bo686b$911bo129b2o993bo12bobo49bo6b2o81b3o685b$911b3o127bo995bobo60b2o81b3o693b$902b2o10bo124bobo995bobo143b3o5bo687b$901bobo9b2o124b2o1125b2o16bo8bo4b2o679b$901bobob2o24bo93b2o997b2o140b2o23bo2bo3b2o679b$902bobobo22b3o93b2o9b2o986bo25b2o57b2o4b2o73b2o687b$904bo23bo106bobo57b2o5b2o918bobo16b2o7b2o52b2obo4bobo2bo66bo5bo3bo684b$904b2o22b2o105bo59bobo3bo920b2o17b2o61bo10b3o65b3o5bo687b$904b3o5b2o122b4o56bo5b2o914bo70b2ob2o11b2o6b2o68b3o8bo684b$904b3o5b2o126bo976bobo70bobo9b3o2b6o2bo8b4o751b$904b3o18b2o109b2ob2o49b3o924bobo70bobo9bo2bo8b2o7b6o750b$904b3o17bo2bo79b2o28bobo50b3o925bo72bo11b2o17b8o53bobo4bo688b$904b2o19b2o80bobo27bobo51bo6b3o933b3o3b3o78b2o6b2o53bo6bobo5b2o9b2o667b$904bo104bo28bo52bo7bo934bo2bobo2bo79b8o9b2o51bo6b2o8b2o668b$894b2o6bobobo102b2o7b2o71bo6b2o933bo3bobo3bo79b6o10b2o69b5o9bo654b$893bobo6b2obobo75b2o33bobo69bobo6b2o4b2o927bo2bobo2bo81b4o64bobo16b4o9b3o652b$894bo10bobo76bo35bo8b2o9b2o56bobo4b2o929bo3bo74b2o74bo2bo32bo651b$905b2o77bobo33b3o6b2o5b2o2bobo55b3o933b2o5b2o72bobo74bobo16b4o9b3o652b$985b2o36bo12bobobo2bo46bobo5bob2o931b3o5b3o73bo2bo9bo54b2o23b5o9bo654b$999b2o15b2o4b2o14bobob2o47bo6b3o932b3o5b3o78bo5bo56b2o22b2o668b$898b3o98b2o3b2o11bo19b2obo50bo7b2o1021bo5bo4b2o75b2o667b$897bo3bo102b2o11bobo20bob2o47bo7b2o925b2o88bo3bobo5bobo3bo744b$889b3o4bo5bo115b2o20bobo2bo44b3o4bobo18bo901b2o4bobo87bobo13bobo744b$884b2o2bo2bo143b2o4bo2b2o44b3o5b3o13b2o2bo901b2o6bo88b2o13b2o745b$884b2obo7bo7bo101b2o14b2o11bo2bo60b3o5b2o5bo5bo908b2o849b$888bo2bo3bo7bo75bobo2bobo12b2o4bo14bo2bo11b2o4bo2b2o60b2o4b2o2bobo1031b2o65bo661b$889b3o83b2obo2bo2bo2bob2o8b2o5b3o12bobo16bobo2bo67b2o3bo12bo992b2o25bo63b3o661b$896bo5bo65b2o9bobo2bobo21bo13bo17bob2o55b2o13b3o14b3o990b2o7b2o16bobo60bo10b2o652b$897bo3bo66b2o67b2obo58b3o32bo998b2o17b2o60b2o9bobo651b$898b3o114b2o21bobob2o55b2o13b3o14b3o1023bo39bo24b2obobo651b$992b2o21bo2bob2o14bobobo2bo48b2o19b2o3bo12bo883b2o6b2o131bobo38b3o22bobobo652b$991bobo22b3obobo13b2o2bobo49b2o18b2o2bobo894bo4bo2bo4bo9b2ob2o115bobo41bo23bo654b$867b2o14b2o96b3o8bo27bobo17b2o71bo5bo893bo4bo2bo4bo10bobo117bo41b2o22bo2bo652b$866b2o15b2o86bo3bo6b2o2b3o29b3ob3o89b2o2bo894bo4bo2bo4bo10bobo175b2o6bo655b$859bo7b5o99bo2b2o7b2o2b2o28bo3bo3bo92bo896b2o6b2o13bo176b2o6bo3bo651b$857b3o8b4o98bob2o13b2o28b2o2bobobo1176b2o19bo3bo651b$856bo114bo20bo29b2ob2o1174bo2bo18bo655b$857b3o8b4o8b2o89bo20bo131bo1077b2o19bo2bo652b$859bo7b5o5b2obobo14b2o223b3o1099bo654b$866b2o9b2o3b2o13b2o58b2o162bo10b2o1000bo5bo81bobobo5b2o645b$867b2o8b2obobo74bo25b2o25bo2b2o4b2o2bo97b2o9bobo998bobo3bobo79bobob2o5bobo3bo640b$880b2o73bobo16b2o7b2o24bo3b3o2b3o3bo79bo24b2obobo997bo3bobo3bo78bobo9bo3bob2o638b$955b2o17b2o34bo2b2o4b2o2bo6b2o72b3o22bobobo998bo3bobo3bo5b2o72b2o13bo2bo638b$951bo78b2o75bo23bo1000bo9bo4bobo4b2o72bo9b3o638b$950bobo153b2o21bo2bo1014bo6b2o71b3o6b3o640b$866bo83bobo15bo5bo31b2o55b2o3bo2bo3b2o45b2o8bo1000b2o5b2o4b2o78bobobo4bobo641b$866b3o82bo15b3o3b3o30bobo54b5o4b5o45b2o4bo3bo1093bobobo140bo507b$857b2o10bo97bob2ob2obo31bo7bobo45b2o3bo2bo3b2o6b2o24b2o17bo3bo1094b3o5b3o132b3o506b$856bobo9b2o96b2o7b2o34b2o2bobo2b2o61b2o23bo2bo20bo1002b2ob2o88bo13b2o125b5o505b$856bobob2o24bo79b2o7b2o33bo11bo86b2o18bo2bo1003bobo22b2o79b2o104b2o529b$857bobobo22b3o79b3o5b3o32b2o2bobobobo2b2o35b2o70bo1003b2ob2o10b2o2b4o2bo2bo183bo2bo528b$859bo23bo84b3ob3o35b2o3bobo3b2o36bobo67bobobo1002bobo11bo2b6o2b3o64bo6b3o110b2o529b$858b2o23b2o85bobo38b3o5b3o38bo14bo52bobob2o1001b2ob2o11b10o66b3o131b2o516b$857b3o7b2o98bo2bobo2bo89bobob4o3b2o50bobo1005bobo9b3o10bo64bobobo4bobo123b2o516b$857b3o7b2o97bo2bo3bo2bo64b2o22b4obob6o2b3o46b2o1005bobo9bo2bo8b2o64bobobo6b2o106b2o532b$857b3o20b2o85b2o5b2o39b2o25bo22bo2b7ob2o2b3o1054bo11b2o76b3o8bo18bo88bo22b5o505b$857b3o19bo2bo76b2o54b2o7b2o16bobo15bo10bo9bo1085bobo2bobo53bo7b2ob2o14bo2bo84b3o24b3o506b$858b2o20b2o71b2o4bobo62b2o17b2o14bobo1101b2obo2bo2bo2bob2o56b2o2b2o2b2o10b5o83bo27bo507b$859bo93b2o6bo86bo10bobo1105bobo2bobo9b2o49b2ob2o3b2o10b3ob2o99b2o517b$849b2o6bobobo99b2o84bobo44b2o1088b2o49b2ob2o16b2obo8bo91bo518b$843b2o3bobo6b2obobo184bobo18b2o25bo1141bo19b2o9b3o90b3o515b$842b2obo3bo10bobo185bo19b2o7b2o16bobo1062b2o109bo91bo515b$841bo3bo14b2o215b2o17b2o1062bobo84b2o8b2o9b3o608b$842bo3bo6b3o90b2o4b2o147bo1059bo67b2o14bob3o6b2obo8bo610b$846bo98bo2bobo4bob2o141bobo1066bobo57b2o12b3o4bo4b3ob2o85b2o3b2o526b$844b2o6bo3bo88b3o10bo141bobo1065bo3bo72bob3o5b5o39b2ob2o41b3o3b3o6b2o3bo513b$845bobo4bo3bo91b2o6b2o11b2ob2o127bo1067bobo75b2o6bo2bo41bobo40b3o7b3o4b3obob2o511b$846bo100bo2b6o2b3o9bobo105bo5bo1085bo86bo37b2obo5bob2o23b2o10b3o7b3o4b3o4bo511b$839b2o5bo6b3o91b2o8bo2bo9bobo104b3o3b3o1191bo16bobob2o3b2obobo22b2o10b3o7b3o7bo3bo2bo508b$839b2o117b2o11bo52b3o3b3o43bo2b2ob2o2bo1190b3o13bo6bobo6bo35b3o3b3o10b3o3b3o506b$846bo85bo2bob2obo2bo80b3o3b3o43bo3bobo3bo1108b2o64bo18bo5b2o5b7o3b7o36b2o3b2o20bo505b$846bo6b3o75b2o2bo4bo2b2o78bob2o3b2obo5b2o37bobobobo1084b2o25bo62b3o17b2o4bob3o74b3o3b3o506b$845bobo75b2o7bo2bob2obo2bo79bob2o3b2obo4bobo4b2o1122b2o7b2o16bobo59bo10b2o14bo4bo4b3o7b3o55bo3bo2bo508b$844b3o5bo3bo66b2o99b2o5b2o5bo6b2o28b2ob2o3b2ob2o1090b2o17b2o59b2o9bobo10b2obob3o4bo2bo3bo3bo2bo36b2o13b3o4bo511b$844b3o5bo3bo168bo5bo5b2o38bo7bo1116bo38bo24b2obobo10bo2bobo6b2o4bobo4b2o30bo5b2o13b3obob2o511b$846bo100b2o1252bobo37b3o22bobobo12b2o15bobo35b3o19b2o3bo513b$821b2o19bo2b3o5b3o90bobo143b2o1107bobo40bo23bo32bo35b2o2bo537b$820bobo15b2o91bob2obo10bo78b2ob2o60bobo4b2o1102bo40b2o22b2o61bo6b2ob2o537b$820bo17b2o8bo78bo3bo5bo5bo83bobo61bo6b2o1078b3o3b3o72b2o5b3o61bo9b3o536b$814bo5b3o20bo3bo78bo2bo2b3o2bob3obo83bobo15b4o41b2o1086bo2bobo2bo72b2o5b3o4b2o54bobo6bob2o537b$812b3o29b3o78b2o4bo3b3o2bo86bobo14b6o1127bo3bobo3bo58b2o18b3o4bobo17b2o35bo8bo539b$811bo23bo91bo3bo9bo84b2ob2o12b8o1127bo2bobo2bo58bo2bo17b3o6bo17b2o35bo548b$812b3o17b2o3bo108b3o78bobo12b2o6b2o1128bo3bo61b2o19b2o5bo55bo13b2o533b$814bo5b3o9b2obob2o13b2o69bo22b2o79bobo13b8o48b2o4b2o1071b2o5b2o81bo5b2o54bo13b2o533b$820bo10bo6b2o12b2o58b2o8bobo103bo15b6o44b2obo4bobo2bo1069b3o5b3o78bobobo10b2o46bobo7bo539b$820bobo9b2obob2o73bo25b2o105b4o45bo10b3o1069b3o5b3o77bobob2o10b2o47bo7bob2o537b$821b2o9b2o3bo72bobo7bo5bo2b2o7b2o139b2ob2o11b2o6b2o1160bobo62bo9b3o536b$835bo74b2o11bo5b2o149bobo9b3o2b6o2bo1087b2o71b2o27b2o5b2o33b2ob2o537b$886b3o17bo13b2o3b2o153bobo9bo2bo8b2o1086bobo4b2o93bobo4bo2bo32b2o2bo49bo487b$888bo16bobo173bo11b2o1097bo6b2o93bo6bobo3b2o29b3o50bo487b$821bo65bo17bobo1283b2o99b3o7bo4bobob2o22bo3bo28b2o20bobo486b$821b3o82bo1384bo6b2o9bobo22bobo30bo2bo20bo487b$812b2o10bo95b2o3b2o1306b2o56b2o6bo8b2o2bo21b2o32b2o21bo487b$811bobo9b2o30b2o66bo1309bobo60b3o11b2o69b2o8bo487b$811bobob2o24bo12bobo63bo5bo1279b2o25bo62bo11b2o20b2o2b2o45b2o8bo487b$812bobobo22b3o14bo1338b2o8bo2bo100bo20bo3bo30b2o23bobo486b$814bo23bo83bobo1270bo10b3o97b3o18b2obo5bob2o26bo24bo487b$813bo2bo21b2o83bo1256b2ob2o11b10o100bo19bobob2o3b2obobo22b3o25bo487b$813bo8b2o1357bobo9b3o2b6o2bo103b2o13bo6bobo6bo21bo515b$813bo3bo4b2o28b2o1327bobo9bo2bo2b4o2b2o102bo2bo5b2o5b7o3b7o38b2o497b$813bo3bo17b2o16b2o67bo7bo1251bo11b2o16b8o71bo13b2o2bob2o4bob3o58bo498b$813bo20bo2bo14bo61b2o5bobo5bobo1280bob4obo69b3o12bo2bobo7bo4bo4b3o7b3o41b3o495b$813bo2bo18b2o71b2o4bobo7bo3bo1283b8o9b2o57bo14bob2o2bo4b2obob3o4bo2bo3bo3bo2bo42bo495b$814bo93b2o6bo4bo2bo3bo2bo1297b2o57b2o13bo5b2o3bo2bobo6b2o4bobo4b2o538b$812bobobo99b2o4bobo3bobo1370bobo11b2o15bobo544b$805b2o5b2obobo106b2ob2o1276b2o90b2o2b2o30bo545b$800bo3bobo8bobo103b2ob2ob2ob2o1273bobo89b2o81b2o497b$799bobo3bo9b2o104b2o2bobo2b2o1274bo171b2o2bo496b$798b2obo99b2o19b3o3b3o1277bob2o7b2obo82b2o44b2o25b6o495b$799b2o99bo2bo2b4o2b2o9bo5bo1277bo2b2o7b2o2bo81bobo17b2o24b2o25b4o4bo3bo488b$809b3o88b3o2b6o2bo1293bo5bo3bo5bo72b2o9bo17b2o59b7o486b$801b3o4bo3bo28b2o60b10o11b2ob2o1278b2o4bo3bo4b2o72b2o4b2o2bo51b3o32bo485b$801b3o4bo3bo27bobo59bo10b3o9bobo1281bo11bo80b2o2b2o49bo28b7o486b$802bo6b3o30bo47b6o6b2o8bo2bo9bobo1283b2o5b2o93b2o30bo11bo2bo17b4o4bo3bo488b$795b2o92bo6bo16b2o11bo1313b2o71b2o28b3o19b2o11b6o495b$795b2o91bo8bo1316b2o25bo100bo14bobo5b2o11b2o2bo496b$878b2o9bo6bo1317b2o7b2o5bo10bobo83b2o5b2o6bob2o11bobo20b2o497b$802bo61b3o11b2o10b6o1327b2o5bo11b2o82bobo4bo2bo3b3o2bo3b3o5bo2bo518b$801b3o5b3o54bo1362b3o15bo53b2o23bo6bobo3bo3b2o5bo528b$801b3o4bo3bo46bo5bo36b2o1342bobo52bobo20b3o7bo4b4o7bo5b3o520b$808bo3bo46b2o40bobo1324b2ob2o13bobo54bo19bo6b2o10bo6b3o4b2obo519b$799bobo7b3o46bobo30b2o4b2o3bo1325b2ob2o14bo55b2o18b2o6bo7b2obobo12b3o519b$774b2o2bobo17bo2bo89bobo3b2o1330bobo96b3o9bo2b2o4b3o6bo520b$773b3obo3bo12b2o3bo2bo77bo3bo7b3o2bobo1330bo97bo9bobo8b3o12b2o513b$772b2o6bo13b2o3b2ob2o75bo12b2o1444b2o18bo5b2o513b$770bo2bob5o20bobo77b3o1466b3o6b3o518b$768b3o3b3o24bo79b2o1467bo528b$767bo19bobo3bobo1554bo7bobo518b$768b3o3b3o12bo3bo26bo46b2o1353b3o5b3o48b3o65b3o6bobo518b$770bo2bob5o5bo11bo10b2o10b2o45bo25b2o1328b3o3b3o49bo41bo33bo521b$772b2o6bo3bo3bo5bo3bo9b2o9bobo43bobo16b2o7b2o1326bob4ob4obo48bo38b3o37bo517b$773b3obo3bo3bo11bo48b3o16b2o17b2o1336b2o2bobo2b2o5b2o80bo14b2o18bo2bo4bo515b$774b2o2bobo8bo3bo54bo12bo1361b3o3b3o5bobo4b2o74b2o13bo18bobo3bobo516b$787bobo3bobo51bo12bobo1361bo5bo6bo6b2o87bobo18b2o5bo517b$860bobo1373b2o91b2o2b2o544b$846bo14bo1467b2o548b$777bo41b3o16b3o5b2o1437b2o592b$777b3o41bo18bo4bobo1436b2o593b$768b2o10bo39bo18bo1411b2o33bo592b$767bobo9b2o35bo18bo1404b2o2b4o2bo2bo74b2o4b2o543b$767bobob2o24bo18b2o17b2o41bo5bo1355bo2b6o2b3o74b2o4b2o543b$768bobobo22b3o17bobo16bobo40b3o3b3o1339b2ob2o11b10o628b$770bo23bo82bob2ob2obo1340bobo9b3o10bo627b$769b2o23b2o83b2ob2o1342bobo9bo2bo8b2o627b$768b3o7b2o99b2ob2o1343bo11b2o21b2o615b$768b3o7b2o89b2o8b2ob2o1379bo615b$768b3o20b2o70b2o4bobo1370b2o19bobo613b$768b3o19bo2bo69b2o6bo1370bo2b2o17b2o73b2o538b$769b2o20b2o78b2o1370b2obo92bobo537b$770bo1569bo538b$760b2o6bobobo1458b2o69b2o575b$759bobo6b2obobo1458bo52b2o15bobo29b3o542b$760bo10bobo82b2o1374bobo50b2o15bo31b3o542b$771b2o82bo2bo8b2o1364b2o91b2o7bo543b$757bo97b3o2b6o2bo1378b2o78bo7bo543b$756bobo99b2o6b2o11b2ob2o1352b2o9b2o75b3o8bo543b$758b2o97bo10b3o9bobo1353bobo85bo9bobo6bo5b2o528b$764b3o90b2obo4bobo2bo9bobo1355bo101b2ob2o4b2o528b$764bobo74bo2b2o4b2o2bo7b2o4b2o11bo1352b4o105bo535b$750b2o6bo5b3o73bo3b3o2b3o3bo1377bo100bobo542b$750b2o4b2o6b3o66b2o6bo2b2o4b2o2bo1378b2ob2o97bo3bo539b$757bo2bo3b3o66b2o1399bobo98bo3bo2bo536b$758b2o4b3o1467bobo98bo5bo537b$764bobo90b2o1376bo98b3o21bo520b$764b3o77bo11bobo1395b2o78b3o22bo3bo515b$857bo1395bobo94b2o2b2o8bo514b$847bobo1382b2o9b2o8bo21b2o73b2o2bo5b2o2bo514b$741b2obo102b3o1381bobo2b2o5b2o6b3o21b2o77bobo5b2o11bo503b$736b3o2b2o2bo3b2o5bobo88b3o1380bo2bobobo12bo104b2o3b3o12b3o501b$737b2o6bo3b2o1479b2obobo14b2o4b2o14b2o104bo500b$725bo12b3o3b2o9bo2bo1474bob2o19bo16bo81b2o3b3o12b3o501b$723b3o13bo3bo11bo1474b2obo20bobo14bo64b2o16bobo5b2o11bo503b$722bo32bobo64b2o1404bo2bobo20b2o15b2o63b2o16bo5b2o2bo514b$723b3o13bo3bo11bobo64bo25b2o1378b2o2bo4b2o115b2o8bo514b$725bo12b3o3b2o10bo6b2o55bobo9b3o4b2o7b2o1386bo2bo11b2o5b2o99bo3bo515b$737b2o6bo17b2o55b2o9bo3bo3b2o1387b2o2bo4b2o11bo2bo5bo98bo520b$736b3o2b2o2bo70bo14b2ob2o1392bo2bobo16bobo6bobo617b$741b2obo70bobo14bobo1395b2obo17bo8b2o617b$815bobo1415bob2o37b2o92bo510b$816bo15bobo1395b2obobo21b2o4b2o9b2o90b3o510b$831b2ob2o1394bo2bobobo14b2obo2bo4bobo99bo10b2o501b$732bo98bo3bo1395bobo2b2o13bobob3o7bo99b2o9bobo500b$732b3o97b3o1397b2o17bobo7b4o83bo24b2obobo500b$723b2o10bo38b2o1473b3ob5o2bo87b3o22bobobo501b$722bobo9b2o39b2o1471bo3bo4bo2b2ob2o86bo23bo503b$722bobob2o24bo21bo1473b2o2bobo6bobo28b2o56b2o23b2o502b$723bobobo22b3o1500b2o6bobo27bobo72b2o7b3o501b$725bo23bo1512bo28bo74b2o7b3o501b$724b2o23b2o1530b2o7b2o61b2o20b3o501b$723b3o7b2o30bo58b2o1454bobo69bo2bo19b3o501b$723b3o7b2o30b2o51b2o4bobo1432b2o9b2o8bo72b2o20b2o502b$723b3o20b2o16bobo51b2o6bo4b3o5b3o1416bobo2b2o5b2o6b3o94bo503b$723b3o19bo2bo77b2o3bo2b2ob2o2bo1415bo2bobobo12bo95bobobo6b2o493b$724b2o20b2o84b3o3b3o1416b2obobo14b2o4b2o15b2o35b2o33bobob2o6bobo492b$725bo52b3o52bo5bo1420bob2o19bo11b2o3b2o34b2o34bobo10bo493b$715b2o6bobobo52bo1476b2obo20bobo11b2o41bo8bo25b2o504b$708b3o3bobo6b2obobo50bo31b2o1442bo2bobo14bo5b2o63b2o531b$708b2obo3bo10bobo81bo2bo8b2o1431b2o2bo4b2o8b3o69bobo37bo492b$707bob4o7bo5b2o82b3o10bo1439bo2bo6bo3bo16b2o12b2o69b3o4bo492b$711b2o7bo92b10o11b2ob2o1416b2o2bo4b2o7b2ob2o17bo5b2o5bo69bo3bo4bo491b$712bo6b3o90bo2b6o2b3o9bobo1417bo2bobo31b3o6b2o6b3o6b2o57bo5bo3bo491b$710b2o100b2o2b4o2bo2bo9bobo1419b2obo30bo19bo7bo68bo5b2o483b$710b2o111b2o11bo1423bob2o26bobo5b2o19bobo54bo7bo2bobo4b2o483b$711b3o5b3o50b2o23bo2bob2obo2bo1448b2obobo23b2o2bobo5bo2b2o17b2o54bo7bobobo490b$705b2o13bo50bobo23b4ob2ob4o1448bo2bobobo14b2o5bo4bo7b2obo30bo52b3o490b$705b2o13bo52bo14b2o7bo2bob2obo2bo1449bobo2b2o14bo2bobobo45b3o42bo5bo3bo491b$720bo67b2o1469b2o19b3ob2o3b5o32b3o3bob2o42bo3bo496b$711b3o6bo1562bo4bo4bo33b2o6b2o4b2o36b3o497b$710bo2bo5b3o90b2o1466b2obo4bobo42b3o5b2o536b$713bo97bobo1466bobo6b2o41bo2bo75b4o464b$710bo2bo98bo1490b2o30bo59b2o14bo2b2o463b$710bo8b3o78b2o3b2o1425b6o54b2o9b2o26bo63b2o15bo2b2o462b$692bobo2b2o12b3o6bo77b2ob2ob2ob2o1422bo6bo53bobo36bo2bo77bo2bo4bo458b$691bo3bob3o4b2o6b2o6bo77bo2bo3bo2bo1421bo8bo54bo36b3o79b2o5b3o456b$692bo6b2o3b2o92bo2bo3bo2bo1411b2o9bo6bo51b4o103bo3bo21bo455b$680bo12b5obo10b4o85b2o5b2o1412b2o10b6o51bo25bo74bo5bobobobo10b2o5b3o456b$678b3o15b3o11b3o1576b2ob2o21bobo63b2o7bo3b2o2bobo2b2o7bo2bo4bo458b$677bo33bo65b2o1465b2o44bobo22b2o64b2o11b2o7b2o7bo2b2o462b$678b3o15b3o78bo25b2o1438bobo44bobo101b2o2bobo2b2o6bo2b2o463b$680bo12b5obo18b2o39b2o14bobo16b2o7b2o1428b2o4b2o3bo46bo104bobobobo8b4o464b$692bo6b2o17b2o38bobo14b2o17b2o1437bobo3b2o69b2o85bo3bo477b$691bo3bob3o60bo10bo1450bo3bo7b3o2bobo67bobo567b$692bobo2b2o71bobo1448bo12b2o52b2o9b2o8bo21b2o546b$770bobo14b3o3b3o1426b3o62bobo2b2o5b2o6b3o21b2o80bo465b$771bo15bo2bobo2bo1427b2o61bo2bobobo12bo31b8o32b2o31b3o465b$789b2ob2o1426bo65b2obobo14b2o4b2o24bob4obo32bobo29bo10b2o456b$687bo1521b2o9bo48bo4bo14bob2o19bo25b8o9b2o21bo31b2o9bobo455b$687b3o95bo11bo1411bo25b2o30b2ob4ob2o7b4obo20bobo42b2o36bo24b2obobo455b$678b2o10bo95bo9bo1410bobo16b2o7b2o20b2o10bo4bo9bo2bobo20b2o81b3o22bobobo456b$677bobo9b2o97bobobobo1412b2o8b2o3b2o2b2o29b2o29bo4b2o36b2o63bo23bo458b$677bobob2o24bo80bobobobo1408bo88bo2bo11b2o22bobo61b2o22b2o458b$678bobobo22b3o12b3o66b2ob2o1408bobo76b2ob2o2bo4b2o11bo2bo22bo80bo4b3o458b$680bo23bo17bo63bo2bo3bo2bo1405bobo75bobobo2bobo16bobo25bob2o7b2obo63bobo3b3o458b$678bo2bo22b2o15bo65b2o5b2o1407bo77bo4b2obo17bo25bo2b2o7b2o2bo48b2o12bobo3b3o458b$681bo5bo91b2o1485b2o9b2o10bob2o40bo5bo3bo5bo47bo2bo12bo4b3o458b$677bo3bo4bobo84b2o4bobo1435b2o3b2o41b3obo5bob3o6b2obobo21b2o18b2o4bo3bo4b2o48b2o8bo10b2o458b$677bo3bo4bobo12b2o70b2o6bo1482b2o4bo3bo4b2o5bo2bobobo14b2obo2bo20bo11bo59bobo10bo458b$681bo5bo12bo2bo77b2o1482bob3o5b3obo7bobo2b2o13bobob3o23b2o5b2o61bobo8bobobo6b2o448b$678bo2bo10bo8b2o1517bo45b4o5b4o9b2o17bobo56b2o40bo8bobob2o6bobo447b$680bo10bobo1526bo47bo7bo28b3ob3o28b2o25bo49bobo10bo3bo444b$670b2o6bobobo8bobo1552b2o56bo3bo3bo27b2o7b2o16bobo48b2o13b3o443b$669bobo6b2obobo8bo73b2o10b2o1466bo25b2o30bobobo2b2o36b2o17b2o62b2o2bo442b$670bo10bobo81bo2bo2b4o2bo2bo1438bo7bo16bobo16b2o7b2o29b2ob2o65bo58b2ob2o442b$681b2o82b3o2b6o2b3o1430b2o6b2o5b2o16b2o17b2o47b2o58bobo50bo9b3o441b$667bo100b10o11b2ob2o1411b2o4bobo5b3o3b3o12bo69bo4bo56bobo50bo7bob2o442b$666bobo98bo10bo11bobo1412b2o6bo7b2ob2o13bobo67bo6bo56bo50bobo7bo444b$666bo2bo5bo91b2o8b2o11bobo1420b2o6bo3bo13bobo66bo8bo107bo13b2o438b$668bo6bo115bo1426b2o7b2o11bo67bo8bo107bo13b2o438b$674bobo1541b2o7b2o69b2o8bo8bo107bo453b$660b2o5bo7bo90b2o1454bobo31b3o3b3o33b2o9bo6bo108bo8bo444b$660b2o5bobo5bo90bo1451bo2bo3bo2bo26bo2bo3bo2bo44bo4bo108bobo6bob2o442b$667bo2bo4bo92bo1450b3o3b3o27bo3bobo3bo46b2o8b2o25b3o3b3o67bo9b3o441b$668b2o5bo91b2o1431b2o6b2o11bo3bo28b2obobobobob2o54bobo24bo2bo3bo2bo16b2o48bo6b2ob2o442b$674bobo1522bo2bo4bo2bo10b2ob2o28b2ob2o3b2ob2o55bo29bobo19bo2bo54b2o2bo17b2o423b$675bo104b2o1416b6o2b6o10bobo12b2o16b3o5b3o43bo7bo34bobo20b2o56b3o17bo425b$675bo104bo1418bo2bo4bo2bo11bobo11bo2bo64b2o4b2o3b2o35bobo9b2o68bo5b2o10bo2b2o422b$778bobo1419b2o6b2o13bo13b2o64b2o4bo7bo3bo26bo2bo3bo2bo4bobo74b2o10bo2bo423b$647b2o3bo125b2o1468b2o54bob2o11b2obo26bo7bo5bo7b2o79bobo10bo413b$647b3obob2o4b2o6b2o95b2o1482bobo54b2o13b2o40b2o6bo2bo25b3o51b2o10b3o411b$647b3o4bo4b2o5b3o95b2o9b2o1464b2o7bo120b2o26bo68bo410b$635bo14bo3bo11b2o106bobo1463bo2bo6b2o35b2o111bo52b2o10b3o411b$633b3o15b3o12bo107bo1466b2o44bo25b2o111b2o24bobo10bo413b$632bo32bobo107b4o1506bobo16b2o7b2o62b2o47b2o24bo2bo423b$633b3o15b3o11b3o111bo1505b2o17b2o60b2o8bo2bo72bo2b2o422b$635bo14bo3bo18b2o100b2ob2o1501bo84bo10b3o73bo425b$647b3o4bo18b2o71b2o28bobo1501bobo68b2ob2o11b10o77b2o423b$647b3obob2o91bobo27bobo1459bo6bo34bobo69bobo9b3o2b6o2bo501b$647b2o3bo95bo28bo1459b2o6b2o11b2ob2o18bo70bobo9bo2bo2b4o2b2o501b$748b2o7b2o1477b3o6b3o11bobo35b3o3b3o47bo11b2o13b2o3bo2bo3b2o64bo420b$757bobo1477b2o6b2o12bobo35bo2bobo2bo74b5o4b5o62b3o420b$759bo8b2o9b2o1457bo6bo14bo35bo3bobo3bo73b2o3bo2bo3b2o6b2o53bo10b2o411b$642bo116b3o6b2o5b2o2bobo1515bo2bobo2bo94b2o53b2o9bobo410b$642b3o117bo12bobobo2bo1516bo3bo134bo24b2obobo410b$633b2o10bo92b2o15b2o4b2o14bobob2o1514b2o5b2o70b2o60b3o22bobobo411b$632bobo9b2o92b2o3b2o11bo19b2obo1498b2o16b3o5b3o69bobo62bo23bo413b$632bobob2o24bo80b2o11bobo20bob2o1494bo2bo15b3o5b3o70bo5b2o3b2o50b2o23b2o412b$633bobobo22b3o94b2o20bobo2bo1493b2o101b5ob5o66bo6b3o411b$635bo23bo114b2o4bo2b2o1504b2o89bo4bobo4bo64bobo5b3o411b$635b2o22b2o69b2o12b2o14b2o11bo2bo1512bobo88bo2b3ob3o2bo50b2o12bobo5b3o411b$635b3o4bo88bo5b2o5bo14bo2bo11b2o4bo2b2o1497b2o7bo88b2o2bo3bo2b2o49bo2bo12bo6b3o411b$635b3o3bobo80b2o2b3o6b2o6b3o12bobo16bobo2bo1496bo2bo6b2o89b2o5b2o52b2o8bo11b2o412b$635b3o3bobo12b2o66bo3bo12b2o4bo13bo17bob2o1499b2o168bobo10bo413b$635b3o4bo12bo2bo63bobo16bo34b2obo1631b2o8b3o28bobo8bobobo411b$635b2o10bo8b2o64b2o19bo6b2o2b2o21bobob2o1602b2o25bo7b3obo28bo8bobob2o5b2o404b$635bo10bobo93b2o6b2o2bo2bob2o14bobobo2bo1602b2o7b2o16bobo5bob4o36bobo8bobo3bo399b$633bobobo8bobo106b3obobo13b2o2bobo1612b2o17b2o4b2obo40b2o9bo3bobo398b$627b2o4b2obobo8bo102b5o4bobo17b2o1637bob3o2bo53b2o398b$620b3o3bobo7bobo62b2o47bo4b5ob3o1513bo2bo4bo2bo10b2ob2o114b8o53bo399b$620b2obo3bo8b2o63b2o50bobo4bo3bo1510b3o2b6o2b3o9bobo116bo3b3o453b$619bob4o7bo120b2o3bobo2b2o1512bo2bo4bo2bo11bobo165b3o5bobo400b$623b2o7bo106b2o17b2o1541bo93bo5bo65bo3bo5bo401b$624bo6b3o105b2o9b2o1642b3o3b3o30b3o30bo5bo4bo401b$622b2o125bobo1641bo2b2ob2o2bo29bo49b2o394b$622b2o125bo1643bo3bobo3bo30bo30bo7bo9b2o394b$623b3o5b3o116b4o1641bobobobo63bo7bo405b$617b2o13bo121bo1722bo401b$617b2o13bo117b2ob2o1637b2ob2o3b2ob2o15b2o44bo5bo4bo401b$632bo118bobo1640bo7bo16bo2bo44bo3bo4bobo121bo278b$623b3o6bo118bobo1666b2o46b3o128b3o277b$622bo2bo5b3o118bo1656b2o68bo118bobobo276b$625bo106b2o1674bobo68b2o15bo3bo97bobobo276b$622bo2bo106bobo1673bo7b2o59bo2bo3b2o9bo5bo75b2o20b3o277b$622bo8b3o77b2o21bo8b2o9b2o1651b2o6bo2bo58b3o4b2o9bo80bo2bo20bo278b$608b2obo11b3o6bo78b2o21b3o6b2o5b2o2bobo1659b2o60bo16b2o3bo8bo67b2o300b$603b3o2b2o2bo3b2o6b2o6bo62bo2b2o4b2o2bo28bo12bobobo2bo1739b3o9b3o78b2o287b$604b2o6bo3b2o76bo3b3o2b3o3bo20b2o4b2o14bobob2o1754bo27b2ob2o45b2o8bo278b$592bo12b3o3b2o9b4o61b2o6bo2b2o4b2o2bo22bo19b2obo1661b2o4b2o73b3o9b3o29bobo30b2o23b3o277b$590b3o13bo3bo11b3o62b2o42bobo20bob2o1653b2obo4bobo2bo45b2o23b2o3bo8bo26b2obo5bob2o26bo22bobobo276b$589bo33bo108b2o20bobo2bo1651bo10b3o45b2o23bo22bo16bobob2o3b2obobo22b3o23bobobo276b$590b3o13bo3bo100b2o36b2o4bo2b2o7bobo2bobo1621b2ob2o11b2o6b2o73bo5bo16b3o13bo6bobo6bo21bo26b3o277b$592bo12b3o3b2o17b2o78bobo22b2o11bo2bo11b2obo2bo2bo2bob2o1618bobo9b3o2b6o2bo36b3o34bo3bo20bo5b2o5b7o3b7o38b2o9bo278b$604b2o6bo17b2o69bobo7bo22bo2bo11b2o4bo11bobo2bobo9b2o1611bobo9bo2bo8b2o36bo60b2o4bob3o58bo289b$603b3o2b2o2bo84b2o2bobo2b2o27bobo16bobo2bo24b2o1612bo11b2o48bo65bo4bo4b3o7b3o41b3o286b$608b2obo84bo11bo27bo17bob4o1666bo2bob2obo2bo85b2obob3o4bo2bo3bo3bo2bo42bo286b$695b2o2bobobobo2b2o41b2obo5b2o1664b4ob2ob4o64bo20bo2bobo6b2o4bobo4b2o329b$696b2o3bobo3b2o20b2o21bobob2o2bobo1663bo2bob2obo2bo7b2o53b3o21b2o15bobo335b$697b3o5b3o21bo2bob2o14bobobo2bo3bo1683b2o52bo7b2o33bo336b$599bo130b3obobo13b2o2bobo8bo9bo1723b2o5bobo68b3o299b$599b3o74b2o56bobo17b2o7b2obobo3bobob2o1643b2o59bo23bobob2o63b2obob2o8b3o286b$590b2o10bo73bo25b2o28b3ob3o24bo4bo3bo4bo1643bobo58b3o22bobobo2b2o44b2o13b2o5bo5bo3bo286b$589bobo9b2o71bobo16b2o7b2o27bo3bo3bo23bo3bo5bo3bo1644bo11b2o49bo23bo4bobo17b2o24b2o13b2obob2o5bo4bo6bo279b$589bobob2o24bo54b2o17b2o36b2o2bobobo24b3o7b3o1648bo7b3ob3ob2o41b2o22b2o6bo17b2o41b3o7bo3bo7b3o277b$590bobobo22b3o50bo65b2ob2o25bo7bo1648bo2b2ob2ob2obo7bo58bo4b3o5bo86bo276b$592bo23bo52bobo123b2o1632bo3b2o3b2o3bo57bobo3b3o5b2o70bo3bo7b3o277b$591b2o23b2o51bobo97b2o25bo1625bo3b2obo7bo3bobo43b2o12bobo3b3o12b2o30bo32bo4bo6bo279b$590b3o6bo70bo55b2o6b2o33b2o7b2o16bobo1622bo2bo61bo2bo12bo4b3o12b2o28b3o13bo5b2o12bo3bo286b$590b3o5bobo123bo4bo2bo4bo40b2o17b2o1623bo64b2o8bo10b2o41bo15b3o4b2o14b3o286b$590b3o5bobo12b2o109bo4bo2bo4bo64bo1620bo32b2o38bobo10bo26b2o5b2o6bob2o12bob2o308b$590b3o6bo12bo2bo108bo4bo2bo4bo6b2o55bobo1626b2o25bo38bobo8bobobo23bobo4bo2bo3b3o2bo11b2o311b$591b2o11bo8b2o111b2o6b2o8b2o55bobo1626b2o7b2o16bobo37bo8bobob2o23bo6bobo3bo3b2o5bo6b2o311b$592bo10bobo196bo1636b2o17b2o46bobo24b3o7bo4b4o6bobo5b2o311b$582b2o6bobobo8bobo114b2o1717b2o22bo43b2o23bo6b2o10bo5bo3bo5b2obo308b$581bobo6b2obobo8bo62b2o51bobo1716b3o3b3o14bobo67b2o6bo7b2obobo3bo3bo317b$582bo10bobo70bo2bo51bo1717bobo3bobo14bobo72b3o9bo2b2o3bo3bo317b$593b2o72b2o17b2o5b2o32b2o3b2o1705bo2bobo2bo15bo73bo9bobo7bo3bo11b2o304b$578bo8bo90b2o6bob2ob2obo31bobo3bobo1706b2ob2o101b2o8bo3bo11b2o304b$577b3o6b3o89bobo6bobobobo32bo7bo1822bo3bo317b$576bo2b2o90b2o7bo6bobobobo32b3o3b3o69b2o1752bobo6b2obo308b$576bo3bo89bo2bo6b2o4bo7bo84bo5bo17bo2bo1752bo6b2o311b$577b2obo5b3o82b2o105b3o3b3o17b2o1706bo53b2o311b$572b2o5b2o164bo9b2o20bo3bobo3bo5b2o1644b2o5b2o64b3o51b2o311b$572b2o12bobo140bo14b3o9bo20bo9bo4bobo1644b2obobob2o17b2o48bo51bob2o308b$579b2o5bobo76b2o20b3ob3o35b2o7b2o3bo3bo8bobo19b3o3b3o5bo7b2o1637bo2bobo2bo16bo2bo46b2o48b6o309b$577b2obo83bo2bo2b4o2b2o11bobo46b2o2bo5bo8b2o32b2o6bo2bo1636b3o3b3o17b2o96bobo2bo310b$576bo3bo5b3o75b3o2b6o2bo9bo5bo48bo5bo13bo37b2o1652b2o107b2o314b$576bo2b2o86b10o11b2ob2o50bo3bo13bobo1689bobo423b$577b3o86bo10b3o9bobo69bobo16b2ob2o1668bo7b2o416b$578bo7b3o64bo4bo7b2o8bo2bo9bobo51bo3bo14bo16bobobobo14b2o1650b2o6bo2bo415b$554b2o31bo63b2ob4ob2o16b2o11bo51bo5bo32bobo14bo4bo1657b2o29b2o385b$552b2ob2o14b2o68b2o10bo4bo83bo5bo32bobo13bo6bo1687bobo384b$552bo2bo15b2o68b2o100bo3bo32b2ob2o11bo8bo1686bo386b$547bo4bo2bo188b3o34bobo12bo8bo1661b2o410b$545b3o5b2o110b2o78bo35bobo12bo8bo1650b2o2b4o2bo2bo64b2o5b2o336b$544bo119bobo115bo14bo6bo1651bo2b6o2b3o64b2o5bobo3b3o329b$545b3o5b2o10b3ob3o93bo98b2o32bo4bo1637b2ob2o11b10o75bo3bob2o329b$547bo4bo2bo8bob2ob2obo12b2o176bo2bo33b2o1640bobo9b3o10bo69bo7b4obo328b$552bo2bo7b2o7b2o11b2o67b2ob2o105b2o1676bobo9bo2bo8b2o6b6o57bo7b2o332b$552b2ob2o7bob2ob2obo82b3o80bo7bo6b2o1688bo11b2o16bo6bo55b3o6bo333b$554b2o9b3ob3o84bo79b2ob2o3b2ob2o3bobo1717bo8bo64b2o331b$752bo7b2o1711bo6bo9b2o54b2o331b$739bobobobo5b2o6bo2bo1711b6o10b2o44b3o5b3o332b$630b2o105bo3bobo3bo12b2o1775bo13b2o326b$554bo75bo9b3o13b2o79bo2b2ob2o2bo1718b2o51b2o16bo13b2o326b$554b3o71bobo9b3o4b2o7b2o80b3o3b3o1719bobo50b2o16bo341b$545b2o10bo70b2o9bo3bo3b2o90bo5bo1721bo3b2o4b2o58bo6b3o332b$544bobo9b2o66bo13bo5bo1826b2o3bobo57b3o5bo2bo331b$544bobob2o24bo48bobo13b2ob2o1826bobo2b3o7bo3bo54bo334b$545bobobo22b3o48bobo114b2ob2o9bo2b2o4b2o2bo1708b2o12bo53bo2bo331b$547bo23bo52bo14b2ob2o97bobo9bo3b3o2b3o3bo1718b3o46b3o8bo331b$546bo2bo21b2o65bo5bo96bobo10bo2b2o4b2o2bo1719b2o48bo6b3o16bo315b$546bo7bo84bo3bo98bo1748bo45bo6b2o6b2o8b2o315b$546bo3bo2bobo84b3o1848bo9b2o49b2o7b2o316b$546bo3bo2bobo12b2o70b3o1832b2o25bo41b4o14b2o2b2o9bo301b$546bo7bo12bo2bo1904b2o7b2o16bobo40b3o29b3o299b$546bo2bo9bo8b2o1914b2o2b2o3b2o8b2o41bo33bo298b$547bo10bobo60b2o1885bo68b3o299b$538b2o5bobobo8bobo59bo2bo1883bobo28b2o22b2o2b2o9bo301b$537bobo5b2obobo8bo61b2o1884bobo28b2o21b2o316b$538bo9bobo81b2o1874bo53b2o315b$548b2o82bobo4b2o7b2o1913bo315b$543bo81b2o7bo4bob2o3b2obo1838b2o3b2o384b$542b3o79bo2bo6b2o3bo3bobo3bo2229b$534bo6bobobo79b2o12b2o2bobo2b2o2229b$533b3o5bobobo94b3o3b3o1842bo78bo308b$533bob2o5b3o96bo5bo1843bo76b3o308b$528b2o13bo75b2o1946bo10b2o299b$528bo89bo2bo8b2o1935b2o9bobo298b$529bo88b3o10bo1852bo7bo57bo24b2obobo298b$533bob2o6bo77b10o11b2ob2o1837b2o5b2o6b2o49b3o22bobobo299b$533b3o6b3o75bo2b6o2b3o9bobo1838b3o3b3o5bobo4b2o46bo23bo301b$534bo6bobobo74b2o2b4o2bo2bo9bobo1840b2ob2o7bo6b2o45b2o22bo2bo299b$541bobobo85b2o11bo1841bo3bo6b2o71bo5bo302b$514bo27b3o60bo2bo4bo2bo1866b2o7b2o75bobo4bo3bo298b$513bo2bo26bo59b3o2b6o2b3o1864b2o7b2o61b2o12bobo4bo3bo298b$512b5o10b2o30b3o10b2o22b2o7bo2bo4bo2bo1870bobo64bo2bo12bo5bo302b$511b2ob3o10b2o32bo11b2o21b2o1885bo2bo3bo2bo18b2o41b2o8bo10bo2bo299b$503bo8bob2o44bo11bo1911b3o3b3o8b2o8bo2bo49bobo10bo301b$501b3o9b2o105b2o1864bo3bo10bo2b6o2b3o49bobo8bobobo5b2o292b$500bo107bo10bobo1864b2ob2o11b2o6b2o53bo8bobob2o5bobo2bo288b$501b3o9b2o8b2o81b2ob2o9bo1866bobo9b3o10bo61bobo9b6o287b$503bo8bob2o6b3obo14b2o63b3ob2o1875bobo9bo2bobo4bob2o62b2o12bob2o286b$511b2ob3o4bo4b3o12b2o32b2o30b2o2bo1876bo11b2o4b2o80b2o289b$512b5o5b3obo49b2o33b2o1903bo2bo4bo2bo60b2o289b$513bo2bo6b2o50bo1938b3o2b6o2b3o51bo6b2o289b$514bo2001bo2bo4bo2bo7b2o43bobo6b2obo286b$2535b2o16bo25bo3bo295b$585b2o1965b2o25bo3bo11b2o282b$510bo74bo25b2o1898b2o39bobo24bo3bo11b2o282b$510b3o70bobo16b2o7b2o1898bobo65bo3bo295b$501b2o10bo69b2o17b2o1908bo66bo3bo295b$500bobo9b2o65bo1939bo3b4ob2obo47bo3bo5b2obo286b$500bobob2o24bo47bobo1933b3o2bo3bo4b2ob2o47bobo5b2o289b$501bobobo22b3o47bobo1932b3ob3o3bo4bo2b3o47bo6b2o289b$503bo23bo51bo16bo5bo1909bobo2b2o5bob2o3b2o55b2o289b$503b2o22b2o66b3o3b3o1908b3o74bob2o286b$503b3o4bo83b2o2bobo2b2o1907b2o75b3o4b2o8b3o270b$503b3o3bobo82b2ob2ob2ob2o1909bo31b2o42bo5b2o8bo3bo268b$503b3o3bobo12b2o71b2ob2o1918b2o25bo58bo4bo9bo257b$503b3o4bo12bo2bo68bobo3bobo1916b2o7b2o16bobo57bo3bo9b3o255b$503b2o10bo8b2o68bo2bo3bo2bo1924b2o17b2o74bo254b$503bo10bobo59b2o19bo3bo1951bo53bo3bo9b3o255b$494b2o5bobobo8bobo58bo2bo15bobo5bobo1947bobo27b2o22bo4bo9bo257b$493bobo5b2obobo8bo60b2o17bo7bo1948bobo27b2o22bo3bo268b$494bo9bobo80b2o1964bo13b3o36b3o270b$504b2o81bobo1939b3o3b3o29bo311b$580b2o7bo1939bo2bobo2bo30bo310b$579bo2bo6b2o1937bo3bobo3bo340b$499bo80b2o1947bo2bobo2bo341b$498bobo2030bo3bo78bo264b$490b2o5bo3bo2027b2o5b2o74b3o264b$484b2o3bobo5bo3bo72b2o4b2o1946b3o5b3o16b2o54bo10b2o255b$484b2o2b2o7bo3bo71bo2bobo4bob2o1941b3o5b3o15bo2bo53b2o9bobo254b$489bobo5bo3bo71b3o10bo1968b2o37bo24b2obobo254b$490b2o5bo3bo74b2o6b2o11b2ob2o1942b2o48b3o22bobobo255b$497bo3bo73bo2b6o2b3o9bobo1942bobo51bo23bo257b$498bobo61bo6bo5b2o8bo2bo9bobo1942bo7b2o43b2o23b2o256b$499bo61b2o6b2o15b2o11bo1942b2o6bo2bo60bo6b3o255b$560b3o6b3o1979b2o60bobo5b3o255b$551b2o8b2o6b2o2028b2o12bobo5b3o255b$466bo2b2o12b2o66b2o9bo6bo2028bo2bo12bo6b3o255b$460bobo4b2obo12b2o2072b2o40b2o8bo11b2o256b$459bo2bo6bo105b2o1969b2o2b4o2bo2bo48bobo10bo257b$457b3ob2o4b3o94bobo7bobo1969bo2b6o2b3o48bobo8bobobo5b2o248b$456bo106b3o3b2o4bo1955b2ob2o11b10o52bo8bobob2o5bobo247b$457b3ob2o4b3o93bo2b5o1961bobo9b3o10bo60bobo9bo248b$459bo2bo6bo27b2o64b2o2b2o1963bobo9bo2bo8b2o61b2o258b$460bobo4b2obo26b2o66b2o1966bo11b2o17bo4bo309b$466bo2b2o2091b2ob4ob2o307b$2564bo4bo10b2o43bo253b$2580b2o42b3o252b$540b2o2081b2ob2o5b2o244b$540bo25b2o1988b2o64b3ob3o4bob2o2b2o238b$466bo71bobo16b2o7b2o1988bobo63b3ob3o6b2o2b2o238b$466b3o69b2o17b2o1998bo64b3ob3o4bob2o242b$457b2o10bo64bo2025b2o9b2o49b3ob3o4b2o244b$456bobo9b2o63bobo2023b3obo5bob3o49b2ob2o251b$456bobob2o24bo46bobo2022b2o4bo3bo4b2o49b3o252b$457bobobo22b3o47bo2024bob3o5b3obo51bo253b$459bo23bo2076b4o5b4o306b$458b2o23b2o2077bo7bo79b2o227b$457b3o6bo2124b2o47b2o7bobo227b$457b3o5bobo82b3o3b3o2006b2o25bo47b2o6b2obo227b$457b3o5bobo12b2o67bo2bo3bo2bo2005b2o7b2o16bobo54b2o14bo213b$457b3o6bo12bo2bo66b2obo3bob2o2014b2o17b2o55bo14b3o211b$458b2o11bo8b2o23b3o23b2o2065bo69bo210b$459bo10bobo34bo22bo2bo2063bobo50bo14b3o211b$450b2o5bobobo8bobo33bo24b2o2064bobo26b2o21b2o14bo213b$449bobo5b2obobo8bo70b2o2054bo27b2o20b2obo227b$450bo9bobo79bobo2104bobo227b$460b2o73b2o7bo2105b2o227b$447bo86bo2bo6b2o2333b$448b2o50b2o33b2o2342b$447b3o5bo43bobo2072b3o3b3o296b$454bobo44bo2072bo2bobo2bo75bo220b$453bo3bo71b2o2043bo7bo17b2o54b3o220b$440b2o5bo5bo3bo70bo2bo2b4o2b2o2057bo2bo52bo10b2o211b$440b2o4b3o4bo3bo70b3o2b6o2bo2033bo5bo18b2o53b2o9bobo210b$446b2obo3bo3bo73b10o11b2ob2o2019b2ob2o8b2o47bo24b2obobo210b$448b2o3bo3bo72bo10b3o9bobo2032bobo47b3o22bobobo211b$453bo3bo72b2o8bo2bo9bobo2032bo7b2o43bo23bo213b$454bobo61bo4bo17b2o11bo2032b2o6bo2bo41b2o22bo2bo211b$455bo29b3o28b2ob4ob2o2070b2o58b2o6bo214b$422b2o63bo18b2o10bo4bo2132b2o6bo3bo210b$420b5o61bo19b2o2135b2o19bo3bo210b$419bo4bo14b2o2161b2o38bo2bo18bo214b$419bo2b3o14b2o6bo82b2o2059b2o8bo2bo38b2o19bo2bo211b$415bo3b2o2bo96bo8bobo2059bo10b3o60bo213b$413b3o5b2o21b2o39b3o31bobo3bo4bo2045b2ob2o11b10o61bobobo6b2o203b$412bo21bo3bo5b2o41bo24b2o5bo4bobo2050bobo9b3o2b6o2bo59bobob2o6bobo202b$413b3o5b2o9b2obobob2o4bobo38bo21b2ob3o6b3o4bo2049bobo9bo2bo2b4o2b2o59bobo10bo203b$415bo3b2o2bo7bob2o3b2obo4bo6b2o53bob3o12b2o2051bo11b2o15b2o6b2o46b2o214b$419bo2b3o5bo2bo5bo2bo10b2o53b2o2096bo2bo4bo2bo52bo208b$419bo4bo6bob2o3b2obo2164bo2bo4bo2bo51b3o207b$420b5o7b2obobob2o2165bo2bo4bo2bo7b2o41bobobo206b$422b2o10bo3bo56b2o2110b2o6b2o8b2o41bobobo206b$495bo25b2o2146b3o207b$470b2o21bobo16b2o7b2o2078b2o67bo7bo5b2o193b$422bo48b2o20b2o17bo2bo2085bobo75b2o3b2o193b$422b3o45bo18bo15b3o2094bo76b2o198b$413b2o10bo36b3o23bobo13bo3bobo2159bo4b5o199b$412bobo9b2o6bobo29bo23bobo13bo3bobo3b2o2092b3ob3o54b3o3b2ob2o199b$412bobob2o14b2o8bo20bo25bo15b2o2101bo5bo53bobobo3b2o201b$413bobobo15bo6b3o64bo3bo2096bo5bo53bobobo206b$415bo23bo2169bo3bo55b3o27bo179b$413bo2bo22b2o2229bo27bo2bo177b$416bo6b2o2187bo23b2o47b2o10b5o177b$412bo3bo6b2o29b3o48b2o5b2o2095bo2bo24bo47b2o9b2ob3o177b$412bo3bo19b2o18bo2153b2o7b2o16bobo57bob2o9bo168b$416bo18bo2bo16bo30b2o16bo9bo2104b2o4b3o10b2o58b2o10b3o166b$413bo2bo19b2o47bo2bo15bo3bobo3bo2128bo69bo165b$415bo70b2o16bo3bobo3bo2109bo3bo13bobo53b2o10b3o166b$405b2o6bobobo40b2o37b2o6bobo3bobo2110bo3bo13bobo26b2o24bob2o9bo168b$404bobo6b2obobo38bobo37bobo6bo5bo2112bobo15bo27b2o23b2ob3o177b$405bo10bobo40bo30b2o7bo2125b3o69b5o177b$410bo5b2o71bo2bo6b2o2197bo2bo177b$410bo79b2o2207bo179b$401bo7b3o2467b$400b3o2476b$399b2o2bo80b2o2217bo175b$401b3o5b3o71bo2bo8b2o2122bo7bo17b2o54b3o175b$395b2o13bo72b3o2b6o2bo2120bob2o5b2obo14bo2bo52bo10b2o166b$395b2o13bo75b2o6b2o11b2ob2o2105bo3b2ob2o3bo15b2o53b2o9bobo165b$410bo74bo10b3o9bobo2107bo3bobo3bo5b2o47bo24b2obobo165b$401b3o6bo74b2obo4bobo2bo9bobo2108b3o3b3o5bobo47b3o22bobobo166b$399b2o2bo5b3o57bo2b2o4b2o2bo7b2o4b2o11bo2123bo7b2o43bo23bo168b$400b3o65bo3b3o2b3o3bo2148b2o6bo2bo41b2o21bo2bo167b$279bo121bo59b2o6bo2b2o4b2o2bo2158b2o60bo7bo167b$278b3o110bo2bo14b3o30b3o16b2o2239bobo2bo3bo167b$277b5o99b3o7bo18bo33bo2243b2o12bobo2bo3bo167b$301b2o77bo4bo9bo14bo32bo41b2o2160b2o38bo2bo12bo7bo167b$287bo12bo2bo75bo5bo8b2o76bo11bobo2149b2o8bo2bo38b2o8bo9bo2bo167b$286bobo12b2o67bo9bo8bo95bo2150bo2b6o2b3o47bobo10bo168b$286bobo79b3o10b2o8b2o82bobo2143b2ob2o11b2o6b2o50bobo8bobobo166b$287bo47b2ob2o27bo107b3o2144bobo9b3o10bo50bo8bobob2o5b2o159b$304b2o30bobo29b3o10b2o8b2o82b3o2144bobo9bo2bobo4bob2o59bobo8bobo158b$277b5o22bo26b2obo5bob2o26bo9bo8bo3bo14b2o2213bo11b2o4b2o7bo2b2o4b2o2bo44b2o9bo159b$278b3o24b3o22bobob2o3b2obobo16bo17bo5bo4bo2bo14b2o2239bo3b3o2b3o3bo49bo164b$279bo27bo21bo6bobo6bo13b3o18bo4bo4bo2bo2256bo2b2o4b2o2bo6b2o41bobo163b$289b2o38b7o3b7o5b2o5bo22b3o7b2o57b2o2218b2o207b$290bo58b3obo4b2o90bo25b2o2401b$287b3o41b3o7b3o4bo4bo88b2o4bobo16b2o7b2o2168b2o65b3o163b$287bo42bo2bo3bo3bo2bo4b3obob2o84bobo4b2o17b2o2177bobo64b3o163b$330b2o4bobo4b2o6bobo2bo20bo42b2o18b2ob2o2202bo9b2o4bo50bo6b3o4b2o149b$336bobo15b2o21b3o41b2o18b2ob3o2205bobob2obo4bo3bo53b2o4b2o149b$337bo33b2o7bo34b2o3bo21b3obo2204b2o12bobobo51b3o155b$296b2obo71bobo5b2o33bobo2235bo2bo8bo49bo164b$291b3o2b2o2bo67b2obobo23bo18bo2230bo8bobobo6b3o43b3o163b$292b2o6bo17b2o44b2o2bobobo22b3o2248bobo64b3o3bo159b$280bo12b3o3b2o17b2o24b2o17bobo4bo23bo2484b$278b3o13bo3bo45b2o17bo4bo2bo22b2o2285b2o196b$277bo86bo6bo5bo2277b2o25bo30bobo163b$278b3o13bo3bo64b2o2bo3bo4bobo70b2o2204b2o7b2o16bobo29bo14b2o14b3o131b$280bo12b3o3b2o24bo30b2o9bo3bo4bobo12b2o48b2o2221b2o17b2o44b2o12bo3bo131b$292b2o6bo3b2o19b3o28b2o13bo5bo12bo2bo46bo2bo4b3o9b3o3b3o2219bo53bo4bo6bo124b$291b3o2b2o2bo3b2o5bo16bo39bo2bo10bo8b2o48b2o17b3o3b3o2218bobo52bo3bo7b3o122b$296b2obo10b3o12b2obo6b2o5b2o26bo10bobo68b2o5bob2o3b2obo2194b3o3b3o14bobo67bo121b$309bo2b2o11bo2b3o3bo2bo4bobo23bobobo8bobo68bobo4bob2o3b2obo2194bo2bobo2bo15bo43b3o7bo3bo7b3o122b$309b2ob2o6bo5b2o3bo3bobo6bo23b2obobo8bo62b2o7bo5b2o5b2o2197b2ob2o44b2o13b2obob2o5bo4bo6bo124b$308b3o9bo7b4o4bo7b3o24bobo70bo2bo6b2o5bo5bo2247b2o13b2o5bo5bo3bo131b$309b2obo6bobo6bo10b2o6bo23b2o72b2o2215bo11bo55b2obob2o8b3o131b$311bo8bo5bobob2o7bo6b2o2315bo9bo58b3o144b$320bo5b2o2bo9b3o119b2ob2o2198bobobobo207b$305b2o13bo9bobo9bo96b2o22bobo2199bobobobo207b$305b2o13bo10b2o105bo2bo8b2o11bobo2200b2ob2o19b2o187b$311bo7bobo116b3o2b6o2bo11bobo2197bo2bo3bo2bo15bo2bo54bo131b$309b2obo7bo120b2o6b2o11b2ob2o2197b2o5b2o17b2o53b3o131b$308b3o9bo119bo10b3o9bobo2213b2o63bo134b$309b2ob2o53bo72b2obo4bobo2bo9bobo2212bobo63b2o133b$309bo2b2o51b3o58b2o6b2o9b2o4b2o11bo2213bo7b2o39bo151b$310b3o51bo60bo2bo4bo2bo2240b2o6bo2bo38b3o25bo123b$311bo3bo48b2o58b6o2b6o2248b2o42bo23b3o122b$314bobo99b2o7bo2bo4bo2bo2292b2o22b2ob2o121b$315b2o99b2o8b2o6b2o2311bo4b3ob3o120b$2746bobo3b3ob3o120b$440b2o2243b4o43b2o12bobo3b3ob3o120b$439bobo2242b6o41bo2bo12bo4b3ob3o120b$440bo2225b2ob2o12b8o41b2o8bo10b2ob2o121b$429bo3bo2233bobo12b2o6b2o49bobo10b3o122b$428b2o3b2o2232bobo13b8o50bobo11bo123b$427b2o5b2o2232bo15b6o52bo136b$337b2o5b2o82b2o3b2o2250b4o190b$336bobo5b2o2533b$337bo2541b$405b2o2472b$405bo24bobo2446b$342bo60bobo16b2o7b2o2446b$341b3o59b2o17b2o2455b$333bo6b5o54bo22b2o2455b$332b3o63bobo14b3o3b3o2455b$327b3ob2obo63bobo14bobo3bobo2455b$327b5o27b2o38bo15bo2bobo2bo2455b$331b2obo24b2o56b2ob2o2457b$332b3o2544b$333bo2545b$340b5o2534b$341b3o2535b$342bo72b2o5b2o2455b$316b2o78b2o17b2obobob2o2455b$316bobo7b2o67bo2bo16bo2bobo2bo2455b$318bo7b2o68b2o17b3o3b3o2455b$302bo13b3o88b2o2470b$300b3o104bobo2469b$299bo100b2o7bo2469b$300b3o96bo2bo6b2o2468b$302bo13b3o21b2o58b2o2477b$318bo21b2o2537b$316bobo2560b$316b2o8bo67b2o10b2o2471b$326bobo64bo2bo8bo2bo2470b$326b2o65b3o10b3o2470b$396b10o11b2ob2o2457b$309bo74b4o7bo2b6o2bo11bobo2458b$309b3o71b6o6b2o2b4o2b2o11bobo2458b$300b2o10bo69b8o29bo2459b$299bobo9b2o68b2o6b2o2488b$299bobob2o24bo41b2o9b8o14b2o2473b$300bobobo22b3o41b2o10b6o12b2o2bo2473b$302bo23bo57b4o13bob2o2474b$301b2o23b2o67b2o2482b$300b3o6bo84bobo2482b$300b3o5bobo84bo2483b$300b3o5bobo12b2o2554b$300b3o6bo12bo2bo58b2ob2o2490b$301b2o11bo8b2o59bo3bo2490b$302bo10bobo69b3o2491b$300bobobo8bobo69b3o2491b$293b2o5b2obobo8bo2564b$292bobo8bobo54b2o2517b$293bo9b2o55bo7bo17b2o2491b$133b3o222bobo7bobo6b2o7b2o2491b$134bo223b2o8b2o7b2o2500b$134bo219bo2524b$111b2o20b3o162bo54bobo2523b$110bo2bo12bo171bo54bobo2523b$111b2o12bobo5b3o154bo6bobo54bo2524b$125bobo5b3o147b2o4b2o7bo2580b$126bo156b2o3b2o8bo2580b$108b2o23b3o153b2o7bo2580b$109bo24bo155bo7bo2580b$106b3o25bo162bobo70b3o3b3o2500b$106bo26b3o162bo71bo2bobo2bo2500b$123b2o173bo52b2o17bo7bo2500b$123bo43bo12bo88bo80bo2bo2525b$124b3o39b3o10bobo85bo2bo80b2o18bo5bo2501b$126bo38b5o9bobo85b5o10b2o78b2o8b2ob2o2502b$180bo8b2o76b3ob2o9b2o78bobo2514b$175bo12bo2bo66bo9b2obo83b2o7bo2514b$120bo53bobo12b2o65b3o10b2o83bo2bo6b2o2513b$116b2o2bo53bobo78bo99b2o2522b$115bo5bo53bo47b2ob2o28b3o10b2o2608b$94b2o18b2o2bobo71b2o30bobo31bo9b2obo24b2o2581b$94b2o19b2o3bo12bo31b5o22bo26b2obo5bob2o35b3ob2o23b2o51b2o2528b$116b3o14b3o30b3o24b3o22bobob2o3b2obobo16bo17b5o11bobo62bo2bo2b4o2b2o2517b$136bo30bo27bo21bo6bobo6bo13b3o17bo2bo12b2o63b3o2b6o2bo2517b$116b3o14b3o41b2o38b7o3b7o5b2o5bo22bo14bo66b10o11b2ob2o2502b$115b2o3bo12bo44bo58b3obo4b2o102bo10b3o9bobo2503b$108b2o4b2o2bobo54b3o41b3o7b3o4bo4bo108b2o8bo2bo9bobo2503b$108b2o5bo5bo53bo42bo2bo3bo3bo2bo4b3obob2o20bo95b2o11bo2504b$116b2o2bo97b2o4bobo4b2o6bobo2bo20b3o70bo4bo2535b$93bo26bo103bobo15b2o12b2o10bo67b2ob4ob2o2533b$92b3o130bo29bobo9b2o57b2o10bo4bo2535b$91b5o85b4o70bobob2o24bo40b2o2551b$99b3o79bo2b2o70bobobo22b3o2593b$98b2obo80bo2b2o19b2o44b2o4bo23bo67b2o2527b$99bo2bo65bo13bo2bo20b2o24b2o17bobo3bo2bo21b2o65bobo2527b$98bobobo4b2o57b3o14b2o13b3o31b2o17bo5bo7bo84bo2528b$100b2o5b2o56bo32bobo51bo4bo3bo2bobo68b2o9b2o2531b$100b2o64b3o14b2o14bo51b2o4bo3bo2bobo12b2o53b3obo5bob3o2530b$91b5o3b2o67bo13bo2bo13b2o12bo30b2o11bo7bo12bo2bo51b2o4bo3bo4b2o2529b$92b3o4b2o81bo2b2o5b2o5b3o11b3o28b2o11bo2bo9bo8b2o53bob3o5b3obo2530b$93bo87bo2b2o6b2o6b2o14bo41bo10bobo63b4o5b4o2531b$181b4o28b2obo6b2o5b2o24bobobo8bobo65bo7bo2533b$213bo2b3o3bo2bo4bobo23b2obobo8bo44b2o2562b$87b2o9bo109bo5b2o3bo3bobo6bo26bobo53bo25b2o2536b$86bobo8bobo108bo7b4o4bo7b3o24b2o52bobo16b2o7b2o2536b$86bobob2o5b2o108bobo6bo10b2o6bo77b2o17b2o2545b$87bobobo109b2o5bo5bobob2o7bo6b2o73bo2569b$89bo110bo2bo4bo5b2o2bo9b3o77bobo2568b$67b2o19bo2bo101b2o5bobo5bo9bobo9bo77bobo2568b$66bo2bo12bo5bo104b2o5bo7bo10b2o88bo2569b$67b2o12bobo4bo3bo114bobo2669b$81bobo4bo3bo108bo6bo2670b$82bo5bo110bo2bo5bo116b3o3b3o2545b$64b2o22bo2bo107bobo53bo69bo2bobo2bo2545b$65bo23bo110bo52b3o68bo3bobo3bo2544b$62b3o22bobobo160bo71b4o3b4o2544b$62bo24b2obobo110bo48b2o71bo7bo2545b$79b2o9bobo109bobo2674b$79bo10b2o111b2o2674b$80b3o234b2o2560b$82bo234bobo2559b$310b2o7bo2559b$309bo2bo6b2o2558b$310b2o2567b$2879b$78b4o2797b$50b2o26bob2o5bo144b2o70b2o2573b$50b2o26bo6b2o2bo129bo5b2o5b2o69bo2bo2b4o2b2o2562b$79b2o5b6o128bo3bobo76b3o2b6o2bo2562b$92bo126bo5bo80b10o11b2ob2o2547b$79b2o5b6o138bo74bo10b3o9bobo2548b$78bo6b2o2bo139bobo59bo6bo6b2o8bo2bo9bobo2548b$64b2o12bob2o5bo134bo67b2o6b2o16b2o11bo2549b$57b3o4b2o12b4o139b3o65b3o6b3o2578b$56bo2bo169b3o48b2o8b2o6b2o2579b$60bo162bo5b3o48b2o9bo6bo2580b$56b2o157b2o4bo8bo16b2o2630b$48b3o5b2o3bo153b2o3bo2bo23b2o55b2o2573b$48bobo10bo161b2o68bobo7bobo2573b$33b2o13b3o7b2o160bo3bo5bo61b3o3b2o4bo2574b$33bobo12b3o172bo5b3o60bo2b5o2579b$34bo2b3o8b3o12b2o155bo8b3o60b2o2b2o2581b$36bo2bo8b3o12b2o229b2o2583b$40bo7bobo7b2o2819b$36b2o10b3o10bo142b2o18bo4bobo2647b$36b2o3bo14b2o3bo142bobo7b2o5bobo6bo2648b$28b3o10bo14b2o148bo7b2o6bo46b2o2608b$28bobo7b2o20bo129bo13b3o62bo25b2o2582b$28b3o12b2o11bo2bo128b3o29bobo44bobo16b2o7b2o2582b$28b3o12b2o9bo2b3o127bo32bo2bo43b2o17b2o2591b$28b3o22bobo132b3o29bobo40bo2615b$28b3o7b2o13b2o135bo13b3o21b2o32bobo2614b$28bobo10bo164bo21b2o32bobo2614b$28b3o5b2o3bo162bobo56bo15b3o3b3o2591b$36b2o166b2o72bo2bo3bo2bo2590b$40bo241bobo2594b$36bo2bo19b2o217b2o7b2o2590b$37b3o4b2o11b2o2bo216b2o7b2o2590b$44b2o11b6o134bo83bo3bo2593b$57b4o4bo3bo127b3o81b2ob2o2593b$65b7o116b2o10bo59b2o17b3o3b3o2591b$72bo114bobo9b2o58bo2bo16b2o5b2o2591b$65b7o115bobob2o24bo42b2o17bo7bo2591b$30b2o25b4o4bo3bo118bobobo22b3o53b2o2606b$30b2o25b6o127bo23bo56bobo2605b$57b2o2bo127b2o23b2o48b2o7bo2605b$59b2o127b3o6bo65bo2bo6b2o2604b$188b3o5bobo65b2o2613b$188b3o5bobo12b2o2666b$188b3o6bo12bo2bo2665b$62bo126b2o11bo8b2o45b2o2619b$60b3o127bo10bobo53bo2bo2b4o2b2o2608b$59bo10b2o109b2o5bobobo8bobo53b3o2b6o2bo2608b$59b2o9bobo107bobo5b2obobo8bo57b10o11b2ob2o2593b$42bo24b2obobo108bo9bobo65bo10b3o9bobo2594b$42b3o22bobobo119b2o66b2o8bo2bo9bobo2594b$45bo23bo107bo8bo58b2o6b2o15b2o11bo2595b$44b2o21bo2bo105b3o6b3o56bo2bo4bo2bo2623b$62bo7bo104bo2b2o63b6o2b6o2622b$61bobo2bo3bo104bo3bo55b2o7bo2bo4bo2bo2623b$47b2o12bobo2bo3bo105b2obo5b3o47b2o8b2o6b2o2624b$46bo2bo12bo7bo100b2o5b2o2699b$47b2o18bo2bo100b2o12bobo71b2o2618b$69bo108b2o5bobo59b2o9bobo2618b$67bobobo104b2obo66b3o10bo2619b$66bobob2o103bo3bo5b3o58bobo2630b$66bobo106bo2b2o67b2o2bo2627b$67b2o107b3o68b4o2628b$72b2o5bo97bo7b3o61b2o2628b$72bobo3bobo72b2o31bo2692b$73bo2bo4bo70bobo15b2o2707b$79bo71b2obo15b2o52b2o2653b$75bo70bo5b2o70bo9b3o13b2o2627b$67b3o6bobo65b3o6bo68bobo9b3o4b2o7b2o2627b$68bo7bobo64bo78b2o9bo3bo3b2o2636b$68bo75b3o6bo10b2o3b2o47bo13bo5bo2640b$67b3o6b3o67bo5b2o9bob2ob2obo12b2o31bobo13b2ob2o2641b$76bo5b2o67b2obo8bo7bo12b2o31bobo2659b$67b3o12b2o68bobo8bob2ob2obo46bo14b2ob2o2641b$67b3o6bo76b2o9b2o3b2o61bo5bo2640b$75b3o155bo3bo2641b$67b3o4b2obo156b3o2642b$68bo5b3o157b3o2642b$68bo84bo2725b$67b3o5bo2bo74b3o2723b$75bobo66b2o10bo2722b$75bobo5b2o9b2o47bobo9b2o2722b$83b2o8b2o48bobob2o24bo2705b$75bo2bo15b5o9bo35bobobo22b3o52b2o2651b$75bo19b4o9b3o35bo23bo55bobo4b2o7b2o2635b$76b3o32bo33b2o23b2o47b2o7bo4bob2o3b2obo2635b$95b4o9b3o33b3o6bo64bo2bo6b2o3bo3bobo3bo2635b$69b2o23b5o9bo6b2o27b3o5bobo64b2o12b2o2bobo2b2o2635b$69b2o22b2o20bo2b2o24b3o5bobo12b2o65b3o3b3o2636b$94b2o20bobo25b3o6bo12bo2bo65bo5bo2637b$115b2o2bo25b2o11bo8b2o44b2o2664b$114bo2bobo26bo10bobo52bo2bo2b4o2b2o2653b$114b3obo18b2o5bobobo8bobo52b3o2b6o2bo2653b$112b2o2bo15b2o4bo5b2obobo8bo56b10o11b2ob2o2638b$101bo7bo2b2obo2bo12bo4b2o9bobo53b4o7bo10b3o9bobo2639b$99b3o6bobobo2bob2o12b2o14b2o53b6o6b2o8bo2bo9bobo2639b$98bo9b2o5bo85b8o16b2o11bo2640b$98b2o9b2o3b2o17bo2bo63b2o6b2o2669b$81bo27b2o31bo47b2o9b8o2670b$81b3o25bo23b3o5b3o46b2o10b6o2671b$84bo22b2o31b2ob2o58b4o2672b$83b2o42b2o10b3ob3o68b2o2663b$101bo6bo18b2o10b3ob3o67bobo2663b$100bobo2bo2bo30b3ob3o68bo2664b$86b2o12bobo2bobo31b3ob3o2733b$85bo2bo12bo31b3o4b2ob2o58b2ob2o2671b$86b2o53b3o59bo3bo2671b$133bo2bo5bo61b3o2672b$204b3o2672b$105bob2o22b2o2746b$104bo2b2o2b3o12b2o3bo2bo44b2o2698b$104bo6b2o13b2o4b3o44bo25b2o2672b$102b4o3b3o65bobo16b2o7b2o2672b$100b3o3bo3bo66b2o17b2o2681b$99bo20bo5bo46bo22b2o2681b$100b3o3bo3bo9bo5bo45bobo14b3o3b3o2681b$102b4o3b3o28b2o30bobo14bobo3bobo2681b$104bo6b2o3b2o11b2o9b2o31bo15bo2bobo2bo2681b$104bo2b2o2b3o77b2ob2o2683b$105bob2o11bo5bo2752b$120bo5bo2752b$2879b$2879b$109bo79b2o5b2o2681b$109b3o58b2o17b2obobob2o2681b$100b2o10bo56bo2bo16bo2bobo2bo2681b$99bobo9b2o57b2o17b3o3b3o2681b$99bobob2o24bo51b2o2696b$100bobobo22b3o51bobo2695b$102bo23bo47b2o7bo2695b$101bo2bo21b2o45bo2bo6b2o2694b$101bo7bo64b2o2703b$101bo3bo2bobo2768b$101bo3bo2bobo12b2o2754b$101bo7bo12bo2bo42b2o2709b$101bo2bo9bo8b2o42bo2bo8b2o2698b$102bo10bobo51b3o10bo2698b$100bobobo8bobo54b10o11b2ob2o2683b$89bo5b2o3b2obobo8bo54bo2b6o2b3o9bobo2684b$88b2o4bobo6bobo50b6o7b2o2b4o2bo2bo9bobo2684b$88b2o5bo7b2o50bo6bo17b2o11bo2685b$154bo8bo2715b$100bo43b2o9bo6bo2716b$92b2o5b3o42b2o10b6o2717b$2879b$90bobo75b2o2709b$91b2o6b3o65bobo2709b$85b2o5bo75bo2710b$85b2o12bobo2777b$91b3o5bobo55b2ob2o2717b$91bo2bo62bo3bo2717b$91bo7b3o56b3o2718b$92bobo64bo2719b$92bobo2784b$92bo6b3o31b2o2744b$63bob2o23b2ob2o5bo32bo25b2o2718b$62bo2b2o2b3o12b2o45bobo16b2o7b2o2718b$62bo6b2o13b2o6bo38b2o17b2o2727b$60b4o3b3o57bo22b2o2727b$58b3o3bo3bo21bo2bo32bobo14b3o3b3o2727b$57bo20bo5bo6b2o33bobo14bobo3bobo2727b$58b3o3bo3bo9bo5bo6bo35bo15bo2bobo2bo2727b$60b4o3b3o28b2o45b2ob2o2729b$62bo6b2o3b2o11b2o9b2o2779b$62bo2b2o2b3o2807b$63bob2o11bo5bo2794b$78bo5bo2794b$143b2o5b2o2727b$124b2o17b2obobob2o2727b$67bo55bo2bo16bo2bobo2bo2727b$67b3o54b2o17b3o3b3o2727b$58b2o10bo64b2o2742b$57bobo9b2o64bobo2741b$57bobob2o24bo40b2o7bo2741b$58bobobo22b3o39bo2bo6b2o2740b$60bo23bo43b2o2749b$59bo2bo21b2o2793b$59bo7bo2811b$59bo3bo2bobo53b2o2755b$59bo3bo2bobo12b2o38bo2bo2b4o2b2o2744b$59bo7bo12bo2bo37b3o2b6o2bo2744b$59bo2bo9bo8b2o41b10o11b2ob2o2729b$60bo10bobo39b2o8bo10b3o9bobo2730b$50b2o6bobobo8bobo37bo4bo6b2o8bo2bo9bobo2730b$49bobo6b2obobo8bo37bo6bo16b2o11bo2731b$50bo10bobo45bo8bo2760b$61b2o46bo8bo2760b$54b3o42b2o8bo8bo2760b$54b3o42b2o9bo6bo2761b$55bo55bo4bo2762b$55bo57b2o8b2o2754b$55bo66bobo9b2o5b2o2736b$40b2o5bo6bobo66bo10bobo3bo2738b$40b2o4b2ob2o59bo7bo16bo5b2o2736b$47bo57b2o4b2o3b2o2761b$54bobo47b2o4bo7bo3bo6b3o2747b$51bo3bo49bob2o11b2obo5b3o2747b$48bo2bo3bo50b2o13b2o7bo6b3o2739b$49bo5bo74bo7bo2740b$54b3o31b2o40bo6b2o2740b$24bo3bo25b3o31bo25b2o13bobo6b2o4b2o2733b$23bo5bo9b2o45bobo9b3o4b2o7b2o21bobo4b2o2733b$29bo9b2o45b2o9bo3bo3b2o30b3o2739b$15bo8bo3b2o52bo14b2ob2o27bobo5bob2o2738b$13b3o9b3o53bobo14bobo29bo6b3o2739b$12bo68bobo46bo7b2o2739b$13b3o9b3o54bo15bobo29bo7b2o2739b$15bo8bo3b2o23b2o42b2ob2o27b3o4bobo2740b$29bo23b2o42bo3bo27b3o5b3o17bo3bo2717b$23bo5bo68b3o36b3o5b2o9bo5bo2716b$24bo3bo116b2o15bo2716b$157bo3b2o7bo2708b$138b2o18b3o9b3o2706b$79b2o57b3o32bo2705b$22bo55bo2bo56b2o8b2obo6b3o9b3o2706b$22b3o54b2o50b2o14bobobo5bo3b2o7bo2708b$16b2o7bo64b2o39b2o14bo4bo9bo2716b$16bobo5b2o64bobo54bobobo4bo5bo2716b$13b2obobo23bo40b2o7bo4b3o5b3o40b2obo5bo3bo2717b$13bobobo22b3o39bo2bo6b2o3bo2b2ob2o2bo2771b$15bo23bo43b2o13b3o3b3o63b2o5b2o2700b$14b2o23b2o58bo5bo64b2o5b2o2700b$13b3o6bo143bo15bo2696b$13b3o5bobo53b2o86bobo13bobo2695b$13b3o5bobo12b2o38bo2bo8b2o75b2o15b2o2695b$13b3o6bo12bo2bo37b3o10bo2789b$14b2o11bo8b2o24bo16b10o11b2ob2o2774b$15bo10bobo33b3o13bo2b6o2b3o9bobo2775b$13bobobo8bobo36bo12b2o2b4o2bo2bo9bobo2775b$13b2obobo8bo36b2o10b2o11b2o11bo68bo5bo2701b$16bobo38b2o18bo92b3o3b3o2700b$16b2o39bo19bob2o88b2ob2ob2ob2o2699b$55bobo17bobob2o87b3o7b3o2698b$55b2o18b2o2802b$51bo15b2o101bo7bo2700b$50bobo13bo2bo2809b$50bobo14b2o2810b$51bo2827b$126b4o2749b$126bo3bo40bo2707b$126bo43b3o2706b$64b2o61bo2bo38bo2bo2706b$65bo103bobobo2705b$62b3o105b3o2706b$48b2o12bo6bo3bo97bo5b2o2700b$47bo2bo17b2o3b2o102b2o2700b$48b2o18b2o3b2o2804b$59b2o7bo5bo2804b$59bobo2817b$52b2o7bo2817b$51bo2bo6b2o2816b$52b2o2825b$2879b$2879b$2879b$2879b$48b2o6b2o2821b$46bo4bo2bo4bo2819b$46bo4bo2bo4bo2819b$46bo4bo2bo4bo2819b$48b2o6b2o2821b$2879b$2879b$2879b$2o2877b$o2878b$b3o2875b$3bo2875b$b2o2876b$bo4b2o2871b$2bo3b2o2871b$b2o2876b!