x = 2624, y = 1729, rule = B3/S23
280b2o1116b2o1224b$274bob2obobo1116bobob2o1220b$274b2obobo1120bobo2bo1218b$278b2o1120b2o2b2o1218b$1391b2o1231b$1391b2o1231b$275b2o2347b$275b2o2347b$2624b$1399bo1224b$1398bobo1223b$1397bo3bo3b2o1217b$1397bo3bo3b2o1217b$356bo1040b2ob2o1222b$350b3o2bobo2266b$348b3obo2bo2268b$322b2ob2o5b2ob2o2b2o6bo4bo3b2o2266b$323bobobo5bobobo2bo6b2ob2o3bo1032b2o1234b$323bo3b3o5bobobo10b2ob2o1033b2o3bo8bo1221b$321b2ob12ob2ob3o6bo3b2ob2o1035bo7bobo1220b$261bo60bobo6bo6bobo2bo3b2o3bo4bo1035bo1230b$258bo2b3o58bo2bo6bob2o2b2obobo5bo2bob3o1043bo3bo1219b$258b3o3bo58b2o9b2o2bobobo4bobo2b3o2269b$261b2obo70bo2bobo7bo2275b$258b2obobo17b2o44b2o6b2obobo1060b3o1220b$258bo2bo5bo12bo2bo42bo2bo6bob2o2284b$259bo2bo3bobo12b2o44b2o7bo1052b2o2b2o1229b$262bo3bobo65bobo33b2o1017bo2bobo1229b$262bo4bo66b2o34b2o7b2o1010b2obobo14b2o1211b$284b2o78b2o13bo1015b2o14b2o4b2o1205b$260b2o22bo78bo17bo1007bo26bob2ob2o1201b$258b2obo23b3o49bo25b3ob2o11b2o1007b3o22b3obob4o1200b$258b2obob2o22bo49b3o23b2ob7o6bo1012bo1231b$261bobo5b2o20b2o47bo25bo3b3o6b3o133b2o874b2o17b4obob3o1204b$258b4obo2bo3bo20bo47b2o22b3o2b4o10bo131bobo894b2ob2obo1206b$258bo3bobob4o23bo73bo13b2o125b2o4bo900b2o4b2o1201b$259b3ob2o8b2o14b5o212bo2bo2b2ob4o864b2o36b2o1201b$263b5o6bo13bo64b2o151b2obobobobo2bo864bo1240b$258bobo6bo6bobo12b3o34bo26bo5b2o148bobobobo864b2obo1240b$258b2obo2b3o8b2o15bo32bobo26b3o6bo145bobob2o865bo2b3o4b2o20b2o1210b$261bobo25b4o32bobo28bo6bo146bo870b2o3bo3b2o19bo2bo1209b$261bo2bo19b2o3bo3b2o31bo22b2o3b2o7bo3b2o8b2o125b2o30b2o845b4o25bobo1209b$262b2o20b2o4b3o2bo34b2o10b2o5bobo2bo22b2o125bo18b2o2b2o7b2o845bo15b2o8b3o2bob2o1206b$292bob2o34bobo9b2o7bo4bo8bo136bobo9b2o7bo4bo855b3o12bobo6bo6bobo1206b$292bo39bo18b2o2b2o7bo19bo2bo114b2o10b2o5bobo2bo22b2o836bo13bo6b5o1211b$291b2o39b2o30b2o22bo109bo22b2o3b2o21b2o831b5o14b2o8b2ob3o1207b$258b2o78bo44bo5bo107bobo28bo5b3o845bo23b4obobo3bo1206b$257bobo2b3o72bobob2o38b3obobob2o106bobo26b3o855bo20bo3bo2bob4o11b2o1193b$257bob3o2bo18b2o52bobobobo11b2ob2o5b2ob2o2b2o6bo3b2o3bo108bo26bo857b2o20b2o5bobo14bobob2o1189b$256b2obob3obo17bo50b2obobobobo2bo9bobo5bobobobo2bo6bobobobo2bo135b2o861bo22b2obob2o13bobo2bo1187b$255bo2b4o2b3o17b3o47bo2bo2b2ob4o9bo7bo3bobobo168b3o844b3o23bob2o13b2o2b2o1187b$254b3o7b3o19bo49b2o4bo11b2ob5ob6ob2ob3o5bo2bobobobo150bo2bo8b2o836bo22b2o6b2o7bo1192b$254b3o2b4o2bo13b2o61bobo10bobo2b2o9bobo2bo4bo3b2o3bo120b2o32bo8bo835b2o30b2o1200b$255bob3obob2o14bobob2o8bo49b2o10bo2bo2bo4b3o2b2obobo3b2obobob3o122bo28bo2bo6b3o859bo16b2o1192b$256bo2b3obo17bobo2bo3bo2b3o60b2o8bob2o3bobo5bo5bo121b3o29b3o7bo856b2o3bo15b2o1193b$256b3o2bobo17b2o2b2o3b3o3bo71bo2bobo8bo115b2o9bo20bo3bo17b2o839b2o9b2o2b2o3bo2bo1207b$261b2o7b3o20b2obo63b2o6b2obobo9bo2bo110bo2bo28bobo21bo838bo2bo7bobo8bo2bo1206b$269bo3bo16b2obobo17b2o44bo2bo6bob2o124bo2bo29bo20bo841b2o8b2o7bobob2o6b3o1197b$269b2ob2o16bo2bo5bo12bo2bo44b2o7bo128b2o6b2o34b2o7b2o858bob2o8bobo4b5ob2o1186b$269b2o2bo17bo2bo3bobo12b2o52bobo20bo12b2o101bobo33b2o867bo3b3o5bo8bo4bo1186b$270b2o22bo3bobo66b2o20bobo4bo6b2o7b2o94bo903b3o2bo5b2ob2o6b3o1187b$270b2obo8bo11bo4bo88b2ob2o3bo15bo86b2o7bob2o902bo10bo4b5o1189b$271b2o9bo33b2o70b2o2bo3bo17bo84b2o6b2obobo9bo2bo899b3o1196b$282bo3b2o4b2o22bo53bo18b3obo11bo7b2o95bobo8bo2102b$286b2o2b2obo23b3o50b3o17b2ob2o10bo6bo67b2o13b2o8bo2b3obobo5bo5bo34b2o856b2o1203b$274bo5b2o8b2obob2o22bo53bo18b2o11bo6b3o64bobo12bo2bo7b3ob2o2bobo4bo4b2o34bobo855b2o3bo1199b$272bo2bo4b2o11bobo5b2o20b2o47b2o41bo57b2o4bo14bobo2b3o6bo6bo5bo41bo4b2o854bo1199b$275bo14b4obo2bo3bo20bo90b2o55bo2bo2b2ob4o9b2ob3o4b5obo2b3o7bo36b4ob2o2bo2bo852bo1199b$270b3o2bo4bo2b2o5bo3bobob4o23bo73bo71b2obobobobo2bo11bo7bo3bobobo6bob4o35bo2bobobobob2o2052b$269bo2bob2o3bo4bo6b3ob2o8b2o14b5o60b2o10bo3bobo69bobobobo14bobobo4b2obobo2bo6bo3bo38bobobobo2055b$269b2o8bo3b2o10b5o6bo13bo38bo26bo11bo3bobo69bobob2o14b2ob2o5b2ob2o2b2o8bo3bo37b2obobo2055b$273bobo14bobo6bo6bobo12b3o34bobo26b3o10bobobo70bo45b4obo40bo864b3o1189b$274bo5b3o7b2obo2b3o8b2o15bo33bobo28bo7bo71b2o30b2o19bo17b2o30b2o2050b$276bo16bobo25b4o34bo22b2o3b2o8bo6b3o3b2o57bo18b2o2b2o7b2o20bo16b2o7b2o2b2o18bo846b2o2b2o1198b$275bobo15bo2bo19b2o3bo3b2o36b2o10b2o5bobo2bo15b3o4b2o55bobo9b2o7bo4bo24b2o4bo24bo4bo7b2o9bobo844bo2bobo1198b$274bo19b2o20b2o4b3o2bo35bobo9b2o7bo4bo77b2o10b2o5bobo2bo22b2o2bo5bo2b2o22bo2bobo5b2o10b2o846b2obobo14b2o5bo1174b$277bo5b2o39bob2o37bo18b2o2b2o7b2o64bo22b2o3b2o21b2o7bo3b2o21b2o3b2o22bo846b2o12bo2bo4bo1175b$274bo8b2o39bo40b2o30b2o26b4o33bobo28bo5b3o17bo2bo18b3o5bo28bobo839bo28bo2b2o1170b$270b2o4bo46b2o46bo52bo4bo32bobo26b3o12b3o40b3o26bobo839b3o23b2obobo2bo1169b$270bo2bobo14bo4b2o73bobob2o46b3o4b2o32bo26bo15bo2bo42bo26bo843bo16bo4b2o2b2o4bo1168b$272b2obobo11bob2ob3o73bobobobo19b2ob2o5b2ob2o2b2o6bo6bobo59b2o13bo2b2o41b2o869b2o17bo2bobob2o1174b$276b2o11bo7bo17b2o50b2obobobobo2bo17bobobo4b2obobo2bo7bob2obo77b2o3b2o930b2o2bo1177b$288b2ob2o22bo51bo2bo2b2ob4o17bo7bo3bobobo8bo2bobo2bo78bo2bo5b2o3b2o10b2o910bo4bo2bo1168b$288bo2bo3bo20b3o50b2o4bo19b2ob3o4b5obo2b3o8bob2obo45b2o31bo2bo6bo3bo12bo2bob2o22b2o847b2o30bo5b2o1170b$289bo5bo22bo56bobo18bobo2b3o6bo6bo4bobo6bo45bo31bo2bo3b3o5b3o11bo26bo848bo1209b$289bo3bo2bo14b2o63b2o18bo2bo7b3ob2o2bobo4b2o4b3o43b3o28b2o3b2o4bo9bo13b2o24b3o842b2obo1209b$292b2ob2o14bobob2o8bo71b2o8bo2b3obobo6bo4bo34b2o9bo21bo2bo5bob4o6b2o5b2o14bo2bo24bo9b2o831bo2b3o4b2o20b2o1179b$287bo7bo17bobo2bo3bo2b3o84bobo9b4o34bo2bo29bo3bo9b2o7bo5bo15bo2bo33bo2bo831b2o3bo3b2o19bo2bo1178b$288b3ob2obo17b2o2b2o3b3o3bo72b2o6b2obobo47bo2bo28bo4bo8b3o5bo9bo14bo35bo2bo833b4o25bobo1178b$288b2o4bo30b2obo71bo2bo6bob2o49b2o6b2o21bob2o9bobo6b2o7b2o7b2o34b2o6b2o834bo15b2o8b3o2bob2o1175b$304b3o15b2obobo17b2o54b2o7bo60bobo21bo11b2o25b2o33bobo843b3o12bobo6bo6bobo1175b$322bo2bo5bo12bo2bo60bobo33b2o27bo95bo848bo13bo6b2ob2o1180b$323bo2bo3bobo12b2o61b2o35bo7b2o9b2o7bob2o89b2obo7b2o834b5o14b2o8b2ob3o1176b$326bo3bobo64b2o54bo10b2o6b2obobo9bo2bo74bobob2o6b2o834bo23b4ob3o3bo1175b$305bo8bo11bo4bo64bo2bo32bo22bo21bo8bo69b2o7bo849bo20bo3bo2bob4o11b2o1162b$304bobo7bo33b2o47b2o12bo20bo21b2o4b2o8bo2b3obobo5bo5bo59b2o2bo7bobob3o2bo8b2o831b2o20b2o7bo14bobob2o1158b$303bo4b2o4bo3b2o4b2o22bo62b3o18bo12b3o5bo5bo2bob2o4bob4o2bobo4bo4b2o59b2o2bo6bobo2b4obo4b2obo2bo17b2o816bo22b2obob2o13bobo2bo1156b$305bo2bo10bo2b2obo23b3o62bo38b3o3bobo6bo4bo6bo5bo68b2o5bo6bo4bo6bobo17bobo815b3o23bo2bo13b2o2b2o1156b$304bo2b2o13b2obob2o22bo61b2o41bob2ob3ob8obo2b3o7bo70bo4b3o2bob8ob3ob2o18bo4b2o812bo21b2obo5b2o1169b$308bo16bobo5b2o20b2o98bo4bo3bo7bobobo6bob4o65bobobo7bobobo7bo3bo16b4ob2o2bo2bo809b2o22bo7b2o1169b$308b2o12b4obo2bo3bo20bo100b3obob2o4bobobobo2bo6bo3bo64b2o3bo6bo2bobobobo4b2obo16bo2bobobobob2o833bo1178b$308b2o12bo3bobob4o23bo69b2o10b3o3bo12bobob2o5b2ob2o2b2o8bo3bo61bo3b2o7b2o2b2ob2o5b2ob2o18bobobobo830b2o2bobo1178b$301b2o2bo3bo13b3ob2o8b2o14b5o42bo15bo10bo9bo2b6o13bo26b4obo60bobobo46b2obobo815b2o9b2o2b2o2bo2bo1177b$301b2o2bo21b5o6bo13bo46bobo12b2o12b3o12bo43bo64bo54bo815bo2bo7bobo8bob2o14bo1160b$306bobo13bobo6bo6bobo12b3o43bobo13bo14bo6bo8bo41bo65b2o24b2o30b2o810b2o8b2o7bobob2o4b3o7bo1160b$322b2obo2b3o8b2o15bo43bo22b2o3b2o8b2o4bo2bo3b2o30b2o4bo65bo2b2o20b2o7b2o2b2o18bo828bob2o6bo3bo6bo3b2o1155b$325bobo25b4o47b2o9bo2bo4bobo2bo14bo2bo4b2o30bo5bo65bo2b2o29bo4bo7b2o9bobo826bo3b3o4bo13b2o1155b$325bo2bo19b2o3bo3b2o45bobo9b2o7bo4bo14bo15b2o25bo64b2o12b2o22bo2bobo5b2o10b2o827b3o2bo4bo2bo1167b$326b2o20b2o4b3o2bo46bo18b2o2b2o7b2o20b4o20bo2bo79b2o21b2o3b2o22bo825bo9b2o1167b$315b2o39bob2o46b2o30b2o19bob2ob2o115b3o5bo28bobo836b2o1165b$315b2o39bo55bo44b3o3bobo108b3o12b3o26bobo835bo1167b$302b2o2b2o47b2o54bobob2o14b2ob2o5b2ob2o2b2o6bo3bo2bobo107bo2bo15bo26bo830b2o5b2o1165b$302bo2bobo14b2o3bo83bobobobo14bob2o4bobobobo2bo6b5ob3o108b2o2bo13b2o857b2o1172b$304b2obobo11bob4o2bo78b2obobobobo2bo11bo3bo7bobobo9bobobobo106b2o3b2o2046b$308b2o11bobob4o18b2o59bo2bo2b2ob4o9b2ob3ob8obo2b3o6b3ob5o96b2o5bo2bo2050b$320b2obobo21bo62b2o4bo14bobo6bo4bo6bo4bobo2bo3bo96bo6bo2bo31b2o2017b$319bo4b2obo20b3o65bobo12bo2bob2o4bob4o2bobo4bobo3b3o98b3o3bo2bo31bo2018b$320b3o3b3o21bo66b2o13b2o8bo2b3obobo5b2ob2obo102bo4b2o3b2o28b3o2015b$321bob2o4bo13b2o104bo9b4o101b2o6b4obo9bo20bo9b2o843b3o1158b$323bobob2o14bobob2o87b2o6b2obobo10b2o102bo7b2o12bobo28bo2bo2003b$320b4obobo17bobo2bo84bo2bo6bob2o117bo5b3o12bo29bo2bo830b2o2b2o1167b$319bo2b4obo17b2o2b2o85b2o7bo119b2o6bobo34b2o6b2o831bo2bobo1167b$321bo3b2o29bo86bobo33b2o93b2o33bobo841b2obobo14b2o4bo1144b$336b3o14bo2b3o84b2o34b2o7b2o119bo847b2o13bobo4bobo1142b$353b3o3bo113b2o13bo117b2obo7b2o832bo19b3o6bo2bo1140b$356b2obo111b2ob2o14bo114bobob2o6b2o832b3o17b2o5bobob3o1139b$353b2obobo17b2o68bo24bo3bo13b2o105b2o7bo848bo17b2o3b4o3b2o1138b$344bo8bo2bo5bo12bo2bo67b3o22b3o3bo10bo102b2o2bo7bobob3o2bo8b2o830b2o18b3obobo5b2o1137b$343bobo10b2o3bobo12b2o71bo24b2o2bo9b3o100b2o2bo6bobo2b4obo4b2obo2bo850bo2bo6b3o1137b$342bo3bo3b2o4b3o2bobo84b2o26b3o12bo103b2o5bo6bo4bo6bobo852bobo4bobo1138b$342bo3bo3b2o10bo127b2o106bo4b3o2bob8ob3ob2o820b2o31bo4b2o1139b$342b2ob2o9bo22b2o213bobobo7bobobo7bo3bo822bo1178b$354b3o22bo82b2o129b2o3bo6bo2bobobobo4b2obo819b2obo1178b$353bo2bo23b3o52bo26bo129bo3b2o7b2o2b2ob2o5b2ob2o818bo2b3o4b2o20b2o1148b$353b2obob2o22bo51bobo26b3o126bobobo846b2o3bo3b2o19bo2bo1147b$333b2o21bobo5b2o20b2o46bobo28bo5b3o118bo852b4o25bobo1147b$333b2o3bo8bo5b4ob4o3bo20bo48bo22b2o3b2o21b2o106b2o849bo15b2o8b3o2bob2o1144b$338bo7bo2bo3bo5bob4o23bo50b2o10b2o5bobo2bo22b2o14b6o87bo2b2o846b3o12bobo6bo6bobo1144b$338bo10bo4b3o11b2o14b5o50bobo9b2o7bo4bo36b4o89bo2b2o849bo13bo6b5o1149b$345b2o2bo6b3ob3o6bo13bo57bo18b2o2b2o7b2o30bobo85b2o849b5o14b2o8b2ob3o1145b$353bobo2bo3bo6bobo12b3o54b2o30b2o32b2o935bo23b4obobo3bo1144b$353b2ob2ob3o8b2o15bo59bo56bo2bob2o935bo20bo3bo2bob4o11b2o1131b$347b2o7bobo25b4o58bobob2o26b2ob2o5b2ob2o2b2o6bo3bob2o934b2o20b2o5bobo14bobob2o1127b$347b2o7bo2bo19b2o3bo3b2o56bobobobo26bobobo5bobobo2bo5b2obo3bo940bo22b2obob2o13bobo2bo1125b$334b2o2b2o17b2o20b2o4b3o2bo52b2obobobobo2bo23bo3b3o5bobobo6b2obo2bo941b3o23bob2o13b2o2b2o1125b$334bo2bobo47bob2o52bo2bo2b2ob4o21b2ob12ob2ob3o5b2o947bo22b2o6b2o1138b$336b2obobo45bo57b2o4bo26bobo6bo6bobo2bo5bobo944b2o28bo2bo1138b$340b2o6b2o36b2o63bobo24bo2bo6bob2o2b2obobo7b4o964bo1148b$348b2o4b2o96b2o25b2o9b2o2bobobo6b6o959b2o3bo11bo1136b$353bob2ob2o131bo2bobo958b2o9b2o2b2o3bo2bo3bo1141b$351b3obob4o17b2o103b2o6b2obobo957bo2bo7bobo8bo2bo3b2ob2o6bo1129b$378bo103bo2bo6bob2o959b2o8b2o7bobob2o5bo8bo1129b$347b4obob3o22b3o101b2o7bo980bob2o17bo3b2o1124b$348b2ob2obo26bo108bobo33b2o945bo3b3o18b2o1124b$352b2o4b2o14b2o114b2o34b2o7b2o937b3o2bo1144b$358b2o14bobob2o140b2o13bo940bo1147b$376bobo2bo137bo17bo2086b$376b2o2b2o111bo19b3o3b3ob2o11b2o948b2ob2o1133b$368bo124b3o23b2ob7o6bo945b2o3bo3bo1133b$368bo127bo25bo3b3o6b3o943b2o4b3o1134b$368bo126b2o22b3o2b4o10bo949bo1135b$523bo13b2o2085b$388bo2235b$385bo2b3o8bo109b2o2113b$376b3o6b3o3bo6bobo81bo26bo5b2o2107b$381b2o5b2obo6bobo80bobo26b3o6bo974b3o1127b$381b2o2b2obobo8bo8b2o71bobo28bo6bo2104b$385bo2bo5bo12bo2bo71bo22b2o3b2o7bo3b2o8b2o13b2o932b2o2b2o1136b$374b2o10b3o4bobo12b2o76b2o10b2o5bobo2bo22b2o12b4o931bo2bobo1136b$368b2o3bob2o10b2o4bobo90bobo9b2o7bo4bo8bo24bobob2o932b2obobo14b2o3bobo1112b$366b2o2b5o2bo9b2o5bo93bo18b2o2b2o7bo25b2o3b2o935b2o13bo2bo2bo2bo1111b$364b2obob2obo4b2o9bo22b2o75b2o30b2o29bo930bo20bo9bo1110b$364b2ob2o2bo4b2o10b2o21bo82bo58bo928b3o18bo2bo4b4o1109b$376bo8bo2bobo21b3o78bobob2o51b3o932bo17b2o3b4o3b2o1107b$374bo10b2obo25bo78bobobobo22b2ob2o5b2ob2o2b2o8b2o2b2o929b2o19b4o4bo2bo1107b$388bob2o4b2o20b2o70b2obobobobo2bo20bobobo4b2obobo2bo5b2o2b2o954bo9bo1107b$371b2o12b4ob4o3bo20bo71bo2bo2b2ob4o20bo7bo3bobobo8b3o936bo19bo2bo2bo2bo1107b$371bo13bo7b4o23bo71b2o4bo22b2ob3o4b5obo2b3o4bo928b2o8b3o19bobo3b2o1108b$371bo6b2o6b3o11b2o14b5o77bobo21bobo2b3o6bo6bo5bo926bo8b5o1134b$378b2o8b7o6bo13bo83b2o21bo2bo7b3ob2o2bobo4b2o3b2o918b2obo7bo5bo1133b$365b2o2b2o14bobo2bo3bo6bobo12b3o104b2o8bo2b3obobo6b2obobo918bo2b3o4b2o2bo17b2o1117b$365bo2bobo14b2ob2ob3o8b2o15bo118bobo9b4o920b2o3bo2b3obobo15bo2bo1116b$367b2obobo15bobo25b4o107b2o6b2obobo10b2o923b4o3b2o2bo17bobo1116b$371b2o15bo2bo19b2o3bo3b2o104bo2bo6bob2o936bo7bo7b2o8b3o2bob2o1113b$389b2o20b2o4b3o2bo104b2o7bo940b3o5b4o3bobo6bo6bobo1113b$419bob2o111bobo20bo12b2o908bo5b3o5bo6b2ob2o1118b$419bo114b2o20bobo12bo7b2o894b5o7bo6b2o8b2ob3o1114b$380b2o36b2o135bo2bo3b3o14bo895bo23b4ob3o3bo1113b$380b2o4b2o168bo2bo21bo895bo20bo3bo2bob4o11b2o1100b$385bob2ob2o145bo18b3obo19b2o894b2o20b2o7bo14bobob2o1096b$383b3obob4o17b2o125b3o20bo10b3o5bo901bo22b2obob2o13bobo2bo1094b$410bo129bo18b2o18b3o899b3o23bo2bo13b2o2b2o1094b$379b4obob3o22b3o125b2o41bo901bo21b2obo5b2o1107b$380b2ob2obo26bo167b2o900b2o22bo7b2o1107b$384b2o4b2o14b2o1099bo1116b$390b2o14bobob2o141b2o10b3o3bo929b2o2bobo1116b$395b3o10bobo2bo112bo26bo9bo2b6o914b2o9b2o2b2o2bo2bo1115b$395b3o10b2o2b2o111bobo26b3o12bo915bo2bo7bobo8bob2o14bo1098b$394bo3b2o125bobo28bo6bo8bo913b2o8b2o7bobob2o14bo1098b$395bob3obo124bo22b2o3b2o8b2o4bo2bo3b2o925bob2o17bo3b2o1093b$396b4obo128b2o10b2o5bobo2bo14bo2bo4b2o925bo3b3o18b2o1093b$397b2o2bo128bobo9b2o7bo4bo14bo933b3o2bo1113b$397b3obo18bo111bo18b2o2b2o7b2o17bo2bo725b2o193bo14bo1101b$399b2obo14bo2b3o8bo100b2o30b2o21bo724bobo201b2o3bob2o1099b$398b2obo15b3o3bo6bobo105bo43bo5bo725bo200bo2bo2bo3bo1098b$400bo12b2o5b2obo6bobo104bobob2o37b3obobob2o724b2o196b2obob2obo4bo1098b$413b2o2b2obobo8bo8b2o95bobobobo10b2ob2o5b2ob2o2b2o6bo3b2o3bo923b2ob2o2bo4b2o1098b$407b2o8b2obo5bo12bo2bo91b2obobobobo2bo8bobobo5bobobo2bo6bobobobo2bo929bo4bo1100b$406b2o11bo2bo2bobo12b2o92bo2bo2b2ob4o8bo3b3o5bobobo949bo1102b$407bob2o9bobo2bobo108b2o4bo10b2ob12ob2ob3o5bo2bobobobo931bo1102b$407b6o7bo5bo115bobo9bobo6bo6bobo2bo4bo3b2o3bo2034b$396b2o10bo3bo7bo22b2o98b2o9bo2bo6bob2o2b2obobo3b2obobob3o929b3o1103b$396b2o10b2o2bo5bob2o21bo111b2o9b2o2bobobo5bo5bo938b3o1096b$400b3o5b2ob2o4bo2bo23b3o120bo2bobo8bo2042b$409bobo5b2obob2o22bo112b2o6b2obobo9bo2bo927b2o2b2o1105b$410bo9bo7b2o20b2o106bo2bo6bob2o941bo2bobo1105b$417b4obo2bo3bo20bo108b2o7bo946b2obobo14b2o4b2o1081b$417bo3b3ob4o23bo113bobo33b2o915b2o14b2o3b3o1081b$410b2o6b3ob2o8b2o14b5o113b2o34b2o7b2o900bo21b2o2bo3bo1080b$410b2o10b2ob2o6bo13bo142bo20bo901b3o19b3o3b4obo1077b$397b2o2b2o14bobo6bo6bobo12b3o138bobo21bo902bo18bo10bo1077b$397bo2bobo14b2obo2b3o8b2o15bo117bo20bo13bo7b2o901b2o18bob4o3b3o1077b$399b2obobo15bobo25b4o117b3o32bo6bo926bo3bo2b2o1077b$403b2o15bo2bo19b2o3bo3b2o118bo31bo6b3o925b3o3b2o1077b$421b2o20b2o4b3o2bo116b2o24bo16bo892b2o30b2o4b2o1077b$451bob2o141b3o14b2o892bo1116b$451bo143b2ob2o904b2obo1116b$412b2o4b2o30b2o133b2o7b2o908bo2b3o4b2o20b2o1086b$412b2o3b3o138bo26bo7b3o909b2o3bo3b2o19bo2bo1085b$412b2o2bo3bo136bobo26b3o5b2o911b4o25bobo1085b$412b3o3b4obo18b2o113bobo28bo6b2ob2o907bo15b2o8b3o2bob2o1082b$412bo10bo18bo115bo22b2o3b2o8b3o5b2o3b2o897b3o12bobo6bo6bobo1082b$412bob4o3b3o19b3o116b2o10b2o5bobo2bo10bo11b2o900bo13bo6b5o1087b$415bo3bo2b2o21bo116bobo9b2o7bo4bo15b3o899b5o14b2o8b2ob3o1083b$416b3o3b2o14b2o124bo18b2o2b2o7b2o908bo23b4obobo3bo1082b$416b2o4b2o14bobob2o120b2o30b2o19b4o887bo20bo3bo2bob4o11b2o1069b$440bobo2bo124bo45bo4bo885b2o20b2o5bobo14bobob2o1065b$440b2o2b2o6bo116bobob2o39b3o4b2o889bo22b2obob2o13bobo2bo1063b$431bo17bo2b3o8bo105bobobobo12b2ob2o5b2ob2o2b2o6bo6bobo889b3o23bob2o13b2o2b2o1063b$430bobo16b3o3bo6bobo101b2obobobobo2bo10bob2o4bobobobo2bo7bob2obo895bo22b2o6b2o1076b$431bo20b2obo6bobo101bo2bo2b2ob4o10bo3bo7bobobo8bo2bobo2bo891b2o30b2o1076b$449b2obobo8bo8b2o94b2o4bo12b2ob3ob8obo2b3o8bob2obo914bo1086b$449bo2bo5bo12bo2bo99bobo11bobo6bo4bo6bo4bobo6bo908b2o3bo1086b$452b2o3bobo12b2o101b2o11bo2bob2o4bob4o2bobo4b2o4b3o894b2o13b2o3bo2bo1083b$452b3o2bobo129b2o8bo2b3obobo6bo4bo895bo2bo18bo2bo1082b$445b2o11bo147bo9b4o897b2o17bobob2o1082b$438b3o4b2o5bo22b2o116b2o6b2obobo928bob2o21b2o1062b$438bobo9b3o22bo116bo2bo6bob2o929bo3b3o11bo6b2o1062b$438bobo8bo2bo23b3o114b2o7bo933b3o2bo11b2o1069b$449b2obob2o22bo121bobo33b2o900bo1085b$452bobo5b2o20b2o116b2o34b2o7b2o908bo1068b$428b2o19b4ob4o3bo20bo106b2o39b2o13bo908bo1069b$428b2o3bo15bo5bob4o23bo103bo2bo32bo3b2ob2o14bo895b2o11b3o1065b$433bo6b2o8b3o11b2o14b5o104b2o12bo20bo3bo3bo13b2o895b2o3bo5bobo2bo1064b$433bo9bo8b3ob3o6bo13bo123b3o18bo3b3o3bo10bo902bo5bo1069b$441b3o5bobo2bo3bo6bobo12b3o123bo24b2o2bo9b3o900bo8b2o1065b$442bo6b2ob2ob3o8b2o15bo121b2o26b3o12bo1975b$452bobo25b4o163b2o1975b$442b2o8bo2bo19b2o3bo3b2o2138b$442b2o9b2o20b2o4b3o2bo132b2o935b3o1065b$429b2o2b2o48bob2o105bo26bo2004b$429bo2bobo48bo107bobo26b3o921b2o2b2o1074b$431b2obobo7b2o4bo31b2o107bobo28bo5b3o18bo2bo891bo2bobo1074b$435b2o6bobo4bobo139bo22b2o3b2o21b2o8bo892b2obobo14b2o5bo1050b$442b3o6bo2bo141b2o10b2o5bobo2bo22b2o3bo5bo895b2o14b2o4b2o1050b$442b2o5bobob3o18b2o120bobo9b2o7bo4bo25b2o4bo889bo25b2o1052b$443b2o3b4o3b2o17bo123bo18b2o2b2o7b2o21bo890b3o20bo2b3ob2o2bo1045b$444b3obobo5b2o17b3o120b2o30b2o20bo894bo18b3obo2bob3o1046b$445bo2bo6b3o19bo126bo46b4obo889b2o17bo2b2ob3o2bo1047b$447bobo4bobo13b2o131bobob2o15b2ob2o5b2ob2o2b2o8bo3bo916b2o1050b$449bo4b2o14bobob2o127bobobobo15bobobo4b2obobo2bo6bo3bo916b2o4b2o1046b$472bobo2bo122b2obobobobo2bo12bo7bo3bobobo6bob4o884b2o30bo5b2o1046b$472b2o2b2o6bo115bo2bo2b2ob4o10b2ob3o4b5obo2b3o7bo885bo1085b$464bo16bo2b3o8bo106b2o4bo15bobo2b3o6bo6bo5bo883b2obo1085b$464bo16b3o3bo6bobo111bobo13bo2bo7b3ob2o2bobo4bo4b2o878bo2b3o4b2o20b2o1055b$464bo19b2obo6bobo112b2o14b2o8bo2b3obobo5bo5bo879b2o3bo3b2o19bo2bo1054b$481b2obobo8bo8b2o134bobo8bo886b4o25bobo1054b$463b3o15bo2bo5bo12bo2bo122b2o6b2obobo9bo2bo882bo15b2o8b3o2bob2o1051b$462bo2bo16bo2bo3bobo12b2o122bo2bo6bob2o897b3o12bobo6bo6bobo1051b$465b2o5b3o10bo3bobo137b2o7bo903bo13bo6b2ob2o1056b$477b2o6bo4bo145bobo33b2o863b5o14b2o8b2ob3o1052b$477b2o28b2o127b2o34b2o7b2o854bo23b4ob3o3bo1051b$461b2o20b2o22bo158bo14bo857bo20bo3bo2bob4o11b2o1038b$481b2obo23b3o154bo2bo14bo854b2o20b2o7bo14bobob2o1034b$466bobo12b2obob2o22bo128bo24bo2bo4b2o8b2o859bo22b2obob2o13bobo2bo1032b$466b3o15bobo5b2o20b2o123b3o23bo8bo6bo861b3o23bo2bo13b2o2b2o1032b$460b2o5bo13b4obo2bo3bo20bo127bo25bo12b3o862bo21b2obo5b2o1045b$460b2o19bo3bobob4o23bo124b2o23b6o2bo9bo860b2o22bo7b2o1045b$482b3ob2o8b2o14b5o149bo3b3o10b2o884bo1054b$486b5o6bo13bo1051b2o2bobo1054b$481bobo6bo6bobo12b3o140b2o891b2o13b2o2bo2bo1053b$481b2obo2b3o8b2o15bo112bo26bo891bo2bo18bob2o1051b$484bobo25b4o111bobo26b3o889b2o17bobob2o1051b$474b2o8bo2bo19b2o3bo3b2o109bobo28bo5b3o899bob2o15bo5b2o1031b$474b2o9b2o20b2o4b3o2bo109bo22b2o3b2o21b2o885bo3b3o10b2ob2o3b2o1031b$461b2o2b2o48bob2o113b2o10b2o5bobo2bo22b2o886b3o2bo10b2ob2o1036b$461bo2bobo48bo116bobo9b2o7bo4bo24b6o880bo1054b$463b2obobo7b2o36b2o118bo18b2o2b2o7bo16b4o1937b$467b2o7b2o4b3o149b2o30b2o18bobo1935b$481bo6bo151bo47b2o884b2o1048b$480b2obobo2bo17b2o131bobob2o40bo2bob2o882b2o3bo1044b$476b3o6b3o18bo132bobobobo13b2ob2o5b2ob2o2b2o6bo3bob2o887bo1044b$475bo2bobob2o23b3o126b2obobobobo2bo11bobo5bobobobo2bo5b2obo3bo888bo8b3o1033b$475bo6bo26bo126bo2bo2b2ob4o11bo7bo3bobobo6b2obo2bo896b2ob2o1033b$479b3o4b2o14b2o134b2o4bo13b2ob5ob6ob2ob3o5b2o899b2obo1034b$486b2o14bobob2o8bo127bobo12bobo2b2o9bobo2bo5bobo898bobo1034b$504bobo2bo3bo2b3o8bo117b2o12bo2bo2bo4b3o2b2obobo7b4o895b3o1034b$504b2o2b2o3b3o3bo6bobo131b2o8bob2o3bobo6b6o1932b$495bo20b2obo6bobo143bo2bobo897b2o2b2o1043b$494bobo16b2obobo8bo8b2o126b2o6b2obobo897bo2bobo1043b$495bo17bo2bo5bo12bo2bo124bo2bo6bob2o900b2obobo14b2o1025b$516b2o3bobo12b2o126b2o7bo907b2o14b2o4b3o1018b$516b3o2bobo147bobo33b2o866bo26bo6bo1014b$522bo148b2o34b2o7b2o857b3o23b2obobo2bo1014b$516bo22b2o119b2o54bo861bo18b3o6b3o1015b$509b2o3b3o22bo119bo2bo55bo858b2o17bo2bobob2o1019b$509b2o2bo2bo23b3o117b2o12bo19b3o12bo7b2o877bo6bo1020b$502b3o8b2obob2o22bo131b3o32bo6bo883b3o4b2o1015b$502bo2bo10bobo5b2o20b2o129bo31bo6b3o850b2o36b2o1015b$513b4ob4o3bo20bo129bo42bo849bo1054b$503bo4bo4bo5bob4o23bo127bo3bo37b2o846b2obo1054b$492b2o14b2o4b3o11b2o14b5o132bo20b2o862bo2b3o4b2o20b2o1024b$492b2o3bo5bo2bob2o6b3ob3o6bo13bo132bo5bo7b2o9bobo863b2o3bo3b2o19bo2bo1023b$497bo9b2o4bobo2bo3bo6bobo12b3o116bo11bo3bo3bo6bo10bo867b4o25bobo1023b$497bo6b2ob2o4b2ob2ob3o8b2o15bo114bobo10bo2bobo2bo7b3o7bobo7b2o856bo15b2o8b3o2bob2o1020b$506bo9bobo25b4o114bobo10bo3bo3bo9bo8b2o6b3o857b3o12bobo6bo6bobo1020b$516bo2bo19b2o3bo3b2o113bo12bo5bo3b2o3b2o17bobob2o857bo13bo6b5o1025b$517b2o20b2o4b3o2bo116b2o8bo3bo4bobo2bo18b2obobo852b5o14b2o8b2ob3o1021b$506b2o39bob2o116bobo8b3o7bo4bo17b4o853bo23b4obobo3bo1020b$506b2o39bo121bo18b2o2b2o7b2o9b2o856bo20bo3bo2bob4o11b2o1007b$493b2o2b2o47b2o121b2o30b2o23bo842b2o20b2o5bobo14bobob2o1003b$493bo2bobo14b2o3bo156bo44b3o2bobo846bo22b2obob2o13bobo2bo1001b$495b2obobo11bo3b4o154bobob2o38b3obo2bo848b3o23bob2o13b2o2b2o1001b$499b2o11bobo5bo17b2o134bobobobo11b2ob2o5b2ob2o2b2o6bo4bo3b2o849bo22b2o6b2o1014b$511b2o5bo2bo16bo40bo91b2obobobobo2bo9bobobo5bobobo2bo6b2ob2o3bo850b2o30b2o1014b$509bo3b2obo22b3o38b2o89bo2bo2b2ob4o9bo3b3o5bobobo10b2ob2o874bo1024b$512b2o3b2o22bo37b2o92b2o4bo11b2ob12ob2ob3o6bo3b2ob2o866b2o3bo15b3o1006b$514bob2o3bo12b2o143bobo10bobo6bo6bobo2bo3b2o3bo4bo851b2o13b2o3bo2bo11bo3bo1005b$509bo2bo5b2o14bobob2o140b2o10bo2bo6bob2o2b2obobo5bo2bob3o851bo2bo18bo2bo10bo3b4o1002b$510bo5bobo17bobo2bo151b2o9b2o2bobobo4bobo2b3o854b2o17bobob2o8b2ob3ob4o1001b$511b4o3bo17b2o2b2o163bo2bobo7bo878bob2o10bobo5bobobo1000b$512bo3b2o10bo168b2o6b2obobo886bo3b3o7bo7bo2b2o1000b$528bo167bo2bo6bob2o888b3o2bo7b2obo3bo1005b$528bo168b2o7bo893bo12b2o3b2o1004b$704bobo33b2o1882b$548bo155b2o34b2o7b2o1873b$535bo9bo2b3o142b2o36bo17bo855b2o1017b$534b3o8b3o3bo140bo2bo33b5o17bo853b2o3bo1013b$533b2ob2o3b2o5b2obo141b2o12bo20b3ob2o16b2o858bo1013b$532b2o3b2o2b2o2b2obobo17b2o137b3o19b5o5b2o8bo860bo1013b$533b2ob2o7bo2bo18bo2bo139bo20bo7bob2o6b3o1872b$546b3o19b2o139b2o4bo25b2o9bo1871b$547b2o6b2o158bobo21bob2o8b2o867bo1003b$547b2o6b2o158b2o22b2o878bobo1002b$524b2o22bo22b2o150b2o895bo1003b$524b2o22b2o21bo124bo26bo882b2o2b2o1012b$528b3o8bo5bo2bobo21b3o120bobo26b3o6bo872bo2bobo1012b$536b2ob3o3b2obo25bo120bobo28bo6bo874b2obobo14b2o994b$548bob2o4b2o20b2o116bo22b2o3b2o7bo13b2o10b2o851b2o14b2o4b2o988b$545b4ob4o3bo20bo121b2o10b2o5bobo2bo22b2o9b4o485bo358bo26bob2ob2o984b$545bo7b4o23bo119bobo9b2o7bo4bo30bobob2o482bobo358b3o22b3obob4o983b$538b2o6b3o11b2o14b5o23bo97bo18b2o2b2o7b2o21b2o3b2o482bobo360bo1014b$538b2o8b7o6bo13bo26bobo97b2o30b2o26bo483bo361b2o17b4obob3o987b$525b2o2b2o14bobo2bo3bo6bobo12b3o24b2o103bo55bo863b2ob2obo989b$525bo2bobo14b2ob2ob3o8b2o15bo127bobob2o48b3o868b2o4b2o984b$527b2obobo15bobo25b4o127bobobobo19b2ob2o5b2ob2o2b2o8b2o2b2o834b2o36b2o984b$531b2o15bo2bo19b2o3bo3b2o122b2obobobobo2bo17bobo5bobobobo2bo5b2o2b2o837bo1023b$549b2o20b2o4b3o2bo121bo2bo2b2ob4o17bo7bo3bobobo8b3o835b2obo1023b$579bob2o123b2o4bo19b2ob5ob6ob2ob3o4bo838bo2b3o4b2o20b2o993b$579bo132bobo18bobo2b2o9bobo2bo5bo837b2o3bo3b2o19bo2bo992b$540b2o4bo31b2o133b2o18bo2bo2bo4b3o2b2obobo4b2o3b2o834b4o25bobo992b$539bobo4bobo185b2o8bob2o3bobo6b2obobo477bo356bo15b2o8b3o2bob2o989b$538b3o6bo2bo195bo2bobo9b4o476bobo357b3o12bobo6bo6bobo989b$538b2o5bobob3o18b2o166b2o6b2obobo10b2o478bobo359bo13bo6b2ob2o994b$539b2o3b4o3b2o17bo166bo2bo6bob2o491bo356b5o14b2o8b2ob3o990b$540b3obobo5b2o3b3o11b3o40bo123b2o7bo851bo23b4ob3o3bo989b$541bo2bo6b3o5bo13bo38bobo130bobo33b2o818bo20bo3bo2bob4o11b2o976b$543bobo4bobo5bo7b2o45b2o130b2o34b2o7b2o808b2o20b2o7bo14bobob2o972b$545bo4b2o14bobob2o162b2o33bo5b2o13bo814bo22b2obob2o13bobo2bo970b$568bobo2bo159bo2bo31bobo3bobo15bo812b3o23bo2bo13b2o2b2o970b$568b2o2b2o6bo153b2o12bo20bo3b2o2bo13b2o815bo21b2obo5b2o983b$577bo2b3o165b3o23b2ob3o10bo816b2o22bo7b2o983b$577b3o3bo167bo25b2obo9b3o838bo992b$567bo12b2obo166b2o27bobo11bo445bo385b2o2bobo992b$566b3o8b2obobo17b2o190b2o443bobo370b2o13b2o2bo2bo991b$565bobobobo5b2obo18bo2bo635bobo368bo2bo18bob2o5bo8bo974b$565bobo5bo5bo2bo17b2o162b2o472bo371b2o17bobob2o4bobo7bo974b$563b2ob3o11bobo4b2o148bo26bo863bob2o6bo4b2o4bo3b2o969b$562bob2obo2bo3bo5bo6b2o147bobo26b3o6bo853bo3b3o5bo2bo10bo969b$561b2obo4b3ob2o5bo22b2o131bobo28bo6bo854b3o2bo4bo2b2o980b$562b2obo3bo8bob2o21bo133bo22b2o3b2o7bo13b2o7bo833bo11bo980b$563b3o3b2o6bo2bo23b3o134b2o10b2o5bobo2bo22b2o2b2o3b2o844b2o979b$577b2obob2o22bo134bobo9b2o7bo4bo24b2o3b2o844b2o979b$580bo7b2o20b2o131bo18b2o2b2o7b2o20bo838b2o2bo3bo979b$556b2o19b4obo2bo3bo20bo132b2o30b2o18bo2bo837b2o2bo983b$556b2o19bo3b3ob4o23bo136bo45bob3o435bo405bobo980b$560b3o15b3ob2o8b2o14b5o135bobob2o14b2ob2o5b2ob2o2b2o7b2o3bo433bobo1388b$582b2ob2o6bo13bo140bobobobo14bobobo4b2obobo2bo6bo3b2o435bobo1387b$577bobo6bo6bobo12b3o134b2obobobobo2bo11bo7bo3bobobo7b3obo436bo1389b$577b2obo2b3o8b2o15bo133bo2bo2b2ob4o9b2ob3o4b5obo2b3o5bo2bo853bo972b$580bobo25b4o135b2o4bo14bobo2b3o6bo6bo5bo854bobo971b$570b2o8bo2bo19b2o3bo3b2o139bobo12bo2bo7b3ob2o2bobo4b2o3b2o850bo972b$570b2o9b2o20b2o4b3o2bo139b2o13b2o8bo2b3obobo5b2o3b2o836b2o2b2o981b$557b2o2b2o48bob2o169bobo8bo841bo2bobo981b$557bo2bobo48bo30bobo128b2o6b2obobo852b2obobo14b2o5bo957b$559b2obobo7b2o36b2o31b2o14bo12bobo97bo2bo6bob2o857b2o12bo2bo4bo958b$563b2o7b2o4b2o63bo16bo12b2o98b2o7bo854bo28bo2b2o953b$577bob2ob2o74b3o12bo106bobo33b2o413bo405b3o23b2obobo2bo952b$575b3obob4o17b2o176b2o34b2o7b2o402bobo408bo16bo4b2o2b2o4bo951b$602bo166b2o54bo404bobo406b2o17bo2bobob2o957b$571b4obob3o22b3o162bo2bo32bo22bo402bo428b2o2bo960b$572b2ob2obo26bo163b2o12bo20bo21b2o836bo4bo2bo951b$576b2o4b2o14b2o183b3o18bo12b3o5bo805b2o30bo5b2o953b$582b2o14bobob2o182bo38b3o803bo992b$600bobo2bo179b2o23b3o15bo799b2obo992b$600b2o2b2o95bo107bo3bo13b2o799bo2b3o4b2o20b2o962b$589b2o111b2o104bo3b2o815b2o3bo3b2o19bo2bo961b$588bo2bo109b2o96b2o6bo823b4o25bobo961b$589bo2bo179bo26bo7bo2bo820bo15b2o8b3o2bob2o958b$589bo181bobo26b3o4bo419bo404b3o12bobo6bo6bobo958b$771bobo28bo5bo3b2o27b2o382bobo407bo13bo6b5o963b$590b3o8bo170bo22b2o3b2o7bo3bo9b2o15b4o382bobo401b5o14b2o8b2ob3o959b$601bo174b2o10b2o5bobo2bo9b3o7bo2b2o14bobob2o381bo403bo23b4obobo3bo958b$601bo3b2o169bobo9b2o7bo4bo7b2o7bo19b2o3b2o786bo20bo3bo2bob4o11b2o945b$605b2o171bo18b2o2b2o7b2o7bo24bo786b2o20b2o5bobo14bobob2o941b$778b2o30b2o34bo789bo22b2obob2o13bobo2bo939b$611bo172bo58b3o790b3o23bob2o13b2o2b2o939b$592b2o3b2o9bo2b3o169bobob2o26b2ob2o5b2ob2o2b2o8b2o2b2o791bo22b2o6b2o952b$593bo3bob2o7b3o3bo168bobobobo26bobo5bobobobo2bo5b2o2b2o793b2o30b2o952b$588b2o2bo7bo10b2obo165b2obobobobo2bo23bo7bo3bobobo8b3o817bo962b$588bobobo5bobo7b2obobo17b2o147bo2bo2b2ob4o21b2ob5ob6ob2ob3o4bo815b2o3bo9bo952b$589b4ob3ob2o8b2obo18bo2bo148b2o4bo26bobo2b2o9bobo2bo5bo380bo417b2o13b2o3bo2bo5b3o951b$590b4o3bo12bo2bo17b2o155bobo24bo2bo2bo4b3o2b2obobo4b2o3b2o373bobo416bo2bo18bo2bo4bo9bo943b$593bo3bo13bobo4b2o169b2o25b2o8bob2o3bobo6b2obobo374bobo416b2o17bobob2o6b2o6bo943b$594b3o14bo6b2o208bo2bobo9b4o375bo436bob2o17bo3b2o938b$611bo22b2o184b2o6b2obobo10b2o813bo3b3o18b2o938b$602b2o5bob2o21bo184bo2bo6bob2o827b3o2bo958b$602b2o4bo2bo23b3o182b2o7bo832bo961b$589b2o2b2o13b2obob2o22bo189bobo33b2o808bobo948b$589bo2bobo16bo7b2o20b2o184b2o34b2o7b2o799bobo948b$591b2obobo11b4obo2bo3bo20bo174b2o33bo20bo794b2o4b3o948b$595b2o11bo3b3ob4o23bo171bo2bo31bobo21bo792b2o955b$609b3ob2o8b2o14b5o172b2o12bo20bo13bo7b2o1749b$613b2ob2o6bo13bo191b3o32bo6bo346bo1404b$608bobo6bo6bobo12b3o67bobo121bo31bo6b3o342bobo1404b$608b2obo2b3o8b2o15bo67b2o120b2o41bo342bobo1403b$611bobo25b4o67bo163b2o342bo463bo941b$611bo2bo19b2o3bo3b2o213b2o821bobo940b$612b2o20b2o4b3o2bo200b2o9bobo822bo941b$642bob2o173bo26bo10bo810b2o2b2o950b$642bo175bobo26b3o7bobo7b2o799bo2bobo950b$603b2o3bobo30b2o175bobo28bo8b2o6b3o801b2obobo14b2o4bo927b$602bo2bo2bo2bo207bo22b2o3b2o17bobob2o802b2o13bobo4bobo925b$602bo9bo210b2o10b2o5bobo2bo18b2obobo796bo19b3o6bo2bo923b$602bo2bo4b4o19b2o188bobo9b2o7bo4bo17b4o797b3o17b2o5bobob3o922b$602b2o3b4o3b2o17bo191bo18b2o2b2o7b2o9b2o345bo455bo17b2o3b4o3b2o921b$604b4o4bo2bo18b3o188b2o30b2o354bobo454b2o18b3obobo5b2o920b$605bo9bo20bo194bo382bobo474bo2bo6b3o920b$606bo2bo2bo2bo13b2o199bobob2o378bo478bobo4bobo921b$607bobo3b2o14bobob2o195bobobobo825b2o31bo4b2o922b$631bobo2bo190b2obobobobo2bo822bo961b$631b2o2b2o190bo2bo2b2ob4o819b2obo961b$829b2o4bo823bo2b3o4b2o20b2o931b$622b3o104bobo103bobo822b2o3bo3b2o19bo2bo930b$730b2o104b2o824b4o25bobo930b$730bo931bo15b2o8b3o2bob2o927b$1663b3o12bobo6bo6bobo927b$1211bo454bo13bo6b2ob2o932b$643bo565bobo449b5o14b2o8b2ob3o928b$636b2o2bo2b3o564bobo448bo23b4ob3o3bo927b$629bo6b2o2b3o3bo563bo452bo20bo3bo2bob4o11b2o914b$629b2o12b2obo1015b2o20b2o7bo14bobob2o910b$640b2obobo17b2o1002bo22b2obob2o13bobo2bo908b$631bo8bo2bo18bo2bo1001b3o23bo2bo13b2o2b2o908b$630bo12b2o18b2o71bo933bo21b2obo5b2o921b$619b2o11b3o8b3o4b2o82bobo932b2o22bo7b2o921b$619b2o3bo5bobo2bo14b2o83b2o956bo930b$624bo5bo12bo22b2o1019b2o2bobo930b$624bo8b2o6b3o22bo1005b2o13b2o2bo2bo6bo922b$640bo2bo23b3o537bo463bo2bo18bob2o2b2o10bo912b$640b2obob2o22bo535bobo464b2o17bobob2o14bo912b$643bobo5b2o20b2o531bobo481bob2o17bo3b2o907b$633b2o5b4ob4o3bo20bo532bo483bo3b3o18b2o907b$633b2o5bo5bob4o23bo1015b3o2bo927b$620b2o2b2o15b3o11b2o14b5o1017bo930b$620bo2bobo17b3ob3o6bo13bo1031b2o3b2o915b$622b2obobo12bobo2bo3bo6bobo12b3o1027bobo3bobo914b$626b2o12b2ob2ob3o8b2o15bo89bo933b4o7bo914b$643bobo25b4o87bobo933b4o3bo3bo914b$643bo2bo19b2o3bo3b2o86b2o937bo5bo915b$644b2o20b2o4b3o2bo1025bo3bo916b$674bob2o525bo500b3o917b$674bo526bobo1420b$635b2o36b2o527bobo508bo910b$635b2o4b2o559bo509bobo909b$640bob2ob2o1066bo910b$638b3obob4o17b2o1032b2o2b2o919b$665bo1033bo2bobo919b$634b4obob3o22b3o1032b2obobo14b2o3bobo895b$635b2ob2obo26bo1036b2o13bo2bo2bo2bo894b$639b2o4b2o14b2o1036bo20bo9bo893b$645b2o14bobob2o1032b3o18bo2bo4b4o892b$663bobo2bo1033bo17b2o3b4o3b2o890b$663b2o2b2o5bo524bo501b2o19b4o4bo2bo890b$655bo15bo2b3o520bobo523bo9bo890b$655bo6bo8b3o3bo520bobo523bo2bo2bo2bo890b$655bo6bo11b2obo520bo494b2o30bobo3b2o891b$661b2o8b2obobo17b2o997bo930b$671bo2bo18bo2bo993b2obo930b$659bo12b3o19b2o994bo2b3o4b2o20b2o900b$657bo15b2o6b2o1008b2o3bo3b2o19bo2bo899b$656b2o4bo2b2ob2o3b2o6b2o106bo903b4o25bobo899b$655b2o4bob2obob2o4bo22b2o91bo902bo15b2o8b3o2bob2o896b$656bo2b5o2b2o6b2o21bo90b3o903b3o12bobo6bo6bobo896b$657b2obo3b2o5bo2bobo21b3o996bo13bo6b5o901b$658b2o11b2obo25bo494bo496b5o14b2o8b2ob3o897b$674bob2o4b2o20b2o487bobo496bo23b4obobo3bo896b$651b2o18b4ob4o3bo20bo489bobo497bo20bo3bo2bob4o11b2o883b$651b2o18bo7b4o23bo487bo498b2o20b2o5bobo14bobob2o879b$655b3o14b3o11b2o14b5o991bo22b2obob2o13bobo2bo877b$674b7o6bo13bo996b3o23bob2o13b2o2b2o877b$671bobo2bo3bo6bobo12b3o996bo22b2o6b2o890b$671b2ob2ob3o8b2o15bo994b2o30b2o890b$674bobo25b4o1010b2o5bo900b$665b2o7bo2bo19b2o3bo3b2o1008b2o5bo900b$665b2o8b2o20b2o4b3o2bo994b2o18bo2bo897b$652b2o2b2o47bob2o993bo2bo18bo2bo14bo881b$652bo2bobo47bo485bo511b2o17bobob2o14bo881b$654b2obobo6b2o3bobo30b2o483bobo529bob2o16bo4b2o876b$658b2o5bo2bo2bo2bo515bobo528bo3b3o12b2o4b2o876b$665bo9bo514bo531b3o2bo14bo881b$665bo2bo4b4o19b2o1026bo8b2obo2bo2bo881b$665b2o3b4o3b2o17bo1035bo7b3o881b$667b4o4bo2bo18b3o140bo889bo8bobo2bo879b$668bo9bo20bo138bobo888bo15bo878b$669bo2bo2bo2bo13b2o145b2o13bobo872b2obo2bo3bo3b2o879b$670bobo3b2o14bobob2o8bo118bobo27b2o876bo6b2ob2o879b$694bobo2bo3bo2b3o117b2o27bo878bobo887b$694b2o2b2o3b3o3bo116bo1797b$685bo20b2obo477bo549bo886b$684bobo16b2obobo17b2o84bobo370bobo547b2o7bo879b$685bo17b2obo18bo2bo84b2o371bobo554bobo878b$705bo2bo17b2o85bo372bo557bo879b$706bobo4b2o1015b2o2b2o888b$706bo6b2o1015bo2bobo888b$706bo22b2o1001b2obobo14b2o4b2o864b$699b2o3bob2o21bo1006b2o14b2o3b3o864b$699b2o2bo2bo23b3o997bo21b2o2bo3bo863b$693b2o8b2obob2o22bo997b3o19b3o3b4obo860b$692b2o12bo7b2o20b2o995bo18bo10bo860b$693bob2o6b4obo2bo3bo20bo995b2o18bob4o3b3o860b$693b6o4bo3b3ob4o23bo444bo571bo3bo2b2o860b$682b2o10bo3bo5b3ob2o8b2o14b5o442bobo572b3o3b2o860b$682b2o10b2o2bo9b2ob2o6bo13bo448bobo539b2o30b2o4b2o860b$686b3o5b2ob2o4bobo6bo6bobo12b3o445bo541bo899b$695bobo5b2obo2b3o8b2o15bo983b2obo899b$696bo9bobo25b4o983bo2b3o4b2o20b2o869b$706bo2bo19b2o3bo3b2o982b2o3bo3b2o19bo2bo868b$707b2o20b2o4b3o2bo983b4o25bobo868b$696b2o39bob2o983bo15b2o8b3o2bob2o865b$696b2o39bo987b3o12bobo6bo6bobo865b$683b2o2b2o47b2o990bo13bo6b2ob2o870b$683bo2bobo14b2o2bobo1013b5o14b2o8b2ob3o866b$685b2obobo11bobo2bo2bo468bo543bo23b4ob3o3bo865b$689b2o11bo3bob2o18b2o447bobo545bo20bo3bo2bob4o11b2o852b$701b2ob2o22bo449bobo543b2o20b2o7bo14bobob2o848b$701bo2b2o23b3o446bo550bo22b2obob2o13bobo2bo846b$701b3o3b3o21bo997b3o23bo2bo13b2o2b2o846b$705b2o2bo14b2o1006bo21b2obo5b2o859b$705b2ob2o14bobob2o8bo992b2o22bo7b2o859b$701b2obo3bo17bobo2bo3bo2b3o1006b2o6bo868b$700bo2bo2bobo17b2o2b2o3b3o3bo1005b2o4bobo868b$701bobo2b2o30b2obo992b2o17bo2bo867b$717b3o15b2obobo17b2o973bo2bo18bob2o865b$735b2obo18bo2bo973b2o17bobob2o865b$724b3o10bo2bo2b2o13b2o415bo576bob2o21b2o845b$723bo3bo10bobo2b2o428bobo576bo3b3o18b2o845b$723bo3b4o7bo12b2o421bobo576b3o2bo11b3o851b$721b2ob3ob4o6bo11b2o9b2o411bo580bo14bo2bo850b$720bobo5bobobo3bob2o12bo8bo1862b$720bo7bo2b2o2bo2bo23b3o1006bo4bo847b$720b2obo3bo7b2obob2o22bo155bo839b2o14b2o846b$722b2o3b2o9bo7b2o20b2o151bo838b2o3bo5bo2bob2o846b$735b4obo2bo3bo20bo150b3o843bo9b2o847b$735bo3b3ob4o23bo994bo6b2ob2o847b$714b2o20b3ob2o8b2o14b5o1003bo849b$714b2o3bo20b2ob2o6bo13bo1858b$719bo15bobo6bo6bobo12b3o402bo603bo848b$719bo15b2obo2b3o8b2o15bo399bobo602bobo847b$738bobo25b4o400bobo602bo848b$738bo2bo19b2o3bo3b2o398bo590b2o2b2o857b$739b2o20b2o4b3o2bo988bo2bobo857b$728b2o39bob2o990b2obobo14b2o5bo833b$728b2o39bo997b2o14b2o4b2o833b$715b2o2b2o47b2o991bo25b2o835b$715bo2bobo14b2o1024b3o20bo2b3ob2o2bo828b$717b2obobo11bobo2b3o1022bo18b3obo2bob3o829b$721b2o11bob3o2bo18b2o1001b2o17bo2b2ob3o2bo830b$733b2obob3obo17bo1028b2o833b$732bo2b4o2b3o17b3o21b2o380bo619b2o4b2o829b$731b3o7b3o19bo17b2obobo378bobo587b2o30bo5b2o829b$731b3o2b4o2bo13b2o21bo2bobo381bobo586bo868b$732bob3obob2o14bobob2o17b2o2b2o381bo585b2obo868b$733bo2b3obo17bobo2bo28b2o958bo2b3o4b2o20b2o838b$733b3o2bobo17b2o2b2o28b2o959b2o3bo3b2o19bo2bo837b$738b2o9bo1005b4o25bobo837b$748bobo1004bo15b2o8b3o2bob2o834b$749bo35bo970b3o12bobo6bo6bobo834b$784b3o972bo13bo6b5o839b$783b5o966b5o14b2o8b2ob3o835b$759bo18b2o2b2o3b2o140bo824bo23b4obobo3bo834b$759bo18b2ob2o5b2o137bobo233bo592bo20bo3bo2bob4o11b2o821b$759bo3b2o17b2o3b2o139b2o231bobo591b2o20b2o5bobo14bobob2o817b$763b2o18bo3bo374bobo595bo22b2obob2o13bobo2bo815b$1162bo597b3o23bob2o13b2o2b2o815b$1763bo22b2o6b2o828b$795b2o965b2o30b2o828b$750b3ob3o38b2o981b2o5bo838b$746b2o2bo5bo33b3o985b2o5bo838b$746b2o2bo5bo23b2o983b2o18bo2bo835b$751bo3bo23bobo982bo2bo18bo2bo11b3o820b$752b3o24b2o984b2o17bobob2o10bo3bo819b$779b2o1002bob2o12bo5bo2b2o814b$778b3o378bo623bo3b3o9bo5bo2b2o814b$1157bobo624b3o2bo9b3ob3o818b$760b2o28b2o2b2o362bobo625bo837b$760b2o28bobo2bo362bo1465b$747b2o2b2o13bobo3b2o14bobob2o1830b$747bo2bobo12bo2bo2bo2bo13b2o1001b2o831b$749b2obobo9bo9bo20bo995b2o3bo827b$753b2o8b4o4bo2bo18b3o1000bo827b$761b2o3b4o3b2o17bo1003bo9b2o816b$761bo2bo4b4o19b2o1012bobo815b$761bo9bo1035bo816b$761bo2bo2bo2bo1037bo815b$762b2o3bobo30b2o353bo652bo815b$801bo351bobo652bo815b$801bob2o150bo198bobo635b2o2b2o826b$771b2o20b2o4b3o2bo151b2o196bo637bo2bobo826b$770bo2bo19b2o3bo3b2o151b2o11bo825b2obobo14b2o808b$770bobo25b4o167bo828b2o14b2o4b3o801b$767b2ob2ob3o8b2o15bo165b3o822bo26bo6bo797b$767bobo2bo3bo6bobo12b3o991b3o23b2obobo2bo797b$753b2o15b7o6bo13bo997bo18b3o6b3o798b$749b2obobo13b3o11b2o14b5o991b2o17bo2bobob2o802b$747bo2bobo14bo7b4o23bo1010bo6bo803b$747b2o2b2o14b4ob4o3bo20bo1016b3o4b2o798b$760b2o8bob2o4b2o20b2o349bo634b2o36b2o798b$760b2o5b2obo25bo352bobo634bo837b$767bo2bobo21b3o353bobo630b2obo837b$770b2o21bo356bo632bo2b3o4b2o20b2o807b$770bo22b2o989b2o3bo3b2o19bo2bo806b$751bo8bo8b2o1015b4o25bobo806b$751bo7bobo7b2o4b2o1009bo15b2o8b3o2bob2o803b$746b2o3bo4b2o4bo5b3o4b2o13b2o995b3o12bobo6bo6bobo803b$746bo10bo2bo6bo2bo18bo2bo997bo13bo6b2ob2o808b$757b2o2bo5b2obobo17b2o993b5o14b2o8b2ob3o804b$757bo12b2obo1011bo23b4ob3o3bo803b$756b2o9b3o3bo1013bo20bo3bo2bob4o11b2o790b$756b2o9bo2b3o374bo638b2o20b2o7bo14bobob2o786b$756bo3bo2b2o5bo374bobo643bo22b2obob2o13bobo2bo784b$760bo2b2o381bobo642b3o23bo2bo12bo4b2o784b$757bobo386bo647bo21b2obo5b2o8bo788b$1793b2o22bo7b2o5bo791b$994bo814b2o6bo17bo788b$992bobo814b2o4bobo14bobo789b$993b2o801b2o17bo2bo14bo790b$749b3o1043bo2bo18bob2o6b3o5bo788b$1796b2o17bobob2o13bobo787b$758b2o2b2o1050bob2o7b2o3bo8b2o783b$758bobo2bo1050bo3b3o4bo4bo3b2obo2bo783b$740b2o14bobob2o381bo671b3o2bo4b2o2bo4bo2b3o784b$734b2o4b2o14b2o383bobo673bo16bo789b$730b2ob2obo26bo378bobo683b2o4bo2bo786b$729b4obob3o22b3o378bo685b2o5bo788b$760bo1061b2o800b$733b3obob4o17b2o1060b2o3bo796b$735bob2ob2o1085bo9b2o785b$730b2o4b2o1089bo8bob2o784b$730b2o36b2o1068b2o784b$769bo1066bo2b2o783b$721b2o46bob2o1063b2ob2o783b$717b2obobo16b2o20b2o4b3o2bo1063bo3bo783b$715bo2bobo17bo2bo19b2o3bo3b2o1065b3o784b$715b2o2b2o17bobo25b4o1053b2o2b2o795b$728b2o5b2obo2b3o8b2o15bo274bo778bo2bobo795b$728b2o5bobo6bo6bobo12b3o276bo779b2obobo14b2o777b$721bo18b5o6bo13bo277b3o783b2o14b2o4b2o771b$721bo14b3ob2o8b2o14b5o259bo792bo26bob2ob2o767b$735bo3bobob4o23bo260b2o9bo780b3o22b3obob4o766b$735b4obo2bo3bo20bo261b2o10b2o782bo797b$718b3o4bob3o8bobo5b2o20b2o271bobo781b2o17b4obob3o770b$714b2o9bob2obo4b2obob2o22bo252bo827b2ob2obo772b$714bobo8bo2bobo4b2obo23b3o253b2o829b2o4b2o767b$726b2o9b2o22bo255b2o798b2o36b2o767b$718bo5bo2b2o32b2o1054bo806b$718bo6bob2o10bo5b2o1067b2obo806b$725bobo11bo5b2o1067bo2b3o4b2o20b2o776b$725b3o3b2o3bo2bo18b2o293b2o760b2o3bo3b2o19bo2bo775b$725b3o3b2o2bo2bo18bo2bo292b2o3bo8bo749b4o25bobo775b$726b2o7b2obobo17b2o281b2o14bobo6b2o749bo15b2o8b3o2bob2o772b$738b2obo286b3o9bobo15bobo5bobo749b3o12bobo6bo6bobo772b$735b3o3bo288bo11bo17bo760bo13bo6b5o777b$735bo2b3o288bo19b2o9b2o24b2o728b5o14b2o8b2ob3o773b$718bo19bo310bo35b2o729bo23b4obobo3bo772b$718bo331b3o34bo730bo20bo3bo2bob4o11b2o759b$718bo333bo53bo710b2o20b2o5bobo14bobob2o755b$726b2o2b2o373b2o715bo22b2obob2o13bobo2bo753b$726bobo2bo373bobo714b3o23bob2o13b2o2b2o753b$702bo5b2o14bobob2o310b2o783bo22b2o6b2o766b$702b2o4b2o14b2o314bobo82b2o697b2o30b2o766b$704b2o25bo234bo24b2o35bo13bo81b2o714b2o5bo15b3o758b$697bo2b2ob3o2bo20b3o234b2o24b2o34b2o12b2o82bo713b2o5bo776b$698b3obo2bob3o18bo236bobo23bo35bobo115bo681b2o18bo2bo11bo761b$699bo2b3ob2o2bo17b2o335b2o77b2o680bo2bo18bo2bo10bo761b$702b2o311b3o47bobo76bobo680b2o17bobob2o8bo4bo758b$698b2o4b2o311bo49bo4b2o771bob2o9b2o4bo2b2ob2o752b$689b2o7b2o5bo30b2o278bo14b2o30b4ob2o2bo2bo88b2o679bo3b3o6bo4bob2obob2o752b$685b2obobo46bo293bo31bo2bobobobob2o87b2o681b3o2bo6bo3bo2bo2bo755b$683bo2bobo48bob2o291b3o31bobobobo92bo682bo10b2obo3b2o756b$683b2o2b2o18b2o20b2o4b3o2bo293bo32b2obobo111bo676bo762b$696b2o8bo2bo19b2o3bo3b2o331bo111b2o1439b$696b2o8bobo25b4o227b2o23b3o51b2o30b2o105bobo667b2o769b$689bo13b2ob2ob3o8b2o15bo226bobo25bo51b2o7b2o2b2o18bo775b2o3bo765b$688b2o13bobo2bo3bo6bobo12b3o229bo24bo61bo4bo7b2o9bobo123b2o653bo765b$688b2o4bo11b7o6bo13bo281bo7b2o6b2o2b2o18bo2bobo5b2o10b2o122b2o654bo765b$687b2o5bo9b3o11b2o14b5o276b2o6bo7b2ob2o18b2o3b2o22bo120bo1419b$687bo5b4o6bo7b4o23bo275bobo7b3o8bobo15bo28bobo138bo1400b$682b2o2bobo7b2o5b4ob4o3bo20bo289bo10bo4b3o8b3o26bobo137b2o644bo755b$682bo2b4o3b2o4bo7bob2o4b2o20b2o306bo11bo26bo138bobo642bobo754b$683b4ob2o6b2o5b2obo25bo309b3o10b2o811bo9b2ob2o741b$685bob3o3b2o8bo2bobo21b3o509b2o610b2o2b2o17bo746b$687b2o4b2o11b2o21bo297b2o212b2o611bo2bobo17bobo3b2o739b$693b2o11bo22b2o284b2o10bo41b2o172bo612b2obobo14b2obo4bo739b$694bo4b2o4b2o6b2o300bo12b3o38bo192bo597b2o13bo3b3ob2o739b$699b2o4b2o6b2o203bo97b3o11bo5b3o12bo18b3o188b2o591bo21b3o3b3o739b$694b3o7b3o19b2o190b2o33b3o62bo9b2o21bo20bo12b2o174bobo590b3o19b2ob3o3bo738b$703bo2bo18bo2bo188bobo35bo72bo22bo32bo2bo769bo18bo4bob2o10b2o727b$703b2obobo17b2o226bo75bo54b2o194b2o573b2o18b2o3bobo11bobob2o723b$706b2obo319b2o7b2o34b2o34b2o168b2o601bo13bobo2bo721b$685bo17b3o3bo328b2o33bobo34b2o3bo166bo595b2ob2o14b2o2b2o721b$684bobo16bo2b3o298b2o64bo7b2o31bobo184bo546b2o38b2o734b$685bo20bo300bo62b2obo6bo2bo31bobo182b2o546bo39b2o734b$694b2o2b2o308b3o58bobob2o6b2o34bo182bobo542b2obo775b$694bobo2bo310bo58bo47b2o726bo2b3o4b2o20b2o745b$676b2o14bobob2o357b6o6bobob3o2bo8b2o25b2o206b2o524b2o3bo3b2o19bo2bo744b$669b3o4b2o14b2o223b2o34bo101b4o7bobo2b4obo4b2obo2bo24bobo204b2o527b4o25bobo8b3o7bo725b$665bo6bo26bo216bobo34b2o103bobo5bo6bo4bo6bobo26bo4b2o200bo526bo15b2o8b3o2bob2o5bobo7bo725b$665bo2bobob2o23b3o218bo33bobo105b2o5b3o2bob8ob3ob2o21b4ob2o2bo2bo217bo508b3o12bobo6bo6bobo4bo2bo7bo3b2o720b$666b3o6b3o18bo302b2o56bo2bob2o6bobobo7bo3bo23bo2bobobobob2o216b2o511bo13bo6b5o9b2o2bo10b2o720b$670b2obobo2bo17b2o301bo56bo3bob2o5bo2bobobobo4b2obo26bobobobo219bobo505b5o14b2o8b2ob3o6b2obo732b$671bo6bo247b2o72b3o52b2obo3bo6b2o2b2ob2o5b2ob2o26b2obobo727bo23b4obobo3bo9bo731b$666b2o4b3o252b2o73bo52b2obo2bo56bo240b2o488bo20bo3bo2bob4o7bobo731b$657b2o7b2o36b2o220bo130b2o32b2o30b2o233b2o488b2o20b2o5bobo11b2o731b$653b2obobo46bo352bobo30b2o7b2o2b2o18bo235bo492bo22b2obob2o2b2o737b$651bo2bobo48bob2o351b4o36bo4bo7b2o9bobo252bo473b3o23bob2o2b2o737b$651b2o2b2o18b2o20b2o4b3o2bo349b6o14b2o22bo2bobo5b2o10b2o251b2o476bo22b2o743b$664b2o8bo2bo19b2o3bo3b2o283b2o85b2o21b2o3b2o22bo247bobo474b2o767b$664b2o8bobo25b4o285bo93b3o4b3o5bo28bobo739b2o5bo745b$671b2ob2ob3o8b2o15bo286b3o90bo2bo11b3o26bobo266b2o471b2o5bo745b$671bobo2bo3bo6bobo12b3o289bo89bo3bo14bo26bo266b2o459b2o18bo2bo18bo723b$674b3ob3o6bo13bo387bo12b2o295bo457bo2bo18bo2bo16bobo722b$655bo16b3o11b2o14b5o218b3o154b2o3b2o329bo439b2o17bobob2o17bo723b$655bo15bo5bob4o23bo220bo146b2o4bo5bo330b2o457bob2o6b2o2b2o732b$650b2o3bo15b4ob4o3bo20bo221bo147bo5bo4bo30b2o299bobo456bo3b3o3bo2bobo732b$650b2o22bobo5b2o20b2o277b2o90b3o2bo3bob2o28bo760b3o2bo5b2obobo14b2o714b$671b2obob2o22bo282bo93bo8bobo28b3o317b2o440bo12b2o14b2o4b3o707b$658bo12bo2bo23b3o283b3o88b2o8bo2bo5bo24bo12b2o302b2o448bo26bo6bo703b$656b2obo3b2o7b3o22bo288bo88bo9b3o6b3obo32bo2bo303bo447b3o23b2obobo2bo703b$655bo3bo2bo2bo8bo22b2o378bo17bobobo32b2o323bo431bo18b3o6b3o704b$655bo4bob2obob2o12b2o393b2o7b2o10bobo21b2o34b2o297b2o430b2o17bo2bobob2o708b$655b2o4bo2b2ob2o5b3o4b2o300b2o3b2o95b2o10b2o21bobo34b2o3bo293bobo448bo6bo709b$657bo4bo11b2o18b2o285b3obo2b2o130bo7b2o31bobo747b3o4b2o704b$659bo11bo2bo18bo2bo278b2o3bo4bo131b2obo6bo2bo31bobo311b2o402b2o36b2o704b$659bo11b2obobo17b2o279bo4bo2b2ob4o126bobob2o6b2o34bo310b2o403bo743b$674b2obo298b3obobobobo2bo117b2o7bobo45b2o311bo399b2obo743b$660b3o8b3o3bo300bobobobobo115b2o2bo7bobob3o2bo8b2o25b2o335bo380bo2b3o4b2o20b2o713b$671bo2b3o301bobobob2o116b2o2bo6bobo2b2ob3o7bo2bo24bobo333b2o381b2o3bo3b2o19bo2bo712b$637b2o4bo30bo301bobo2bo124b2o5bo6bo6b3o2bobo26bo4b2o327bobo382b4o25bobo712b$637b3ob2obo17b2o2b2o307bob2o28b2o100bo4b3o2bob5o4b3ob2o21b4ob2o2bo2bo710bo15b2o8b3o2bob2o709b$636bo7bo17bobo2bo307bo18b2o2b2o7b2o96bobobo7bobobo3bo7bo23bo2bobobobob2o345b2o364b3o12bobo6bo6bobo709b$641b2ob2o14bobob2o307bobo9b2o7bo4bo104b2o3bo6bo2bobob2o4bobobo26bobobobo347b2o368bo13bo6b2ob2o714b$638bo3bo2bo14b2o311b2o10b2o5bobo2bo22b2o81bo3b2o7b2o2b2ob2o5b2ob2o26b2obobo349bo362b5o14b2o8b2ob3o710b$638bo5bo22bo301bo22b2o3b2o7bo13b2o81bobobo57bo369bo343bo23b4ob3o3bo709b$637bo2bo3bo20b3o300bobo28bo6bo96bo34b2o30b2o362b2o345bo20bo3bo2bob4o11b2o696b$637b2ob2o22bo303bobo26b3o6bo98b2o31b2o7b2o2b2o18bo362bobo343b2o20b2o7bo14bobob2o692b$638bo7bo17b2o303bo26bo109bo2b2o36bo4bo7b2o9bobo711bo22b2obob2o13bobo2bo690b$625b2o11bob2ob3o350b2o108bo2b2o14b2o22bo2bobo5b2o10b2o380b2o329b3o23bo2bo13b2o2b2o690b$621b2obobo12bo4b2o366bo91b2o19b2o21b2o3b2o22bo375b2o333bo21b2obo5b2o703b$619bo2bobo47b2o338b2o10b2o113b3o5bo28bobo376bo331b2o22bo7b2o703b$619b2o4bo47bo308b2o30bo10bo121b3o26bobo395bo328b2o6bo712b$623bo8b2o39bob2o306bo21bo6b2o8b3o125bo26bo395b2o328b2o4bobo712b$626bo5b2o9b2o20b2o4b3o2bo303b3o19b3o7bo9bo126b2o422bobo314b2o17bo2bo711b$623bo18bo2bo19b2o3bo3b2o290b2o12bo19b2o21b2o864bo2bo18bob2o4b2o8bo694b$624bobo15bobo25b4o291bo2bo33b4o18bo96b2o470b2o295b2o17bobob2o8bo5bo694b$625bo13b2obo2b3o8b2o15bo292b2o36bo17bo98bo12b3o26b2o427b2o314bob2o6bo2bobo5bo3b2o689b$623bo5b3o7bobo6bo6bobo12b3o304b2o34b2o7b2o98b3o9bo2b2o24bo430bo313bo3b3o4b3o11b2o689b$622bobo19b5o6bo13bo307bobo33b2o109bo10bo3b3o3bo18b3o446bo295b3o2bo8bo700b$618b2o8bo3b2o6b3ob2o8b2o14b5o178b2o115b2o7bo142b2o13bo3bo3bo20bo12b2o431b2o297bo10bo701b$618bo2bob2o3bo4bo5bo3bobob4o23bo177bobo114bo2bo6bob2o139bo14b2ob2o3bo32bo2bo430bobo1009b$619b3o2bo4bo2b2o5b4obo2bo3bo20bo181bo115b2o6b2obobo140bo13b2o39b2o742b2o699b$624bo17bobo5b2o20b2o304bo2bobo9b4o126b2o7b2o34b2o34b2o426b2o282b2o6bo699b$621bo2bo4b2o8b2obob2o22bo297b2o9b2o2bobobo6bo4bo134b2o33bobo34b2o3bo421b2o283b2o706b$623bo5b2o8b2obo23b3o284b2o10bo2bo6bob2o2b2obobo4b2o4b3o167bo7b2o31bobo422bo990b$635b2o4b2o22bo286bobo10bobo6bo6bobo2bo4bobo6bo163b2obo6bo2bo31bobo440bo971b$631bo3b2o28b2o279b2o4bo11b2ob12ob2ob3o8bob2obo150bo2bo9bobob2o6b2o34bo439b2o971b$631bo11bo5b2o293bo2bo2b2ob4o9bo3b3o5bobobo8bo2bobo2bo154bo8bo47b2o438bobo970b$631bo11bo5b2o293b2obobobobo2bo9bobobo5bobobo2bo7bob2obo152bo5bo5bobob3o2bo8b2o25b2o1416b$640bo2bo18b2o173b2o108bobobobo11b2ob2o5b2ob2o2b2o6bo6bobo149b2o4bo4bobo2b4obo4b2obo2bo24bobo462b2o256b3o692b$639bo2bo18bo2bo173b2o12b2o93bobob2o38b3o4b2o154bo5bo6bo4bo6bobo26bo4b2o455b2o269bo682b$639b2obobo17b2o173bo15b2o93bo44bo4bo154bo7b3o2bob8ob3ob2o21b4ob2o2bo2bo455bo244b2o2b2o17bob2ob2o677b$621b3o18b2obo206bo89b2o30b2o18b4o154b4obo6bobobo7bo3bo23bo2bobobobob2o474bo225bo2bobo17bo5b2o676b$639b3o3bo296bo18b2o2b2o7b2o176bo3bo6bo2bobobobo4b2obo26bobobobo476b2o227b2obobo14b2obo2bo2bo675b$630b2o2b2o3bo2b3o295bobo9b2o7bo4bo13b2o168bo3bo8b2o2b2ob2o5b2ob2o26b2obobo476bobo230b2o13bo3b3o3bo675b$630bobo2bo6bo297b2o10b2o5bobo2bo14b2ob2o3b2o160bob4o57bo704bo20bo9bo675b$607bo4b2o14bobob2o302bo22b2o3b2o13bo3bo3b2o164bo31b2o30b2o491b2o205b3o18bo3b3o3bo675b$605bobo4bobo13b2o305bobo28bo10bo3b3o168bo24bo7b2o7b2o2b2o18bo490b2o209bo17bo2bo2bob2o10b2o664b$603bo2bo6b3o19bo299bobo26b3o9bo2b2o170bo4b2o19bo7b2o7bo4bo7b2o9bobo490bo207b2o18b2o5bo11bobob2o660b$602b3obobo5b2o17b3o300bo26bo12b3o172bo5bo14b2o2bo7b3o9bo2bobo5b2o10b2o509bo209b2ob2obo13bobo2bo658b$601b2o3b4o3b2o17bo191b2o10b3o124b2o187bo19b2o9bo3bo7b2o3b2o22bo504b2o214bo14b2o2b2o658b$600b2o5bobob3o18b2o189bobo12bo314bo2bo26b2o3bo5bo28bobo503bobo179b2o38b2o671b$600b3o6bo2bo212bo11bo153b2o196bo4b3o26bobo685bo39b2o671b$601bobo4bobo338b2o41bo193bo2bo7bo26bo524b2o157b2obo712b$602b2o4bo31b2o308bo38b3o197bo6b2o550b2o158bo2b3o4b2o20b2o682b$641bo305b3o31b3o5bo193b2o3bo561bo158b2o3bo3b2o19bo2bo7bo2b2o669b$641bob2o288b2o12bo20bo21b2o176b2o13bo3bo581bo141b4o25bobo7bo10bo662b$611b2o20b2o4b3o2bo287bo2bo31bobo21bo176bo15b3o23b2o556b2o141bo15b2o8b3o2bob2o4bo2bo7bo662b$593b2o15bo2bo19b2o3bo3b2o289b2o33bo20bo179b3o38bo557bobo141b3o12bobo6bo6bobo6bo8bo3b2o657b$589b2obobo15bobo25b4o302b2o34b2o7b2o180bo5b3o31b3o701bo13bo6b2ob2o24b2o657b$587bo2bobo14b2obo2b3o8b2o15bo145bo156bobo33b2o187b2o42bo12b2o560b2o120b5o14b2o8b2ob3o679b$587b2o2b2o14bobo6bo6bobo12b3o120b2o24b2o34b2o112b2o7bo222bo55bo2bo558b2o121bo23b4ob3o3bo678b$600b2o10b5o6bo13bo124b2o22bobo35b2o110bo2bo6bob2o221bo54b2o561bo122bo20bo3bo2bob4o678b$600b2o6b3ob2o8b2o14b5o118bo61bo113b2o6b2obobo219b2o7b2o34b2o34b2o555bo102b2o20b2o7bo10b2ob2o666b$607bo3bobob4o23bo168b2o137bo12bo215b2o33bobo34b2o3bo550b2o107bo22b2obob2o2b2o3bo3bo666b$607b4obo2bo3bo20bo169bobo120b2o8bo2b3obobo6b4obo249bo7b2o31bobo549bobo106b3o23bo2bo2b2o3bo3bo666b$602bo7bobo5b2o20b2o170bo107b2o10bo2bob2o4bob4o2bobo5bob2ob3o244b2obo6bo2bo31bobo660bo21b2obo9bobo667b$602bo4b2obob2o22bo282bobo10bobo6bo4bo6bo3bo4bo4bo242bobob2o6b2o34bo568b2o89b2o22bo12bo668b$590b3o14b2obo23b3o276b2o4bo11b2ob3ob8obo2b3o4bo3bob3obo229b4o9bobo45b2o566b2o106b2o6bo681b$586b2o21b2o22bo277bo2bo2b2ob4o9bo3bo7bobobo11bobo232bo3bo7bobob3o2bo8b2o25b2o573bo105b2o4bobo681b$586b2o45b2o276b2obobobobo2bo9bob2o4bobobobo2bo6bob3obo3bo228bo4bo5bobo2b2ob3o7bo2bo24bobo591bo73b2o17bo2bo680b$611bo5b2o167b2o126bobobobo11b2ob2o5b2ob2o2b2o6bo4bo4bo229bobob2o4bo6bo6b3o2bobo26bo4b2o584b2o72bo2bo18bob2o15b3o660b$611bo5b2o141b3o22bobo126bobob2o38b3ob2obo235bobo4b3o2bob5o4b3ob2o21b4ob2o2bo2bo582bobo72b2o17bobob2o678b$594b2o3b2o7bo2bo18b2o130bo24bo127bo44bob4o234b2o2bo6bobobo3bo7bo23bo2bobobobob2o675bob2o6b2o2b2o669b$593bobo3bobobo3bo2bo18bo2bo128bo147b2o30b2o18bo234b2o2bo9bo2bobob2o4bobobo26bobobobo605b2o71bo3b3o3bo2bobo669b$592b2o10bo2b2obobo17b2o178b2o97bo18b2o2b2o7b2o257bo2b2o5b2o2b2ob2o5b2ob2o26b2obobo604b2o73b3o2bo5b2obobo14b2o5bo645b$593b2o5bo3bo5b2obo197b2o94bobo9b2o7bo4bo13bo248bo2b2o58bo607bo74bo12b2o14b2o4b2o645b$594bo5b4o3b3o3bo196bo96b2o10b2o5bobo2bo14bob2o4b2o241bobo32b2o30b2o620bo62bo25b2o647b$595b5o7bo2b3o290bo22b2o3b2o15b2o4b2o242b2obobo28b2o7b2o2b2o18bo619b2o62b3o20bo2b3ob2o2bo640b$596b3o11bo291bobo28bo5b2o2b3o253bo4bo21bo14bo4bo7b2o9bobo617bobo64bo18b3obo2bob3o641b$597bo304bobo26b3o7b2o2b2o2bo250bo3bo14b2o3bo2bo15bo2bobo5b2o10b2o683b2o17bo2b2ob3o2bo642b$590bo312bo26bo11bo2bo3bo250b4o15b2o3bo2bo14b2o3b2o22bo633b2o70b2o645b$590bo339b2o12bobobo277b2o13bo28bobo631b2o69b2o4b2o641b$590bo638bo11b3o26bobo633bo36b2o30bo5b2o641b$598b2o2b2o348bo5b2o265b2obo2bo12bo26bo653bo17bo680b$598bobo2bo312b2o26bo5bo2bo5bo271b2o10b2o679b2o14b2obo680b$580b2o14bobob2o315bo30bo4bo2b3o965bobo13bo2b3o4b2o20b2o650b$573b3o4b2o14b2o316b3o27bo5bo5bo258b2o724b2o3bo3b2o19bo2bo649b$569bo6bo26bo296b2o12bo20bo8bo4bo7b2o256bo41b2o684b4o25bobo649b$569bo2bobob2o23b3o295bo2bo31bobo8bo2bo9bo257b3o38bo685bo15b2o8b3o2bob2o646b$570b3o6b3o18bo299b2o33bo20bo261bo5b3o31b3o683b3o12bobo6bo6bobo646b$574b2obobo2bo17b2o309b2o33bobo7b2o258b2o21bo20bo12b2o672bo13bo6b5o651b$575bo6bo328bobo33b2o267bo21bobo31bo2bo666b5o14b2o8b2ob3o647b$570b2o4b3o325b2o7bo304bo20bo33b2o667bo23b4obobo3bo646b$570b2o36b2o293bo2bo6bob2o300b2o7b2o34b2o34b2o644bo20bo3bo2bob4o11b2o633b$609bo294b2o6b2obobo10b2o296b2o33bobo34b2o3bo639b2o20b2o5bobo14bobob2o629b$609bob2o304bo9b4o330bo7b2o31bobo643bo22b2obob2o13bobo2bo627b$579b2o20b2o4b3o2bo287b2o8bo2b3obobo6b2obobo326b2obo6bo2bo31bobo642b3o23bob2o13b2o2b2o627b$578bo2bo19b2o3bo3b2o268b2o17bo2bob2o4bob4o2bobo4b2o3b2o325bobob2o6b2o34bo645bo22b2o6b2o640b$578bobo25b4o89b3o177bobo17bobo6bo4bo6bo5bo321bo8bo47b2o643b2o29bo2bo639b$575b2ob2ob3o8b2o15bo91bo171b2o4bo18b2ob3ob8obo2b3o4bo318b2o2bo7bobob3o2bo8b2o25b2o666bo4bo7bo642b$575bobo2bo3bo6bobo12b3o91bo170bo2bo2b2ob4o16bo3bo7bobobo8b3o315b2ob2o6bobo2b4obo4b2obo2bo24bobo664bobo3bo7bo2bo639b$578b3ob3o6bo13bo265b2obobobobo2bo16bob2o4bobobobo2bo5b2o2b2o318b2o5bo6bo4bo6bobo26bo4b2o644b2o12bobo3bo2bo4b2ob2o638b$576b3o11b2o14b5o263bobobobo18b2ob2o5b2ob2o2b2o8b2o2b2o316bo6b3o2bob8ob3ob2o21b4ob2o2bo2bo641bo2bo12bo5bo2bo5bo8bo631b$562b2o11bo5bob4o23bo124b2o137bobob2o47b3o315b3o2b2o6bobobo7bo3bo23bo2bobobobob2o642b2o8bo8bobob2o14bo631b$558b2obobo11b4ob4o3bo20bo127b2o137bo54bo314b2obobo6bo2bobobobo4b2obo26bobobobo654bobo6bob2o17bo3b2o626b$556bo2bobo16bobo5b2o20b2o125bo133b2o30b2o25bo315bobob2o7b2o2b2ob2o5b2ob2o26b2obobo654bobo6bo3b3o18b2o626b$556b2o2b2o13b2obob2o22bo264bo18b2o2b2o6bobo20b2o3b2o313b2o2b3o56bo656bo8b3o2bo646b$569b2o4bo2bo23b3o262bobo9b2o7bo4bo5b3o21bobob2o317bo32b2o30b2o661bo649b$569b2o5b3o22bo97bo167b2o10b2o5bobo2bo7b2o13b2o8b4o318b2o31b2o7b2o2b2o18bo1311b$578bo22b2o96b2o162bo22b2o3b2o6b4obo9b2o9b2o320b2ob2o36bo4bo7b2o9bobo669b2ob2o635b$585b2o111bobo161bobo28bo4b2o3b2o342bo2b2o14b2o22bo2bobo5b2o10b2o664b2o3b2ob2o635b$562bo15b3o4b2o275bobo26b3o3bo2bo345bo19b2o21b2o3b2o22bo660b2o5bo637b$561b3o14b2o18b2o263bo26bo6bo2bo379b3o5bo28bobo674bobo627b$560b5o10bo2bo18bo2bo107b2o180b2o5bo2bo387b3o26bobo673bob2o627b$555b2o2b2o3b2o9b2obobo17b2o107bobo188b2o3b2o386bo26bo670b2ob3o629b$555b2ob2o5b2o11b2obo127bo190b2o2bo13b2o370b2o697b2ob2o630b$559b2o3b2o9b3o3bo294b2o22bo2bo15bo353b3o714bo2bo630b$560bo3bo10bo2b3o296bo23b3o12b3o343b2o8bo2bo715b3o630b$578bo295b3o31b3o5bo345bo8bo32b2o685b2o11b2o618b$860b2o12bo20bo21b2o344b3o6bo2bo7bo20bo675b2o2b2o17bobo2b3o613b$572b2o285bo2bo31bobo21bo346bo7b3o5bo4bo18b3o672bo2bobo11bo5bob3o2bo613b$572b2o286b2o33bo20bo346b2o15bo5bo20bo12b2o660b2obobo9b2o3b2obob3obo612b$567b3o301b2o34b2o7b2o345bo17bo4bo32bo2bo663b2o13bo2b4o2b3o611b$871bobo33b2o356bo17bo36b2o658bo19b3o7b3o611b$671b2o34b2o155b2o7bo390b2o7b2o34b2o34b2o633b3o17b3o2b4o2bo612b$670bobo35b2o153bo2bo6bob2o396b2o33bobo34b2o3bo632bo17bob3obob2o10b2o601b$558bo113bo34bo156b2o6b2obobo430bo7b2o31bobo630b2o18bo2b3obo11bobob2o597b$557bobo317bo9b4o414b2obo6bo2bo31bobo649b3o2bobo13bobo2bo595b$558bo301b2o8bo2b3obobo6bo4bo412bobob2o6b2o34bo654b2o14b2o2b2o595b$567b2o2b2o274b2o10bo2bob2o4bob4o2bobo4b2o4b3o401bo8bobo45b2o620b2o38b2o608b$567bobo2bo273bobo10bobo6bo4bo6bo4bobo6bo395b2o3b2o5bobob3o2bo8b2o25b2o625bo39b2o608b$543bo5b2o14bobob2o269b2o4bo11b2ob3ob8obo2b3o8bob2obo396b2o3b2o4bobo2b2ob3o7bo2bo24bobo621b2obo649b$544bo4bo2bo12b2o271bo2bo2b2ob4o9bo3bo7bobobo8bo2bobo2bo401bo5bo6bo6b3o2bobo26bo4b2o615bo2b3o4b2o20b2o619b$539b2o2bo28bo265b2obobobobo2bo9bob2o4bobobobo2bo7bob2obo402bo2bo5b3o2bob5o4b3ob2o21b4ob2o2bo2bo614b2o3bo3b2o19bo2bo618b$538bo2bobob2o23b3o268bobobobo11b2ob2o5b2ob2o2b2o6bo6bobo399bob3o7bobobo3bo7bo23bo2bobobobob2o616b4o25bobo18bo599b$537bo4b2o2b2o4bo16bo87bo12b2o169bobob2o38b3o4b2o398b2o3bo6bo2bobob2o4bobobo26bobobobo619bo15b2o8b3o2bob2o15bo599b$543b2obobo2bo17b2o86b2o12b2o169bo44bo4bo398bo3b2o7b2o2b2ob2o5b2ob2o26b2obobo620b3o12bobo6bo6bobo15bo3b2o594b$546bo2b2o105bobo11bo165b2o30b2o18b4o399b3obo57bo624bo13bo6b5o24b2o594b$537bo2bo4bo290bo18b2o2b2o7b2o422bo2bo30b2o30b2o613b5o14b2o8b2ob3o616b$539b2o5bo30b2o255bobo9b2o7bo4bo432bo31bobo7b2o2b2o18bo613bo23b4obobo3bo12b3o600b$578bo255b2o10b2o5bobo2bo22b2o409b2o3b2o36bo4bo7b2o9bobo613bo20bo3bo2bob4o5b5o4bo600b$578bob2o248bo22b2o3b2o7bo13b2o409b2o3b2o14b2o9bo2bo9bo2bobo5b2o10b2o612b2o20b2o5bobo6b3o6b2ob2o598b$548b2o20b2o4b3o2bo247bobo28bo6bo425bo19b2o8bo4bo7b2o3b2o22bo613bo22b2obob2o2bo4bo8bo598b$530b2o15bo2bo19b2o3bo3b2o248bobo26b3o6bo455bo5bo5bo28bobo612b3o23bob2o2b2ob5o4bobo598b$526b2obobo15bobo25b4o251bo26bo469bo4bo2b3o26bobo615bo22b2o15b3o599b$524bo2bobo14b2ob2ob3o8b2o15bo62b2o214b2o15bo448bo5bo2bo5bo26bo615b2o641b$524b2o2b2o14bobo2bo3bo6bobo12b3o62bobo13b2o215b3o455bo5b2o658b2o5bo619b$537b2o8b7o6bo13bo67bo12bobo215bob2o8b2o1110b2o5bo13b2o604b$537b2o6b3o11b2o14b5o77bo185b2o31b2o8bo422b2o12bobobo656b2o18bo2bo9b2o605b$544bo7b4o23bo264bo28bob2o6b3o423bo11bo2bo3bo22b2o630bo2bo18bo2bo615b$544b4ob4o3bo20bo263b3o29b3o7bo426b3o7b2o2b2o2bo22bo632b2o17bobob2o8bo606b$537bo9bob2o4b2o20b2o248b2o12bo32bo9b2o426bo5b2o2b3o27b3o647bob2o6b2o2b2o606b$536bobo5b2obo25bo252bo2bo35b2o18bo424b2o15b2o4bo20bo12b2o633bo3b3o3bo2bobo606b$527b3o5b2ob2o4bo2bobo21b3o253b2o33bo3bo16bo426bo14bob2o3bobo31bo2bo633b3o2bo5b2obobo14b2o4b2o582b$523b2o10b2o2bo7b2o11bo9bo267b2o21bo2b2o8b2o7b2o427bo13bo6bo33b2o636bo12b2o14b2o3b3o582b$523b2o10bo3bo7bo11bo10b2o266bobo21bo11b2o435b2o7b2o34b2o654bo21b2o2bo3bo581b$534b6o6b2o6b2o3b3o78b2o189b2o7bo479b2o33bobo654b3o19b3o3b4obo578b$534bob2o8b2o6b2o85b2o187bo2bo6bob2o511bo7b2o650bo18bo10bo578b$533b2o10b3o19b2o71bo190b2o6b2obobo507b2obo6bo2bo648b2o18bob4o3b3o578b$534b2o8bo2bo18bo2bo269bo2bobo12bo481b2o10bobob2o6b2o672bo3bo2b2o578b$540b2o2b2obobo17b2o258b2o8bob2o3bobo6b4obo479b4o9bo686b3o3b2o578b$540b2o5b2obo263b2o10bo2bo2bo4b3o2b2obobo5bob2ob3o476bobob2o6bobob3o2bo8b2o25b2o610b2o30b2o4b2o578b$544b3o3bo262bobo10bobo2b2o9bobo2bo3bo4bo4bo475b2o3b2o4bobo2b4obo4b2obo2bo24bobo609bo617b$544bo2b3o257b2o4bo11b2ob5ob6ob2ob3o4bo3bob3obo480bo5bo6bo4bo6bobo26bo4b2o600b2obo617b$547bo257bo2bo2b2ob4o9bo7bo3bobobo11bobo486bo4b3o2bob8ob3ob2o21b4ob2o2bo2bo598bo2b3o4b2o20b2o587b$805b2obobobobo2bo9bobo5bobobobo2bo6bob3obo3bo479b3o8bobobo7bo3bo23bo2bobobobob2o599b2o3bo3b2o19bo2bo586b$526bo281bobobobo11b2ob2o5b2ob2o2b2o6bo4bo4bo478b2o2b2o5bo2bobobobo4b2obo26bobobobo604b4o25bobo586b$525bobo49b3o228bobob2o38b3ob2obo477b2o2b2o8b2o2b2ob2o5b2ob2o26b2obobo604bo15b2o8b3o2bob2o583b$510bobo2b2o9bo52bo21b2o206bo44bob4o479b3o58bo606b3o12bobo6bo6bobo583b$509bo2bo2bobo17b2o2b2o37bo23b2o199b2o30b2o18bo482bo34b2o30b2o603bo13bo6b2ob2o588b$510b2obo3bo17bobo2bo60bo201bo18b2o2b2o7b2o503bo32b2o7b2o2b2o18bo598b5o14b2o8b2ob3o584b$514b2ob2o14bobob2o262bobo9b2o7bo4bo511b2o3b2o15b4o17bo4bo7b2o9bobo596bo23b4ob3o3bo583b$514b2o2bo14b2o266b2o10b2o5bobo2bo22b2o490b2obobo14bo3bo19bo2bobo5b2o10b2o598bo20bo3bo2bob4o11b2o570b$510b3o3b3o21bo256bo22b2o3b2o7bo13b2o491b4o15bo4bo17b2o3b2o22bo593b2o20b2o7bo14bobob2o566b$510bo2b2o23b3o255bobo28bo6bo507b2o17bob2o7b2o8bo28bobo597bo22b2obob2o13bobo2bo564b$510b2ob2o22bo258bobo26b3o6bo529bo7b2o8b3o26bobo597b3o23bo2bo13b2o2b2o564b$511bo3bob2o18b2o258bo26bo549bo10bo26bo601bo21b2obo5b2o577b$498b2o11bobo2bo2bo57bo246b2o546b2o10b2o627b2o22bo7b2o577b$494b2obobo12b2o2bobo58b2o793b2o657bo5bo586b$492bo2bobo47b2o29bobo21b3o236b2o11b2o502b2o672bobo2bobo586b$492b2o2b2o48bo55bo207b2o28b2o11bo502bo41b2o616b2o12bobo2bo2bo585b$505b2o39bob2o51bo209bo22bo4b2o9b3o504b3o38bo616bo2bo12bo5bob2o14bo568b$505b2o9b2o20b2o4b3o2bo258b3o21b3o15bo508bo5b3o12bo18b3o614b2o8bo8bobob2o14bo568b$515bo2bo19b2o3bo3b2o245b2o12bo20bo2bo18b2o504b2o21bo20bo12b2o609bobo6bob2o17bo3b2o563b$515bobo25b4o246bo2bo31bobobo19bo504bo22bo32bo2bo608bobo6bo3b3o18b2o563b$512b2ob2ob3o8b2o15bo247b2o33bo3bo3bo12bo508bo54b2o610bo8b3o2bo583b$498bo13bobo2bo3bo6bobo12b3o259b2o30bo3b2o7b2o506b2o7b2o34b2o632bo586b$497bobo15b7o6bo13bo262bobo33b2o524b2o33bobo641b2o3b2o571b$491b2o3bo3bo12b3o11b2o14b5o250b2o7bo594bo7b2o635bo3bob2o569b$491b2o3bo3bo11bo7b4o23bo249bo2bo6bob2o588b2obo6bo2bo629b2o2bo7bo569b$496b2ob2o11b4ob4o3bo20bo10bo241b2o6b2obobo10b2o574bobob2o6b2o630bobobo5bobo569b$515bob2o4b2o20b2o9b2o248bo2bobo9b4o573bobo642b4ob3ob2o570b$512b2obo25bo13bobo208b2o26b2o8bob2o3bobo6b2obobo558b6o6bobob3o2bo8b2o25b2o601b4o3bo572b$512bo2bobo21b3o223bobo25bo2bo2bo4b3o2b2obobo4b2o3b2o558b4o7bobo2b2ob3o7bo2bo24bobo603bo3bo572b$508b2o5b2o21bo220b2o4bo27bobo2b2o9bobo2bo5bo566bobo5bo6bo6b3o2bobo26bo4b2o598b3o573b$504bo3b2o5bo22b2o217bo2bo2b2ob4o22b2ob5ob6ob2ob3o4bo570b2o5b3o2bob5o4b3ob2o21b4ob2o2bo2bo605bo566b$504bo9b2o5bo235b2obobobobo2bo24bo7bo3bobobo8b3o564bo2bob2o6bobobo3bo7bo23bo2bobobobob2o604bobo565b$493b2o9bo9b2o4bobo237bobobobo27bobo5bobobobo2bo5b2o2b2o562bo3bob2o5bo2bobob2o4bobobo26bobobobo608bo9b2o3bo551b$492bobo18b3o4bobo12b2o223bobob2o27b2ob2o5b2ob2o2b2o8b2o2b2o558b2obo3bo6b2o2b2ob2o5b2ob2o26b2obobo594b2o2b2o17bo3b4o550b$492bo19bo2bo5bo12bo2bo223bo59b3o560b2obo2bo56bo595bo2bobo17bobo5bo549b$491b2o19b2obobo8bo8b2o218b2o30b2o35bo561b2o32b2o30b2o591b2obobo14b2o5bo2bo548b$491b3o21b2obo6bobo227bo18b2o2b2o7b2o7bo25bo564bobo30b2o7b2o2b2o18bo595b2o12bo3b2obo553b$512b3o3bo6bobo225bobo9b2o7bo4bo16bo20b2o3b2o565b4o36bo4bo7b2o9bobo587bo22b2o3b2o551b$503b2o2b2o3bo2b3o8bo226b2o10b2o5bobo2bo17b2o3b2o15bobob2o564b6o14b2o22bo2bobo5b2o10b2o587b3o22bob2o3bo548b$503bobo2bo6bo233bo22b2o3b2o9bo11b2o16b4o585b2o5b3o13b2o3b2o22bo586bo16bo2bo5b2o10b2o538b$485b2o14bobob2o241bobo28bo7b3o6bo22b2o592bo2bo4b3o5bo28bobo584b2o17bo5bobo11bobob2o534b$479b2o4b2o14b2o245bobo26b3o6b2obo6bo616b2o2b2o10b3o26bobo604b4o3bo13bobo2bo532b$475b2ob2obo26bo240bo26bo8b2o626bo2bobo13bo26bo606bo3b2o14b2o2b2o532b$474b4obob3o22b3o267b2o8b2obo626bobo12b2o604b2o38b2o545b$505bo281b3o1247bo39b2o545b$478b3obob4o17b2o281bo15b2o597b2o5bo623b2obo586b$480bob2ob2o275b2o16b2o23bo597bo5b2o3bo2bo27b2o587bo2b3o4b2o20b2o556b$475b2o4b2o280bo16bo14bo6b3o599b4obo4bo2bo27bo447b2o140b2o3bo3b2o19bo2bo555b$475b2o36b2o245b3o16b2o14bo6bo603bo7b2obo28b3o443b2o143b4o25bobo555b$514bo231b2o12bo34bo7b2o599b2o8bo2bo6bobo21bo12b2o431bo142bo15b2o8b3o2bob2o552b$514bob2o227bo2bo55bo599bo9bob2o4b2ob3o32bo2bo449bo124b3o12bobo6bo6bobo19b2o531b$484b2o20b2o4b3o2bo228b2o54bo603bo9bo6b2o3bo32b2o449b2o127bo13bo6b2ob2o17b2o5b2o531b$466b2o15bo2bo19b2o3bo3b2o240b2o34b2o7b2o601b2o7bobo9bobo21b2o460bobo121b5o14b2o8b2ob3o15bo537b$462b2obobo15bobo25b4o242bobo33b2o619b2o10b2o21bobo584bo23b4ob3o3bo12b2o538b$460bo2bobo14b2obo2b3o8b2o15bo235b2o7bo16b2o671bo7b2o473b2o104bo20bo3bo2bob4o14b2o536b$460b2o2b2o14bobo6bo6bobo12b3o235bo2bo6bob2o683b2obo6bo2bo471b2o104b2o20b2o7bo17bo2bo534b$473b2o10b5o6bo13bo239b2o6b2obobo681bobob2o6b2o474bo108bo22b2obob2o2b2o13bo534b$473b2o6b3ob2o8b2o14b5o242bo2bobo672b2o7bo506bo89b3o10b2o11bo2bo2b2o3bo6bo3bo533b$480bo3bobob4o23bo230b2o8bob2o3bobo6b6o653b2o2bo7bobob3o2bo8b2o25b2o461b2o92bo9bobo9b2obo8bo7b3o534b$480b4obo2bo3bo20bo210b2o19bo2bo2bo4b3o2b2obobo7b4o653b2o2bo6bobo2b4obo4b2obo2bo24bobo460bobo90b2o11b3o8bo10bo544b$483bobo5b2o20b2o208bobo19bobo2b2o9bobo2bo5bobo660b2o5bo6bo4bo6bobo26bo4b2o565bo5bo555b$464bo15b2obob2o22bo207b2o4bo20b2ob5ob6ob2ob3o5b2o665bo4b3o2bob8ob3ob2o21b4ob2o2bo2bo472b2o73b3o3bobo6bobo2bobo555b$464bo7b3o5b2obo23b3o205bo2bo2b2ob4o18bo7bo3bobobo6b2obo2bo658bobobo7bobobo7bo3bo23bo2bobobobob2o471b2o73bobo13bobo2bo2bo19bo534b$459b2o3bo6bo3bo6b2o22bo208b2obobobobo2bo18bobo5bobobobo2bo5b2obo3bo656b2o3bo6bo2bobobobo4b2obo26bobobobo476bo72b2o15bo5bob2o16bobo533b$459b2o13bo31b2o210bobobobo20b2ob2o5b2ob2o2b2o6bo3bob2o654bo3b2o7b2o2b2ob2o5b2ob2o26b2obobo495bo53b2o10bo8bobob2o17bo534b$471bo2bo9bo4bo228bobob2o47bo2bob2o654bobobo57bo495b2o56b2o6bobo6bob2o6b2o2b2o543b$471b2o11bo3bobo228bo54b2o656bo34b2o30b2o489bobo63bobo6bo3b3o3bo2bobo543b$469b2o10bo2bo3bobo12b2o208b2o30b2o25bobo659b2o31b2o7b2o2b2o18bo556bo8b3o2bo5b2obobo14b2o3bobo519b$471bo8bo2bo5bo12bo2bo207bo18b2o2b2o7b2o22b4o662bo2b2o36bo4bo7b2o9bobo507b2o56bo12b2o13bo2bo2bo2bo518b$469b2o5b2o2b2obobo8bo8b2o206bobo9b2o7bo4bo31b6o660bo2b2o14b2o22bo2bobo5b2o10b2o506b2o64bo20bo9bo517b$461bo14b2o5b2obo6bobo215b2o10b2o5bobo2bo14b3o5b2o673b2o19b2o21b2o3b2o22bo504bo63b3o18bo2bo4b4o516b$461b3o16b3o3bo6bobo211bo22b2o3b2o13bobo5b2o708b3o5bo28bobo522bo47bo17b2o3b4o3b2o514b$462bobo15bo2b3o8bo211bobo28bo5b3o8bo721b3o26bobo521b2o46b2o19b4o4bo2bo514b$461bo3b2o16bo222bobo26b3o9b2o5bo724bo26bo522bobo67bo9bo514b$461b3o243bo26bo12b2obo3bo723b2o620bo2bo2bo2bo514b$460bo3b3o267b2o15b2o1316b2o30bobo3b2o515b$459bobo988b2o11b2o604bo554b$458b2obo294bobo3b2o686bo12bo2bobo23b2o572b2obo554b$459b2o10b2o2b2o243b2o33bo4bo2bo687b3o9bo6bo21bo573bo2b3o4b2o20b2o524b$471bobo2bo244bo26b4obo2bo4b2o690bo10bo5bo3bo18b3o571b2o3bo3b2o19bo2bo523b$447bo5b2o14bobob2o243b3o26bo3bo2bo2bobo691b2o15bo2bo2bo20bo12b2o559b4o25bobo523b$447b2o4b2o14b2o233b2o12bo20b3obo9bo7b2o688bo17b2o3bo32bo2bo558bo15b2o8b3o2bob2o520b$449b2o25bo226bo2bo31bobo3bo3bob2o10bo690bo12b5o37b2o560b3o12bobo6bo6bobo520b$442bo2b2ob3o2bo20b3o227b2o32bo3b3o5bo9bo691b2o7b2o4b2o28b2o574bo13bo6b5o525b$443b3obo2bob3o18bo241b2o21bob4o6bobo7b2o699b2o33bobo569b5o14b2o8b2ob3o521b$444bo2b3ob2o2bo17b2o240bobo21b3o9b2o743bo7b2o562bo23b4obobo3bo520b$447b2o259b2o7bo775b2obo6bo2bo563bo20bo3bo2bob4o11b2o507b$443b2o4b2o256bo2bo6bob2o758bo2bo9bobob2o6b2o563b2o20b2o5bobo14bobob2o503b$443b2o5bo30b2o225b2o6b2obobo9bo2bo748bo8bobo579bo22b2obob2o13bobo2bo501b$482bo236bobo8bo747bo5bo5bobob3o2bo8b2o25b2o537b3o23bob2o13b2o2b2o501b$482bob2o218b2o8bo2b3obobo5bo5bo742b2o4bo4bobo2b2ob3o7bo2bo24bobo539bo22b2o6b2o514b$452b2o20b2o4b3o2bo203b2o12bo2bo7b3ob2o2bobo4bo4b2o747bo5bo6bo6b3o2bobo26bo4b2o532b2o30b2o514b$451bo2bo19b2o3bo3b2o203bobo12bobo2b3o6bo6bo5bo751bo7b3o2bob5o4b3ob2o21b4ob2o2bo2bo548bo4bo524b$451bobo25b4o199b2o4bo13b2ob3o4b5obo2b3o7bo749b4obo6bobobo3bo7bo23bo2bobobobob2o547bobo3bo524b$448b2obo2b3o8b2o15bo197bo2bo2b2ob4o11bo7bo3bobobo6bob4o748bo3bo6bo2bobob2o4bobobo26bobobobo536b2o12bobo3bo2bo521b$448bobo6bo6bobo12b3o198b2obobobobo2bo11bobobo4b2obobo2bo6bo3bo746bo3bo8b2o2b2ob2o5b2ob2o26b2obobo535bo2bo12bo5bo2bo520b$453b5o6bo13bo204bobobobo13b2ob2o5b2ob2o2b2o8bo3bo743bob4o57bo537b2o8bo8bobob2o12bobo505b$449b3ob2o8b2o14b5o199bobob2o41b4obo746bo31b2o30b2o540bobo6bob2o18bo2b2o500b$435b2o11bo3bobob4o23bo200bo46bo749bo32bobo6b2o2b2o18bo540bobo6bo3b3o11bo3bo2b2o500b$431b2obobo11b4obo2bo3bo20bo196b2o30b2o20bo747bo4b2o28b3o5bo4bo7b2o9bobo539bo8b3o2bo11b2o507b$429bo2bobo16bobo5b2o20b2o195bo18b2o2b2o7b2o15b2o4bo746bo5bo14b2o13b2o7bo2bobo5b2o10b2o550bo14b2o507b$429b2o2b2o13b2obob2o22bo198bobo9b2o7bo4bo24bo5bo747bo19b2o9bob4o6b2o3b2o22bo562bo507b$442b2o4b2obo23b3o198b2o10b2o5bobo2bo22b2o7bo749bo2bo26b2o3b2o4bo28bobo561b2o2bo503b$442b2o6b2o22bo197bo22b2o3b2o21b2o3bo2bo784bo2bo3b3o26bobo550bo10bo2bo504b$474b2o195bobo28bo5b3o805bo2bo6bo26bo551b2o3bo4b2o4bo502b$452bo4bo213bobo26b3o813bo2bo5b2o583bo7bobo503b$452bo3bobo213bo26bo812b2o3b2o591bo8bo504b$449bo2bo3bobo12b2o226b2o796b2o13bo2b2o1107b$448bo2bo5bo12bo2bo241b2o780bo15bo2bo22b2o1083b$428b2o18b2obobo8bo8b2o242bobo9b2o769b3o12b3o23bo1084b$428b2o6bo14b2obo6bobo221b2o30b2o9bo771bo5b3o31b3o575b3o503b$435b2o11b3o3bo6bobo222bo28bobo7b3o770b2o42bo12b2o573bo4b2o487b$448bo2b3o8bo220b3o29b2o8bo772bo28bo26bo2bo548b2o2b2o17bob2ob3o487b$434bo16bo217b2o12bo20bo21b2o772bo26b2o26b2o549bo2bobo17bo7bo486b$435bo232bo2bo31bobob2o18bo771b2o7b2o16bobo15b2o562b2obobo14b2ob2o491b$431b3o11b2o222b2o34bob2o16bo782b2o33bobo566b2o14bo2bo3bo488b$430bo2bobo5bo3b2o233b2o22b3o9b2o7b2o816bo7b2o553bo22bo5bo488b$435bo5bo238bobo33b2o822b2obo6bo2bo552b3o20bo3bo2bo487b$431b2o8bo231b2o7bo856bobob2o6b2o556bo22b2ob2o10b2o475b$672bo2bo6bob2o840b4o9bo568b2o17bo7bo11bobob2o471b$673b2o6b2obobo9bo2bo825bo3bo7bobob3o2bo8b2o25b2o544b3ob2obo13bobo2bo469b$686bo8bo829bo4bo5bobo2b4obo4b2obo2bo24bobo543b2o4bo14b2o2b2o469b$669b2o8bo2b3obobo5bo5bo825bobob2o4bo6bo4bo6bobo26bo4b2o509b2o38b2o482b$647b2o19bo2bob2o4bob4o2bobo4bo4b2o829bobo4b3o2bob8ob3ob2o21b4ob2o2bo2bo507bo39b2o482b$440b2o2b2o200bobo19bobo6bo4bo6bo5bo833b2o2bo6bobobo7bo3bo23bo2bobobobob2o504b2obo523b$440bobo2bo194b2o4bo20b2ob3ob8obo2b3o7bo828b2o2bo9bo2bobobobo4b2obo26bobobobo507bo2b3o4b2o20b2o493b$422b2o14bobob2o194bo2bo2b2ob4o18bo3bo7bobobo6bob4o831bo2b2o5b2o2b2ob2o5b2ob2o26b2obobo508b2o3bo3b2o19bo2bo492b$416b2o4b2o14b2o198b2obobobobo2bo18bob2o4bobobobo2bo6bo3bo827bo2b2o58bo511b4o25bobo492b$412b2ob2obo26bo195bobobobo20b2ob2o5b2ob2o2b2o8bo3bo826bobo32b2o30b2o505bo15b2o8b3o2bob2o13bo475b$411b4obob3o22b3o195bobob2o48b4obo826b2obobo28b2o7b2o2b2o18bo506b3o12bobo6bo6bobo12b3o4b2o468b$442bo199bo53bo831bo4bo21bo14bo4bo7b2o9bobo507bo13bo6b5o16bo3bo3b2o468b$415b3obob4o17b2o192b2o30b2o27bo831bo3bo14b2o4bob2o14bo2bobo5b2o10b2o502b5o14b2o8b2ob3o12b2ob2o473b$417bob2ob2o212bo18b2o2b2o7b2o22b2o4bo830b4o15b2o4bo16b2o3b2o22bo498bo23b4obobo3bo489b$412b2o4b2o214bobo9b2o7bo4bo9bo21bo5bo855bo3bo11bo28bobo499bo20bo3bo2bob4o489b$412b2o36b2o182b2o10b2o5bobo2bo9b3o10b2o14bo857bob2obo9b3o26bobo498b2o20b2o5bobo492b$451bo178bo22b2o3b2o8bo2bo9b2o10bo2bo862bobo11bo26bo504bo22b2obob2o2b2o485b$451bob2o174bobo28bo8bobo887bobo10b2o531b3o23bob2o2b2o3bo481b$421b2o20b2o4b3o2bo174bobo26b3o8b2o1437bo22b2o9bo8b2o471b$420bo2bo19b2o3bo3b2o176bo26bo4b3o3bobo873b2o561b2o33bo7b3o471b$420bobo25b4o205b2o5bo4b2o873bo41b2o537bo4bo19b3o471b$403b2o12b2obo2b3o8b2o15bo218b2o873b3o38bo537bobo3bo21b2o470b$399b2obobo12bobo6bo6bobo12b3o215bo3bobo12b2o860bo5b3o31b3o520b2o12bobo3bo2bo18b2o470b$397bo2bobo19b2ob2o6bo13bo195b2o26b2o13bo858b2o21bo20bo519bo2bo12bo5bo2bo17b2o470b$397b2o2b2o15b3ob2o8b2o14b5o191bo22b2o2bo4bo6b3o859bo21bobo540b2o8bo8bobob2o16bo472b$410b2o5bo3b3ob4o23bo188b3o24b3o5bo6bo863bo20bo550bobo6bob2o6b2o2b2o480b$410b2o5b4obo2bo3bo20bo190bo20bo6bo6bo7b2o860b2o7b2o34b2o526bobo6bo3b3o3bo2bobo480b$420bo7b2o20b2o209bobo21bo869b2o33bobo527bo8b3o2bo5b2obobo14b2o4bo457b$417b2obob2o22bo215bo20bo906bo7b2o531bo12b2o13bobo4bobo455b$417bo2bo23b3o191b2o34b2o7b2o902b2obo6bo2bo537bo19b3o6bo2bo453b$418bob2o21bo194bobo33b2o910bobob2o6b2o538b3o17b2o5bobob3o452b$401b2o17bo22b2o186b2o7bo936bo8bobo552bo17b2o3b4o3b2o451b$396b2o3b3o16bo5bo203bo2bo6bob2o928b2o2bo7bobob3o2bo8b2o25b2o509b2o18b3obobo5b2o450b$396b2o3b3o16bobo2bobo203b2o6b2obobo927b2ob2o6bobo2b2ob3o7bo2bo24bobo529bo2bo6b3o450b$401bobo15bo2bo2bobo12b2o197bo2bobo7bo4bo918b2o5bo6bo6b3o2bobo26bo4b2o525bobo4bobo451b$400b2obo6bo6b2obo5bo12bo2bo184b2o8bob2o3bobo6bo2bobo918bo6b3o2bob5o4b3ob2o21b4ob2o2bo2bo492b2o31bo4b2o452b$400b2o2bo5bo6b2obobo8bo8b2o171b2o11bo2bo2bo4b3o2b2obobo3bobob2ob3o913b3o2b2o6bobobo3bo7bo23bo2bobobobob2o492bo491b$401b2o17b2obo6bobo179bobo11bobo2b2o9bobo2bo4b2o2bo4bo912b2obobo6bo2bobob2o4bobobo26bobobobo492b2obo491b$398bobo2bo8bobo2b3o3bo6bobo173b2o4bo12b2ob5ob6ob2ob3o5b4o2b4o911bobob2o7b2o2b2ob2o5b2ob2o26b2obobo492bo2b3o4b2o20b2o461b$398bob2obo9b2o2bo2b3o8bo172bo2bo2b2ob4o10bo7bo3bobobo8bo2bobo2bo911b2o2b3o56bo494b2o3bo3b2o19bo2bo460b$399b3obo4b3o9bo183b2obobobobo2bo10bobo5bobobobo2bo6b4o2b4o914bo32b2o30b2o490b4o25bobo460b$607bobobobo12b2ob2o5b2ob2o2b2o6bo4bo2b2o914b2o31b2o7b2o2b2o18bo490bo15b2o8b3o2bob2o457b$607bobob2o39b3ob2obobo914b2ob2o36bo4bo7b2o9bobo489b3o12bobo6bo6bobo457b$407bo200bo45bobo2bo916bo2b2o14b2o22bo2bobo5b2o10b2o492bo13bo6b2ob2o462b$399bo7bo194b2o30b2o19bo4bo914bo19b2o21b2o3b2o22bo483b5o14b2o8b2ob3o458b$398bobo201bo18b2o2b2o7b2o973b3o5bo28bobo482bo23b4ob3o3bo457b$399bo200bobo9b2o7bo4bo990b3o26bobo484bo20bo3bo2bob4o11b2o444b$408b2o2b2o186b2o10b2o5bobo2bo22b2o971bo26bo484b2o20b2o7bo14bobob2o440b$408bobo2bo182bo22b2o3b2o7bo13b2o953b3o14b2o516bo22b2obob2o13bobo2bo438b$384bo5b2o14bobob2o183bobo28bo6bo967bo2bo532b3o23bo2bo13b2o2b2o438b$385bo4bo2bo12b2o187bobo26b3o6bo957b2o7bo3bo535bo21b2obo5b2o451b$380b2o2bo28bo182bo26bo967bo8bo32b2o504b2o22bo7b2o451b$379bo2bobob2o23b3o209b2o15bo951b3o5bo3bo28bo523bo5bo460b$378bo4b2o2b2o4bo16bo228b3o952bo6bo2bo10bo18b3o519bobo2bobo460b$384b2obobo2bo17b2o227bob2o8b2o939b2o8b3o10bo20bo505b2o12bobo2bo2bo459b$387bo2b2o217b2o31b2o8bo939bo22bo525bo2bo12bo5bob2o457b$378bo2bo4bo223bo28bob2o6b3o942bo547b2o8bo8bobob2o457b$380b2o5bo30b2o187b3o29b3o7bo943b2o7b2o34b2o511bobo6bob2o21b2o437b$419bo187bo32bo9b2o950b2o33bobo511bobo6bo3b3o11b3o4b2o437b$419bob2o208b2o18bo985bo7b2o505bo8b3o2bo11bobo443b$371b2o16b2o20b2o4b3o2bo205bo3bo16bo984b2obo6bo2bo515bo14bobo443b$367b2obobo15bo2bo19b2o3bo3b2o182b2o21bo2b2o8b2o7b2o982bobob2o6b2o977b$365bo2bobo17bobo25b4o184bobo21bo11b2o982bo8bo990b$365b2o2b2o14b2ob2ob3o8b2o15bo160b2o15b2o7bo1012b2o3b2o5bobob3o2bo8b2o25b2o490b2o454b$378b2o5bobo2bo3bo6bobo12b3o157bo3b2o14bo2bo6bob2o1009b2o3b2o4bobo2b4obo4b2obo2bo24bobo489b2o3bo450b$378b2o8b7o6bo13bo159bobo19b2o6b2obobo10b2o1001bo5bo6bo4bo6bobo26bo4b2o488bo6b2o442b$386b3o11b2o14b5o153bobo28bo2bobo9b4o998bo2bo5b3o2bob8ob3ob2o21b4ob2o2bo2bo486bo9bo440b$385bo7b4o23bo153bo18b2o8bob2o3bobo5b2ob2obo997bob3o7bobobo7bo3bo23bo2bobobobob2o494b3o440b$385b4ob4o3bo20bo154b2o6b2o9bo2bo2bo4b3o2b2obobo4bobo3b3o994b2o3bo6bo2bobobobo4b2obo26bobobobo498bo441b$378bo9bob2o4b2o20b2o155b2o3bobo9bobo2b2o9bobo2bo4bobo2bo3bo992bo3b2o7b2o2b2ob2o5b2ob2o26b2obobo940b$368b3o7b2o5b2obo25bo160bo4bo10b2ob5ob6ob2ob3o6b3ob5o992b3obo57bo941b$364b2o8b3ob2o5bo2bobo21b3o157b2obo2b2ob4o8bo7bo3bobobo9bobobobo995bo2bo30b2o30b2o504b2o2bobo424b$364b2o13bo8b2o21bo160b2obobobobo2bo8bobo5bobobobo2bo6b5ob3o996bo33bo7b2o2b2o18bo480b2o2b2o17bobo2bo2bo423b$374b3o11bo22b2o162bobobobo10b2ob2o5b2ob2o2b2o6bo3bo2bobo994b2o3b2o36bo4bo7b2o9bobo478bo2bobo17bo3bob2o424b$387b2o5bo180bobob2o37b3o3bobo994b2o3b2o14b2o22bo2bobo5b2o10b2o480b2obobo14b2ob2o428b$376bo10b2o4bobo180bo43bob2ob2o995bo19b2o21b2o3b2o22bo480b2o14bo2b2o428b$373bo12b3o4bobo12b2o160b2o30b2o17b4o1031b3o5bo28bobo473bo21b3o3b3o424b$374b2o5b2o2bo2bo5bo12bo2bo159bo18b2o2b2o7b2o18b2o1040b3o26bobo473b3o23b2o2bo424b$377b2o2b2o2b2obobo8bo8b2o158bobo9b2o7bo4bo16b2o1054bo26bo477bo22b2ob2o10b2o412b$388b2obo6bobo167b2o10b2o5bobo2bo17b2o3b2o1049b2o503b2o18b2obo3bo11bobob2o408b$385b3o3bo6bobo163bo22b2o3b2o16b2o3b2o1573bo2bo2bobo13bobo2bo406b$385bo2b3o8bo163bobo28bo8b2o5b3o1025b2o10b3o3bo534bobo2b2o14b2o2b2o406b$388bo174bobo26b3o6b2obo7bo1025bo9bo2b6o23b2o481b2o38b2o419b$368bo195bo26bo9b2o1036b3o12bo25bo482bo39b2o419b$368bo222b2o8b2obo1036bo6bo8bo23b3o476b2obo46b3o411b$368bo234b2o1034b2o8b2o4bo2bo3bo20bo476bo2b3o4b2o20b2o430b$376b2o2b2o237b2o1018bo14bo2bo3bobo497b2o3bo3b2o19bo2bo14bo414b$376bobo2bo195b2o41bo1020bo14bo5bo500b4o25bobo14bo414b$352bo5b2o14bobob2o198bo31bo6b3o1020b2o7b2o34b2o476bo15b2o8b3o2bob2o9bo4bo411b$352b2o4b2o14b2o199b3o32bo6bo1031b2o33bobo477b3o12bobo6bo6bobo7b2o4bo2b2ob2o405b$354b2o25bo193bo19b3o12bo7b2o1064bo7b2o473bo13bo6b2ob2o12bo4bob2obob2o405b$347bo2b2ob3o2bo20b3o237bo1061b2obo6bo2bo467b5o14b2o8b2ob3o8bo3bo2bo2bo408b$348b3obo2bob3o18bo238bo1050b2o10bobob2o6b2o468bo23b4ob3o3bo8b2obo3b2o409b$349bo2b3ob2o2bo17b2o192b2o34b2o7b2o1048b4o9bobo481bo20bo3bo2bob4o10bo415b$352b2o187b2o29bobo33b2o1056bobob2o6bobob3o2bo8b2o25b2o438b2o20b2o7bo429b$348b2o4b2o181bo3b2o22b2o7bo1091b2o3b2o4bobo2b2ob3o7bo2bo24bobo442bo22b2obob2o2b2o422b$348b2o5bo30b2o148bobo25bo2bo6bob2o1093bo5bo6bo6b3o2bobo26bo4b2o436b3o23bo2bo2b2o3bo418b$387bo147bobo27b2o6b2obobo1094bo4b3o2bob5o4b3ob2o21b4ob2o2bo2bo437bo21b2obo8bo418b$339b2o46bob2o144bo37bo2bobo9b4o1078b3o8bobobo3bo7bo23bo2bobobobob2o436b2o22bo10bo418b$335b2obobo16b2o20b2o4b3o2bo143b2o25b2o9b2o2bobobo7bo3bo1076b2o2b2o5bo2bobob2o4bobobo26bobobobo457bo5bo429b$333bo2bobo17bo2bo19b2o3bo3b2o149b2o19bo2bo6bob2o2b2obobo5bo4bo1073b2o2b2o8b2o2b2ob2o5b2ob2o26b2obobo456bobo2bobo429b$333b2o2b2o17bobo25b4o150bobo19bobo6bo6bobo2bo4b2obobo1076b3o58bo443b2o12bobo2bo2bo428b$346b2o5b2ob2ob3o8b2o15bo144b2o4bo20b2ob12ob2ob3o4bobo1079bo34b2o30b2o436bo2bo12bo5bob2o15b3o408b$346b2o5bobo2bo3bo6bobo12b3o143bo2bo2b2ob4o18bo3b3o5bobobo6bo2b2o1080bo20bo2bo8b2o7b2o2b2o18bo437b2o8bo8bobob2o426b$356b3ob3o6bo13bo146b2obobobobo2bo18bobobo5bobobo2bo9bo2b2o1075b2o3b2o19bo16bo4bo7b2o9bobo444bobo6bob2o6b2o2b2o417b$354b3o11b2o14b5o144bobobobo20b2ob2o5b2ob2o2b2o5b2o2bo1080b2obobo14bo4bo18bo2bobo5b2o10b2o444bobo6bo3b3o3bo2bobo417b$353bo5bob4o23bo144bobob2o49b2o2bo1077b4o15b2o4bo16b2o3b2o22bo441bo8b3o2bo5b2obobo14b2o5bo393b$337bo8bo6b4ob4o3bo20bo147bo54bobo1079b2o21bo6b2o8bo28bobo451bo12b2o12bo2bo4bo394b$337bo7bobo8bobo5b2o20b2o140b2o30b2o23bobob2o1101bobo6bobo7b3o26bobo458bo28bo2b2o389b$332b2o3bo4b2o4bo4b2obob2o22bo145bo18b2o2b2o7bobo21bo4bo1113b2o9bo26bo459b3o23b2obobo2bo388b$332bo10bo2bo6bo2bo23b3o143bobo9b2o7bo4bo9bo21bo3bo1112bobo9b2o489bo16bo4b2o2b2o4bo387b$343b2o2bo6b3o22bo146b2o10b2o5bobo2bo10b2obo8b2o10b4o1112b2o500b2o17bo2bobob2o393b$343bo12bo22b2o141bo22b2o3b2o7bo13b2o1110b2o536b2o2bo396b$342b2o18bo158bobo29bobo2bo2bo3bo1119bo41b2o499bo4bo2bo387b$342b2o12b3o2bobo157bobo26b2o4bo2bob4o1121b3o38bo467b2o30bo5b2o389b$342bo3bo2b2o5b2o3bobo12b2o144bo26bo2bo4bo1130bo5b3o12bo18b3o464bo428b$346bo2b2o2bo2bo5bo12bo2bo170b2o3bobo1129b2o21bo20bo461b2obo428b$343bobo7b2obobo8bo8b2o1308bo22bo482bo2b3o4b2o20b2o398b$356b2obo6bobo191b2o15b2o1109bo504b2o3bo3b2o19bo2bo397b$353b3o3bo6bobo166b2o21bo3bob2o12bo1108b2o7b2o34b2o461b4o25bobo397b$353bo2b3o8bo168bo21bo5b2o9b3o1118b2o33bobo461bo15b2o8b3o2bob2o394b$356bo176b3o18bo3bo8b3o5bo1155bo7b2o455b3o12bobo6bo6bobo394b$335b3o195bo20bo5bobo13b2o1150b2obo6bo2bo457bo13bo6b5o399b$554bo5b3o14bo1149bobob2o6b2o453b5o14b2o8b2ob3o395b$344b2o2b2o225bo1151bo466bo23b4obobo3bo394b$344bobo2bo180b2o34b2o7b2o1136b6o6bobob3o2bo8b2o25b2o424bo20bo3bo2bob4o11b2o381b$320bobo3b2o14bobob2o182bobo33b2o1145b4o7bobo2b4obo4b2obo2bo24bobo422b2o20b2o5bobo14bobob2o377b$319bo2bo2bo2bo13b2o179b2o7bo1183bobo5bo6bo4bo6bobo26bo4b2o421bo22b2obob2o13bobo2bo375b$318bo9bo20bo172bo2bo6bob2o1182b2o5b3o2bob8ob3ob2o21b4ob2o2bo2bo419b3o23bob2o13b2o2b2o375b$317b4o4bo2bo18b3o173b2o6b2obobo1178bo2bob2o6bobobo7bo3bo23bo2bobobobob2o422bo22b2o6b2o388b$315b2o3b4o3b2o17bo187bobo12bo1164bo3bob2o5bo2bobobobo4b2obo26bobobobo424b2o30b2o388b$315bo2bo4b4o19b2o171b2o8bo2b3obobo6b4obo1162b2obo3bo6b2o2b2ob2o5b2ob2o26b2obobo442bo4bo398b$315bo9bo181b2o9bo2bo7b3ob2o2bobo5bob2ob3o1160b2obo2bo56bo442bobo3bo398b$307b2o6bo2bo2bo2bo181bobo9bobo2b3o6bo6bo3bo4bo4bo1161b2o32b2o30b2o422b2o12bobo3bo2bo12b3o380b$303b2obobo7b2o3bobo30b2o144b2o4bo10b2ob3o4b5obo2b3o4bo3bob3obo1162bobo30b2o7b2o2b2o18bo421bo2bo12bo5bo2bo10bo3bo379b$301bo2bobo48bo142bo2bo2b2ob4o8bo7bo3bobobo11bobo1168b4o36bo4bo7b2o9bobo420b2o17bobob2o9bo5bo378b$301b2o2b2o40bo7bob2o139b2obobobobo2bo8bobobo4b2obobo2bo6bob3obo3bo1162b6o14b2o5b3o14bo2bobo5b2o10b2o438bob2o11bo3bo3b4o374b$314b2o9b2o21bo4b3o2bo142bobobobo10b2ob2o5b2ob2o2b2o6bo4bo4bo1182b2o5bobo13b2o3b2o22bo434bo3b3o8bo7b4o374b$307bo6b2o8bo2bo15bo4bo3bo3b2o143bobob2o37b3ob2obo1189bo8b3o5bo28bobo434b3o2bo8bobo3bobo377b$307bo16bobo17b2obo4b4o146bo43bob4o1189bo5b2o9b3o26bobo436bo12b2o3b2o378b$307b2o12b2obo2b3o8b2o4bo10bo140b2o30b2o17bo1193bo3bob2o12bo26bo835b$321bobo6bo6bobo12b3o141bo18b2o2b2o7b2o1213b2o15b2o862b$310bo15b5o6bo13bo142bobo9b2o7bo4bo1710b2o391b$312bo9b3ob2o8b2o14b5o137b2o10b2o5bobo2bo22b2o1189b2o3bobo491b2o3bo387b$300b2ob2o2bo4b2o7bo3bobob4o23bo133bo22b2o3b2o13b3o5b2o1189bo2bo4bo33b2o460bo387b$300b2obob2obo4b2o6b4obo2bo3bo20bo134bobo28bo5b3o4bo2bo1196b2o4bo2bob4o26bo461bo9b2o376b$302b2o2b5o2bo10bobo5b2o20b2o133bobo26b3o10b2o2b2o1199bobo2bo2bo3bo26b3o468bobo375b$304b2o3bob2o8b2obob2o22bo139bo26bo13bobo2bo1196b2o7bo9bob3o20bo468bo2bo374b$310b2o9b2obo23b3o166b2o12bobo1199bo10b2obo3bo3bobo488bo377b$323b2o22bo1387bo9bo5b3o3bo489bobo374b$317b2o28b2o190bo5b2o1187b2o7bobo6b4obo21b2o467bo7b2o3bo362b$317b2o6bo4bo172b2o27bo2bo3b2o5bo1196b2o9b3o21bobo451b2o2b2o17bob4o2bo360b$312b3o10bo3bobo172bo27bo2bo4bob4o1232bo7b2o444bo2bobo17bobob4o361b$322bo2bo3bobo12b2o155b3o28bob2o7bo1231b2obo6bo2bo445b2obobo14b2obobo364b$321bo2bo5bo12bo2bo154bo21bobo6bo2bo8b2o1228bobob2o6b2o450b2o13bo4b2obo362b$321b2obobo8bo8b2o176b3ob2o4b2obo9bo1219b2o7bobo455bo21b3o3b3o361b$304bo19b2obo6bobo184bo3b2o6bo9bo1216b2o2bo7bobob3o2bo8b2o25b2o413b3o20bob2o4bo360b$304bo16b3o3bo6bobo161b2o21bobo9bobo7b2o1215b2o2bo6bobo2b2ob3o7bo2bo24bobo415bo21bobob2o10b2o349b$287b2o4bo10bo16bo2b3o8bo130bo3b2o26bobo21b2o10b2o1228b2o5bo6bo6b3o2bobo26bo4b2o408b2o18b4obobo11bobob2o345b$287b3ob2obo17b2o2b2o6bo140bobo3bo19b2o7bo1266bo4b3o2bob5o4b3ob2o21b4ob2o2bo2bo425bo2b4obo13bobo2bo343b$286bo7bo17bobo2bo146bobo3bo19bo2bo6bob2o1259bobobo7bobobo3bo7bo23bo2bobobobob2o427bo3b2o14b2o2b2o343b$291b2ob2o14bobob2o149bo3bo21b2o6b2obobo1257b2o3bo6bo2bobob2o4bobobo26bobobobo401b2o38b2o356b$288bo3bo2bo14b2o154b4obo32bo8bo1247bo3b2o7b2o2b2ob2o5b2ob2o26b2obobo401bo39b2o356b$288bo5bo22bo144b2o6bobo14b2o8bo2b3obobo7bo2b2o1242bobobo57bo399b2obo397b$287bo2bo3bo20b3o143bobo4bo3bo13bo2bob2o4bob4o2bobo6b2ob2o1242bo34b2o30b2o393bo2b3o4b2o20b2o367b$287b2ob2o22bo140b2o4bo6b2o2b2o12bobo6bo4bo6bo5b2o1248b2o31b2o7b2o2b2o18bo394b2o3bo3b2o19bo2bo366b$275b2o11bo7bo17b2o137bo2bo2b2ob4o19b2ob3ob8obo2b3o6bo1250bo2b2o36bo4bo7b2o9bobo394b4o25bobo8b2o8bo347b$271b2obobo11bob2ob3o157b2obobobobo2bo21bo3bo7bobobo6b2o2b3o1247bo2b2o14b2o22bo2bobo5b2o10b2o394bo15b2o8b3o2bob2o9bo5bo347b$269bo2bobo14bo4b2o160bobobobo24bob2o4bobobobo2bo6bobob2o1245b2o19b2o21b2o3b2o22bo391b3o12bobo6bo6bobo4bo2bobo5bo3b2o342b$269b2o2b2o47b2o132bobob2o24b2ob2o5b2ob2o2b2o7b2obobo1279b3o5bo28bobo393bo13bo6b5o10b3o11b2o342b$282b2o39bo133bo54b3o2b2o1286b3o26bobo388b5o14b2o8b2ob3o10bo353b$282b2o39bob2o124b2o30b2o30bo1292bo26bo389bo23b4obobo3bo8bo354b$274b2o17b2o20b2o4b3o2bo124bo18b2o2b2o7b2o29b2o1291b2o418bo20bo3bo2bob4o363b$276bo15bo2bo19b2o3bo3b2o123bobo9b2o7bo4bo34b2ob2o1711b2o20b2o5bobo12b2o352b$292bobo25b4o125b2o10b2o5bobo2bo22b2o12b2o2bo1264b2o10b3o437bo22b2obob2o2b2o6bo352b$273bobo13b2ob2ob3o8b2o15bo121bo22b2o3b2o7bo13b2o17bo1263bo11bo29b2o408b3o23bob2o2b2o14bo344b$272bo6b2ob2o5bobo2bo3bo6bobo12b3o121bobo28bo6bo1297b3o8b3o4bo22bo412bo22b2o20bo344b$268b2obo2bo3bo3b2o8b3ob3o6bo13bo124bobo26b3o6bo1299bo15bob2obo18b3o408b2o44bo344b$268bo15bo5b3o11b2o14b5o120bo26bo1307b2o18bo2bo20bo426bo4bo18b3o346b$269bo8bobo2bo5bo5bob4o23bo147b2o1306bo18b3obo446bobo3bo18bob2o345b$271bo7b3o7b4ob4o3bo20bo165bo1293bo453b2o12bobo3bo2bo15bo3b2o343b$272b2obo2bo2bo10bobo5b2o20b2o164b2o10b2o1279b2o7b2o34b2o407bo2bo12bo5bo2bo14bo3b2o343b$281bo7b2obob2o22bo139b2o30bo10bo1288b2o33bobo408b2o8bo8bobob2o20bo342b$279b2o4b2o2bo2bo23b3o140bo21bo6b2o8b3o1324bo7b2o410bobo6bob2o6b2o2b2o6bo3bo343b$280bo4b2o3b3o22bo140b3o29bo9bo1323b2obo6bo2bo409bobo6bo3b3o3bo2bobo7bo2bo343b$281bo10bo22b2o139bo20b2o20b2o1307bo2bo9bobob2o6b2o411bo8b3o2bo5b2obobo14b2o336b$281bo16bo177bob4o18bo1311bo8bo435bo12b2o14b2o4b2o330b$292b3o2bobo177b4o17bo1308bo5bo5bobob3o2bo8b2o25b2o398bo26bob2ob2o326b$292b2o3bobo12b2o139b2o34b2o7b2o1307b2o4bo4bobo2b4obo4b2obo2bo24bobo397b3o22b3obob4o325b$289bo2bo5bo12bo2bo138bobo33b2o1321bo5bo6bo4bo6bobo26bo4b2o394bo356b$271b3o15b2obobo17b2o132b2o7bo1355bo7b3o2bob8ob3ob2o21b4ob2o2bo2bo391b2o17b4obob3o329b$260b2o30b2obo149bo2bo6bob2o1351b4obo6bobobo7bo3bo23bo2bobobobob2o411b2ob2obo331b$255b3o2bobo17b2o2b2o3b3o3bo150b2o6b2obobo1350bo3bo6bo2bobobobo4b2obo26bobobobo418b2o4b2o326b$255bo2b3obo17bobo2bo3bo2b3o159bo2bobo7bo1340bo3bo8b2o2b2ob2o5b2ob2o26b2obobo386b2o36b2o326b$254bob3obob2o14bobob2o8bo149b2o9b2o2bobobo4bobo2b3o1333bob4o57bo387bo365b$253b3o2b4o2bo13b2o148b2o11bo2bo6bob2o2b2obobo5bo2bob3o1335bo31b2o30b2o378b2obo365b$253b3o7b3o19bo141bobo11bobo6bo6bobo2bo3b2o3bo4bo1333bo32b2o7b2o2b2o18bo378bo2b3o4b2o20b2o335b$254bo2b4o2b3o17b3o135b2o4bo12b2ob12ob2ob3o6bo3b2ob2o1332bo4b2o36bo4bo7b2o9bobo377b2o3bo3b2o19bo2bo334b$255b2obob3obo17bo136bo2bo2b2ob4o10bo3b3o5bobobo10b2ob2o1335bo5bo14b2o10b3o9bo2bobo5b2o10b2o379b4o25bobo334b$243b2o11bob3o2bo18b2o135b2obobobobo2bo10bobobo5bobobo2bo6b2ob2o3bo1335bo19b2o9bo2bo8b2o3b2o22bo375bo15b2o8b3o2bob2o331b$239b2obobo11bobo2b3o158bobobobo12b2ob2o5b2ob2o2b2o6bo4bo3b2o1334bo2bo26bobo8bo28bobo375b3o12bobo6bo6bobo331b$237bo2bobo14b2o163bobob2o39b3obo2bo1367b2obo3bo2b3o26bobo378bo13bo6b2ob2o336b$237b2o2b2o47b2o131bo45b3o2bobo1367bo4bo5bo26bo374b5o14b2o8b2ob3o332b$250b2o39bo125b2o30b2o24bo1367bo5bo4b2o401bo23b4ob3o3bo331b$250b2o39bob2o122bo18b2o2b2o7b2o1390b2o3b2o411bo20bo3bo2bob4o11b2o318b$261b2o20b2o4b3o2bo120bobo9b2o7bo4bo1384b2o12bo417b2o20b2o7bo14bobob2o314b$260bo2bo19b2o3bo3b2o121b2o10b2o5bobo2bo22b2o1362bo14bo3bo22b2o393bo22b2obob2o13bobo2bo312b$260bobo25b4o119bo22b2o3b2o21b2o1363b3o11bo2bo23bo394b3o23bo2bo13b2o2b2o312b$257b2obo2b3o8b2o15bo118bobo28bo5b3o1379bo5b3o4b3o24b3o394bo21b2obo5b2o325b$257bobo6bo6bobo12b3o119bobo26b3o1385b2o42bo393b2o22bo7b2o325b$236b2o5bo18b2ob2o6bo13bo123bo26bo1388bo455bo5bo15b2o317b$236b2o4bobo13b3ob2o8b2o14b5o145b2o1389bo452bobo2bobo14bo319b$241b2ob2o11bo3b3ob4o23bo161b3o1371b2o7b2o34b2o393b2o12bobo2bo2bo333b$257b4obo2bo3bo20bo163bo2bo8b2o1369b2o33bobo392bo2bo12bo5bob2o12bobo316b$260bo7b2o20b2o132b2o32bo8bo1404bo7b2o386b2o17bobob2o4b2ob2o6bo315b$257b2obob2o22bo138bo20bo7bo2bo6b3o1402b2obo6bo2bo403bob2o7b2o3bo3bo2bob2o311b$253b2o2bo2bo23b3o135b3o18bo4bo5b3o7bo1403bobob2o6b2o404bo3b3o3bo15bo311b$253b2o3bob2o21bo138bo20bo5bo15b2o1388b4o9bobo416b3o2bo4bo2bobo8bo312b$248b3o9bo22b2o158bo4bo17bo1387bo3bo7bobob3o2bo8b2o25b2o376bo9b3o7bo314b$239bo2bo17bo5bo179bo17bo1389bo4bo5bobo2b2ob3o7bo2bo24bobo385bo2bo2bob2o315b$239bobo18bobo2bobo151b2o34b2o7b2o1389bobob2o4bo6bo6b3o2bobo26bo4b2o379bo324b$239b3o17bo2bo2bobo12b2o137bobo33b2o1402bobo4b3o2bob5o4b3ob2o21b4ob2o2bo2bo372b2o4b2o322b$257b2obo5bo12bo2bo129b2o7bo1436b2o2bo6bobobo3bo7bo23bo2bobobobob2o372b2o4bo323b$257b2obobo17b2o129bo2bo6bob2o1429b2o2bo9bo2bobob2o4bobobo26bobobobo380bo324b$260b2obo148b2o6b2obobo1432bo2b2o5b2o2b2ob2o5b2ob2o26b2obobo380bo324b$248b2o2b2o3b3o3bo159bobo9b4o1415bo2b2o58bo706b$248bobo2bo3bo2b3o145b2o8bo2b3obobo7bo3bo1415bobo32b2o30b2o700b$224bo5b2o14bobob2o8bo129b2o15bo2bo7b3ob2o2bobo5bo4bo1416b2obobo28b2o7b2o2b2o18bo385bo314b$225bo4bo2bo12b2o141bobo15bobo2b3o6bo6bo4b2obobo1418bo4bo21b2o13bo4bo7b2o9bobo382bobo313b$220b2o2bo28bo129b2o4bo16b2ob3o4b5obo2b3o4bobo1423bo3bo14b2o3b2ob2o14bo2bobo5b2o10b2o383bo9b2ob2o300b$219bo2bobob2o23b3o127bo2bo2b2ob4o14bo7bo3bobobo6bo2b2o1422b4o15b2o3bo3bo13b2o3b2o22bo365b2o2b2o17bo305b$218bo4b2o2b2o4bo16bo130b2obobobobo2bo14bobobo4b2obobo2bo9bo2b2o1442b3o3bo10bo28bobo364bo2bobo17bobo3b2o298b$224b2obobo2bo17b2o132bobobobo16b2ob2o5b2ob2o2b2o5b2o2bo1449b2o2bo9b3o26bobo366b2obobo14b2obo4bo298b$227bo2b2o152bobob2o45b2o2bo1447b3o12bo26bo371b2o13bo3b3ob2o298b$218bo2bo4bo158bo50bobo1462b2o392bo21b3o3b3o298b$212b2o6b2o5bo30b2o119b2o30b2o19bobob2o1857b3o19b2ob3o3bo297b$208b2obobo45bo119bo18b2o2b2o7b2o3bo14bo4bo1436b2o423bo18bo4bob2o10b2o286b$206bo2bobo47bob2o114bobo9b2o7bo4bo12bo3bo10bo3bo1437bo41b2o380b2o18b2o3bobo11bobob2o282b$206b2o2b2o17b2o20b2o4b3o2bo114b2o10b2o5bobo2bo19bo2b2o6b4o1438b3o38bo408bo13bobo2bo280b$219b2o7bo2bo19b2o3bo3b2o111bo22b2o3b2o18bo2b2o1450bo5b3o31b3o400b2ob2o14b2o2b2o280b$212bo6b2o7bobo25b4o112bobo28bo15b3o1452b2o21bo20bo370b2o38b2o293b$212bo12b2ob2ob3o8b2o15bo112bobo26b3o9b2o4bo1454bo21bobo390bo38bo2bo292b$212b2o11bobo2bo3bo6bobo12b3o114bo26bo11b2o1462bo20bo388b2obo38bo295b$228b7o6bo13bo144b2o11b2o1460b2o7b2o34b2o364bo2b3o4b2o20b2o8bo2bo292b$215bo10b3o11b2o14b5o1623b2o33bobo365b2o3bo3b2o19bo2bo7b2ob2o291b$217bo7bo7b4o23bo167b2o1489bo7b2o360b4o25bobo9bo8bo284b$205b2ob2o2bo4b2o6b4ob4o3bo20bo127b2o41bo1486b2obo6bo2bo359bo15b2o8b3o2bob2o15bo284b$205b2obob2obo4b2o8bob2o4b2o20b2o127bo31bo6b3o1486bobob2o6b2o361b3o12bobo6bo6bobo15bo3b2o279b$207b2o2b5o2bo6b2obo25bo129b3o32bo6bo1479bo8bo377bo13bo6b2ob2o24b2o279b$209b2o3bob2o7bo2bobo21b3o129bo20bo13bo7b2o1472b2o2bo7bobob3o2bo8b2o25b2o328b5o14b2o8b2ob3o301b$215b2o11b2o21bo152bobo21bo1472b2ob2o6bobo2b4obo4b2obo2bo24bobo327bo23b4ob3o3bo300b$228bo22b2o152bo20bo1478b2o5bo6bo4bo6bobo26bo4b2o323bo20bo3bo2bob4o300b$222b2o3b2o5bo146b2o34b2o7b2o1478bo6b3o2bob8ob3ob2o21b4ob2o2bo2bo320b2o20b2o7bo10b2ob2o288b$222b2o3b2o4bobo145bobo33b2o1484b3o2b2o6bobobo7bo3bo23bo2bobobobob2o325bo22b2obob2o2b2o3b2ob2o288b$217b3o6b3o4bobo12b2o124b2o7bo1519b2obobo6bo2bobobobo4b2obo26bobobobo328b3o23bo2bo2b2o5bo290b$207b3o15bo2bo5bo12bo2bo122bo2bo6bob2o1515bobob2o7b2o2b2ob2o5b2ob2o26b2obobo331bo21b2obo301b$207bo17b2obobo17b2o124b2o6b2obobo1513b2o2b3o56bo331b2o22bo303b$208bo19b2obo150bo2bobo7bo4bo1503bo32b2o30b2o343bo5bo303b$205b4o16b3o3bo138b2o8bob2o3bobo6bo2bobo1502b2o31b2o7b2o2b2o18bo342bobo2bobo303b$205bo2bo16bo2b3o126b2o10bo2bo2bo4b3o2b2obobo3bobob2ob3o1501b2ob2o36bo4bo7b2o9bobo326b2o12bobo2bo2bo19bo282b$206b2o20bo127bobo10bobo2b2o9bobo2bo4b2o2bo4bo1500bo2b2o14b2o22bo2bobo5b2o10b2o325bo2bo12bo5bob2o16bobo281b$217b2o2b2o127b2o4bo11b2ob5ob6ob2ob3o5b4o2b4o1499bo19b2o21b2o3b2o22bo322b2o17bobob2o17bo282b$217bobo2bo125bo2bo2b2ob4o9bo7bo3bobobo8bo2bobo2bo1534b3o5bo28bobo339bob2o6b2o2b2o291b$194bo4b2o14bobob2o127b2obobobobo2bo9bobo5bobobobo2bo6b4o2b4o1542b3o26bobo332bo6bo3b3o3bo2bobo291b$192bobo4bobo13b2o134bobobobo11b2ob2o5b2ob2o2b2o6bo4bo2b2o1527b3o15bo26bo333bo7b3o2bo5b2obobo14b2o273b$190bo2bo6b3o19bo128bobob2o38b3ob2obobo1525bo3bo13b2o370bo12b2o14b2o4b3o266b$189b3obobo5b2o17b3o129bo44bobo2bo1526bo3b2o392bo26bo6bo262b$188b2o3b4o3b2o17bo126b2o30b2o18bo4bo1516b2o6bo398b3o23b2obobo2bo262b$187b2o5bobob3o18b2o125bo18b2o2b2o7b2o1540bo7bo2bo30b2o366bo18b3o6b3o263b$187b3o6bo2bo144bobo9b2o7bo4bo1550b3o4bo33bo366b2o17bo2bobob2o267b$180b2o6bobo4bobo146b2o10b2o5bobo2bo22b2o1530bo5bo3b2o9bo18b3o382bo6bo268b$176b2obobo7b2o4bo31b2o111bo22b2o3b2o21b2o1528b2o7bo3bo9bo20bo386b3o4b2o263b$174bo2bobo48bo110bobo28bo5b3o1542bo9b3o10bo376b2o36b2o263b$174b2o2b2o48bob2o107bobo26b3o1552bo7b2o388bo302b$187b2o9b2o20b2o4b3o2bo108bo26bo1554b2o7b2o34b2o349b2obo302b$187b2o8bo2bo19b2o3bo3b2o136b2o1562b2o33bobo349bo2b3o4b2o20b2o272b$197bobo25b4o1737bo7b2o343b2o3bo3b2o19bo2bo271b$194b2ob2ob3o8b2o15bo153bobo10b2o1566b2obo6bo2bo344b4o25bobo271b$194bobo2bo3bo6bobo12b3o125b2o27bobo11bo1565bobob2o6b2o345bo15b2o8b3o2bob2o268b$179b3o15b3ob3o6bo13bo129bo23bob2obo9b3o1557bo8bobo357b3o12bobo6bo6bobo268b$178bo3bo12b3o11b2o14b5o121b3o23bo3bo11bo1554b2o3b2o5bobob3o2bo8b2o25b2o318bo13bo6b5o273b$173b2o2bo5bo10bo5bob4o23bo121bo20bo4bo16b2o1552b2o3b2o4bobo2b2ob3o7bo2bo24bobo312b5o14b2o8b2ob3o269b$173b2o2bo5bo10b4ob4o3bo20bo143bobo3bob2o14bo1557bo5bo6bo6b3o2bobo26bo4b2o306bo23b4obobo3bo268b$177b3ob3o13bobo5b2o20b2o143bo5bo14bo1557bo2bo5b3o2bob5o4b3ob2o21b4ob2o2bo2bo306bo20bo3bo2bob4o11b2o255b$194b2obob2o22bo124b2o34b2o7b2o1556bob3o7bobobo3bo7bo23bo2bobobobob2o305b2o20b2o5bobo14bobob2o251b$194bo2bo23b3o124bobo33b2o1564b2o3bo6bo2bobob2o4bobobo26bobobobo313bo22b2obob2o13bobo2bo249b$195b3o22bo120b2o7bo1598bo3b2o7b2o2b2ob2o5b2ob2o26b2obobo313b3o23bob2o13b2o2b2o249b$190b2o5bo22b2o118bo2bo6bob2o1595b3obo57bo317bo22b2o6b2o262b$186bo3b2o11bo137b2o6b2obobo1595bo2bo30b2o30b2o310b2o30b2o262b$186bo10b3o2bobo147bobo7bo1588bo32b2o7b2o2b2o18bo328bo4bo272b$175b2o9bo10b2o3bobo12b2o118b2o8bo2b3obobo4bobo2b3o1581b2o3b2o36bo4bo7b2o9bobo325bobo3bo272b$174bobo17bo2bo5bo12bo2bo104b2o10bo2bo7b3ob2o2bobo5bo2bob3o1579b2o3b2o14b2o22bo2bobo5b2o10b2o311b2o12bobo3bo2bo6bo262b$175bo18b2obobo17b2o104bobo10bobo2b3o6bo6bo3b2o3bo4bo1579bo19b2o21b2o3b2o22bo306bo2bo12bo5bo2bo3b2ob2o6bo253b$174bo22b2obo116b2o4bo11b2ob3o4b5obo2b3o6bo3b2ob2o1613b3o5bo28bobo306b2o17bobob2o3b2o9bo253b$174bo19b3o3bo114bo2bo2b2ob4o9bo7bo3bobobo10b2ob2o1624b3o26bobo324bob2o5b2obo2bo5bo3b2o248b$160bobo2b2o7bo19bo2b3o115b2obobobobo2bo9bobobo4b2obobo2bo6b2ob2o3bo1626bo26bo325bo3b3o2b2o14b2o248b$159bo2bo2bobo17b2o2b2o6bo120bobobobo11b2ob2o5b2ob2o2b2o6bo4bo3b2o1623b2o353b3o2bo3bo4bo259b$160b2obo3bo17bobo2bo127bobob2o38b3obo2bo1982bo271b$164b2ob2o14bobob2o130bo44b3o2bobo1595b2o10b2o381bo2bo258b$164b2o2bo14b2o128b2o30b2o23bo1596bo12bo2bob2o22b2o352b3o258b$160b3o3b3o21bo122bo18b2o2b2o7bobo1620b3o11bo26bo347b2o265b$160bo2b2o23b3o120bobo9b2o7bo4bo9bo1622bo13b2o24b3o344b2o265b$160b2ob2o22bo123b2o10b2o5bobo2bo10b2obo8b2o1608b2o14bo2bo3bo20bo611b$161bo3bob2o18b2o118bo22b2o3b2o7bo13b2o1608bo15bo2bo2bobo631b$148b2o11bobo2bo2bo136bobo29bobo2bo2bo3bo1619bo14bo5bo632b$144b2obobo12b2o2bobo137bobo26b2o4bo2bob4o1619b2o7b2o34b2o477bo130b$142bo2bobo47b2o110bo26bo2bo4bo1635b2o33bobo474bo2b3o128b$142b2o2b2o48bo137b2o3bobo1671bo7b2o347b3o117b3o3bo127b$155b2o39bob2o1810b2obo6bo2bo358bo110b2obo127b$155b2o9b2o20b2o4b3o2bo145b2o15b2o1633b2o10bobob2o6b2o335b2o2b2o17bob2ob2o102b2obobo7b2o8b2o109b$165bo2bo19b2o3bo3b2o121b2o21bo3bob2o12bo1632b4o9bo348bo2bobo17bo5b2o101b2obo8bobo7bo2bo108b$165bobo25b4o124bo21bo5b2o9b3o1632bobob2o6bobob3o2bo8b2o25b2o306b2obobo14b2obo2bo2bo102bo2bo2b2o2b2o9b2o109b$162b2obo2b3o8b2o15bo121b3o22bo8b3o5bo1634b2o3b2o4bobo2b4obo4b2obo2bo24bobo309b2o13bo3b3o3bo103bobo2b2o124b$162bobo6bo6bobo12b3o122bo20bo5bobo13b2o1637bo5bo6bo4bo6bobo26bo4b2o297bo20bo9bo103bo130b$167b2ob2o6bo13bo145bobo4b3o14bo1639bo4b3o2bob8ob3ob2o21b4ob2o2bo2bo295b3o18bo3b3o3bo103bo22b2o106b$141b2o20b3ob2o8b2o14b5o141bo20bo1638b3o8bobobo7bo3bo23bo2bobobobob2o298bo17bo2bo2bob2o10b2o90bob2o21bo107b$141b2o5b2o12bo3b3ob4o23bo117b2o34b2o7b2o1636b2o2b2o5bo2bobobobo4b2obo26bobobobo300b2o18b2o5bo11bobob2o85bo2bo23b3o104b$147bo14b4obo2bo3bo20bo119bobo33b2o1642b2o2b2o8b2o2b2ob2o5b2ob2o26b2obobo321b2ob2obo13bobo2bo83b2obob2o22bo104b$148b2o15bo7b2o20b2o111b2o7bo1679b3o58bo327bo14b2o2b2o86bo7b2o20b2o99b$146b2o14b2obob2o22bo115bo2bo6bob2o1675bo34b2o30b2o287b2o38b2o96b4obo2bo3bo20bo100b$144bo2bo14bo2bo23b3o116b2o6b2obobo1676bo32b2o7b2o2b2o18bo287bo39b2o96bo3b3ob4o23bo98b$144bo13b2o3bob2o21bo130bobo12bo1662b2o3b2o18b3o15bo4bo7b2o9bobo282b2obo138b3ob2o8b2o14b5o98b$143bo3bo6bo3b2o5bo22b2o114b2o8bo2b3obobo6b4obo1662b2obobo14b2o22bo2bobo5b2o10b2o282bo2b3o4b2o20b2o112b2ob2o6bo13bo103b$144b3o7bo10bo5bo120b2o9bo2bo7b3ob2o2bobo5bob2ob3o1661b4o15b2o5bo15b2o3b2o22bo279b2o3bo3b2o19bo2bo106bobo6bo6bobo12b3o100b$154bo10bobo2bobo118bobo9bobo2b3o6bo6bo3bo4bo4bo1661b2o20bobo5b3o7bo28bobo280b4o25bobo18bo87b2obo2b3o8b2o15bo99b$164bo2bo2bobo12b2o98b2o4bo10b2ob3o4b5obo2b3o4bo3bob3obo1683bo7bo2bo6b3o26bobo280bo15b2o8b3o2bob2o15bo90bobo25b4o99b$162b2obo5bo12bo2bo95bo2bo2b2ob4o8bo7bo3bobobo11bobo1699bo8bo26bo282b3o12bobo6bo6bobo15bo3b2o85bo2bo19b2o3bo3b2o97b$162b2obobo17b2o96b2obobobobo2bo8bobobo4b2obobo2bo6bob3obo3bo1691bo2bo8b2o312bo13bo6b5o24b2o86b2o20b2o4b3o2bo96b$165b2obo117bo2bobo11b2ob2o5b2ob2o2b2o6bo4bo4bo1691b3o318b5o14b2o8b2ob3o138bob2o96b$162b3o3bo117bobo40b3ob2obo1677b2o335bo23b4obobo3bo137bo99b$153b2o2b2o3bo2b3o119bo3bo39bob4o1677bo41b2o295bo20bo3bo2bob4o6b2o3b2o85b2o5bo30b2o99b$153bobo2bo6bo115b2o8bo21b2o17bo1682b3o38bo295b2o20b2o5bobo10bo3bob2o81bo2bo4bo132b$130bo4b2o14bobob2o124bo10b2o6b2o2b2o6bobo1702bo5b3o12bo18b3o297bo22b2obob2o2b2o2bo7bo90bo2b2o127b$128bobo4bobo13b2o126bobo9b2o7bo4bo5b3o1701b2o21bo20bo297b3o23bob2o2bobobo5bobo87b2obobo2bo17b2o107b$126bo2bo6b3o19bo120b2o10bo6bobo2bo7b2o13b2o1687bo22bo321bo22b2o5b4ob3ob2o82bo4b2o2b2o4bo16bo108b$125b3obobo5b2o17b3o116bo22b2o3b2o6b4obo9b2o1689bo341b2o30b4o3bo85bo2bobob2o23b3o105b$124b2o3b4o3b2o17bo118bobo8bobo17bo4b2o3b2o1699b2o7b2o34b2o314bo4bo11bo3bo86b2o2bo28bo105b$123b2o5bobob3o18b2o117bobo8b2o16b3o3bo2bo1712b2o33bobo313bobo3bo12b3o92bo4bo2bo12b2o111b$123b3o6bo2bo139bo10bo15bo6bo2bo1747bo7b2o292b2o12bobo3bo2bo103bo5b2o14bobob2o107b$124bobo4bobo168b2o5bo2bo1744b2obo6bo2bo290bo2bo12bo5bo2bo15b3o108bobo2bo105b$125b2o4bo31b2o145b2o3b2o1739bobob2o6b2o292b2o17bobob2o126b2o2b2o105b$164bo147b2o2bo13b2o1724bobo321bob2o6b2o2b2o228b$164bob2o120b2o22bo2bo15bo1710b6o6bobob3o2bo8b2o25b2o279bo3b3o3bo2bobo108b3o117b$134b2o20b2o4b3o2bo121bo23b3o12b3o1711b4o7bobo2b2ob3o7bo2bo24bobo279b3o2bo5b2obobo14b2o5bo204b$133bo2bo19b2o3bo3b2o119b3o18bo12b3o5bo1716bobo5bo6bo6b3o2bobo26bo4b2o275bo12b2o14b2o4b2o84bobo117b$133bobo25b4o121bo20bo21b2o1716b2o5b3o2bob5o4b3ob2o21b4ob2o2bo2bo280bo25b2o86b3o18bo98b$130b2obo2b3o8b2o15bo142bo22bo1713bo2bob2o6bobobo3bo7bo23bo2bobobobob2o280b3o20bo2b3ob2o2bo79bo9bo7bo2b3o96b$130bobo6bo6bobo12b3o164bo1714bo3bob2o5bo2bobob2o4bobobo26bobobobo286bo18b3obo2bob3o82b2o6bo7b3o3bo95b$135b5o6bo13bo122b2o34b2o7b2o1712b2obo3bo6b2o2b2ob2o5b2ob2o26b2obobo285b2o17bo2b2ob3o2bo91bo3b2o5b2obo95b$117b2o12b3ob2o8b2o14b5o117bobo33b2o1721b2obo2bo56bo312b2o98b2o2b2obobo7b2o8b2o77b$113b2obobo11bo3bobob4o23bo110b2o7bo1758b2o32b2o30b2o304b2o4b2o98b2obo8bobo7bo2bo76b$111bo2bobo13b4obo2bo3bo20bo111bo2bo6bob2o1756bobo30b2o7b2o2b2o18bo272b2o30bo5b2o100bo2bo2b2o2b2o9b2o77b$111b2o2b2o16bobo5b2o20b2o111b2o6b2obobo10b2o1745b4o22bo13bo4bo7b2o9bobo270bo122bobo15bobo2b2o92b$124b2o4b2obob2o22bo129bo9b4o1742b6o14b2o4b2obo14bo2bobo5b2o10b2o267b2obo122bobo15bo98b$124b2o4b2obo23b3o112b2o8bo2b3obobo5b2ob2obo1761b2o4b2o15b2o3b2o22bo263bo2b3o4b2o20b2o86b2o4b3o15bo22b2o74b$132b2o22bo101b2o11bo2bob2o4bob4o2bobo4bobo3b3o1769b3o2b2o5bo28bobo263b2o3bo3b2o19bo2bo85b2o20bob2o21bo75b$156b2o99bobo11bobo6bo4bo6bo4bobo2bo3bo1764bo2b2o2b2o7b3o26bobo265b4o25bobo106bo2bo23b3o72b$134bo4bo111b2o4bo12b2ob3ob8obo2b3o6b3ob5o1764bo3bo2bo11bo26bo266bo15b2o8b3o2bob2o103b2obob2o22bo72b$124bo9bo3bobo108bo2bo2b2ob4o10bo3bo7bobobo9bobobobo1767bobobo12b2o294b3o12bobo6bo6bobo106bo7b2o20b2o67b$114b3o6b3o5bo2bo3bobo12b2o94b2obobobobo2bo10bob2o4bobobobo2bo6b5ob3o2083bo13bo6b2ob2o108b4obo2bo3bo20bo68b$110b2o11bo2bo3bo2bo5bo12bo2bo96bobobobo12b2ob2o5b2ob2o2b2o6bo3bo2bobo1755b2o5bo314b5o14b2o8b2ob3o104bo3b3ob4o23bo66b$110b2o13b2o3b2obobo17b2o97bobob2o39b3o3bobo1755bo5bo2bo5bo26b2o278bo23b4ob3o3bo96b2o6b3ob2o8b2o14b5o66b$122b3o8b2obo116bo45bob2ob2o1756b3o2bo4bo30bo281bo20bo3bo2bob4o11b2o83b2o10b2ob2o6bo13bo71b$122b2o6b3o3bo110b2o30b2o19b4o1760bo5bo5bo6b3o18b3o277b2o20b2o7bo14bobob2o66b2o2b2o14bobo6bo6bobo12b3o68b$121bobo6bo2b3o111bo18b2o2b2o7bobo19b2o1759b2o7bo4bo6bo22bo282bo22b2obob2o13bobo2bo64bo2bobo14b2obo2b3o8b2o15bo67b$122bo10bo111bobo9b2o7bo4bo9bo1780bo9bo2bo10b2o301b3o23bo2bo13b2o2b2o66b2obobo15bobo25b4o67b$121bo5b2o116b2o10b2o5bobo2bo11b2o9b2o1770bo14b3o4b2o304bo21b2obo5b2o83b2o15bo2bo19b2o3bo3b2o65b$112bo14b2o112bo22b2o3b2o7b2o2b2o8b2o1769b2o7bobo11b2o20b2o281b2o22bo7b2o101b2o20b2o4b3o2bo64b$112bobo125bobo29bo5b3ob2o1788b2o11bo21bobo299bo5bo140bob2o64b$115b2o123bobo26b7o2b2o2b2o1823bo7b2o291bobo2bobo140bo67b$112bo2b2o124bo26bo2bob3o1828b2obo6bo2bo276b2o12bobo2bo2bo5bo94b2o5bo30b2o67b$111b4o153b2o4b2o1827bobob2o6b2o276bo2bo12bo5bob2o3b3o8bo81bo2bo4bo100b$111bo2b3o1977b2o7bo290b2o17bobob2o4b2o8bo90bo2b2o95b$109b2obo3bo179b2o1791b2o2bo7bobob3o2bo8b2o25b2o264bob2o17bo3b2o82b2obobo2bo17b2o75b$102b2o5bo2bo141b2o22b4ob2o12bo1791b2o2bo6bobo2b4obo4b2obo2bo24bobo263bo3b3o18b2o76bo4b2o2b2o4bo16bo76b$97b3o2bobo4b3o10b2o2b2o127bo21b5obo3bo6b3o1796b2o5bo6bo4bo6bobo26bo4b2o258b3o2bo97bo2bobob2o23b3o20b2o51b$97bo2b3obo17bobo2bo124b3o23bo2bo5bo6bo1801bo4b3o2bob8ob3ob2o21b4ob2o2bo2bo258bo101b2o2bo28bo16b2obobo51b$96bob3obob2o14bobob2o126bo20bo5b3o5bo7b2o1795bobobo7bobobo7bo3bo23bo2bobobobob2o365bo4bo2bo12b2o20bo2bobo53b$95b3o2b4o2bo13b2o150bobo5bo15bo1794b2o3bo6bo2bobobobo4b2obo26bobobobo270b3ob3o90bo5b2o14bobob2o16b2o2b2o53b$95b3o7b3o19bo145bo20bo1795bo3b2o7b2o2b2ob2o5b2ob2o26b2obobo266b2o2bo5bo114bobo2bo27b2o44b$96bo2b4o2b3o17b3o121b2o34b2o7b2o1794bobobo57bo267b2o2bo5bo114b2o2b2o27b2o44b$85b2o10b2obob3obo17bo124bobo33b2o1803bo34b2o30b2o266bo3bo194b$81b2obobo11bob3o2bo18b2o116b2o7bo1840b2o31b2o7b2o2b2o18bo267b3o195b$79bo2bobo13bobo2b3o135bo2bo6bob2o1838bo2b2o36bo4bo7b2o9bobo463b$79b2o2b2o14b2o141b2o6b2obobo1837bo2b2o14b2o22bo2bobo5b2o10b2o382b3o78b$92b2o38b2o7b2o107bo2bobo7b2o1826b2o19b2o21b2o3b2o22bo377bo3bo77b$92b2o39bo7b2o95b2o9b2o2bobobo7bo2b2o1856b3o5bo28bobo265bo110bo3b4o14b2o58b$133bob2o83b2o15bo2bo6bob2o2b2obobo6bo2b2o1864b3o26bobo265bobo11b2o93b2ob3ob4o13b2o5b2o51b$103b2o20b2o4b3o2bo82bobo15bobo6bo6bobo2bo5b2o1871bo26bo256b2o2b2o6bo10bobo2b3o87bobo5bobobo18bo53b$102bo2bo19b2o3bo3b2o4bo72b2o4bo16b2ob12ob2ob3o4bo1873b2o283bo2bobo11b2o4bob3o2bo87bo7bo2b2o19b2o51b$83bo18bobo25b4o5bobo69bo2bo2b2ob4o14bo3b3o5bobobo7bobobo1853b2o301b2obobo9b2o3b2obob3obo86b2obo3bo22b2o53b$83bo15b2ob2ob3o8b2o15bo6bo70b2obobobobo2bo14bobobo5bobobo2bo6bo3b2o1840b2o10b2o36bo268b2o13bo2b4o2b3o87b2o3b2o19bo2bo53b$78b2o3bo15bobo2bo3bo6bobo12b3o4b3o74bobobobo16b2ob2o5b2ob2o2b2o7b2o3bo1839bo10bo30b2o7b2o260bo19b3o7b3o113bo13b2o41b$78b2o22b3ob3o6bo13bo7bo76bobob2o44bobobo1840b3o8b2o7b2o19bo7b2o261b3o17b3o2b4o2bo113bo3bo6bo3b2o41b$100b3o11b2o14b5o80bo52bo1842bo8b2o7b4o18b3o270bo17bob3obob2o10b2o69b2o32b3o7bo46b$84b3o12bo5bob4o23bo74b2o30b2o22b2o1842b2o17bo3bo20bo269b2o18bo2b3obo11bobob2o65b2o3bo38bo46b$84bo4b5o5b4ob4o3bo20bo76bo18b2o2b2o7b2o18b2o2bo1843bo18b5o310b3o2bobo13bobo2bo68bo85b$82b2ob2o6b3o6bobo5b2o20b2o73bobo9b2o7bo4bo27b2o2bo1845bo16b2o318b2o14b2o2b2o68bo85b$82bo8bo4bo2b2obob2o22bo78b2o10b2o5bobo2bo22b2o10b2o1842b2o7b2o34b2o258b2o38b2o167b$82bobo4b5ob2o2bo2bo23b3o74bo22b2o3b2o21b2o1863b2o33bobo258bo39b2o110b3o54b$83b3o14b3o22bo76bobo28bo5b3o1912bo7b2o248b2obo208b$102bo22b2o75bobo26b3o1917b2obo6bo2bo247bo2b3o4b2o20b2o101b2o27b2o2b2o42b$108bo94bo26bo15b3o1888bo2bo9bobob2o6b2o249b2o3bo3b2o19bo2bo100b2o27bobo2bo42b$88b2o12b3o2bobo111b2o7b2o13bo3bo1891bo8bobo262b4o25bobo87b2o2b2o12bobo3b2o14bobob2o44b$81bo7b2o11b2o3bobo12b2o96b2o23b2o3bo1885bo5bo5bobob3o2bo8b2o25b2o220bo15b2o8b3o2bob2o13bobo68bo2bobo11bo2bo2bo2bo13b2o48b$80bobo16bo2bo5bo12bo2bo97bo28bo6b2o1876b2o4bo4bobo2b2ob3o7bo2bo24bobo220b3o12bobo6bo6bobo16bo2b2o65b2obobo8bo9bo20bo42b$81bo8bo8b2obobo17b2o92b2o30bo2bo7bo1881bo5bo6bo6b3o2bobo26bo4b2o217bo13bo6b2ob2o17bo3bo2b2o69b2o7b4o4bo2bo18b3o42b$90b2o2b2o6b2obo111bo33bo4b3o1881bo7b3o2bob5o4b3ob2o21b4ob2o2bo2bo210b5o14b2o8b2ob3o13b2o83b2o3b4o3b2o17bo45b$90bobo2bo3b3o3bo108b3o18bo9b2o3bo5bo1882b4obo6bobobo3bo7bo23bo2bobobobob2o210bo23b4ob3o3bo12b2o83bo2bo4b4o19b2o44b$66b2o4b2o14bobob2o5bo2b3o109bo20bo9bo3bo7b2o1880bo3bo6bo2bobob2o4bobobo26bobobobo215bo20bo3bo2bob4o13bo83bo9bo66b$66b3o3b2o14b2o12bo132bo10b3o9bo1878bo3bo8b2o2b2ob2o5b2ob2o26b2obobo214b2o20b2o7bo16b2o2bo72b2o5bo2bo2bo2bo67b$65bo3bo2b2o21bo151b2o7bo1879bob4o57bo220bo22b2obob2o2bo10bo2bo69b2obobo6b2o3bobo30b2o36b$62bob4o3b3o19b3o115b2o34b2o7b2o1882bo31b2o30b2o214b3o23bo2bo2b2o3bo4b2o4bo65bo2bobo47bo36b$62bo10bo18bo118bobo33b2o1890bo31bobo7b2o2b2o18bo217bo21b2obo8bo7bobo66b2o2b2o47bob2o33b$62b3o3b4obo18b2o110b2o7bo1924bo4b2o26bo9bo4bo7b2o9bobo214b2o22bo10bo8bo80b2o8b2o20b2o4b3o2bo33b$62b2o2bo3bo132bo2bo6bob2o1921bo5bo14b2o9b2obo9bo2bobo5b2o10b2o232bo5bo100b2o7bo2bo19b2o3bo3b2o34b$62b2o3b3o134b2o6b2obobo9bo2bo1908bo19b2o9bo2bo8b2o3b2o22bo227bobo2bobo109bobo25b4o36b$62b2o4b2o30b2o113bobo8bo1913bo2bo26bob2o7bo28bobo212b2o12bobo2bo2bo105b2obo2b3o8b2o15bo36b$101bo98b2o8bo2b3obobo5bo5bo1938bo2bo4bob4o26bobo211bo2bo12bo5bob2o103bobo6bo6bobo12b3o37b$101bob2o82b2o10bo2bo7b3ob2o2bobo3b2obobob3o1936bo2bo3b2o5bo26bo213b2o17bobob2o108b5o6bo13bo40b$71b2o20b2o4b3o2bo81bobo10bobo2b3o6bo6bo4bo3b2o3bo1942bo5b2o258bob2o6b2o2b2o95b3ob2o8b2o14b5o35b$70bo2bo19b2o3bo3b2o76b2o4bo11b2ob3o4b5obo2b3o5bo2bobobobo2208bo3b3o3bo2bobo74b2o18bo3bobob4o23bo35b$70bobo25b4o76bo2bo2b2ob4o9bo7bo3bobobo1938b2o12bobo272b3o2bo5b2obobo14b2o4b2o50b2o4b3o11b4obo2bo3bo20bo37b$53b2o12b2obo2b3o8b2o15bo76b2obobobobo2bo9bobobo4b2obobo2bo6bobobobo2bo1921bo13bobo2bo22b2o247bo12b2o14b2o3b3o56bobo14bobo5b2o20b2o36b$49b2obobo12bobo6bo6bobo12b3o80bobobobo11b2ob2o5b2ob2o2b2o6bo3b2o3bo1922b3o10b2o2b2o22bo255bo21b2o2bo3bo55bobo11b2obob2o22bo41b$47bo2bobo19b2ob2o6bo13bo83bobob2o38b3obobob2o1923bo5b3o4bo2bo23b3o252b3o19b3o3b4obo66b2obo23b3o41b$47b2o2b2o15b3ob2o8b2o14b5o79bo44bo5bo1922b2o13b3o26bo9b2o244bo18bo10bo68b2o22bo44b$60b2o5bo3b3ob4o23bo73b2o30b2o22bo1923bo52bo2bo242b2o18bob4o3b3o63b2o27b2o43b$60b2o5b4obo2bo3bo20bo75bo8b3o7b2o2b2o7b2o18bo2bo1926bo50bo2bo265bo3bo2b2o59bo3b2o5bo66b$70bo7b2o20b2o72bobo7bo3bo6bo4bo16b2o1938b2o7b2o34b2o6b2o267b3o3b2o51b2o6bo10bo3b2o61b$67b2obob2o22bo77b2o8bo3bo4bobo2bo17b2o3b2o1943b2o33bobo243b2o30b2o4b2o49bo9bo7bo2bo3b2o2b2o9b2o46b$67bo2bo23b3o73bo11b2o5b2o2b2o3b2o16b2o3b2o1978bo245bo88b3o14bo2bo8bobo7bo2bo45b$51bo8b2o6bob2o21bo75bobo9bo4bo4bo8bo8b2o5b3o1979b2obo7b2o233b2obo88bo16b2obobo7b2o8b2o46b$51bo5bo12bo22b2o74bobo9bo3bobo3bo6b3o6b2obo7bo1978bobob2o6b2o233bo2b3o4b2o20b2o58bo19b2obo64b$46b2o3bo5bobo2bo7bo99bo10bob2obo4bo5bo9b2o1975b4o9bo247b2o3bo3b2o19bo2bo56bobo15b3o3bo64b$46b2o11b3o8bobo2b2o3b2o106b3o6b2o8b2obo1972bo3bo7bobob3o2bo8b2o25b2o205b4o25bobo57bo16bo2b3o65b$57bo11bo2bo2b2o2bo2bo7b2o117b2o1972bo4bo5bobo2b4obo4b2obo2bo24bobo204bo15b2o8b3o2bob2o63b2o2b2o5bo67b$58bo8b2obo8bo2bo6bo2bo132b2o1957bobob2o4bo6bo4bo6bobo26bo4b2o199b3o12bobo6bo6bobo63bobo2bo73b$67b2obobo7b2o8b2o91b2o41bo1961bobo4b3o2bob8ob3ob2o21b4ob2o2bo2bo200bo13bo6b5o44bobo3b2o14bobob2o75b$56b2o12b2obo110bo31bo6b3o1961b2o2bo6bobobo7bo3bo23bo2bobobobob2o195b5o14b2o8b2ob3o39bo2bo2bo2bo13b2o79b$56bo6b2o2b3o3bo107b3o32bo6bo1959b2o2bo9bo2bobobobo4b2obo26bobobobo198bo23b4obobo3bo37bo9bo20bo73b$63b2o2bo2b3o108bo19b3o12bo7b2o1961bo2b2o5b2o2b2ob2o5b2ob2o26b2obobo200bo20bo3bo2bob4o11b2o23b4o4bo2bo18b3o73b$70bo154bo1957bo2b2o58bo200b2o20b2o5bobo14bobob2o17b2o3b4o3b2o17bo76b$223bo1960bobo32b2o30b2o199bo22b2obob2o13bobo2bo15bo2bo4b4o19b2o75b$178b2o34b2o7b2o1960b2obobo22b2o4b2o7b2o2b2o18bo199b3o23bob2o13b2o2b2o15bo9bo97b$178bobo33b2o1970bo4bo19b5o12bo4bo7b2o9bobo200bo22b2o6b2o28bo2bo2bo2bo98b$171b2o7bo2006bo3bo14b2o3b2o17bo2bobo5b2o10b2o199b2o30b2o29b2o3bobo30b2o67b$49b3o118bo2bo6bob2o2003b4o15b2o2bo2bo15b2o3b2o22bo218bo78bo67b$34bo3b2o131b2o6b2obobo10b2o2014bo5bo10bo28bobo207b2o3b2o3bo78bob2o64b$33b4o3bo17b2o2b2o115bo2bobo9b4o2013bo6bo9b3o26bobo197b2o7bo2bo2b2o3bo2bo45b2o20b2o4b3o2bo64b$32bo5bobo17bobo2bo103b2o9b2o2bobobo5b2ob2obo2014bobo2bo12bo26bo197bo2bo6bo2bo8bo2bo14bo28bo2bo19b2o3bo3b2o65b$31bo2bo5b2o14bobob2o92b2o10bo2bo6bob2o2b2obobo4bobo3b3o2016b2o11b2o225b2o8b2o7bobob2o14bo28bobo25b4o67b$36bob2o3bo12b2o95bobo10bobo6bo6bobo2bo4bobo2bo3bo2273bob2o17bo3b2o20b2obo2b3o8b2o15bo67b$34b2o3b2o22bo83b2o4bo11b2ob12ob2ob3o6b3ob5o2000b2o271bo3b3o18b2o20bobo6bo6bobo12b3o68b$31bo3b2obo22b3o81bo2bo2b2ob4o9bo3b3o5bobobo9bobobobo2002bo41b2o230b3o2bo6bo5b2o31b2ob2o6bo13bo71b$21b2o10b2o5bo2bo16bo18b2o64b2obobobobo2bo9bobobo5bobobo2bo6b5ob3o2003b3o38bo233bo7bo2bo4b2o27b3ob2o8b2o14b5o66b$17b2obobo11bobo5bo17b2o17b2o67bobobobo11b2ob2o5b2ob2o2b2o6bo3bo2bobo2004bo5b3o31b3o241bo32bo3b3ob4o23bo66b$15bo2bobo13bo3b4o106bobob2o38b3o3bobo2002b2o21bo20bo9b2o225b3o2bo4bo2b2o23b4obo2bo3bo20bo68b$15b2o2b2o14b2o3bo108bo44bob2ob2o2002bo21bobo28bo2bo223bo2bob2o3bo4bo26bo7b2o20b2o67b$28b2o38b2o8bo64b2o30b2o18b4o2006bo20bo29bo2bo223b2o8bo3b2o23b2obob2o22bo72b$28b2o39bo7bobo63bo18b2o2b2o7b2o19b2o2006b2o7b2o34b2o6b2o228bobo32bo2bo23b3o72b$69bob2o5bo62bobo9b2o7bo4bo12b4o2029b2o33bobo237bo5b3o26bob2o21bo75b$39b2o20b2o4b3o2bo2b3o63b2o10b2o5bobo2bo14bo2b2o3b2o2058bo241bo34bo22b2o74b$38bo2bo15b6o3bo3b2o3bo61bo22b2o3b2o12b2o4bo2b2o2055b2obo7b2o231bobo33bo98b$38bobo16bo2bo5b4o66bobo28bo11b2ob3o2059bobob2o6b2o230bo9bo26bobo2b2o92b$18b3o14b2obo2b3o8b2o3bobo9bo66bobo26b3o9bo2b4o2051bo8bobo244bo5bobo24bo2bo2b2o2b2o9b2o77b$14b2o19bobo6bo6bobo12b3o68bo26bo12b4o2049b2o2bo7bobob3o2bo8b2o25b2o199bo9bo9b2o3bo8b2obo8bobo7bo2bo76b$14b2o24b2ob2o6bo13bo98b2o12bo2051b2ob2o6bobo2b2ob3o7bo2bo24bobo194b2o4bo16bo3b4o7b2obobo7b2o8b2o77b$36b3ob2o8b2o14b5o2163b2o5bo6bo6b3o2bobo26bo4b2o188bo2bobo17bobo5bo9b2obo95b$35bo3b3ob4o23bo121b2o2041bo6b3o2bob5o4b3ob2o21b4ob2o2bo2bo188b2obobo14b2o5bo2bo5b3o3bo95b$21b3o3b2o6b4obo2bo3bo20bo81b2o41bo2038b3o2b2o6bobobo3bo7bo23bo2bobobobob2o192b2o12bo3b2obo9bo3b3o96b$20b2obo3bo10bo7b2o20b2o81bo31bo6b3o2039b2obobo6bo2bobob2o4bobobo26bobobobo189bo22b2o3b2o8b2obo98b$19b2obo4b3ob2o2b2obob2o22bo83b3o32bo6bo2040bobob2o7b2o2b2ob2o5b2ob2o26b2obobo189b3o22bob2o3bo7bo99b$20bob2obo2bo3bo2bo2bo23b3o72b2o9bo19b3o12bo7b2o2037b2o2b3o56bo193bo16bo2bo5b2o9bobo97b$21b2ob3o9bob2o21bo74bo2bo52bo2040bo32b2o30b2o186b2o17bo5bobo11bobob2o93b$23bobo5bo6bo22b2o73bo2bo50bo2042b2o31b2o7b2o2b2o18bo206b4o3bo13bobo2bo91b$23bobobobo8bo5bo92b2o6b2o34b2o7b2o2042b2ob2o36bo4bo7b2o9bobo205bo3b2o14b2o2b2o91b$24b3o11bobo2bobo99bobo33b2o2051bo2b2o14b2o22bo2bobo5b2o10b2o176b2o38b2o104b$25bo11bo2bo2bobo12b2o87bo2085bo19b2o21b2o3b2o22bo172bo39b2o104b$35b2obo5bo12bo2bo77b2o7bob2o2116b3o5bo28bobo168b2obo145b$7bo27b2obobo17b2o78b2o6b2obobo2108b3o12b3o26bobo168bo2b3o4b2o20b2o115b$2b2ob2obo17b2o2b2o6b2obo104bo2bobo8bo2098bo2bo15bo26bo170b2o3bo3b2o19bo2bo114b$b2o5bo17bobo2bo3b3o3bo64b2o26b2o9b2o2bobobo5b2o3b2o2093b2o2bo13b2o199b4o25bobo114b$o2bo2bob2o14bobob2o5bo2b3o64bobo25bo2bo6bob2o2b2obobo4b2o3b2o2091b2o3b2o214bo15b2o8b3o2bob2o111b$o3b3o3bo13b2o12bo60b2o4bo27bobo6bo6bobo2bo5bo2088b2o5bo2bo219b3o12bobo6bo6bobo19b2o90b$o9bo20bo65bo2bo2b2ob4o22b2ob12ob2ob3o5bo2bo2086bo6bo2bo31b2o189bo13bo6b5o17b3o4b2o90b$o3b3o3bo18b3o65b2obobobobo2bo24bo3b3o5bobobo7b3obo2087b3o3bo2bo31bo185b5o14b2o8b2ob3o13bobo96b$b2obo2bo2bo17bo71bobobobo27bobobo5bobobo2bo6bo3b2o2088bo4b2o3b2o9bo18b3o182bo23b4obobo3bo12bobo96b$2bo5b2o18b2o70bobob2o27b2ob2o5b2ob2o2b2o7b2o3bo2085b2o6b4obo9bo20bo9b2o173bo20bo3bo2bob4o111b$2bob2ob2o92bo58bob3o2085bo7b2o13bo29bo2bo171b2o20b2o5bobo114b$3bo91b2o30b2o31bo2bo2088bo5b3o42bo2bo176bo22b2obob2o2b2o107b$36b2o57bo18b2o2b2o7b2o33bo2088b2o6bobo34b2o6b2o177b3o23bob2o2b2o3bo103b$37bo55bobo9b2o7bo4bo37b2o3b2o2096b2o33bobo188bo22b2o9bo6b2o95b$37bob2o52b2o10b2o5bobo2bo22b2o15b2o3b2o2131bo189b2o33bo9bo93b$7b2o20b2o4b3o2bo48bo22b2o3b2o7bo13b2o20bo2129b2obo7b2o198bo4bo19b3o93b$6bo2bo19b2o3bo3b2o48bobo28bo6bo2164bobob2o6b2o197bobo3bo21bo93b$6bobo25b4o50bobo26b3o6bo2155bo8bo196b2o12bobo3bo2bo18bo93b$3b2ob2ob3o8b2o15bo51bo26bo2160b2o3b2o5bobob3o2bo8b2o25b2o151bo2bo12bo5bo2bo16bobo92b$3bobo2bo3bo6bobo12b3o79b2o2159b2o3b2o4bobo2b4obo4b2obo2bo24bobo151b2o17bobob2o17bo93b$6b7o6bo13bo98b2o2148bo5bo6bo4bo6bobo26bo4b2o163bob2o6b2o2b2o102b$4b3o11b2o14b5o93bob2o8b2o2134bo2bo5b3o2bob8ob3ob2o21b4ob2o2bo2bo161bo3b3o3bo2bobo102b$3bo7b4o23bo63b2o30b2o9bo2134bob3o7bobobo7bo3bo23bo2bobobobob2o162b3o2bo5b2obobo14b2o3bobo78b$3b4ob4o3bo20bo66bo28bob2o6b3o2134b2o3bo6bo2bobobobo4b2obo26bobobobo167bo12b2o13bo2bo2bo2bo77b$6bob2o4b2o20b2o62b3o21bobo5b2o8bo2135bo3b2o7b2o2b2ob2o5b2ob2o26b2obobo174bo20bo9bo76b$3b2obo25bo56b2o9bo20b2o20b2o2133b3obo57bo175b3o18bo2bo4b4o75b$3bo2bobo21b3o55bo2bo28bo5bo17bo2134bo2bo30b2o30b2o172bo17b2o3b4o3b2o73b$6b2o21bo58bo2bo29bo3bo16bo2137bo32b2o7b2o2b2o18bo171b2o19b4o4bo2bo73b$6bo22b2o58b2o6b2o23bo10b2o7b2o2135b2o3b2o36bo4bo7b2o9bobo191bo9bo73b$5b2o90bobo33b2o2144b2o3b2o14b2o22bo2bobo5b2o10b2o192bo2bo2bo2bo73b$5b2o4b2o3b2o81bo2180bo19b2o21b2o3b2o22bo157b2o30bobo3b2o74b$4b3o4b2o2bo2bo7b2o62b2o7bob2o2211b3o5bo28bobo156bo113b$3bo2bo8bo2bo6bo2bo61b2o6b2obobo10b2o2206b3o26bobo153b2obo113b$3b2obobo7b2o8b2o70bo2bobo9b4o2208bo26bo154bo2b3o4b2o20b2o83b$6b2obo76b2o9b2o2bobobo6b2obobo2206b2o182b2o3bo3b2o19bo2bo82b$3b3o3bo54b2o19bo2bo6bob2o2b2obobo4b2o3b2o2392b4o25bobo82b$3bo2b3o54bobo19bobo6bo6bobo2bo5bo2183b2o10bobo199bo15b2o8b3o2bob2o79b$6bo50b2o4bo20b2ob12ob2ob3o4bo2185bo11bobo27b2o171b3o12bobo6bo6bobo79b$55bo2bo2b2ob4o18bo3b3o5bobobo8b3o2183b3o9bob2obo23bo175bo13bo6b2ob2o84b$55b2obobobobo2bo18bobobo5bobobo2bo5b2o2b2o2184bo11bo3bo23b3o167b5o14b2o8b2ob3o80b$58bobobobo20b2ob2o5b2ob2o2b2o8b2o2b2o2179b2o16bo4bo20bo9b2o156bo23b4ob3o3bo79b$22b2o34bobob2o49b3o2181bo14b2obo3bobo28bo2bo157bo20bo3bo2bob4o11b2o66b$22b2o35bo56bo2182bo14bo5bo29bo2bo156b2o20b2o7bo14bobob2o62b$53b2o30b2o27bo2183b2o7b2o34b2o6b2o162bo22b2obob2o13bobo2bo60b$53bo18b2o2b2o7bobo21b2o3b2o2191b2o33bobo170b3o23bo2bo13b2o2b2o60b$21bo29bobo9b2o7bo4bo9bo21bobob2o2227bo175bo21b2obo5b2o73b$20bobo28b2o10b2o5bobo2bo9bob2o9b2o10b4o2225b2obo7b2o165b2o22bo7b2o73b$21bo25bo22b2o3b2o8bo2bo9b2o11b2o2213b2o10bobob2o6b2o189bo82b$18b3o25bobo28bo7b2obo2236b4o9bobo189b2o3b2o2bobo82b$18bo27bobo26b4obo4bo2bo2235bobob2o6bobob3o2bo8b2o25b2o137b2o7bo2bo2b2o2bo2bo81b$47bo26bo5b2o3bo2bo2235b2o3b2o4bobo2b2ob3o7bo2bo24bobo135bo2bo6bo2bo8bob2o79b$74b2o5bo2247bo5bo6bo6b3o2bobo26bo4b2o130b2o8b2o7bobob2o79b$2331bo4b3o2bob5o4b3ob2o21b4ob2o2bo2bo146bob2o21b2o59b$87bobo12b2o2224b3o8bobobo3bo7bo23bo2bobobobob2o146bo3b3o18b2o59b$60b2o22bo2bobo13bo2223b2o2b2o5bo2bobob2o4bobobo26bobobobo150b3o2bo12b2o65b$61bo22b2o2b2o10b3o2221b2o2b2o8b2o2b2ob2o5b2ob2o26b2obobo152bo15bobo64b$58b3o18bo4bo2bo4b3o5bo2148b4o73b3o58bo169bo66b$47b2o9bo20bo5b3o13b2o2145bo3bo72bo34b2o30b2o164bob2o62b$46bo2bo29bo22bo2145bo4bo73bo32b2o7b2o2b2o18bo152b2o10bo2b2o61b$46bo2bo50bo2148bobob2o71b2o3b2o18b2o16bo4bo7b2o9bobo150b2o3bo7bo2bo61b$47b2o6b2o34b2o7b2o2151bobo71b2obobo14b2o3b2o17bo2bobo5b2o10b2o155bo7bobo62b$55bobo33b2o2159b2o2bo71b4o15b2o3b2o5b3o8b2o3b2o22bo151bo7b3o62b$57bo2166b2ob2o5b2ob2o2b2o5b2o2bo76b2o28bo2bo6bo28bobo223b$48b2o7bob2o2164bob2o4bobobobo2bo9bo2b2o102bo3bo5b3o26bobo223b$48b2o6b2obobo2163bo3bo7bobobo6bo2b2o110bo8bo26bo224b$61bo7b2o2152b2ob3ob8obo2b3o4bobo107bo3bo7b2o186b3o62b$44b2o8bo2b3obobo7bo2b2o2148bobo6bo4bo6bo4b2obobo103bo2bo208bo4b2o46b$24b2o17bo2bob2o4bob4o2bobo6bo2b2o2148bo2bob2o4bob4o2bobo5bo4bo86b2o14b3o185b2o2b2o17bob2ob3o46b$23bobo17bobo6bo4bo6bo5b2o2153b2o8bo2b3obobo7bo3bo86bo41b2o160bo2bobo17bo7bo45b$17b2o4bo18b2ob3ob8obo2b3o4bo2173bo9b4o88b3o38bo163b2obobo14b2ob2o50b$15bo2bo2b2ob4o16bo3bo7bobobo7bobobo2156b2o6b2obobo103bo5b3o12bo18b3o164b2o14bo2bo3bo47b$15b2obobobobo2bo16bob2o4bobobobo2bo6bo3b2o2155b2o7bob2o102b2o21bo20bo9b2o147bo22bo5bo47b$18bobobobo18b2ob2o5b2ob2o2b2o7b2o3bo2163bo105bo22bo29bo2bo146b3o20bo3bo2bo46b$18bobob2o46bobobo2161bobo33b2o72bo50bo2bo149bo22b2ob2o10b2o34b$19bo54bo2153b2o6b2o34b2o7b2o62b2o7b2o34b2o6b2o149b2o17bo7bo11bobob2o30b$13b2o30b2o24b2o2154bobo30bo20bo72b2o33bobo177b3ob2obo13bobo2bo28b$13bo18b2o2b2o7b2o20b2o2bo2155b2o30bobo21bo105bo179b2o4bo14b2o2b2o28b$11bobo9b2o7bo4bo29b2o2bo2167bo20bo21b2o102b2obo7b2o142b2o38b2o41b$11b2o10b2o5bobo2bo22b2o12b2o2165b3o31b3o5bo103bobob2o6b2o142bo39b2o41b$7bo22b2o3b2o21b2o2182bo38b3o88bo12bo152b2obo82b$6bobo28bo5b3o2195b2o41bo86bob4o6bobob3o2bo8b2o25b2o108bo2b3o4b2o20b2o52b$6bobo26b3o2228b3o14b2o84b3ob2obo5bobo2b4obo4b2obo2bo24bobo108b2o3bo3b2o19bo2bo15b3o33b$7bo26bo2230bo2bo99bo4bo4bo3bo6bo4bo6bobo26bo4b2o104b4o25bobo14bo3bo32b$34b2o2219b2o7bo3bo99bob3obo3bo4b3o2bob8ob3ob2o21b4ob2o2bo2bo102bo15b2o8b3o2bob2o10bo5bo31b$50b2o2176bo26bo8bo107bobo11bobobo7bo3bo23bo2bobobobob2o103b3o12bobo6bo6bobo9bo3bo3b4o27b$50b2o10b2o2163bobo26b3o5bo3bo99bo3bob3obo6bo2bobobobo4b2obo26bobobobo109bo13bo6b2ob2o14bo7b4o27b$20b2o30bo10bo2163bobo28bo6bo2bo99bo4bo4bo6b2o2b2ob2o5b2ob2o26b2obobo104b5o14b2o8b2ob3o10bobo3bobo30b$21bo20bo7b2o8b3o2165bo22b2o3b2o8b3o5b2o3b2o89bob2ob3o56bo105bo23b4ob3o3bo10b2o3b2o31b$18b3o20b2o7b2o8bo2171b2o10b2o5bobo2bo17b2o3b2o8b4o66bo10b4obo31b2o30b2o101bo20bo3bo2bob4o48b$7b2o9bo21bo2bo17b2o2169bobo9b2o7bo4bo16b2o11bo3bo67bo2b2o9bo32b2o7b2o2b2o18bo100b2o12bo7b2o7bo51b$6bo2bo31b2o19bo2171bo18b2o2b2o7b2o20bo4bo66b2ob2o36bo14bo4bo7b2o9bobo103bo9b2o11b2obob2o2b2o44b$6bo2bo32bo17bo2173b2o30b2o21bobob2o64b2o33b2o4bo2bo14bo2bobo5b2o10b2o103b3o6b2o15bo2bo2b2o3bo40b$7b2o6b2o34b2o7b2o2178bo52bobo63bo34b2o3bo2bo4b2o8b2o3b2o22bo102bo21b2obo8bo40b$15bobo33b2o2186bobob2o47b2o2bo59b2o2b3o37bo8bo6bo28bobo100b2o22bo10bo40b$17bo2221bobobobo18b2ob2o5b2ob2o2b2o5b2o2bo64bobob2o7b2o2b2ob2o5b2ob2o14bo12b3o26bobo118bo5bo51b$8b2o7bob2o2215b2obobobobo2bo16bob2o4bobobobo2bo9bo2b2o61b2obobo6bo2bobobobo4b2obobo11b6o2bo9bo26bo118bobo2bobo51b$8b2o6b2obobo2214bo2bo2b2ob4o16bo3bo7bobobo6bo2b2o65b3o2b2o6bobobo7bo3bo2bo10bo3b3o10b2o131b2o12bobo2bo2bo19bo30b$19bobo9b4o2203b2o4bo18b2ob3ob8obo2b3o4bobo69bo6b3o2bob8ob3obobo159bo2bo12bo5bob2o16bobo29b$4b2o8bo2b3obobo6bo4bo2208bobo17bobo6bo4bo6bo4b2obobo64b2o5bo6bo4bo6bobob2o159b2o17bobob2o17bo9b2o19b$3bo2bo7b3ob2o2bobo4b2o4b3o2207b2o17bo2bob2o4bob4o2bobo5bo4bo59b2ob2o6bobo2b4obo4b2obo2bobo41b2o135bob2o6b2o2b2o17bobo2b3o14b$3bobo2b3o6bo6bo4bobo6bo2226b2o8bo2b3obobo7bo3bo59b2o2bo7bobob3o2bo8b2o3b3o18b2o18bo136bo3b3o3bo2bobo17bob3o2bo14b$2b2ob3o4b5obo2b3o8bob2obo2244bo9b4o65bo8bo22bo5b3o10bo20b3o134b3o2bo5b2obobo14b2obob3obo13b$4bo7bo3bobobo8bo2bobo2bo2231b2o6b2obobo87bobob2o6b2o7b2o19bob3o18bo9b2o125bo12b2o13bo2b4o2b3o12b$4bobobo4b2obobo2bo7bob2obo2234b2o7bob2o74bo14b2obo7b2o7bo21bo2bo27bo2bo131bo19b3o7b3o12b$3b2ob2o5b2ob2o2b2o6bo6bobo2240bo78bo16bo18bo14b3o3bo2bo26bo2bo131b3o17b3o2b4o2bo13b$29b3o4b2o2238bobo33b2o25b2o15bo17bobo15b2o7bo12bobo20b2o6b2o135bo17bob3obob2o14b$31bo4bo2231b2o6b2o33bobo7b2o7b2o7b2o34b2o6b2o16b2o12bo20bobo142b2o18bo2b3obo15b$32b4o2231bobo51bo9bo51bobo50bo164b3o2bobo15b$2267b2o31bo9bo2bo9bo5bo54b2o47b2obo7b2o160b2o16b$2279bo20bo8bo4bo7b2o5b2o42bo58bobob2o6b2o127b2o49b$2279b3o18bo8bo5bo5bo9bo5b3o13b2o16b3o49b2o7bobo138bo50b$2282bo30bo4bo2b3o5b3o38bo47b2o2bo7bobob3o2bo8b2o25b2o93b2obo50b$2281b2o26bo5bo2bo5bo3bo23b2o16b2o46b2o2bo6bobo2b2ob3o7bo2bo24bobo92bo2b3o4b2o20b2o20b$2317bo5b2o3b2o14b3o75b2o5bo6bo6b3o2bobo26bo4b2o87b2o3bo3b2o19bo2bo19b$2344bo2bo77bo4b3o2bob5o4b3ob2o21b4ob2o2bo2bo87b4o25bobo19b$2295b2o12bobobo30bo3bo7b2o63bobobo7bobobo3bo7bo23bo2bobobobob2o87bo15b2o8b3o2bob2o16b$2268bo26bo11bo2bo3bo33bo8bo26bo35b2o3bo6bo2bobob2o4bobobo26bobobobo91b3o12bobo6bo6bobo16b$2267bobo26b3o7b2o2b2o2bo29bo3bo5b3o26bobo33bo3b2o7b2o2b2ob2o5b2ob2o26b2obobo94bo13bo6b5o21b$2267bobo28bo5b2o2b3o33bo2bo6bo28bobo33bobobo57bo90b5o14b2o8b2ob3o17b$2268bo22b2o3b2o15b2o4b2o3bo7b2o3b2o5b3o8b2o3b2o22bo34bo34b2o30b2o84bo23b4obobo3bo16b$2272b2o10b2o5bobo2bo14bob2o4b2o4bo2b2o2b2o3b2o17bo2bobo5b2o10b2o40b2o31b2o7b2o2b2o18bo86bo20bo3bo2bob4o16b$2272bobo9b2o7bo4bo13bo12b2ob2o6b2o16bo4bo7b2o9bobo41bo2b2o36bo4bo7b2o9bobo83b2o20b2o5bobo19b$2274bo18b2o2b2o7b2o16b2o19b2o7b2o2b2o18bo43bo2b2o14b2o22bo2bobo5b2o10b2o88bo22b2obob2o16b$2274b2o30b2o16bo20b2o30b2o41b2o19b2o21b2o3b2o22bo84b3o23bob2o16b$2280bo40b2o2b3o44bo82b3o5bo28bobo86bo22b2o18b$2279bobob2o37bobob2o7b2o2b2ob2o5b2ob2o14b2obobo89b3o26bobo85b2o42b$2279bobobobo37b2obobo6bo2bobob2o4bobobo14bobobobo92bo26bo109bo20b$2276b2obobobobo2bo34b3o2b2o6bobobo3bo7bo11bo2bobobobob2o88b2o126b2o3b2o3bo20b$2276bo2bo2b2ob4o37bo6b3o2bob5o4b3ob2o9b4ob2o2bo2bo72b2o132b2o7bo2bo2b2o3bo2bo17b$2278b2o4bo40b2o5bo6bo6b3o2bobo14bo4b2o62b2o9bobo131bo2bo6bo2bo8bo2bo16b$2284bobo34b2ob2o6bobo2b2ob3o7bo2bo12bobo68bo9b2o30b2o102b2o8b2o7bobob2o16b$2285b2o34b2o2bo7bobob3o2bo8b2o13b2o70b3o7bobo28bo121bob2o19b$2326bo8bobo102bo8b2o6b2o21b3o118bo3b3o16b$2335bobob2o6b2o89b2o16b3o3bo19bo9b2o108b3o2bo16b$2336b2obo7b2o89bo17b6o29bo2bo109bo19b$2339bo100bo18b3o29bo2bo129b$2304b2o33bobo97b2o7b2o34b2o6b2o130b$2295b2o7b2o34b2o6b2o98b2o33bobo138b$2296bo20bo30bobo132bo140b$2294bo21bobo30b2o129b2obo7b2o131b$2294b2o21bo20bo127bo2bo9bobob2o6b2o131b$2296bo5b3o31b3o131bo8bo144b$2294b3o38bo129bo5bo5bobob3o2bo8b2o25b2o100b$2293bo41b2o128b2o4bo4bobo2b4obo4b2obo2bo24bobo99b$2293b2o175bo5bo6bo4bo6bobo26bo4b2o93b$2309b2o158bo7b3o2bob8ob3ob2o21b4ob2o2bo2bo91b$2309b2o10b2o145b4obo6bobobo7bo3bo23bo2bobobobob2o91b$2311bo10bo26bo118bo3bo6bo2bobobobo4b2obo26bobobobo94b$2301bo7b2o8b3o26bobo115bo3bo8b2o2b2ob2o5b2ob2o26b2obobo94b$2298bob2o7b2o8bo28bobo114bob4o57bo95b$2297bo4bo17b2o3b2o22bo119bo31b2o30b2o89b$2297bo3bo19bo2bobo5b2o10b2o122bo31bobo7b2o2b2o18bo89b$2298b4o17bo4bo7b2o9bobo121bo4b2o26bo9bo4bo7b2o9bobo87b$2310b2o7b2o2b2o18bo123bo5bo14b2o8bob2o10bo2bobo5b2o10b2o87b$2310b2o30b2o124bo19b2o13bo7b2o3b2o22bo83b$2337bo131bo2bo24bo3bo2bo2bobo29bobo82b$2333b2obobo159b4obo2bo4b2o26bobo82b$2332bobobobo166bo4bo2bo26bo83b$2329bo2bobobobob2o164bobo3b2o110b$2329b4ob2o2bo2bo282b$2333bo4b2o144b2o15b2o121b$2331bobo150bo12b2obo3bo21b2o96b$2331b2o152b3o9b2o5bo21bo97b$2487bo5b3o8bo22b3o94b$2485b2o13bobo26bo9b2o83b$2485bo14b3o35bo2bo82b$2487bo50bo2bo82b$2486b2o7b2o34b2o6b2o83b$2495b2o33bobo91b$2530bo93b$2527b2obo7b2o84b$2526bobob2o6b2o84b$2513b4o9bobo95b$2512bo4bo6bobob3o2bo8b2o80b$2510b3o4b2o4bobo2b2ob3o7bo2bo79b$2509bo6bobo4bo6bo6b3o2bobo79b$2510bob2obo8b3o2bob5o4b3ob2o78b$2510bo2bobo2bo8bobobo3bo7bo80b$2513bob2obo7bo2bobob2o4bobobo80b$2510bobo6bo6b2o2b2ob2o5b2ob2o79b$2510b2o4b3o105b$2511bo4bo107b$2512b4o108b$2624b$2624b$2624b$2624b$2622b2o$2603b2o18bo$2603b2o15b3ob$2620bo3b$2621b2ob$2600b2o14b2o4bob$2600bobob2o10b2o3bo2b$2598bobob2obo15b2ob$2598b2o24b!