x = 11974, y = 45755, rule = B3/S23
26bo11910bo36b$24bo3bo11906bo3bo34b$29bo11904bo39b$24bo4bo11904bo4bo34b$25b5o11904b5o35b$11974b$11974b$11974b$11974b$11974b$11974b$11974b$11974b$11974b$11922bo51b$11922b2o50b$11921bobo50b$11974b$11974b$56bo11917b$55b2o11917b$55bobo11916b$11974b$11974b$11974b$11974b$11974b$11974b$11974b$11974b$11974b$146bo11670bo156b$144bo3bo11666bo3bo154b$149bo11664bo159b$144bo4bo11664bo4bo154b$145b5o11664b5o155b$11974b$11974b$11974b$11974b$11974b$11974b$11974b$11862bo111b$11862b2o110b$11861bobo110b$11974b$11974b$116bo11857b$115b2o11857b$115bobo11856b$11974b$11974b$11974b$11969b3o2b$11969bo2bob$11969bo4b$11969bo3bo$11969bo3bo$11969bo4b$11970bobob$11974b$266bo11430bo276b$264bo3bo11426bo3bo274b$2b3o264bo11424bo268bo10b$bo2bo259bo4bo11424bo4bo262b3o9b$4bo260b5o11424b5o262b2obo9b$o3bo11956b3o10b$o3bo11956b3o10b$4bo11956b3o10b$bobo11958b2o10b$11974b$11802bo171b$11802b2o170b$10bo11790bobo170b$9b3o11962b$9bob2o11961b$10b3o163bo11797b$10b3o162b2o11797b$10b3o162bobo11796b$10b2o11962b$11974b$11974b$11974b$11974b$11974b$11974b$11974b$11974b$11974b$11974b$11974b$11974b$386bo11190bo396b$384bo3bo11186bo3bo394b$389bo11184bo399b$384bo4bo11184bo4bo394b$385b5o11184b5o395b$11974b$11974b$11974b$11742bo231b$11742b2o230b$11741bobo230b$11974b$11974b$236bo11737b$235b2o11737b$235bobo11736b$11974b$11974b$11974b$11974b$11974b$11974b$11974b$11974b$11974b$11974b$11974b$11974b$11974b$11974b$11974b$506bo10950bo516b$504bo3bo10946bo3bo514b$509bo10944bo519b$504bo4bo10944bo4bo514b$505b5o10944b5o515b$11974b$11682bo291b$11682b2o290b$11681bobo290b$11974b$11974b$296bo11677b$295b2o11677b$295bobo11676b$11974b$11974b$11974b$11974b$11974b$11969b3o2b$11969bo2bob$11969bo4b$11969bo3bo$11969bo3bo$11969bo4b$11970bobob$11974b$11974b$11974b$2b3o11958bo10b$bo2bo11957b3o9b$4bo621bo10710bo623b2obo9b$o3bo619bo3bo10706bo3bo621b3o10b$o3bo624bo10704bo626b3o10b$4bo619bo4bo10704bo4bo621b3o10b$bobo621b5o10704b5o283bo339b2o10b$11622b2o350b$11621bobo350b$11974b$10bo11963b$9b3o344bo11617b$9bob2o342b2o11617b$10b3o342bobo11616b$10b3o11961b$10b3o11961b$10b2o11962b$11974b$11974b$11974b$11974b$11974b$11974b$11974b$11974b$11974b$11974b$11974b$11974b$11974b$11974b$11974b$11974b$746bo10470bo756b$744bo3bo10466bo3bo754b$749bo10464bo347bo411b$744bo4bo10464bo4bo342b2o410b$745b5o10464b5o342bobo410b$11974b$11974b$416bo11557b$415b2o11557b$415bobo11556b$11974b$11974b$11974b$11974b$11974b$11974b$11974b$11974b$11974b$11974b$11974b$11974b$11974b$11974b$11974b$11974b$11974b$11974b$11974b$11974b$11974b$866bo10230bo404bo471b$864bo3bo10226bo3bo402b2o470b$869bo10224bo406bobo470b$864bo4bo10224bo4bo874b$865b5o10224b5o875b$476bo11497b$475b2o11497b$475bobo11496b$11974b$11974b$11974b$11974b$11974b$11974b$11974b$11969b3o2b$11969bo2bob$11969bo4b$11969bo3bo$11969bo3bo$11969bo4b$11970bobob$11974b$11974b$11974b$2b3o11958bo10b$bo2bo11957b3o9b$4bo11956b2obo9b$o3bo11956b3o10b$o3bo11437bo518b3o10b$4bo11437b2o517b3o10b$bobo982bo9990bo463bobo518b2o10b$984bo3bo9986bo3bo994b$989bo9984bo999b$536bo447bo4bo9984bo4bo994b$10bo524b2o448b5o9984b5o995b$9b3o523bobo11436b$9bob2o11961b$10b3o11961b$10b3o11961b$10b3o11961b$10b2o11962b$11974b$11974b$11974b$11974b$11974b$11974b$11974b$11974b$11974b$11974b$11974b$11974b$11974b$11974b$11974b$11974b$11382bo591b$11382b2o590b$11381bobo590b$11974b$1106bo9750bo1116b$596bo507bo3bo9746bo3bo1114b$595b2o512bo9744bo1119b$595bobo506bo4bo9744bo4bo1114b$1105b5o9744b5o1115b$11974b$11974b$11974b$11974b$11974b$11974b$11974b$11974b$11974b$11974b$11974b$11974b$11974b$11974b$11974b$11974b$11974b$11974b$11974b$11974b$11322bo651b$11322b2o650b$11321bobo650b$11974b$11974b$656bo11317b$655b2o569bo9510bo1236b$655bobo566bo3bo9506bo3bo1234b$1229bo9504bo1239b$1224bo4bo9504bo4bo1234b$1225b5o9504b5o1235b$11974b$11974b$11974b$11974b$11974b$11974b$11969b3o2b$11969bo2bob$11969bo4b$11969bo3bo$11969bo3bo$11969bo4b$11970bobob$11974b$11974b$11974b$2b3o11958bo10b$bo2bo11957b3o9b$4bo11257bo698b2obo9b$o3bo11257b2o697b3o10b$o3bo11256bobo697b3o10b$4bo11956b3o10b$bobo11958b2o10b$716bo11257b$715b2o11257b$715bobo11256b$10bo1335bo9270bo1356b$9b3o1332bo3bo9266bo3bo1354b$9bob2o1336bo9264bo1359b$10b3o1331bo4bo9264bo4bo1354b$10b3o1332b5o9264b5o1355b$10b3o11961b$10b2o11962b$11974b$11974b$11974b$11974b$11974b$11974b$11974b$11974b$11974b$11974b$11974b$11974b$11974b$11974b$11202bo771b$11202b2o770b$11201bobo770b$11974b$11974b$776bo11197b$775b2o11197b$775bobo11196b$11974b$11974b$1466bo9030bo1476b$1464bo3bo9026bo3bo1474b$1469bo9024bo1479b$1464bo4bo9024bo4bo1474b$1465b5o9024b5o1475b$11974b$11974b$11974b$11974b$11974b$11974b$11974b$11974b$11974b$11974b$11974b$11974b$11974b$11974b$11142bo831b$11142b2o830b$11141bobo830b$11974b$11974b$836bo11137b$835b2o11137b$835bobo11136b$11974b$11974b$11974b$11974b$1586bo8790bo1596b$1584bo3bo8786bo3bo1594b$1589bo8784bo1599b$1584bo4bo8784bo4bo1594b$1585b5o8784b5o1595b$11974b$11974b$11969b3o2b$11969bo2bob$11969bo4b$11969bo3bo$11969bo3bo$11969bo4b$11970bobob$11974b$11974b$11974b$2b3o11077bo880bo10b$bo2bo11077b2o878b3o9b$4bo11076bobo877b2obo9b$o3bo11956b3o10b$o3bo11956b3o10b$4bo891bo11064b3o10b$bobo891b2o11065b2o10b$895bobo11076b$11974b$11974b$10bo11963b$9b3o11962b$9bob2o11961b$10b3o11961b$10b3o1693bo8550bo1716b$10b3o1691bo3bo8546bo3bo1714b$10b2o1697bo8544bo1719b$1704bo4bo8544bo4bo1714b$1705b5o8544b5o1715b$11974b$11974b$11974b$11974b$11974b$11974b$11974b$11974b$11974b$11974b$11022bo951b$11022b2o950b$11021bobo950b$11974b$11974b$956bo11017b$955b2o11017b$955bobo11016b$11974b$11974b$11974b$11974b$11974b$11974b$11974b$11974b$1826bo8310bo1836b$1824bo3bo8306bo3bo1834b$1829bo8304bo1839b$1824bo4bo8304bo4bo1834b$1825b5o8304b5o1835b$11974b$11974b$11974b$11974b$11974b$11974b$11974b$11974b$10962bo1011b$10962b2o1010b$10961bobo1010b$11974b$11974b$1016bo10957b$1015b2o10957b$1015bobo10956b$11974b$11974b$11974b$11974b$11974b$11974b$11974b$11974b$11974b$11974b$1946bo8070bo1956b$1944bo3bo8066bo3bo1954b$1949bo8064bo1959b$1944bo4bo8064bo4bo1949b3o2b$1945b5o8064b5o1950bo2bob$11969bo4b$11969bo3bo$11969bo3bo$11969bo4b$11970bobob$11974b$10902bo1071b$10902b2o1070b$2b3o10896bobo1059bo10b$bo2bo11957b3o9b$4bo11956b2obo9b$o3bo1071bo10884b3o10b$o3bo1070b2o10884b3o10b$4bo1070bobo10883b3o10b$bobo11958b2o10b$11974b$11974b$11974b$10bo11963b$9b3o11962b$9bob2o11961b$10b3o11961b$10b3o11961b$10b3o11961b$10b2o11962b$11974b$2066bo7830bo2076b$2064bo3bo7826bo3bo2074b$2069bo7824bo2079b$2064bo4bo7824bo4bo2074b$2065b5o7824b5o2075b$11974b$11974b$11974b$11974b$10842bo1131b$10842b2o1130b$10841bobo1130b$11974b$11974b$1136bo10837b$1135b2o10837b$1135bobo10836b$11974b$11974b$11974b$11974b$11974b$11974b$11974b$11974b$11974b$11974b$11974b$11974b$11974b$11974b$2186bo7590bo2196b$2184bo3bo7586bo3bo2194b$2189bo7584bo2199b$2184bo4bo7584bo4bo2194b$2185b5o7584b5o2195b$11974b$11974b$10782bo1191b$10782b2o1190b$10781bobo1190b$11974b$11974b$1196bo10777b$1195b2o10777b$1195bobo10776b$11974b$11974b$11974b$11974b$11974b$11974b$11974b$11974b$11974b$11974b$11974b$11974b$11974b$11974b$11974b$11969b3o2b$2306bo7350bo2311bo2bob$2304bo3bo7346bo3bo2309bo4b$2309bo7344bo2314bo3bo$2304bo4bo7344bo4bo2309bo3bo$2305b5o7344b5o2310bo4b$10722bo1247bobob$10722b2o1250b$10721bobo1250b$11974b$2b3o11958bo10b$bo2bo1251bo10705b3o9b$4bo1250b2o10704b2obo9b$o3bo1250bobo10703b3o10b$o3bo11956b3o10b$4bo11956b3o10b$bobo11958b2o10b$11974b$11974b$11974b$10bo11963b$9b3o11962b$9bob2o11961b$10b3o11961b$10b3o11961b$10b3o11961b$10b2o11962b$11974b$11974b$11974b$11974b$11974b$2426bo7110bo2436b$2424bo3bo7106bo3bo2434b$2429bo7104bo2439b$2424bo4bo7104bo4bo1122bo1311b$2425b5o7104b5o1123b2o1310b$10661bobo1310b$11974b$11974b$1316bo10657b$1315b2o10657b$1315bobo10656b$11974b$11974b$11974b$11974b$11974b$11974b$11974b$11974b$11974b$11974b$11974b$11974b$11974b$11974b$11974b$11974b$11974b$11974b$11974b$11974b$2546bo6870bo2556b$2544bo3bo6866bo3bo1182bo1371b$2549bo6864bo1187b2o1370b$2544bo4bo6864bo4bo1181bobo1370b$2545b5o6864b5o2555b$11974b$1376bo10597b$1375b2o10597b$1375bobo10596b$11974b$11974b$11974b$11974b$11974b$11974b$11974b$11974b$11974b$11974b$11974b$11974b$11974b$11974b$11974b$11974b$11974b$11969b3o2b$11969bo2bob$11969bo4b$11969bo3bo$10542bo1426bo3bo$2666bo6630bo1244b2o1425bo4b$2664bo3bo6626bo3bo1241bobo1426bobob$2669bo6624bo2679b$2664bo4bo6624bo4bo2674b$1436bo1228b5o6624b5o2675b$2b3o1430b2o10526bo10b$bo2bo1430bobo10524b3o9b$4bo11956b2obo9b$o3bo11956b3o10b$o3bo11956b3o10b$4bo11956b3o10b$bobo11958b2o10b$11974b$11974b$11974b$10bo11963b$9b3o11962b$9bob2o11961b$10b3o11961b$10b3o11961b$10b3o11961b$10b2o11962b$11974b$11974b$11974b$11974b$11974b$11974b$10482bo1491b$10482b2o1490b$10481bobo1490b$2786bo6390bo2796b$2784bo3bo6386bo3bo2794b$1496bo1292bo6384bo2799b$1495b2o1287bo4bo6384bo4bo2794b$1495bobo1287b5o6384b5o2795b$11974b$11974b$11974b$11974b$11974b$11974b$11974b$11974b$11974b$11974b$11974b$11974b$11974b$11974b$11974b$11974b$11974b$11974b$11974b$11974b$11974b$10422bo1551b$10422b2o1550b$10421bobo1550b$11974b$11974b$1556bo1349bo6150bo2916b$1555b2o1347bo3bo6146bo3bo2914b$1555bobo1351bo6144bo2919b$2904bo4bo6144bo4bo2914b$2905b5o6144b5o2915b$11974b$11974b$11974b$11974b$11974b$11974b$11974b$11974b$11974b$11974b$11974b$11974b$11974b$11974b$11974b$11974b$11974b$11969b3o2b$11969bo2bob$10362bo1606bo4b$10362b2o1605bo3bo$10361bobo1605bo3bo$11969bo4b$11970bobob$1616bo10357b$1615b2o10357b$1615bobo1408bo5910bo3036b$2b3o3019bo3bo5906bo3bo3023bo10b$bo2bo3024bo5904bo3027b3o9b$4bo3019bo4bo5904bo4bo3021b2obo9b$o3bo3020b5o5904b5o3022b3o10b$o3bo11956b3o10b$4bo11956b3o10b$bobo11958b2o10b$11974b$11974b$11974b$10bo11963b$9b3o11962b$9bob2o11961b$10b3o11961b$10b3o11961b$10b3o11961b$10b2o11962b$11974b$11974b$11974b$11974b$10302bo1671b$10302b2o1670b$10301bobo1670b$11974b$11974b$1676bo10297b$1675b2o10297b$1675bobo10296b$11974b$3146bo5670bo3156b$3144bo3bo5666bo3bo3154b$3149bo5664bo3159b$3144bo4bo5664bo4bo3154b$3145b5o5664b5o3155b$11974b$11974b$11974b$11974b$11974b$11974b$11974b$11974b$11974b$11974b$11974b$11974b$11974b$11974b$11974b$10242bo1731b$10242b2o1730b$10241bobo1730b$11974b$11974b$1736bo10237b$1735b2o10237b$1735bobo10236b$11974b$11974b$11974b$3266bo5430bo3276b$3264bo3bo5426bo3bo3274b$3269bo5424bo3279b$3264bo4bo5424bo4bo3274b$3265b5o5424b5o3275b$11974b$11974b$11974b$11974b$11974b$11974b$11974b$11974b$11974b$11974b$11974b$11974b$11974b$10182bo1786b3o2b$10182b2o1785bo2bob$10181bobo1785bo4b$11969bo3bo$11969bo3bo$1796bo10172bo4b$1795b2o10173bobob$1795bobo10176b$11974b$11974b$2b3o11958bo10b$bo2bo11957b3o9b$4bo11956b2obo9b$o3bo3381bo5190bo3383b3o10b$o3bo3379bo3bo5186bo3bo3381b3o10b$4bo3384bo5184bo3386b3o10b$bobo3380bo4bo5184bo4bo3382b2o10b$3385b5o5184b5o3395b$11974b$11974b$10bo11963b$9b3o11962b$9bob2o11961b$10b3o11961b$10b3o11961b$10b3o11961b$10b2o11962b$11974b$11974b$10122bo1851b$10122b2o1850b$10121bobo1850b$11974b$11974b$1856bo10117b$1855b2o10117b$1855bobo10116b$11974b$11974b$11974b$11974b$11974b$11974b$11974b$3506bo4950bo3516b$3504bo3bo4946bo3bo3514b$3509bo4944bo3519b$3504bo4bo4944bo4bo3514b$3505b5o4944b5o3515b$11974b$11974b$11974b$11974b$11974b$11974b$11974b$11974b$11974b$10062bo1911b$10062b2o1910b$10061bobo1910b$11974b$11974b$1916bo10057b$1915b2o10057b$1915bobo10056b$11974b$11974b$11974b$11974b$11974b$11974b$11974b$11974b$11974b$3626bo4710bo3636b$3624bo3bo4706bo3bo3634b$3629bo4704bo3639b$3624bo4bo4704bo4bo3634b$3625b5o4704b5o3635b$11974b$11974b$11974b$11974b$11974b$11974b$11974b$10002bo1971b$10002b2o1970b$10001bobo1965b3o2b$11969bo2bob$11969bo4b$1976bo9992bo3bo$1975b2o9992bo3bo$1975bobo9991bo4b$11970bobob$11974b$11974b$11974b$2b3o11958bo10b$bo2bo11957b3o9b$4bo11956b2obo9b$o3bo11956b3o10b$o3bo11956b3o10b$4bo11956b3o10b$bobo11958b2o10b$3746bo4470bo3756b$3744bo3bo4466bo3bo3754b$3749bo4464bo3759b$10bo3733bo4bo4464bo4bo3754b$9b3o3733b5o4464b5o3755b$9bob2o11961b$10b3o11961b$10b3o11961b$10b3o11961b$10b2o11962b$9942bo2031b$9942b2o2030b$9941bobo2030b$11974b$11974b$2036bo9937b$2035b2o9937b$2035bobo9936b$11974b$11974b$11974b$11974b$11974b$11974b$11974b$11974b$11974b$11974b$11974b$11974b$11974b$3866bo4230bo3876b$3864bo3bo4226bo3bo3874b$3869bo4224bo3879b$3864bo4bo4224bo4bo3874b$3865b5o4224b5o3875b$11974b$11974b$11974b$9882bo2091b$9882b2o2090b$9881bobo2090b$11974b$11974b$2096bo9877b$2095b2o9877b$2095bobo9876b$11974b$11974b$11974b$11974b$11974b$11974b$11974b$11974b$11974b$11974b$11974b$11974b$11974b$11974b$11974b$3986bo3990bo3996b$3984bo3bo3986bo3bo3994b$3989bo3984bo3999b$3984bo4bo3984bo4bo3994b$3985b5o3984b5o3995b$11974b$9822bo2151b$9822b2o2150b$9821bobo2150b$11974b$11969b3o2b$2156bo9812bo2bob$2155b2o9812bo4b$2155bobo9811bo3bo$11969bo3bo$11969bo4b$11970bobob$11974b$11974b$11974b$2b3o11958bo10b$bo2bo11957b3o9b$4bo11956b2obo9b$o3bo11956b3o10b$o3bo11956b3o10b$4bo11956b3o10b$bobo11958b2o10b$11974b$11974b$11974b$10bo11963b$9b3o4094bo3750bo4116b$9bob2o4091bo3bo3746bo3bo4114b$10b3o4096bo3744bo4119b$10b3o4091bo4bo3744bo4bo4114b$10b3o4092b5o3744b5o1903bo2211b$10b2o9750b2o2210b$9761bobo2210b$11974b$11974b$2216bo9757b$2215b2o9757b$2215bobo9756b$11974b$11974b$11974b$11974b$11974b$11974b$11974b$11974b$11974b$11974b$11974b$11974b$11974b$11974b$11974b$11974b$11974b$11974b$11974b$4226bo3510bo4236b$4224bo3bo3506bo3bo4234b$4229bo3504bo1967bo2271b$4224bo4bo3504bo4bo1962b2o2270b$4225b5o3504b5o1962bobo2270b$11974b$11974b$2276bo9697b$2275b2o9697b$2275bobo9696b$11974b$11974b$11974b$11974b$11974b$11974b$11974b$11974b$11974b$11974b$11974b$11974b$11974b$11974b$11974b$11974b$11974b$11974b$11974b$11974b$11974b$4346bo3270bo2024bo2331b$4344bo3bo3266bo3bo2022b2o2330b$4349bo3264bo2026bobo2330b$4344bo4bo3264bo4bo4354b$4345b5o3264b5o4355b$2336bo9637b$2335b2o9632b3o2b$2335bobo9631bo2bob$11969bo4b$11969bo3bo$11969bo3bo$11969bo4b$11970bobob$11974b$11974b$11974b$2b3o11958bo10b$bo2bo11957b3o9b$4bo11956b2obo9b$o3bo11956b3o10b$o3bo11956b3o10b$4bo11956b3o10b$bobo11958b2o10b$11974b$11974b$11974b$10bo11963b$9b3o11962b$9bob2o11961b$10b3o9569bo2391b$10b3o9569b2o2390b$10b3o4453bo3030bo2083bobo2390b$10b2o4452bo3bo3026bo3bo4474b$4469bo3024bo4479b$2396bo2067bo4bo3024bo4bo4474b$2395b2o2068b5o3024b5o4475b$2395bobo9576b$11974b$11974b$11974b$11974b$11974b$11974b$11974b$11974b$11974b$11974b$11974b$11974b$11974b$11974b$11974b$11974b$11974b$11974b$11974b$11974b$11974b$9522bo2451b$9522b2o2450b$9521bobo2450b$11974b$4586bo2790bo4596b$2456bo2127bo3bo2786bo3bo4594b$2455b2o2132bo2784bo4599b$2455bobo2126bo4bo2784bo4bo4594b$4585b5o2784b5o4595b$11974b$11974b$11974b$11974b$11974b$11974b$11974b$11974b$11974b$11974b$11974b$11974b$11974b$11974b$11974b$11974b$11974b$11974b$11974b$11974b$9462bo2511b$9462b2o2510b$9461bobo2510b$11974b$11974b$2516bo9457b$2515b2o2189bo2550bo4716b$2515bobo2186bo3bo2546bo3bo4714b$4709bo2544bo4714b3o2b$4704bo4bo2544bo4bo4709bo2bob$4705b5o2544b5o4710bo4b$11969bo3bo$11969bo3bo$11969bo4b$11970bobob$11974b$11974b$11974b$2b3o11958bo10b$bo2bo11957b3o9b$4bo11956b2obo9b$o3bo11956b3o10b$o3bo11956b3o10b$4bo11956b3o10b$bobo11958b2o10b$11974b$11974b$11974b$10bo11963b$9b3o9390bo2571b$9bob2o9389b2o2570b$10b3o9388bobo2570b$10b3o11961b$10b3o11961b$10b2o2564bo9397b$2575b2o9397b$2575bobo9396b$4826bo2310bo4836b$4824bo3bo2306bo3bo4834b$4829bo2304bo4839b$4824bo4bo2304bo4bo4834b$4825b5o2304b5o4835b$11974b$11974b$11974b$11974b$11974b$11974b$11974b$11974b$11974b$11974b$11974b$11974b$11974b$11974b$11974b$11974b$9342bo2631b$9342b2o2630b$9341bobo2630b$11974b$11974b$2636bo9337b$2635b2o9337b$2635bobo9336b$11974b$11974b$4946bo2070bo4956b$4944bo3bo2066bo3bo4954b$4949bo2064bo4959b$4944bo4bo2064bo4bo4954b$4945b5o2064b5o4955b$11974b$11974b$11974b$11974b$11974b$11974b$11974b$11974b$11974b$11974b$11974b$11974b$11974b$11974b$9282bo2691b$9282b2o2690b$9281bobo2690b$11974b$11974b$2696bo9277b$2695b2o9277b$2695bobo9276b$11974b$11974b$11969b3o2b$11969bo2bob$5066bo1830bo5071bo4b$5064bo3bo1826bo3bo5069bo3bo$5069bo1824bo5074bo3bo$5064bo4bo1824bo4bo5069bo4b$5065b5o1824b5o5071bobob$11974b$11974b$11974b$2b3o11958bo10b$bo2bo11957b3o9b$4bo11956b2obo9b$o3bo11956b3o10b$o3bo11956b3o10b$4bo11956b3o10b$bobo11958b2o10b$11974b$11974b$9222bo2751b$10bo9211b2o2750b$9b3o9209bobo2750b$9bob2o11961b$10b3o11961b$10b3o2743bo9217b$10b3o2742b2o9217b$10b2o2743bobo9216b$11974b$11974b$11974b$11974b$11974b$11974b$5186bo1590bo5196b$5184bo3bo1586bo3bo5194b$5189bo1584bo5199b$5184bo4bo1584bo4bo5194b$5185b5o1584b5o5195b$11974b$11974b$11974b$11974b$11974b$11974b$11974b$11974b$11974b$11974b$9162bo2811b$9162b2o2810b$9161bobo2810b$11974b$11974b$2816bo9157b$2815b2o9157b$2815bobo9156b$11974b$11974b$11974b$11974b$11974b$11974b$11974b$11974b$5306bo1350bo5316b$5304bo3bo1346bo3bo5314b$5309bo1344bo5319b$5304bo4bo1344bo4bo5314b$5305b5o1344b5o5315b$11974b$11974b$11974b$11974b$11974b$11974b$11974b$11974b$9102bo2871b$9102b2o2870b$9101bobo2870b$11974b$11974b$2876bo9097b$2875b2o9097b$2875bobo9096b$11974b$11974b$11974b$11974b$11969b3o2b$11969bo2bob$11969bo4b$11969bo3bo$11969bo3bo$11969bo4b$5426bo1110bo5432bobob$5424bo3bo1106bo3bo5434b$5429bo1104bo5439b$5424bo4bo1104bo4bo5434b$2b3o5420b5o1104b5o5424bo10b$bo2bo11957b3o9b$4bo11956b2obo9b$o3bo11956b3o10b$o3bo11956b3o10b$4bo11956b3o10b$bobo11958b2o10b$9042bo2931b$9042b2o2930b$9041bobo2930b$10bo11963b$9b3o11962b$9bob2o2923bo9037b$10b3o2922b2o9037b$10b3o2922bobo9036b$10b3o11961b$10b2o11962b$11974b$11974b$11974b$11974b$11974b$11974b$11974b$11974b$11974b$11974b$5546bo870bo5556b$5544bo3bo866bo3bo5554b$5549bo864bo5559b$5544bo4bo864bo4bo5554b$5545b5o864b5o5555b$11974b$11974b$11974b$11974b$8982bo2991b$8982b2o2990b$8981bobo2990b$11974b$11974b$2996bo8977b$2995b2o8977b$2995bobo8976b$11974b$11974b$11974b$11974b$11974b$11974b$11974b$11974b$11974b$11974b$11974b$11974b$11974b$11974b$5666bo630bo5676b$5664bo3bo626bo3bo5674b$5669bo624bo5679b$5664bo4bo624bo4bo5674b$5665b5o624b5o5675b$11974b$11974b$8922bo3051b$8922b2o3050b$8921bobo3050b$11974b$11974b$3056bo8917b$3055b2o8917b$3055bobo8916b$11974b$11974b$11974b$11974b$11974b$11974b$11969b3o2b$11969bo2bob$11969bo4b$11969bo3bo$11969bo3bo$11969bo4b$11970bobob$11974b$11974b$11974b$2b3o5781bo390bo5785bo10b$bo2bo5779bo3bo386bo3bo5782b3o9b$4bo5784bo384bo5786b2obo9b$o3bo5779bo4bo384bo4bo5781b3o10b$o3bo5780b5o384b5o5782b3o10b$4bo8857bo3098b3o10b$bobo8858b2o3098b2o10b$8861bobo3110b$11974b$11974b$10bo3105bo8857b$9b3o3103b2o8857b$9bob2o3102bobo8856b$10b3o11961b$10b3o11961b$10b3o11961b$10b2o11962b$11974b$11974b$11974b$11974b$11974b$11974b$11974b$11974b$11974b$11974b$11974b$11974b$11974b$11974b$5906bo150bo5916b$5904bo3bo146bo3bo5914b$5909bo144bo5919b$5904bo4bo144bo4bo2742bo3171b$5905b5o144b5o2743b2o3170b$8801bobo3170b$11974b$11974b$3176bo8797b$3175b2o8797b$3175bobo8796b$11974b$11974b$11974b$11974b$11974b$11974b$11974b$11974b$11974b$11974b$6010b2o5962b$6010b2o5962b$6012bo5961b$6010b3o5961b$6009bobo5962b$5965b3o42b2o5962b$5964bo3bo40bo5964b$6009bo5964b$5963bo43bo5966b$5964b5o6005b$5967bo6006b$8742bo3231b$8742b2o3230b$8741bobo3230b$11974b$5956b2o6016b$3236bo2719b2o8b2o38b2o5966b$3235b2o2729b2o38b2o5966b$3235bobo8736b$11974b$11974b$11974b$5956bo6017b$5955bobo6016b$5957b2o6015b$5954b2obo6016b$5954bo2bo6016b$5955b2o6012b3o2b$11969bo2bob$11969bo4b$11969bo3bo$11969bo3bo$11969bo4b$11970bobob$5958b2o54b2o5958b$5958b2o54b2o5958b$11974b$2b3o11958bo10b$bo2bo11957b3o9b$4bo11956b2obo9b$o3bo8677bo3278b3o10b$o3bo8677b2o3277b3o10b$4bo8676bobo3277b3o10b$bobo11958b2o10b$11974b$3296bo8677b$3295b2o8677b$10bo3284bobo2668b2o38b2o5966b$9b3o5954b2o38b2o5966b$9bob2o11961b$10b3o11961b$10b3o11961b$10b3o11961b$10b2o11962b$11974b$11974b$11974b$11974b$11974b$11974b$11974b$11974b$11974b$11974b$5905bo6068b$5905bobo50b2o54b2o5958b$5905b2o51b2o54b2o5958b$11974b$11974b$6073bo2548bo3351b$6071bobo2548b2o3350b$6072b2o2547bobo3350b$11974b$11974b$3356bo8617b$3355b2o8617b$3355bobo8616b$11974b$11974b$11974b$11974b$11974b$11974b$11974b$11974b$11974b$11974b$11974b$11974b$11974b$11974b$11974b$11974b$11974b$11974b$11974b$5957b3o6014b$5957bo6016b$5955bobobo2602bo3411b$5953b3o2b2o57bo2544b2o3410b$5953b2o54b2o6bo2543bobo3410b$5953b2o54bo5964b$6009b3o4bobo5955b$3416bo2540bo8b3o36b3o8bobo5955b$3415b2o2600bo5956b$3415bobo2537bo6018b$5956bo6017b$11974b$11974b$11974b$5954b2o62b2o5954b$5954b2o62b2o5954b$11974b$11974b$11974b$11974b$11969b3o2b$11969bo2bob$5958b2o54b2o5953bo4b$5958b2o54b2o5953bo3bo$11969bo3bo$11969bo4b$11970bobob$11974b$5929bobo6042b$5929b2o6043b$2b3o5925bo6032bo10b$bo2bo8497bo3459b3o9b$4bo8497b2o3457b2obo9b$o3bo6042bobo2451bobo3457b3o10b$o3bo6043b2o5911b3o10b$4bo5961b2o38b2o40bo5912b3o10b$bobo3472bo2489b2o38b2o5954b2o10b$3475b2o8497b$3475bobo8496b$11974b$10bo11963b$9b3o11962b$9bob2o11961b$10b3o11961b$10b3o11961b$10b3o11961b$10b2o11962b$11974b$11974b$11974b$11974b$11974b$5994bo5979b$5958b2o35bo18b2o5958b$5958b2o33b3o18b2o5958b$11974b$11974b$5974bo5999b$5973bo6000b$5845bo127b3o5998b$5845bobo2594bo3531b$5845b2o2595b2o3530b$8441bobo3530b$11974b$6133bo5840b$3536bo2594bobo5840b$3535b2o2429b2o38b2o124b2o5840b$3535bobo2428b2o38b2o5966b$11974b$11974b$11974b$11974b$11974b$11974b$11974b$11974b$11974b$11974b$11974b$11974b$11974b$11974b$11974b$11974b$5958b2o54b2o5958b$5958b2o54b2o5958b$11974b$11974b$11974b$8382bo3591b$8382b2o3590b$6015bo2365bobo3590b$6014b2o5958b$5961b2o49b3o5959b$3596bo2363bo53bo6b2o5951b$3595b2o2362bo3b3o46b2o6b4o5950b$3595bobo2361bo2b5o30bobo19bo4bo5949b$5959b2o5b2o29bo2bo6b2o3bo5b3ob2o5950b$5965b2o30bo2bo6b2o2bobo4bo2b2o5951b$5959b2o37b2o11bobob3o3bo5952b$6012bobo3bobo5953b$5962bo56bo5954b$5959b3o6012b$11974b$11974b$11974b$5958b2o54b2o5958b$5958b2o54b2o5958b$11974b$11969b3o2b$11969bo2bob$11969bo4b$5969bo5999bo3bo$5970b2o5997bo3bo$5969b2o5998bo4b$11970bobob$11974b$5999bo5974b$5997b2o2323bo3651b$2b3o5864bobo94b2o30b2o6b2o2314b2o3639bo10b$bo2bo5864b2o95b2o38b2o2313bobo3638b3o9b$4bo5865bo6090b2obo9b$o3bo11956b3o10b$o3bo3651bo8304b3o10b$4bo3650b2o2450bobo5851b3o10b$bobo3651bobo2450b2o5852b2o10b$6108bo5865b$11974b$11974b$10bo11963b$9b3o11962b$9bob2o11961b$10b3o11961b$10b3o11961b$10b3o11961b$10b2o11962b$11974b$5958b2o54b2o5958b$5958b2o54b2o5958b$11974b$11974b$11974b$11974b$11974b$11974b$11974b$11974b$8262bo3711b$8262b2o3710b$8261bobo3710b$5785bo180b2o38b2o5966b$5785bobo178b2o38b2o5966b$3716bo2068b2o6187b$3715b2o8257b$3715bobo8256b$6193bo5780b$6191bobo5780b$6192b2o5780b$11974b$11974b$11974b$11974b$11974b$11974b$11974b$11974b$11974b$11974b$5958b2o54b2o5958b$5958b2o54b2o5958b$11974b$11974b$11974b$11974b$11974b$11974b$8202bo3771b$8202b2o3770b$5894bo2306bobo3770b$5893bo6080b$5893b3o6078b$3776bo8197b$3775b2o8197b$3775bobo2306bo5889b$6085bo5888b$6083b3o5888b$11974b$11974b$11974b$11974b$11974b$11974b$11974b$11974b$11974b$11974b$11974b$11974b$11969b3o2b$5958b2o54b2o5953bo2bob$5958b2o54b2o5953bo4b$11969bo3bo$11969bo3bo$11969bo4b$11970bobob$8142bo3831b$8142b2o3830b$8141bobo3830b$2b3o11958bo10b$bo2bo11957b3o9b$4bo3831bo1972bobo6149b2obo9b$o3bo3830b2o1972b2o6150b3o10b$o3bo3830bobo1972bo6150b3o10b$4bo11956b3o10b$bobo11958b2o10b$6167bobo5804b$6168b2o5804b$6168bo5805b$10bo11963b$9b3o11962b$9bob2o11961b$10b3o11961b$10b3o11961b$10b3o11961b$10b2o11962b$11974b$11974b$11974b$11974b$11974b$5958b2o54b2o5958b$5958b2o54b2o5958b$11974b$11974b$8082bo3891b$8082b2o3890b$8081bobo3890b$11974b$11974b$3896bo8077b$3895b2o8077b$3895bobo1827bo6248b$5725bobo6246b$5725b2o6247b$11974b$11974b$6253bo5720b$6251bobo5720b$6252b2o5720b$11974b$11974b$11974b$11974b$11974b$11974b$11974b$11974b$11974b$11974b$11974b$11974b$5958b2o54b2o5958b$5958b2o54b2o5958b$8022bo3951b$8022b2o3950b$8021bobo3950b$11974b$11974b$3956bo8017b$3955b2o1877bo6139b$3955bobo1875bo6140b$5833b3o6138b$11974b$11974b$6144bo5829b$6145bo5828b$6143b3o5828b$11974b$11974b$11974b$11974b$11974b$11974b$11974b$11974b$11974b$11974b$11969b3o2b$11969bo2bob$11969bo4b$11969bo3bo$11969bo3bo$5958b2o54b2o1946bo4006bo4b$5958b2o54b2o1946b2o4006bobob$7961bobo4010b$11974b$11974b$2b3o4011bo7946bo10b$bo2bo4010b2o7945b3o9b$4bo4010bobo7943b2obo9b$o3bo11956b3o10b$o3bo5744bobo6209b3o10b$4bo5744b2o6210b3o10b$bobo5746bo6211b2o10b$11974b$11974b$6227bobo5744b$10bo6217b2o5744b$9b3o6216bo5745b$9bob2o11961b$10b3o11961b$10b3o11961b$10b3o11961b$10b2o11962b$11974b$11974b$11974b$11974b$11974b$11974b$11974b$7902bo4071b$7902b2o4070b$5958b2o54b2o1885bobo4070b$5958b2o54b2o5958b$11974b$4076bo7897b$4075b2o7897b$4075bobo7896b$11974b$11974b$11974b$5665bo6308b$5665bobo6306b$5665b2o6307b$11974b$11974b$6313bo5660b$6311bobo5660b$6312b2o5660b$11974b$11974b$11974b$11974b$11974b$11974b$11974b$11974b$11974b$11974b$7842bo4131b$7842b2o4130b$7841bobo4130b$11974b$5958b2o54b2o5958b$4136bo1821b2o54b2o5958b$4135b2o7837b$4135bobo7836b$11974b$11974b$5774bo6199b$5773bo6200b$5773b3o6198b$11974b$11974b$6204bo5769b$6205bo5768b$6203b3o5768b$11974b$11974b$11974b$11974b$11974b$11974b$11974b$11974b$11969b3o2b$11969bo2bob$11969bo4b$7782bo4186bo3bo$7782b2o4185bo3bo$7781bobo4185bo4b$11970bobob$11974b$4196bo7777b$4195b2o1761b2o54b2o5958b$2b3o4190bobo1760b2o54b2o5947bo10b$bo2bo11957b3o9b$4bo11956b2obo9b$o3bo11956b3o10b$o3bo11956b3o10b$4bo11956b3o10b$bobo5685bobo6270b2o10b$5689b2o6283b$5690bo6283b$11974b$10bo11963b$9b3o6275bobo5684b$9bob2o6275b2o5684b$10b3o6275bo5685b$10b3o11961b$10b3o11961b$10b2o11962b$11974b$11974b$11974b$11974b$11974b$7722bo4251b$7722b2o4250b$7721bobo4250b$11974b$11974b$4256bo7717b$4255b2o7717b$4255bobo7716b$5958b2o54b2o5958b$5958b2o54b2o5958b$11974b$11974b$11974b$11974b$11974b$5605bo6368b$5605bobo6366b$5605b2o6367b$11974b$11974b$6373bo5600b$6371bobo5600b$6372b2o5600b$11974b$11974b$11974b$11974b$11974b$11974b$7662bo4311b$7662b2o4310b$7661bobo4310b$11974b$11974b$4316bo7657b$4315b2o7657b$4315bobo7656b$11974b$11974b$5958b2o54b2o5958b$5958b2o54b2o5958b$11974b$11974b$5714bo6259b$5713bo6260b$5713b3o6258b$11974b$11974b$6264bo5709b$6265bo5708b$6263b3o5708b$11974b$11974b$11974b$11974b$11974b$11974b$11969b3o2b$7602bo4366bo2bob$7602b2o4365bo4b$7601bobo4365bo3bo$11969bo3bo$11969bo4b$4376bo7593bobob$4375b2o7597b$4375bobo7596b$11974b$2b3o11958bo10b$bo2bo11957b3o9b$4bo11956b2obo9b$o3bo5953b2o54b2o5945b3o10b$o3bo5953b2o54b2o5945b3o10b$4bo11956b3o10b$bobo11958b2o10b$11974b$5629bobo6342b$5629b2o6343b$10bo5619bo6343b$9b3o11962b$9bob2o11961b$10b3o6334bobo5624b$10b3o6335b2o5624b$10b3o6335bo5625b$10b2o11962b$11974b$11974b$11974b$7542bo4431b$7542b2o4430b$7541bobo4430b$11974b$11974b$4436bo7537b$4435b2o7537b$4435bobo7536b$11974b$11974b$11974b$11974b$11974b$11974b$5958b2o54b2o5958b$5958b2o54b2o5958b$11974b$11974b$11974b$5545bo6428b$5545bobo6426b$5545b2o6427b$11974b$11974b$6433bo5540b$6431bobo5540b$6432b2o5540b$11974b$11974b$7482bo4491b$7482b2o4490b$7481bobo4490b$11974b$11974b$4496bo7477b$4495b2o7477b$4495bobo7476b$11974b$11974b$11974b$11974b$11974b$11974b$11974b$11974b$5958b2o54b2o5958b$5958b2o54b2o5958b$5654bo6319b$5653bo6320b$5653b3o6318b$11974b$11974b$6324bo5649b$6325bo5648b$6323b3o5648b$11974b$11974b$11974b$7422bo4551b$7422b2o4545b3o2b$7421bobo4545bo2bob$11969bo4b$11969bo3bo$4556bo7412bo3bo$4555b2o7412bo4b$4555bobo7412bobob$11974b$11974b$11974b$2b3o11958bo10b$bo2bo11957b3o9b$4bo11956b2obo9b$o3bo11956b3o10b$o3bo11956b3o10b$4bo5951b3o6002b3o10b$bobo5952b4o6002b2o10b$5955bo4bo6013b$5956b3o2bo6012b$5955bo2bo2bo6012b$10bo5558bobo383b2o2b3o46bobo5963b$9b3o5557b2o384bo2b3o47bo5965b$9bob2o5557bo385b4o48bo3bo5961b$10b3o5999bo4bo5956b$10b3o5953b3o40bo2bo4bo5956b$10b3o5996b3o5bo389bobo5564b$10b2o6396b2o5564b$6408bo5565b$7362bo4611b$7362b2o4610b$7361bobo4610b$5954b2o62b2o5954b$5954b2o62b2o5954b$4616bo7357b$4615b2o7357b$4615bobo7356b$11974b$11974b$11974b$5958b2o54b2o5958b$5958b2o54b2o5958b$11974b$11974b$11974b$11974b$11974b$5929bo6044b$5927b2o6045b$5928b2o6044b$11974b$11974b$5485bo563bo5924b$5485bobo478b2o38b2o42b2o5922b$5485b2o479b2o38b2o41b2o5923b$11974b$11974b$6493bo5480b$6491bobo808bo4671b$6492b2o808b2o4670b$7301bobo4670b$11974b$11974b$4676bo7297b$4675b2o7297b$4675bobo7296b$11974b$11974b$11974b$11974b$11974b$5958b2o54b2o5958b$5958b2o36bo17b2o5958b$5994bobo5977b$5995b2o5977b$11974b$11974b$5972bo6001b$5972bobo5999b$5972b2o6000b$5594bo6379b$5593bo6380b$5593b3o6378b$11974b$5966b2o38b2o5966b$5966b2o38b2o376bo5589b$6385bo5588b$6383b3o856bo4731b$7242b2o4730b$7241bobo4730b$11969b3o2b$11969bo2bob$4736bo7232bo4b$4735b2o7232bo3bo$4735bobo7231bo3bo$11969bo4b$11970bobob$11974b$11974b$11974b$2b3o11958bo10b$bo2bo11957b3o9b$4bo5953b2o54b2o5945b2obo9b$o3bo5953b2o54b2o5945b3o10b$o3bo11956b3o10b$4bo11956b3o10b$bobo11958b2o10b$11974b$11974b$11974b$10bo11963b$9b3o11962b$9bob2o5496bobo6462b$10b3o5496b2o6463b$10b3o5497bo6463b$10b3o11961b$10b2o7170bo4791b$6467bobo712b2o4790b$6468b2o711bobo4790b$6468bo5505b$11974b$4796bo7177b$4795b2o7177b$4795bobo7176b$11974b$11974b$11974b$11974b$11974b$11974b$11974b$11974b$11974b$5958b2o54b2o5958b$5958b2o54b2o5958b$11974b$11974b$11974b$5869bo6104b$5867b2o6105b$5868b2o6104b$11974b$11974b$5425bo683bo5864b$5425bobo682b2o5862b$5425b2o682b2o1011bo4851b$7122b2o4850b$7121bobo4850b$6553bo5420b$6551bobo5420b$4856bo1695b2o5420b$4855b2o7117b$4855bobo7116b$11974b$11974b$11974b$11974b$11974b$11974b$11974b$11974b$11974b$11974b$11974b$5958b2o54b2o5958b$5958b2o54b2o5958b$11974b$11974b$11974b$11974b$11974b$5534bo6439b$5533bo6440b$5533b3o6438b$7062bo4911b$7062b2o4910b$6444bo616bobo4910b$6445bo5528b$6443b3o5528b$4916bo7052b3o2b$4915b2o7052bo2bob$4915bobo7051bo4b$11969bo3bo$11969bo3bo$11969bo4b$11970bobob$11974b$11974b$11974b$2b3o11958bo10b$bo2bo11957b3o9b$4bo11956b2obo9b$o3bo11956b3o10b$o3bo11956b3o10b$4bo11956b3o10b$bobo5954b2o54b2o5946b2o10b$5958b2o54b2o5958b$11974b$11974b$10bo11963b$9b3o11962b$9bob2o11961b$10b3o6001bo5959b$10b3o5436bobo508bo52bo988bo4971b$10b3o5436b2o508b4o52bo7bo978b2o4970b$10b2o5438bo506bo5bo48bo2bo6bobo976bobo4970b$5956bo3bo6b2o41b2ob2o6b2o2bo5948b$5956bo5b2o2bo2bo30b2o8b2o9bo3bo5948b$4976bo979b2obobo4bo2b2o30b2o4b2o5b2o8b2o501bobo5444b$4975b2o981b2o5bo2b2o30b2o5b2o14b3o502b2o5444b$4975bobo987b4o29b3o10bo516bo5445b$5998bo12bo4b2o5956b$5998bo12bo3bo5958b$6016b2o5956b$11974b$11974b$11974b$5958b2o54b2o5958b$5958b2o54b2o5958b$11974b$11974b$11974b$11974b$11974b$11974b$5970bobo6001b$5971b2o6001b$5971bo6002b$11974b$5809bo6164b$5807b2o157b2o28bobo7b2o5966b$5808b2o156b2o28b2o8b2o5966b$5997bo944bo5031b$6942b2o5030b$5365bo803bo771bobo5030b$5365bobo802b2o5802b$5365b2o802b2o5803b$5036bo6937b$5035b2o6937b$5035bobo1575bo5360b$6611bobo5360b$6612b2o5360b$11974b$11974b$11974b$11974b$11974b$11974b$5958b2o54b2o5958b$5958b2o54b2o5958b$11974b$11974b$11974b$11974b$11974b$11974b$11974b$11974b$11974b$11974b$11974b$5966b2o38b2o874bo5091b$5474bo491b2o38b2o874b2o5090b$5473bo1407bobo5090b$5473b3o6498b$11974b$5096bo6877b$5095b2o1407bo5469b$5095bobo1110b2o295bo5463b3o2b$6208bobo292b3o5463bo2bob$6208bo5760bo4b$11969bo3bo$11969bo3bo$5759b2o6208bo4b$5758bobo6209bobob$5760bo6213b$11974b$11974b$2b3o11958bo10b$bo2bo5953b2o54b2o5946b3o9b$4bo5953b2o54b2o5945b2obo9b$o3bo5776b2o408b2o5768b3o10b$o3bo5775bo2bo406bo2bo5767b3o10b$4bo5775bo2bo406bo2bo5767b3o10b$bobo5777b2o408b2o5769b2o10b$11974b$11974b$11974b$10bo11963b$9b3o11962b$9bob2o6809bo5151b$10b3o5879bo929b2o5150b$10b3o5879bobo926bobo5150b$10b3o5879b2o6080b$10b2o5377bobo6582b$5156bo232b2o6583b$5155b2o233bo695bo5887b$5155bobo926bobo181b2o5704b$6085b2o181bobo5703b$6268bo318bobo5384b$6588b2o5384b$6588bo5385b$5699b2o6273b$5698bobo6273b$5700bo6273b$11974b$11974b$11974b$11974b$11974b$5958b2o54b2o5958b$5958b2o54b2o5958b$5781b2o408b2o5781b$5780bo2bo406bo2bo5780b$5780bo2bo406bo2bo5780b$5781b2o408b2o5781b$11974b$11974b$11974b$6762bo5211b$6762b2o5210b$6761bobo5210b$11974b$11974b$5216bo6757b$5215b2o88bo6668b$5215bobo87bobo1020b2o5644b$5305b2o1021bobo5643b$6328bo5645b$11974b$6673bo5300b$5639b2o1030bobo5300b$5638bobo1031b2o5300b$5640bo6333b$11974b$11974b$11974b$11974b$11974b$11974b$11974b$5958b2o54b2o5958b$5958b2o54b2o5958b$5781b2o408b2o5781b$5780bo2bo406bo2bo5780b$5780bo2bo406bo2bo5780b$5781b2o408b2o5781b$11974b$6702bo5271b$6702b2o5270b$6701bobo5270b$11974b$11974b$5276bo137bo6559b$5275b2o136bo6560b$5275bobo135b3o972b2o5584b$6388bobo5583b$6388bo5580b3o2b$6564bo5404bo2bob$6565bo5403bo4b$5579b2o982b3o5403bo3bo$5578bobo6388bo3bo$5580bo6388bo4b$11970bobob$11974b$11974b$11974b$2b3o11958bo10b$bo2bo11957b3o9b$4bo11956b2obo9b$o3bo11956b3o10b$o3bo11956b3o10b$4bo5953b2o54b2o5945b3o10b$bobo5954b2o54b2o5946b2o10b$5781b2o408b2o5781b$5780bo2bo406bo2bo5780b$5780bo2bo406bo2bo5780b$10bo5770b2o408b2o449bo5331b$9b3o6630b2o5330b$9bob2o6628bobo5330b$10b3o11961b$10b3o11961b$10b3o5323bo495bo6141b$10b2o5323b2o495bobo6139b$5335bobo494b2o614b2o5524b$5329bobo1116bobo5523b$5329b2o1117bo5525b$5330bo815bo5827b$6144bobo5827b$5519b2o624b2o5827b$5518bobo1126bobo5324b$5520bo1127b2o5324b$6648bo5325b$11974b$11974b$11974b$11974b$11974b$11974b$11974b$11974b$11974b$11974b$5958b2o54b2o5958b$5958b2o54b2o5958b$5781b2o408b2o5781b$5780bo2bo406bo2bo388bo5391b$5780bo2bo406bo2bo388b2o5390b$5781b2o408b2o388bobo5390b$11974b$11974b$5396bo6577b$5395b2o6577b$5395bobo1110b2o5464b$6508bobo5463b$6508bo5465b$5245bo6728b$5245bobo6726b$5245b2o212b2o6513b$5458bobo6513b$5460bo6513b$6733bo5240b$6731bobo5240b$6732b2o5240b$11974b$11974b$11974b$11974b$11974b$11974b$11974b$11974b$11974b$11974b$5958b2o54b2o5958b$5958b2o54b2o506bo5451b$5781b2o408b2o329b2o5450b$5780bo2bo406bo2bo327bobo5450b$5780bo2bo406bo2bo5780b$5781b2o408b2o5781b$5456bo6517b$5455b2o6517b$5455bobo1110b2o5404b$6568bobo5403b$5354bo1213bo5405b$5353bo6620b$5353b3o6613b3o2b$5399b2o6568bo2bob$5398bobo6568bo4b$5400bo1223bo5344bo3bo$6625bo5343bo3bo$6623b3o5343bo4b$11970bobob$11974b$11974b$11974b$2b3o11958bo10b$bo2bo11957b3o9b$4bo11956b2obo9b$o3bo11956b3o10b$o3bo11956b3o10b$4bo11956b3o10b$bobo5778b2o6178b2o10b$5782b2o408b2o5780b$6191b2o2b2o265bo5511b$5777b3o178b2o54b2o176bo3bo265b2o5510b$10bo5766bo2bo177b2o54b2o445bobo5510b$9b3o5765bo3bo410bo2bo5778b$9bob2o5768bo409bo3bo5778b$10b3o5503bo261bo2bo409b2ob2o5778b$10b3o5502b2o262b2o414b3o5776b$10b3o5502bobo256b3o419b2o430b2o5344b$10b2o6183bo2bo429bobo5343b$6196b2o430bo5345b$6197bo5776b$6239bo5734b$5269bobo67b2o897b2o5734b$5269b2o67bobo897bobo5733b$5270bo69bo6633b$11974b$5729bo6244b$5729b2o976bobo5264b$5728bobo977b2o5264b$6708bo5265b$11974b$11974b$11974b$11974b$11974b$11974b$11974b$11974b$11974b$6402bo5571b$6402b2o5570b$5782b2o406b2o209bobo5570b$5782b2o174b2o54b2o174b2o5782b$5958b2o54b2o5958b$5576bo6397b$5575b2o6397b$5575bobo1110b2o5284b$6688bobo5283b$6688bo5285b$11974b$6299bo5674b$5279b2o1017b2o5674b$5278bobo1017bobo5673b$5185bo94bo6693b$5185bobo6786b$5185b2o482bo6304b$5669b2o6303b$5668bobo6303b$6793bo5180b$6791bobo5180b$6792b2o5180b$11974b$11974b$11974b$11974b$11974b$11974b$11974b$6342bo5631b$6342b2o5630b$6341bobo5630b$11974b$5782b2o180bo41b3o181b2o5782b$5636bo145b2o179bobo40bo2bo180b2o5782b$5635b2o368bo3bo5964b$5635bobo326bo2bo37b4o739b2o5224b$5956b2o4bo5bo37bo9b2o730bobo5223b$5956b2o3bo3b3o48b2o730bo5225b$5961b3o6010b$6359bo5614b$5219b2o1137b2o5614b$5218bobo73bo721bo341bobo5608b3o2b$5220bo72bo723bo5951bo2bob$5293b3o719b3o5951bo4b$5609bo6359bo3bo$5609b2o6358bo3bo$5608bobo1073bo5284bo4b$5954b2o62b2o665bo5284bobob$5954b2o62b2o663b3o5288b$11974b$11974b$2b3o11958bo10b$bo2bo11957b3o9b$4bo11956b2obo9b$o3bo11956b3o10b$o3bo5953b2o54b2o5945b3o10b$4bo5953b2o54b2o5945b3o10b$bobo6278bo5679b2o10b$6282b2o5690b$6281bobo5690b$11974b$10bo11963b$9b3o5684bo6277b$9bob2o5682b2o85b2o406b2o5782b$10b3o5682bobo84b2o406b2o616b2o5164b$10b3o6795bobo5163b$10b3o6795bo5165b$10b2o11962b$5966b2o38b2o411bo5554b$5159b2o805b2o38b2o410b2o5554b$5158bobo1257bobo5553b$5160bo6813b$11974b$5209bobo337bo6424b$5209b2o338b2o6423b$5210bo337bobo6423b$11974b$5913bobo6058b$5913b2o852bobo5204b$5914bo853b2o5204b$6768bo5205b$11974b$6063bobo5908b$6064b2o5908b$6064bo5909b$11974b$5958b2o54b2o206bo5751b$5958b2o54b2o206b2o5750b$6221bobo5750b$11974b$11974b$5756bo6217b$5755b2o1039b2o5176b$5755bobo1039b2o5175b$5782b2o406b2o604bo5177b$5782b2o406b2o5782b$11974b$5181b2o1296bo5494b$5180b2o1296b2o5494b$5182bo1295bobo5493b$11974b$11974b$5489bo598b3o5883b$5489b2o597bo5885b$5488bobo598bo5884b$11974b$11974b$5878b3o6093b$5880bo6093b$5879bo6094b$11974b$11974b$11974b$11974b$11974b$6162bo5811b$6162b2o5810b$5958b2o54b2o145bobo5810b$5958b2o54b2o5958b$11974b$5816bo6157b$5815b2o919b2o5236b$5815bobo919b2o5235b$6736bo5237b$11974b$5782b2o114b2o174b2o114b2o5782b$5241b2o539b2o114b2o174b2o114b2o347bo5434b$5240b2o1296b2o5434b$5242bo1295bobo5433b$11974b$11969b3o2b$5429bo718b3o5818bo2bob$5234bo194b2o717bo5820bo4b$5233bo194bobo718bo5819bo3bo$5233b3o6733bo3bo$11969bo4b$5818b3o6149bobob$5820bo923bo5229b$5819bo925bo5228b$6743b3o5228b$2b3o11958bo10b$bo2bo11957b3o9b$4bo11956b2obo9b$o3bo11956b3o10b$o3bo6097bo5858b3o10b$4bo6097b2o5857b3o10b$bobo6097bobo5858b2o10b$11974b$5958b2o54b2o5958b$5876bo81b2o54b2o5958b$10bo5864b2o799b2o5296b$9b3o5863bobo799b2o5295b$9bob2o6663bo5297b$10b3o11961b$10b3o11961b$10b3o5288b2o1296bo5374b$10b2o5288b2o480b2o114b2o174b2o114b2o406b2o5374b$5302bo479b2o114b2o174b2o114b2o406bobo5373b$11974b$11974b$5369bo838b3o5763b$5369b2o837bo5765b$5368bobo838bo5764b$11974b$5149bobo6822b$5149b2o607b3o6213b$5150bo609bo6213b$5759bo6214b$11974b$6827bobo5144b$6828b2o5144b$6828bo5145b$11974b$6042bo5931b$6042b2o5930b$6041bobo5930b$11974b$11974b$5936bo6037b$5935b2o21b2o54b2o600b2o5356b$5935bobo20b2o54b2o601b2o5355b$6616bo5357b$11974b$11974b$5361b2o1296bo5314b$5360b2o1296b2o5314b$5362bo1295bobo5313b$5782b2o114b2o174b2o114b2o5782b$5782b2o114b2o174b2o114b2o5782b$5309bo958b3o5703b$5309b2o957bo5705b$5308bobo958bo5704b$11974b$11974b$5698b3o6273b$5700bo6273b$5699bo6274b$11974b$11974b$11974b$11974b$11974b$5982bo5991b$5982b2o5990b$5981bobo5990b$11974b$11974b$5996bo5977b$5995b2o559b2o5416b$5995bobo559b2o5415b$5958b2o54b2o540bo5417b$5958b2o54b2o5958b$11974b$5421b2o1296bo5254b$5420b2o1296b2o5254b$5422bo1295bobo5253b$11974b$11974b$5249bo532b2o114b2o174b2o114b2o136b3o5643b$5249b2o531b2o114b2o174b2o114b2o136bo5640b3o2b$5248bobo1078bo5639bo2bob$11969bo4b$11969bo3bo$5174bo463b3o6328bo3bo$5173bo466bo6328bo4b$5173b3o463bo6330bobob$11974b$11974b$6804bo5169b$2b3o6800bo5157bo10b$bo2bo6798b3o5156b3o9b$4bo5917bo6038b2obo9b$o3bo5917b2o6037b3o10b$o3bo5916bobo6037b3o10b$4bo11956b3o10b$bobo11958b2o10b$6056bo5917b$6055b2o439b2o5476b$6055bobo439b2o5475b$10bo6485bo5477b$9b3o11962b$9bob2o5945b2o54b2o5958b$10b3o5468b2o475b2o54b2o763bo5194b$10b3o5467b2o1296b2o5194b$10b3o5469bo1295bobo5193b$10b2o11962b$11974b$5189bo1198b3o5583b$5189b2o1197bo5585b$5188bobo591b2o114b2o174b2o114b2o197bo5584b$5782b2o114b2o174b2o114b2o5782b$11974b$5578b3o6393b$5580bo6393b$5579bo6394b$5089bobo6882b$5089b2o6883b$5090bo6883b$11974b$11974b$5862bo1024bobo5084b$5862b2o1024b2o5084b$5861bobo1024bo5085b$11974b$11974b$6116bo5857b$5786bo328b2o319b2o5536b$5785b3o327bobo319b2o5535b$5784b2o2bo647bo5537b$5784bob3o6185b$5784b2o397bo5790b$5541b2o639bobo654bo5134b$5540b2o247bo168b2o54b2o165bo3bo652b2o5134b$5542bo247bo167b2o54b2o166bo2bo652bobo5133b$5788b3o391bo2bo5788b$6183bobo5788b$5129bo1318b3o5523b$5129b2o1317bo5525b$5128bobo1318bo5524b$11974b$5898b2o174b2o5898b$5518b3o377b2o174b2o5898b$5520bo6453b$5519bo672b2o5780b$5790b2o390b2o8b2o5780b$5790b2o390b2o5790b$11974b$11974b$11974b$5802bo391bo5779b$5802b2o389b3o5778b$5801bobo388b2o2bo5777b$6191b2o2b3o5776b$6190b3o3bo5777b$6176bo5797b$6175b2o17bo181b2o5596b$6175bobo199b2o5595b$6376bo5597b$11974b$11974b$5601b2o1296bo5074b$5600b2o1296b2o5074b$5602bo179b2o406b2o706bobo5073b$5782b2o174b2o54b2o174b2o5782b$5958b2o54b2o5958b$5069bo1438b3o5463b$5069b2o1437bo5465b$5068bobo1438bo5464b$11969b3o2b$11969bo2bob$5458b3o6508bo4b$5460bo437b2o174b2o5893bo3bo$5459bo438b2o174b2o5893bo3bo$11969bo4b$5114bo6855bobob$5113bo676b2o390b2o5790b$5113b3o674b2o390b2o5790b$11974b$2b3o5737bo6220bo10b$bo2bo5737b2o1120bo5097b3o9b$4bo5736bobo1121bo5095b2obo9b$o3bo6858b3o5095b3o10b$o3bo11956b3o10b$4bo6231bo5724b3o10b$bobo6231b2o79b2o5644b2o10b$6235bobo79b2o5655b$6316bo5657b$11974b$10bo6881b2o5080b$9b3o5649b2o1228bobo5080b$9bob2o5647b2o1231bo5080b$10b3o5649bo6311b$10b3o11961b$10b3o5072b2o695b2o406b2o5782b$10b2o5073bobo694b2o174b2o54b2o174b2o376b3o5403b$5085bo872b2o54b2o552bo5405b$6569bo5404b$11974b$11974b$5398b3o6573b$5400bo6573b$5399bo6574b$5898b2o174b2o5898b$5898b2o174b2o5898b$11974b$11974b$5778b2o10b2o390b2o5790b$5778bobo9b2o390b2o5790b$5778bo6195b$11974b$11974b$6189b2o5783b$6188bobo5783b$6190bo65b2o5716b$6257b2o5715b$6256bo5717b$11974b$6832b2o5140b$5721b2o406bo701bobo5140b$5720b2o406bo704bo5140b$5722bo405b3o5843b$11974b$5145b2o6827b$5145bobo701bo778b3o5343b$5145bo636b2o66bo339b2o436bo5345b$5782b2o64b3o107b2o54b2o174b2o437bo5344b$5958b2o54b2o5958b$11974b$5338b3o6633b$5340bo6633b$5339bo6634b$11974b$11974b$5898b2o174b2o5898b$6074b2o5898b$5838b2o6134b$5838bobo57b2o6074b$5790b2o46bo53b3obob2o282b2o5790b$5790b2o99bob2ob3o6bo276b2o5790b$5891b2obo2b2o6bo168bo3bo5895b$5891bo2bo4b2o3bo162bo4b2obo3bo49b2o5843b$5885b3o5bobo2b3o165bo5b2obo3bo48bobo5843b$5881bo3bobo5bo4bobo165bo3b4ob2o2bo50bo65b2o5776b$5881bo3bo179bo4bo2b2o4bo3b2o5bo106b2o5775b$5881bo4b2o8b2o9b3o155b5o7bo2bo2b3o3b2o105bo5777b$5887bo7b3o5b3o4b2o153bo3bo8b3o2bo2bo4bo5882b$5895b3o4b2o2b3ob2o154bobo10bob6o685b2o5200b$5781b2o108bo8b2o8b2o147bo7b2o11b5obo684bobo5200b$5780b2o109bo8bo2b2o2b3o149bobo18b3o2b3ob2o682bo5200b$5782bo109bo7bo3bo4bo149b2o24b2o2bo5884b$5901b3o3bo179b3o5884b$5205b2o6767b$5205bobo711bo168b2o2b2o594b3o5283b$5205bo711bobo768bo5285b$5918b2o769bo5284b$5782b2o114b2o174b2o114b2o5782b$5782b2o114b2o58b2o54b2o58b2o114b2o5782b$5278b3o677b2o54b2o5953b3o2b$5280bo6688bo2bob$5279bo6689bo4b$11969bo3bo$11969bo3bo$11969bo4b$11970bobob$5898b2o6074b$5054bo843bobo6073b$5053bo844bo6075b$2b3o5048b3o6907bo10b$bo2bo5785b2o98b2o190b2o98b2o5778b3o9b$4bo5785b2o98b2o177b2o11b2o98b2o5777b2obo9b$o3bo5957bo105bobo853bo5036b3o10b$o3bo5956b3o106bo65b2o787bo5035b3o10b$4bo5955bo2b2o130bobo39b2o784b3o5035b3o10b$bobo5955b2o135b2o38bo5825b2o10b$5958b2ob3o132bo5877b$5958b2o2bo44b2o703b2o5260b$5841b2o118b3o42b3o702bobo5260b$10bo5829b2o29bobo85b2o45bo2bo703bo5260b$9b3o5830bo28b2o86b2o45b2ob2o5963b$9bob2o5859bo133b2ob2o5963b$10b3o5252b2o738b2ob2o5964b$10b3o5252bobo699bo38bo741b3o5223b$10b3o5252bo699bobo39b3o738bo5225b$10b2o5954b2o40bo740bo5224b$11974b$11974b$5218b3o561b2o114b2o174b2o114b2o5782b$5220bo561b2o114b2o174b2o114b2o5782b$5219bo6754b$11974b$6016b2o5956b$5966b2o38b2o8b2o5956b$5966b2o38b2o5966b$6018bo5955b$6017bobo5954b$6016bo5957b$6017bo3bo5952b$6017bo4bo5951b$6023bo5950b$5790b2o390b2o5790b$5790b2o226bo57b2o104b2o5790b$6021bo55b2o5895b$6076bo5897b$11974b$6652b2o5320b$5901b2o748bobo5320b$5900b2o751bo5320b$5902bo6071b$11974b$5325b2o631b2o54b2o5958b$5325bobo630b2o54b2o792b3o5163b$5325bo1482bo5165b$6809bo5164b$11974b$11974b$5158b3o6813b$5160bo6813b$5159bo622b2o114b2o174b2o114b2o5782b$5782b2o114b2o174b2o114b2o5782b$11974b$11974b$11974b$5966b2o38b2o5966b$5966b2o38b2o5966b$11974b$11974b$11974b$11974b$11974b$6016b2o5956b$5790b2o225b2o163b2o5790b$5790b2o224bo165b2o5790b$11974b$6592b2o5380b$5961b2o628bobo5380b$5960b2o631bo5380b$5962bo6011b$11974b$5385b2o6587b$5385bobo1480b3o5103b$5385bo572b2o54b2o852bo5105b$5958b2o54b2o853bo5104b$11974b$11974b$5098b3o6873b$5100bo6873b$5099bo6869b3o2b$11969bo2bob$5782b2o114b2o174b2o114b2o5777bo4b$5782b2o114b2o174b2o114b2o5777bo3bo$11969bo3bo$11969bo4b$11970bobob$11974b$11974b$11974b$2b3o4989bo6968bo10b$bo2bo4988bo6968b3o9b$4bo4988b3o960b2o6003b2obo9b$o3bo5952b2o6002b3o10b$o3bo5951bo6004b3o10b$4bo5785b2o390b2o800bo4976b3o10b$bobo5786b2o390b2o348b2o451bo4976b2o10b$6021b2o132bobo373bobo449b3o4988b$6020b2o134b2o375bo5440b$6022bo133bo5817b$10bo11963b$9b3o5433b2o6527b$9bob2o5432bobo363bobo1114b3o5043b$10b3o5432bo365b2o1115bo5045b$10b3o5799bo1116bo5044b$10b3o5945b2o54b2o5958b$10b2o5946b2o54b2o5958b$5038b3o6933b$5040bo6933b$5039bo6934b$11974b$11974b$11974b$5782b2o114b2o174b2o114b2o5782b$5782b2o114b2o174b2o114b2o5782b$11974b$11974b$11974b$11974b$11974b$11974b$5896b2o6076b$5897b2o6075b$5896bo6077b$11974b$6472b2o5500b$5790b2o289b2o99b2o287bobo5500b$5790b2o288b2o100b2o289bo5500b$6082bo5891b$11974b$5505b2o6467b$5505bobo1480b3o4983b$5505bo1482bo4985b$6989bo4984b$11974b$11974b$4978b3o977b2o54b2o5958b$4980bo977b2o54b2o5958b$4979bo6994b$11974b$11974b$11974b$11974b$6191b2o5781b$5898b2o174b2o114bobo5781b$5898b2o174b2o114bobo5781b$6189b2obob2o5778b$6190b6o5778b$5787b2o405bo2bo5776b$5786bo2b2o405bo5777b$5780bo5b2obo46b2o6136b$5780bo6bo3b2o44b2o342b3o5790b$5780bo55bo6137b$11974b$6412b2o5560b$6141b2o268bobo5560b$6140b2o271bo5560b$6142bo5831b$5778b2o414b2o792bo4985b$5565b2o211b2o414b2o792b2o4984b$5565bobo1419bobo4984b$5565bo6408b$11974b$4990bo6983b$4989b2o6983b$4989bobo6982b$5782b2o406b2o5782b$5782b2o174b2o54b2o174b2o5782b$5958b2o54b2o5958b$11969b3o2b$11969bo2bob$11969bo4b$6219bo5749bo3bo$6220b2o5747bo3bo$6219b2o5748bo4b$5898b2o174b2o5894bobob$5898b2o174b2o5898b$5749bo6224b$5747b2o6225b$2b3o5743b2o26b2o12b2o390b2o5779bo10b$bo2bo5772b2o11b2o390b2o5778b3o9b$4bo5771bo6184b2obo9b$o3bo11956b3o10b$o3bo6347b2o5607b3o10b$4bo6196b2o148bobo5607b3o10b$bobo6196b2o151bo5608b2o10b$6202bo5771b$6928bo5045b$5625b2o1301b2o5044b$10bo5614bobo1299bobo5044b$9b3o5613bo6348b$9bob2o11961b$10b3o5037bo6923b$10b3o5036b2o6923b$10b3o5036bobo6922b$10b2o11962b$11974b$5782b2o370bo35b2o5782b$5782b2o174b2o54b2o138bobo33b2o5782b$5958b2o54b2o138b2o5818b$11974b$11974b$5824bo6149b$5822bobo6149b$5823b2o6149b$11974b$5898b2o174b2o5898b$5743b3o152b2o174b2o5898b$5743bo6230b$5744bo6229b$5790b2o390b2o5790b$5790b2o390b2o5790b$6223b3o66b2o5680b$6225bo65bobo5680b$6224bo68bo5680b$11974b$6868bo5105b$5685b2o1181b2o5104b$5685bobo1179bobo5104b$5685bo6288b$11974b$5110bo6863b$5109b2o6863b$5109bobo6862b$11974b$11974b$11974b$11974b$5782b2o406b2o5782b$5782b2o174b2o54b2o174b2o5782b$5958b2o54b2o5930bo27b$11946b2o6b2o18b$11945bob2o4b4o17b$11946bobo4bo3bo16b$24b3o11920b2o6bobo16b$24bo11928bob2o17b$24bo5778b3o6139bo7b3o18b$25b2obo5774bo94b2o174b2o5868bobobo4bo20b$16b2o5786bo93b2o174b2o5867bo3b3o24b$16b2o10b2o11914b2o3bo24b$11923b3o22bo25b$5790b2o371b3o16b2o48b2o5691bo48b$5790b2o373bo16b2o47bobo5690bo49b$6164bo68bo5740b$11974b$27bo25b3o6752bo5137bo27b$27b2o24bo5691b2o1061b2o5135b2o27b$27b2o25bo5690bobo1059bobo5135b2o27b$28bo5716bo6199bo28b$11974b$5170bo6803b$5169b2o6803b$5169bobo6802b$11974b$11898b3o73b$11900bo73b$11899bo74b$11974b$11969b3o2b$78b3o5701b2o106b3o297b2o5777bo2bob$78bo5703b2o106b3o65b2o54b2o174b2o5777bo4b$79bo5810bo2bo64b2o54b2o5953bo3bo$5891b3o6075bo3bo$19bo5871b2o6061bo14bo4b$18bobo11932bobo14bobob$18bobo5842b3o6087bobo18b$19bo5843bo6090bo19b$5864bo217bo5891b$2b3o6076b3o5879bo10b$bo2bo6075b2o2bo5778b3o96b3o9b$4bo6077b3o18b3o66b2o5691bo95b2obo9b$o3bo5895b2o170b2o31bo65bobo5690bo96b3o10b$o3bo5785b2o98b2o8b2o170b2o30bo68bo8b2o5777b3o10b$4bo5785b2o98b2o290b2o5777b3o10b$bobo109b3o6632bo5213b2o10b$113bo5691b2o941b2o5224b$27bo86bo5690bobo266bo672bobo5196bo27b$27b2o5776bo266b2o5871b2o27b$10bo16b2o5872b3o169b2o5870b2o27b$9b3o16bo5201bo669bo3bo6040bo28b$9bob2o5216b2o668bo3b2o6069b$10b3o5216bobo667bo4bo6069b$10b3o5886bo3bo166b2o5902b$10b3o6057b2o5766b3o133b$10b2o5889b2o5937bo133b$11839bo134b$11974b$11974b$138b3o5953bo5879b$138bo5876bobo76bobo5877b$139bo5642b2o114b2o113b2o2b2o55b2o18b2o94b2o5782b$5782b2o114b2o112bo3bob2o54b2o114b2o5782b$6011bo3b2ob2o5954b$5884bo126bo5962b$19bo5862bobo38b3o39bo46b2o2bo2bo5934bo19b$18bobo5862b2o38bo41bo46b2o5bo5933bobo18b$18bobo5903bo36bo53b3o5935bobo18b$19bo5936bo3b3o52b3o5936bo19b$5956bo3bo3bo40b3o5795b3o168b$5956bo5bobo78b3o66b2o5691bo168b$5962b3o80bo65bobo5690bo169b$6044bo68bo5860b$11974b$173b3o5614b2o98b2o190b2o98b2o504bo5285b$173bo5616b2o73b2o23b2o190b2o98b2o504b2o5284b$174bo5690bobo86b2o62b2o667bobo5284b$5865bo88b2o62b2o5954b$27bo11918bo27b$27b2o5261bo6654b2o27b$27b2o5260b2o6654b2o27b$28bo5260bobo6653bo28b$11974b$11778b3o193b$5958b2o54b2o5764bo193b$5958b2o54b2o5763bo194b$11974b$11974b$198b3o11773b$198bo11775b$199bo11774b$11974b$5782b2o114b2o174b2o114b2o5782b$5782b2o114b2o174b2o114b2o5782b$11974b$11974b$19bo11934bo19b$18bobo5945b2o38b2o5945bobo18b$18bobo5945b2o38b2o5735b3o207bobo18b$19bo6032b2o5691bo208bo19b$6051bobo5690bo229b$6053bo5920b$11974b$233b3o6392bo5345b$233bo5691b2o701b2o5344b$234bo5555b2o133bobo254b2o443bobo5344b$5790b2o133bo256b2o5790b$11974b$5350bo6623b$27bo5321b2o6595bo27b$27b2o5320bobo6593b2o27b$27b2o11916b2o27b$28bo6101bo5587b3o224bo28b$6131b2o5587bo253b$6130b2o5587bo254b$5958b2o54b2o5958b$5958b2o17bo36b2o5958b$258b3o5577bo137bo5997b$258bo5577b2o138b3o5990b3o2b$259bo5577b2o6130bo2bob$11969bo4b$6001bo5967bo3bo$6002bo5966bo3bo$5782b2o114b2o100b3o71b2o114b2o5777bo4b$5782b2o114b2o174b2o114b2o5778bobob$11974b$11974b$19bo11663b3o268bo19b$2b3o13bobo5945b2o24b2o12b2o5677bo267bobo7bo10b$bo2bo13bobo5945b2o23bobo12b2o5676bo268bobo6b3o9b$4bo14bo5973bo5960bo6b2obo9b$o3bo11956b3o10b$o3bo288b3o6272bo5392b3o10b$4bo288bo5691b2o581b2o5391b3o10b$bobo290bo5690bobo579bobo5392b2o10b$5985bo5988b$5790b2o390b2o5790b$5410bo379b2o390b2o5790b$10bo5398b2o6563b$9b3o5397bobo6562b$9bob2o14bo11918bo27b$10b3o14b2o11629b3o284b2o27b$10b3o14b2o11631bo284b2o27b$10b3o15bo11630bo285bo28b$10b2o11962b$11974b$318b3o5637b2o54b2o5958b$318bo5639b2o54b2o5958b$319bo11654b$11974b$11974b$11974b$11974b$11974b$5782b2o114b2o174b2o114b2o5782b$5782b2o114b2o174b2o114b2o5782b$11623b3o348b$5932b2o5691bo348b$19bo5911bobo5690bo329bo19b$18bobo5912bo6019bobo18b$18bobo11932bobo18b$19bo333b3o6152bo5445bo19b$353bo5691b2o461b2o5464b$354bo5690bobo459bobo5464b$6045bo5928b$11974b$5470bo6503b$5469b2o319b2o390b2o5790b$5469bobo318b2o390b2o5790b$11974b$11598b3o373b$27bo11572bo345bo27b$27b2o11570bo345b2o27b$27b2o11916b2o27b$28bo11916bo28b$378b3o11593b$378bo11595b$379bo5578b2o54b2o5958b$5958b2o54b2o5958b$11974b$11974b$11974b$11974b$11974b$11974b$5782b2o114b2o174b2o114b2o5371b3o408b$5782b2o88b2o24b2o174b2o114b2o5373bo408b$5871bobo5690bo409b$5873bo6100b$19bo11934bo19b$18bobo392b3o6032bo5504bobo18b$18bobo392bo5691b2o341b2o5503bobo18b$19bo394bo5367b2o321bobo339bobo5504bo19b$5782b2o321bo5868b$6186bob2o5784b$5530bo655bo3bo5783b$5529b2o242b2o3bo4b3o405bo5782b$5529bobo241bob2o7b2o12b3o381b2o2b2o3bo5782b$5773b3o3bo3bo2bo2b2o6b2ob2o379b2o6b3o5782b$5774bo6bob2obo2b2o6bo2b2o380b2o5354b3o433b$5775b2o9bo11b2o383bo5356bo433b$5784b2o5753bo434b$27bo5749b2ob5o403b2o5756bo27b$27b2o6161bo5754b2o27b$27b2o409b3o5747b2o5755b2o27b$28bo409bo11506bo28b$439bo11534b$5782b2o406b2o5777b3o2b$5782b2o174b2o54b2o174b2o5777bo2bob$5958b2o54b2o5953bo4b$11969bo3bo$11969bo3bo$11969bo4b$11970bobob$6178bobo5322b3o468b$5812b2o364b2o5325bo468b$5811bobo84b2o174b2o103bo5324bo469b$2b3o5808bo84b2o174b2o5887bo10b$bo2bo11957b3o9b$4bo468b3o5322bobo587bo5572b2obo9b$o3bo14bo453bo5316b2o7b2o364b2o15b2o204b2o5564bo6b3o10b$o3bo13bobo453bo5315b2o7bo365bobo14b2o203bobo5563bobo5b3o10b$4bo13bobo6144bo5787bobo5b3o10b$bobo15bo11934bo7b2o10b$5590bo6383b$5589b2o6383b$5589bobo6382b$10bo11963b$9b3o11466b3o493b$9bob2o11467bo493b$10b3o11466bo494b$10b3o11961b$10b3o11961b$10b2o15bo470b3o11445bo27b$27b2o469bo11446b2o27b$27b2o470bo11445b2o27b$28bo11916bo28b$11974b$5782b2o406b2o5782b$5782b2o174b2o54b2o174b2o5782b$5958b2o54b2o5958b$11974b$11974b$11443b3o528b$5752b2o5691bo528b$5751bobo5690bo529b$5753bo6220b$5898b2o174b2o5898b$533b3o5362b2o174b2o252bo5645b$533bo5691b2o101b2o5644b$534bo5690bobo99bobo5644b$19bo5770b2o390b2o41bo5728bo19b$18bobo5769b2o390b2o5769bobo18b$18bobo5629bo6302bobo18b$19bo5629b2o6303bo19b$5649bobo6322b$11974b$11418b3o553b$11420bo553b$11419bo554b$11974b$11974b$558b3o11413b$558bo11415b$27bo531bo11386bo27b$27b2o11916b2o27b$27b2o11916b2o27b$28bo11916bo28b$11974b$5782b2o406b2o5782b$5782b2o174b2o54b2o174b2o5782b$5958b2o54b2o5958b$5768b2o5613b3o588b$5767b2o5616bo588b$5769bo5614bo589b$11974b$11974b$593b3o5603b2o67bo5705b$593bo5304b2o174b2o124b2o66b2o5704b$594bo5303b2o174b2o123bo67bobo5704b$11974b$11974b$19bo5690bo79b2o390b2o5770bo19b$18bobo5688b2o79b2o390b2o5769bobo18b$18bobo5688bobo6241bobo18b$19bo11934bo19b$11358b3o613b$11360bo613b$11359bo614b$11974b$11974b$618b3o11353b$618bo11355b$619bo11354b$11974b$27bo11918bo27b$27b2o11916b2o22b3o2b$27b2o11916b2o22bo2bob$28bo11916bo23bo4b$11969bo3bo$5782b2o406b2o5777bo3bo$5782b2o44b2o128b2o54b2o174b2o5131b3o643bo4b$5827b2o129b2o54b2o5309bo644bobob$5829bo5494bo649b$11974b$6118bobo5853b$2b3o648b3o5462b2o19b2o67bo5754bo10b$bo2bo648bo5245b3o217bo20b2o66b2o5752b3o9b$4bo649bo5243b4o172b3o62bo67bobo5751b2obo9b$o3bo5892bo4bo171b3o5884b3o10b$o3bo5853bobo35bo2b3o6059b3o10b$4bo5765bo88b2o35bo2bo2bo175bo2bo5879b3o10b$bobo5765b2o88bo36b3o2b2o167b2o5b2o2bo5880b2o10b$19bo5749bobo18b2o105b3o2bo167b6obo104b2o5770bo19b$18bobo5769b2o106b4o169bo2bo2bo3bo100b2o5769bobo18b$18bobo6050b2ob3o4bo5216b3o652bobo18b$10bo8bo5869b3o180b2o3b3o5220bo653bo19b$9b3o11287bo674b$9bob2o6077b3o5881b$10b3o6077b3o5881b$10b3o665b3o5410bo5882b$10b3o665bo5412bo5882b$10b2o667bo5410b3o5881b$5902b2o166b2o18b3o5881b$5902b2o165bobo5902b$6065bobo5906b$27bo6036bo5bo5875bo27b$27b2o6040bo5875b2o27b$27b2o11916b2o27b$28bo11916bo28b$5888b2o176bobo5194b3o708b$5782b2o103b2o9b2o174b2o114b2o5073bo708b$5782b2o105bo8b2o58b2o54b2o58b2o114b2o5072bo709b$5958b2o54b2o34bo5923b$6048b2o5924b$713b3o5333b2o28b2o67bo5825b$713bo5366b2o66b2o5824b$714bo5364bo67bobo5824b$5928bo6045b$5929b2o6043b$5830bo97b2o84bo5959b$5829b2o119b2o6b2obo49bo3bo5958b$5829bobo116bo3bo5bo2b2o51b2o5958b$5947bo5bo4bo5bo7bo31b3o3bo2bo2b3o5955b$19bo5770b2o98b2o55bo4bo7b3o8b2o30b2o3bo4b3o2bo63b2o98b2o5054b3o713bo19b$18bobo5769b2o98b2o55bo2bo10b2o3bo3b2o30b2o2bobo2bo6bo63b2o98b2o5056bo712bobo18b$18bobo5927bobo13bobo4bo31bo5bo2b2o2b2o5221bo713bobo18b$19bo5929bo12bo9bob3o27b2o2bo5b2o5938bo19b$5962bo11b3o31bo5965b$738b3o5216b2o3bo6011b$738bo11235b$739bo11234b$11974b$11974b$5958b2o54b2o5958b$5958b2o54b2o5958b$11974b$27bo11918bo27b$27b2o6078bo5837b2o27b$27b2o6076bobo5095b3o739b2o27b$28bo6077b2o5097bo739bo28b$11204bo769b$5782b2o114b2o102bo71b2o114b2o5782b$5782b2o77bo36b2o100b2o72b2o114b2o5782b$773b3o5085bobo137b2o85bo5885b$773bo5087b2o225b2o5884b$774bo5312bobo5884b$5966b2o8bo29b2o5966b$5966b2o9b2o27b2o5966b$5890bo85b2o5996b$5889b2o6083b$5889bobo6082b$11974b$11178b3o793b$11180bo793b$19bo5770b2o390b2o4995bo774bo19b$18bobo5769b2o390b2o5769bobo18b$18bobo11932bobo18b$19bo778b3o11153bo19b$798bo11175b$799bo11174b$11974b$11974b$11974b$11974b$5958b2o54b2o5953b3o2b$5958b2o54b2o5953bo2bob$11969bo4b$27bo11115b3o800bo22bo3bo$27b2o11116bo799b2o22bo3bo$27b2o11115bo800b2o22bo4b$28bo11916bo24bobob$11974b$833b3o4946b2o114b2o128bo45b2o114b2o5782b$833bo4948b2o114b2o128b2o44b2o114b2o5782b$2b3o829bo5192bobo5933bo10b$bo2bo11957b3o9b$4bo11956b2obo9b$o3bo5945bo15b2o38b2o5953b3o10b$o3bo5944b2o15b2o38b2o5953b3o10b$4bo5944bobo6009b3o10b$bobo11958b2o10b$11118b3o853b$11120bo853b$11119bo854b$10bo11963b$9b3o7bo5770b2o390b2o5770bo19b$9bob2o5bobo837b3o4929b2o390b2o5769bobo18b$10b3o5bobo837bo11094bobo18b$10b3o6bo839bo11094bo19b$10b3o11961b$10b2o11962b$11974b$11974b$11974b$11974b$5958b2o54b2o5958b$5958b2o54b2o5067b3o888b$11085bo888b$27bo11056bo861bo27b$27b2o11916b2o27b$27b2o11916b2o27b$28bo864b3o5072bo5976bo28b$893bo5074b2o6004b$894bo4887b2o114b2o67bobo104b2o114b2o5782b$5782b2o114b2o174b2o114b2o5782b$11974b$6010bo5963b$6009b2o5963b$6009bobo5962b$11974b$11058b3o913b$11060bo913b$11059bo914b$11974b$11974b$918b3o11053b$19bo898bo4871b2o390b2o5770bo19b$18bobo898bo4870b2o390b2o5769bobo18b$18bobo11932bobo18b$19bo11934bo19b$11974b$11974b$11974b$11974b$11974b$11023b3o948b$5958b2o54b2o5009bo948b$5958b2o54b2o5008bo949b$6167bo5806b$27bo6137bobo5778bo27b$27b2o924b3o4952bo257b2o5777b2o27b$27b2o924bo4954b2o6035b2o27b$28bo925bo4952bobo6035bo28b$5801bo6172b$5782b2o17bobo94b2o174b2o114b2o5782b$5782b2o17b2o95b2o170bo3b2o114b2o5782b$6069b2o5903b$6069bobo5902b$11974b$10998b3o973b$11000bo973b$10999bo974b$11974b$11974b$978b3o10993b$978bo10995b$979bo10994b$19bo5770b2o390b2o5770bo19b$18bobo5769b2o390b2o5769bobo18b$18bobo11932bobo18b$19bo11934bo19b$11974b$11974b$11969b3o2b$10963b3o1003bo2bob$10965bo1003bo4b$10964bo1004bo3bo$5958b2o54b2o5953bo3bo$5958b2o54b2o5953bo4b$1013b3o4832bo6121bobob$27bo985bo4834b2o6096bo27b$27b2o985bo4832bobo6095b2o27b$27b2o11916b2o27b$2b3o23bo11916bo17bo10b$bo2bo6125bo5831b3o9b$4bo5782b3o108b2o174b2o53b2o5830b2obo9b$o3bo5893b2o174b2o53bobo5829b3o10b$o3bo6180bo5775b3o10b$4bo5775b2o8bo393b2obo4b2o4744b3o1020b3o10b$bobo5776b2o3bo2b2ob2o389b6o4b2o4746bo1021b2o10b$5784bo5bo390bo2bo4754bo1034b$5784b3o394bobo5790b$6186bo5787b$10bo1027b3o5139bobob3o5787b$9b3o1026bo5141bo5bo5787b$9bob2o1026bo5142b3o5789b$10b3o6169b3o5789b$10b3o11961b$10b3o6bo11934bo19b$10b2o6bobo5757b2o414b2o5757bobo18b$18bobo5757b2o414b2o5757bobo18b$19bo11934bo19b$11974b$10903b3o1068b$10905bo1068b$10904bo1069b$11974b$5782b2o406b2o5782b$1073b3o4706b2o4bo169b2o54b2o174b2o5782b$1073bo4714b2o168b2o54b2o5958b$1074bo4712bobo6184b$27bo11918bo27b$27b2o11916b2o27b$27b2o6161bo5754b2o27b$28bo6160b2o5754bo28b$6189bobo5782b$5898b2o174b2o5898b$5898b2o174b2o4802b3o1093b$10880bo1093b$10879bo1094b$5790b2o390b2o5790b$5790b2o390b2o5790b$1098b3o10873b$1098bo10875b$1099bo10874b$6230bobo5741b$6231b2o5741b$6231bo5742b$11974b$19bo11934bo19b$18bobo5715bobo6214bobo18b$18bobo5715b2o6215bobo18b$19bo5717bo5105b3o1108bo19b$10845bo1128b$10844bo1129b$11974b$5732b2o6240b$1133b3o4596bobo6239b$1133bo4598bo49b2o406b2o5782b$1134bo4647b2o174b2o54b2o174b2o5782b$5958b2o54b2o5958b$6235b2o5737b$27bo6206bobo5709bo27b$27b2o6207bo5708b2o27b$27b2o11916b2o27b$28bo11916bo28b$10818b3o1153b$5898b2o174b2o4744bo1153b$5898b2o174b2o4743bo1154b$6143bo5830b$6142bo5831b$1158b3o4629b2o350b3o37b2o5790b$1158bo4631b2o390b2o5790b$1159bo10814b$5835bo6138b$5836bo6137b$5834b3o6137b$11974b$11974b$11974b$19bo11934bo19b$18bobo10762b3o1167bobo18b$18bobo10764bo1167bobo13b3o2b$19bo10764bo1169bo14bo2bob$11969bo4b$5792b2o6175bo3bo$1193b3o4596bobo6174bo3bo$1193bo4598bo6176bo4b$1194bo10775bobob$5782b2o406b2o5782b$5782b2o174b2o54b2o159b2o13b2o5782b$5958b2o54b2o158bobo5797b$2b3o6171bo5786bo10b$bo2bo22bo11918bo15b3o9b$4bo22b2o11916b2o14b2obo9b$o3bo22b2o10729b3o1184b2o14b3o10b$o3bo23bo10731bo1184bo15b3o10b$4bo10754bo1201b3o10b$bobo5894b2o174b2o5886b2o10b$5898b2o174b2o5898b$1218b3o10753b$1218bo10755b$10bo1208bo4570b2o390b2o5790b$9b3o5778b2o390b2o5790b$9bob2o11961b$10b3o11961b$10b3o5884bo6076b$10b3o5882b4o6075b$10b2o5882bo5bo6073b$5889b2o6bo3bo6072b$5888bo2bo2b2o5bo4821b3o1248b$19bo5867b2o2bo4bobob2o4823bo1228bo19b$18bobo5867b2o2bo5b2o4824bo1228bobo18b$18bobo5868b4o184b3o5873bobo18b$19bo5832b2o222bo2bo5874bo19b$1253b3o4596bobo221bo3bo5893b$1253bo4598bo222bo5898b$1254bo4819b2ob3o5894b$6075bo5898b$6075b2o3bo34b2o5857b$5782b2o114b2o176bo37bobo73b2o5782b$5782b2o114b2o58b2o54b2o100bo73b2o5782b$5958b2o54b2o5958b$6081bobo5890b$27bo6054b2o4614b3o1245bo27b$27b2o6053bo4617bo1244b2o27b$27b2o10670bo1245b2o27b$28bo11916bo28b$5885bobo6086b$1278b3o4604b2o6087b$1278bo4607bo6087b$1279bo10694b$11974b$5790b2o98b2o190b2o98b2o5790b$5790b2o98b2o190b2o98b2o5790b$11974b$11974b$11974b$11974b$10663b3o1308b$10665bo1308b$10664bo1309b$19bo11934bo19b$18bobo5891b2o6039bobo18b$18bobo1292b3o4596bobo6038bobo18b$19bo1293bo4598bo6041bo19b$1314bo10659b$11974b$6055b2o5917b$6054bobo5917b$6056bo5917b$5782b2o114b2o174b2o114b2o5782b$5782b2o114b2o108b2o64b2o114b2o5782b$5965b2o41b2o4628b3o1333b$5965bo2bo38bo4632bo1333b$27bo5928b2o8bo40bob2o5b2o4621bo1306bo27b$27b2o5860b2o65b2o8bo2bo37bo3b2o3b2o5927b2o27b$27b2o5859bo2bo73bo2b2o5975b2o27b$28bo1309b3o4618bo46bo5938bo28b$1338bo4549bobo68bobo3b3o37bobo5966b$1339bo4619b2o50bo71bo5890b$6011bo70bobo5889b$6007bobo72b2o5890b$6083bo5890b$5790b2o214bobo74bo98b2o5790b$5790b2o215bo75bo98b2o5790b$5954b2o51bo10b2o5954b$5954b2o62b2o5954b$10603b3o1368b$10605bo1368b$10604bo1369b$11969b3o2b$11969bo2bob$19bo1353b3o10578bo14bo4b$18bobo1352bo4584b2o54b2o5937bobo13bo3bo$18bobo1353bo4583b2o54b2o5937bobo13bo3bo$19bo11934bo14bo4b$11970bobob$11974b$11974b$11974b$2b3o11958bo10b$bo2bo5777b2o114b2o174b2o114b2o4386b3o1381b3o9b$4bo5777b2o114b2o174b2o114b2o4388bo1380b2obo9b$o3bo10574bo1381b3o10b$o3bo11956b3o10b$4bo22bo11918bo14b3o10b$bobo23b2o1369b3o4565b2o38b2o5937b2o15b2o10b$27b2o1369bo4567b2o38b2o5937b2o27b$28bo1370bo10545bo28b$11974b$10bo11963b$9b3o11962b$9bob2o11961b$10b3o11961b$10b3o5777b2o390b2o5790b$10b3o5777b2o390b2o5790b$10b2o10531b3o1428b$10545bo1428b$10544bo1429b$11974b$11974b$1433b3o10538b$1433bo10540b$19bo1414bo10519bo19b$18bobo5937b2o54b2o5937bobo18b$18bobo5937b2o54b2o5937bobo18b$19bo11934bo19b$11974b$11974b$11974b$10518b3o1453b$10520bo1453b$5782b2o114b2o174b2o114b2o4327bo1454b$5782b2o114b2o174b2o65bobo46b2o5782b$6142b2o5830b$1458b3o4681bo5831b$27bo1430bo10487bo27b$27b2o1430bo10485b2o27b$27b2o5796bobo6117b2o27b$28bo5796b2o6118bo28b$5826bo6147b$11974b$11974b$11974b$11974b$5790b2o390b2o4299b3o1488b$5790b2o390b2o4301bo1488b$10484bo1489b$11974b$11974b$1493b3o10478b$1493bo10480b$1494bo10479b$11974b$19bo11934bo19b$18bobo5937b2o54b2o5937bobo18b$18bobo5937b2o54b2o5937bobo18b$19bo11934bo19b$11974b$10458b3o1513b$10460bo1513b$10459bo1514b$11974b$5782b2o114b2o174b2o114b2o5782b$1518b3o4261b2o114b2o174b2o114b2o5782b$1518bo10455b$1519bo10454b$27bo11918bo27b$27b2o11916b2o27b$27b2o11916b2o27b$28bo11916bo28b$11974b$11974b$11974b$10423b3o1548b$10425bo1548b$5790b2o390b2o4240bo1549b$5790b2o390b2o5790b$11974b$1553b3o10413b3o2b$1553bo10415bo2bob$1554bo10414bo4b$11969bo3bo$11969bo3bo$11969bo4b$19bo11934bo15bobob$18bobo5937b2o54b2o5937bobo18b$18bobo5937b2o54b2o5937bobo18b$19bo10378b3o1553bo19b$2b3o10395bo1562bo10b$bo2bo10394bo1562b3o9b$4bo11956b2obo9b$o3bo11956b3o10b$o3bo1573b3o10380b3o10b$4bo1573bo4203b2o114b2o174b2o114b2o5769b3o10b$bobo1575bo4202b2o114b2o174b2o114b2o5770b2o10b$11974b$11974b$27bo11918bo27b$10bo16b2o11916b2o27b$9b3o15b2o11916b2o27b$9bob2o15bo11916bo28b$10b3o11961b$10b3o10350b3o1608b$10b3o10352bo1608b$10b2o10352bo1609b$11974b$11974b$1613b3o10358b$1613bo10360b$1614bo10359b$11974b$11974b$11974b$11974b$11974b$19bo11934bo19b$18bobo5937b2o54b2o4322b3o1612bobo18b$18bobo5937b2o54b2o4324bo1612bobo18b$19bo10319bo1614bo19b$11974b$11974b$1638b3o10333b$1638bo10335b$1639bo10334b$5898b2o174b2o114b3o5781b$5781b3o114b2o174b2o116bo5781b$5781b2ob2o3b2o399bobobo5779b$5783b2o2bob2o399b2o2b3o5777b$27bo5753bo2bob4o405b2o5749bo27b$27b2o5751bobobobob2o405b2o5748b2o27b$27b2o5751bobobob2o6157b2o27b$28bo5752bo3bo395b3o8bo4110b3o1639bo28b$10305bo1668b$6194bo4109bo1669b$5798b3o392bo5780b$5797bo3bo6172b$1673b3o4121bo3bo6172b$1673bo4103b2o19b3o6173b$1674bo4095bo5bo2bo414b2o5778b$5769bo3bob3obo414b2o5778b$5773b3ob2o6195b$5770bo6203b$5772b5o6197b$5773b5o6196b$11974b$10278b3o1693b$19bo5762b2o406b2o4088bo1673bo19b$18bobo5737bobo21b2o174b2o54b2o174b2o4087bo1673bobo18b$18bobo5737b2o198b2o54b2o5937bobo18b$19bo5739bo6194bo19b$1698b3o10273b$1698bo10275b$1699bo4518bobo5753b$6219b2o5753b$6219bo5754b$5898b2o174b2o5898b$5898b2o174b2o5898b$11974b$11974b$27bo5762b2o390b2o5762bo27b$27b2o5761b2o390b2o4059b3o1699b2o27b$27b2o10216bo1699b2o27b$28bo10215bo1700bo28b$11974b$11974b$1733b3o10238b$1733bo10240b$1734bo10234b3o2b$11969bo2bob$11969bo4b$11969bo3bo$5813bo6155bo3bo$5814bo6154bo4b$5812b3o6155bobob$10218b3o1753b$10220bo1753b$6155bo4063bo1754b$2b3o14bo5762b2o370bo35b2o5762bo8bo10b$bo2bo13bobo5761b2o174b2o54b2o138b3o33b2o5761bobo6b3o9b$4bo13bobo1737b3o4197b2o54b2o5937bobo5b2obo9b$o3bo14bo1738bo10195bo6b3o10b$o3bo1754bo10201b3o10b$4bo11956b3o10b$bobo11958b2o10b$11974b$5892b2o6080b$5891b3o188bo5891b$10bo5880b3o187b3o5890b$9b3o5879bo189bob2o5889b$9bob2o5881b2o4b2o170b2o4109b3o1788b$10b3o14bo5762b2o99b3obo4b2o170b2o108b2o4001bo1760bo27b$10b3o14b2o5761b2o99b4o287b2o4000bo1760b2o27b$10b3o14b2o5864b2o6050b2o27b$10b2o16bo11916bo28b$1793b3o4277bobo5898b$1793bo4279b2o5899b$1794bo4279bo5899b$11974b$5890bo6083b$5889bobo6082b$5889bo12b2o166b2o5902b$5890bo11b2o166b2o5902b$11974b$10158b3o1813b$10160bo1813b$10159bo1814b$11974b$11974b$19bo1798b3o3961b2o114b2o59bo55b3o56b2o114b2o5762bo19b$18bobo1797bo3963b2o114b2o57b4o53bo2bo56b2o114b2o5761bobo18b$18bobo1798bo4137bo7bo47b2ob2o5935bobo18b$19bo5936b3o3bo3bo46bo5940bo19b$5955b4o3b5o46b2ob2o2bo5953b$5954bo3bo6bo48b4obo5954b$5958bobo2b3o6008b$5955b2obobobo6011b$5957bo3bo43b3o5966b$11974b$10123b3o1848b$5974b3o4148bo1848b$5975bo4148bo1849b$27bo5762b2o98b2o83bo106b2o98b2o5762bo27b$27b2o5761b2o98b2o82b3o105b2o98b2o5761b2o27b$27b2o1824b3o4098b2o62b2o5925b2o27b$28bo1824bo4095bo2bo2bo62b2o5925bo28b$1854bo4094bo3bo6020b$5950b4o6020b$5950bo6023b$5950bo6023b$5951bo6022b$5951b2o6021b$5958b2o54b2o5958b$5958b2o54b2o4082b3o1873b$10100bo1873b$10099bo1874b$11974b$11974b$1878b3o10093b$1878bo3819bobo6273b$19bo1859bo3818b2o82b2o114b2o174b2o114b2o5762bo19b$18bobo5678bo82b2o114b2o174b2o114b2o5761bobo18b$18bobo11932bobo18b$19bo11934bo19b$6278bobo5693b$5966b2o38b2o271b2o5693b$5966b2o38b2o271bo5694b$11974b$10063b3o1908b$10065bo1908b$10064bo1909b$11974b$11974b$27bo1885b3o3874b2o98b2o190b2o98b2o5762bo27b$27b2o1884bo3876b2o98b2o190b2o98b2o5761b2o27b$27b2o1885bo3932bobo6095b2o27b$28bo5818b2o6096bo28b$5848bo6120b3o2b$5990bo5978bo2bob$5991bo5977bo4b$5989b3o137bobo5837bo3bo$6130b2o5837bo3bo$6130bo3907b3o1928bo4b$5873bo84b2o18bo35b2o4024bo1929bobob$5874bo83b2o17bo36b2o4023bo1934b$5872b3o102b3o5994b$11974b$2b3o1933b3o10022bo10b$bo2bo1933bo4156bo5866b3o9b$4bo1934bo4154bo5866b2obo9b$o3bo6089b3o5864b3o10b$o3bo14bo5762b2o114b2o174b2o114b2o5762bo6b3o10b$4bo13bobo5761b2o114b2o174b2o114b2o5761bobo5b3o10b$bobo14bobo11932bobo6b2o10b$19bo11934bo19b$11974b$5966b2o38b2o5966b$10bo5955b2o38b2o3995b3o1968b$9b3o9993bo1968b$9bob2o9991bo1969b$10b3o11961b$10b3o11961b$10b3o1960b3o9998b$10b2o1961bo10000b$27bo1946bo3815b2o98b2o190b2o98b2o5762bo27b$27b2o5761b2o98b2o190b2o98b2o5761b2o27b$27b2o11916b2o27b$28bo11916bo28b$11974b$11974b$11974b$9978b3o1993b$9980bo1993b$9979bo1994b$5958b2o54b2o5958b$5958b2o54b2o5958b$1998b3o9973b$1998bo9975b$1999bo9974b$11974b$11974b$11974b$19bo5762b2o114b2o174b2o114b2o5762bo19b$18bobo5761b2o114b2o174b2o114b2o5761bobo18b$18bobo11932bobo18b$19bo11934bo19b$9943b3o2028b$9945bo2028b$9944bo2029b$11974b$11974b$2033b3o9938b$2033bo9940b$2034bo9939b$11974b$27bo5762b2o390b2o5762bo27b$27b2o5761b2o390b2o5761b2o27b$27b2o11916b2o27b$28bo11916bo28b$11974b$9918b3o2053b$9920bo2053b$9919bo2054b$11974b$11974b$2058b3o3897b2o54b2o5958b$2058bo3899b2o54b2o5958b$2059bo9914b$11974b$11974b$5638bobo6333b$5638b2o6334b$5639bo6334b$19bo5762b2o114b2o174b2o114b2o5762bo19b$18bobo5761b2o114b2o174b2o114b2o5761bobo18b$18bobo6317bobo3542b3o2067bobo18b$19bo6319b2o3544bo2068bo19b$6339bo3544bo2089b$11974b$11974b$2093b3o9878b$2093bo3696b3o6181b$2094bo3695bo2bo6180b$5788bo5bo6179b$5788bobo4bo6178b$5788b3o2bobo6178b$27bo5766bo6151bo22b3o2b$27b2o11916b2o22bo2bob$27b2o11916b2o22bo4b$28bo9829b3o2084bo23bo3bo$9860bo2108bo3bo$9859bo2109bo4b$11970bobob$11974b$2118b3o9853b$2118bo9855b$2b3o2114bo3838b2o54b2o5947bo10b$bo2bo5953b2o54b2o5946b3o9b$4bo11956b2obo9b$o3bo11956b3o10b$o3bo11956b3o10b$4bo11956b3o10b$bobo11958b2o10b$11974b$19bo5762b2o114b2o174b2o114b2o3631b3o2128bo19b$18bobo5761b2o114b2o174b2o114b2o3633bo2127bobo18b$10bo7bobo9803bo2128bobo18b$9b3o7bo11934bo19b$9bob2o11961b$10b3o2140b3o9818b$10b3o2140bo9820b$10b3o2141bo9819b$10b2o11962b$11974b$11974b$11974b$11974b$27bo11918bo27b$27b2o9769b3o2144b2o27b$27b2o9771bo2144b2o27b$28bo9770bo2145bo28b$11974b$11974b$2178b3o9793b$2178bo9795b$2179bo9794b$11974b$5958b2o54b2o5958b$5958b2o54b2o5958b$11974b$11974b$11974b$11974b$9763b3o2208b$9765bo2208b$19bo5762b2o114b2o174b2o114b2o3572bo2189bo19b$18bobo5761b2o114b2o174b2o114b2o5761bobo18b$18bobo11932bobo18b$19bo2193b3o9738bo19b$2213bo9760b$2214bo9759b$11974b$11974b$11974b$11974b$11974b$11974b$9738b3o2233b$27bo9712bo2205bo27b$27b2o9710bo2205b2o27b$27b2o11916b2o27b$28bo11916bo28b$2238b3o9733b$2238bo9735b$2239bo9734b$11974b$11974b$11974b$5958b2o54b2o5958b$5958b2o54b2o5958b$11974b$5578bobo6393b$5578b2o4123b3o2268b$5579bo4125bo2268b$9704bo2269b$11974b$19bo5762b2o114b2o174b2o114b2o206bobo5553bo19b$18bobo2252b3o3506b2o114b2o174b2o114b2o207b2o5552bobo18b$18bobo2252bo4125bo5553bobo18b$19bo2254bo9679bo19b$11974b$11974b$11974b$11974b$11974b$11969b3o2b$9678b3o2288bo2bob$9680bo2288bo4b$9679bo2289bo3bo$27bo11918bo22bo3bo$27b2o11916b2o22bo4b$27b2o2269b3o9644b2o23bobob$28bo2269bo9646bo28b$2299bo9674b$11974b$2b3o11958bo10b$bo2bo11957b3o9b$4bo11956b2obo9b$o3bo11956b3o10b$o3bo5953b2o54b2o5945b3o10b$4bo5953b2o54b2o5945b3o10b$bobo9639b3o2316b2o10b$9645bo2328b$9644bo2329b$11974b$10bo11963b$9b3o2321b3o9638b$9bob2o6bo2313bo3448b2o114b2o174b2o114b2o5762bo19b$10b3o5bobo2313bo3447b2o114b2o174b2o114b2o5761bobo18b$10b3o5bobo11932bobo18b$10b3o6bo11934bo19b$10b2o11962b$11974b$11974b$11974b$9618b3o2353b$9620bo2353b$9619bo2354b$11974b$11974b$27bo2330b3o9585bo27b$27b2o2329bo9586b2o27b$27b2o2330bo9585b2o27b$28bo11916bo28b$11974b$11974b$11974b$11974b$11974b$11974b$5958b2o54b2o3567b3o2388b$5958b2o54b2o3569bo2388b$9584bo2389b$11974b$11974b$2393b3o9578b$2393bo9580b$2394bo9579b$19bo5762b2o114b2o174b2o114b2o5762bo19b$18bobo5761b2o114b2o174b2o114b2o5761bobo18b$18bobo11932bobo18b$19bo11934bo19b$11974b$11974b$9558b3o2413b$9560bo2413b$9559bo2414b$11974b$11974b$2418b3o9553b$2418bo9555b$27bo2391bo9526bo27b$27b2o11916b2o27b$27b2o11916b2o27b$28bo11916bo28b$11974b$11974b$11974b$11974b$9523b3o2448b$9525bo2448b$5958b2o54b2o3508bo2449b$5518bobo437b2o54b2o5958b$5518b2o6454b$2453b3o3063bo6454b$2453bo9520b$2454bo9519b$6458bobo5513b$6459b2o5513b$19bo5762b2o114b2o174b2o114b2o267bo5494bo19b$18bobo5761b2o114b2o174b2o114b2o5761bobo18b$18bobo11932bobo18b$19bo11934bo19b$9498b3o2473b$9500bo2468b3o2b$9499bo2469bo2bob$11969bo4b$11969bo3bo$2478b3o9488bo3bo$2478bo9490bo4b$2479bo9490bobob$11974b$27bo11918bo27b$27b2o11916b2o27b$2b3o22b2o11916b2o16bo10b$bo2bo23bo11916bo16b3o9b$4bo11956b2obo9b$o3bo11956b3o10b$o3bo9458b3o2495b3o10b$4bo9460bo2495b3o10b$bobo9460bo2497b2o10b$11974b$5958b2o54b2o5958b$2513b3o3442b2o54b2o5958b$10bo2502bo9460b$9b3o2502bo9459b$9bob2o11961b$10b3o11961b$10b3o11961b$10b3o11961b$10b2o7bo5762b2o114b2o174b2o114b2o5762bo19b$18bobo5761b2o114b2o174b2o114b2o5761bobo18b$18bobo9417b3o2512bobo18b$19bo9420bo2513bo19b$9439bo2534b$11974b$11974b$2538b3o9433b$2538bo9435b$2539bo9434b$11974b$11974b$11974b$27bo11918bo27b$27b2o11916b2o27b$27b2o11916b2o27b$28bo11916bo28b$9403b3o2568b$9405bo2568b$9404bo2569b$11974b$11974b$2573b3o9398b$2573bo3384b2o54b2o5958b$2574bo3383b2o54b2o5958b$11974b$11974b$11974b$11974b$11974b$11974b$19bo5762b2o114b2o174b2o114b2o3186b3o2573bo19b$18bobo5761b2o114b2o174b2o114b2o3188bo2572bobo18b$18bobo9358bo2573bobo18b$19bo11934bo19b$11974b$2598b3o9373b$2598bo9375b$2599bo9374b$11974b$11974b$11974b$11974b$11974b$27bo11918bo27b$27b2o11916b2o27b$27b2o9314b3o2599b2o27b$28bo9316bo2599bo28b$9344bo2629b$11974b$11974b$2633b3o9338b$2633bo9340b$2634bo2823bobo6513b$5458b2o498b2o54b2o5958b$5459bo498b2o54b2o5958b$11974b$11974b$6518bobo5453b$6519b2o5453b$6519bo2798b3o2653b$9320bo2653b$19bo5762b2o114b2o174b2o114b2o3127bo2634bo19b$18bobo5761b2o114b2o174b2o114b2o5761bobo13b3o2b$18bobo11932bobo13bo2bob$19bo2638b3o9293bo14bo4b$2658bo9310bo3bo$2659bo9309bo3bo$11969bo4b$11970bobob$11974b$11974b$11974b$2b3o11958bo10b$bo2bo11957b3o9b$4bo22bo9255b3o2660bo14b2obo9b$o3bo22b2o9256bo2659b2o14b3o10b$o3bo22b2o9255bo2660b2o14b3o10b$4bo23bo11916bo15b3o10b$bobo11958b2o10b$2693b3o9278b$2693bo9280b$2694bo9279b$10bo11963b$9b3o11962b$9bob2o5945b2o54b2o5958b$10b3o5945b2o54b2o5958b$10b3o11961b$10b3o11961b$10b2o9246b3o2713b$9260bo2713b$9259bo2714b$11974b$19bo5762b2o114b2o174b2o114b2o5762bo19b$18bobo2697b3o3061b2o114b2o174b2o114b2o5761bobo18b$18bobo2697bo9234bobo18b$19bo2699bo9234bo19b$11974b$11974b$11974b$11974b$11974b$11974b$11974b$9223b3o2748b$9225bo2748b$27bo9196bo2721bo27b$27b2o11916b2o27b$27b2o11916b2o27b$28bo2724b3o9189bo28b$2753bo9220b$2754bo9219b$11974b$11974b$11974b$11974b$5958b2o54b2o5958b$5958b2o54b2o5958b$9198b3o2773b$9200bo2773b$9199bo2774b$11974b$11974b$2778b3o9193b$19bo2758bo3003b2o114b2o174b2o114b2o5762bo19b$18bobo2758bo3002b2o114b2o174b2o114b2o5761bobo18b$18bobo11932bobo18b$19bo11934bo19b$11974b$11974b$11974b$11974b$11974b$9163b3o2808b$9165bo2808b$9164bo2809b$11974b$27bo11918bo27b$27b2o2784b3o9129b2o27b$27b2o2784bo9131b2o27b$28bo2785bo9130bo28b$11974b$11974b$11974b$5398bobo6573b$5398b2o6574b$5399bo6574b$5958b2o54b2o3122b3o2833b$5958b2o54b2o3124bo2833b$6578bobo2558bo2834b$6579b2o5393b$6579bo5394b$2838b3o9128b3o2b$2838bo9130bo2bob$2839bo9129bo4b$19bo5762b2o114b2o174b2o114b2o5762bo14bo3bo$18bobo5761b2o114b2o174b2o114b2o5761bobo13bo3bo$18bobo11932bobo13bo4b$19bo11934bo15bobob$11974b$11974b$11974b$2b3o9098b3o2857bo10b$bo2bo9100bo2856b3o9b$4bo9099bo2856b2obo9b$o3bo11956b3o10b$o3bo11956b3o10b$4bo2868b3o9085b3o10b$bobo23bo2845bo9072bo15b2o10b$27b2o2845bo9070b2o27b$27b2o11916b2o27b$28bo11916bo28b$10bo11963b$9b3o11962b$9bob2o11961b$10b3o11961b$10b3o9065b3o2893b$10b3o9067bo2893b$10b2o5946b2o54b2o3063bo2894b$5958b2o54b2o5958b$11974b$2898b3o9073b$2898bo9075b$2899bo9074b$11974b$11974b$19bo5762b2o114b2o174b2o114b2o5762bo19b$18bobo5761b2o114b2o174b2o114b2o5761bobo18b$18bobo11932bobo18b$19bo11934bo19b$11974b$9043b3o2928b$9045bo2928b$9044bo2929b$11974b$11974b$2933b3o9038b$2933bo9040b$2934bo9039b$27bo11918bo27b$27b2o11916b2o27b$27b2o11916b2o27b$28bo11916bo28b$11974b$11974b$9018b3o2953b$9020bo2953b$9019bo2954b$11974b$5958b2o54b2o5958b$2958b3o2997b2o54b2o5958b$2958bo9015b$2959bo9014b$11974b$11974b$11974b$11974b$19bo5762b2o114b2o174b2o114b2o5762bo19b$18bobo5761b2o114b2o174b2o114b2o5761bobo18b$18bobo11932bobo18b$19bo8963b3o2968bo19b$8985bo2988b$8984bo2989b$11974b$11974b$2993b3o8978b$2993bo8980b$2994bo8979b$11974b$11974b$27bo11918bo27b$27b2o11916b2o27b$27b2o11916b2o27b$28bo11916bo28b$8958b3o3013b$5338bobo3619bo3013b$5338b2o3619bo3014b$5339bo6634b$11974b$3018b3o8953b$3018bo2939b2o54b2o622bobo5333b$3019bo2938b2o54b2o623b2o5328b3o2b$6639bo5329bo2bob$11969bo4b$11969bo3bo$11969bo3bo$11969bo4b$11970bobob$19bo5762b2o114b2o174b2o114b2o5762bo19b$18bobo5761b2o114b2o174b2o114b2o2731b3o3027bobo18b$18bobo8904bo3027bobo18b$2b3o14bo8904bo3029bo8bo10b$bo2bo11957b3o9b$4bo11956b2obo9b$o3bo3048b3o8905b3o10b$o3bo3048bo8907b3o10b$4bo3049bo8906b3o10b$bobo11958b2o10b$11974b$11974b$11974b$10bo16bo11918bo27b$9b3o15b2o11916b2o27b$9bob2o14b2o8869b3o3044b2o27b$10b3o15bo8871bo3044bo28b$10b3o8886bo3074b$10b3o11961b$10b2o11962b$3078b3o8893b$3078bo8895b$3079bo8894b$5958b2o54b2o5958b$5958b2o54b2o5958b$11974b$11974b$11974b$11974b$11974b$8863b3o3108b$19bo5762b2o114b2o174b2o114b2o2673bo3088bo19b$18bobo5761b2o114b2o174b2o114b2o2672bo3088bobo18b$18bobo11932bobo18b$19bo11934bo19b$3113b3o8858b$3113bo8860b$3114bo8859b$11974b$11974b$11974b$11974b$11974b$11974b$27bo8810b3o3105bo27b$27b2o8811bo3104b2o27b$27b2o8810bo3105b2o27b$28bo11916bo28b$11974b$3138b3o8833b$3138bo8835b$3139bo8834b$11974b$11974b$5958b2o54b2o5958b$5958b2o54b2o5958b$11974b$11974b$11974b$8803b3o3168b$8805bo3168b$8804bo3169b$19bo5762b2o114b2o174b2o114b2o5762bo19b$18bobo5761b2o114b2o174b2o114b2o5761bobo18b$18bobo3152b3o8777bobo18b$19bo3153bo8780bo19b$3174bo8799b$11974b$11974b$11974b$11974b$11974b$11974b$8778b3o3193b$8780bo3193b$27bo8751bo3166bo27b$27b2o11916b2o27b$27b2o11916b2o27b$28bo3169b3o2077bobo6664bo28b$3198bo2079b2o6694b$3199bo2079bo6694b$11974b$11969b3o2b$6698bobo5268bo2bob$6699b2o5268bo4b$5958b2o54b2o683bo5269bo3bo$5958b2o54b2o5953bo3bo$11969bo4b$8743b3o3224bobob$8745bo3228b$8744bo3229b$11974b$2b3o11958bo10b$bo2bo14bo3213b3o2546b2o114b2o174b2o114b2o5762bo7b3o9b$4bo13bobo3212bo2548b2o114b2o174b2o114b2o5761bobo5b2obo9b$o3bo13bobo3213bo8718bobo5b3o10b$o3bo14bo11934bo6b3o10b$4bo11956b3o10b$bobo11958b2o10b$11974b$11974b$11974b$10bo8707b3o3253b$9b3o8708bo3253b$9bob2o8706bo3254b$10b3o11961b$10b3o14bo11918bo27b$10b3o14b2o3229b3o8684b2o27b$10b2o15b2o3229bo8686b2o27b$28bo3230bo8685bo28b$11974b$11974b$11974b$11974b$11974b$11974b$5958b2o54b2o5958b$5958b2o54b2o2667b3o3288b$8685bo3288b$8684bo3289b$11974b$11974b$3293b3o8678b$3293bo8680b$19bo3274bo2487b2o114b2o174b2o114b2o5762bo19b$18bobo5761b2o114b2o174b2o114b2o5761bobo18b$18bobo11932bobo18b$19bo11934bo19b$11974b$11974b$11974b$8658b3o3313b$8660bo3313b$8659bo3314b$11974b$11974b$3318b3o8653b$27bo3290bo8627bo27b$27b2o3290bo8625b2o27b$27b2o11916b2o27b$28bo11916bo28b$11974b$11974b$11974b$11974b$11974b$8623b3o3348b$5958b2o54b2o2609bo3348b$5958b2o54b2o2608bo3349b$11974b$11974b$3353b3o8618b$3353bo8620b$3354bo8619b$11974b$19bo5762b2o114b2o174b2o114b2o5762bo19b$18bobo5761b2o114b2o174b2o114b2o5761bobo18b$18bobo11932bobo18b$19bo11934bo19b$11974b$8598b3o3373b$8600bo3373b$8599bo3374b$11974b$11974b$3378b3o8593b$3378bo8595b$3379bo8594b$27bo11918bo27b$27b2o5189bobo6724b2o27b$27b2o5189b2o6725b2o27b$28bo5190bo6725bo23b3o2b$11969bo2bob$11969bo4b$6758bobo5208bo3bo$6759b2o1802b3o3403bo3bo$6759bo1805bo3403bo4b$8564bo3405bobob$5958b2o54b2o5958b$5958b2o54b2o5958b$3413b3o8558b$2b3o3408bo8549bo10b$bo2bo3409bo8547b3o9b$4bo11956b2obo9b$o3bo11956b3o10b$o3bo11956b3o10b$4bo14bo5762b2o114b2o174b2o114b2o5762bo6b3o10b$bobo14bobo5761b2o114b2o174b2o114b2o5761bobo6b2o10b$18bobo11932bobo18b$19bo8518b3o3413bo19b$8540bo3433b$10bo8528bo3434b$9b3o11962b$9bob2o11961b$10b3o3425b3o8533b$10b3o3425bo8535b$10b3o3426bo8534b$10b2o11962b$11974b$27bo11918bo27b$27b2o11916b2o27b$27b2o11916b2o27b$28bo11916bo28b$11974b$8503b3o3468b$8505bo3468b$8504bo3469b$11974b$11974b$3473b3o2482b2o54b2o5958b$3473bo2484b2o54b2o5958b$3474bo8499b$11974b$11974b$11974b$11974b$11974b$19bo5762b2o114b2o174b2o114b2o5762bo19b$18bobo5761b2o114b2o174b2o114b2o2286b3o3472bobo18b$18bobo8459bo3472bobo18b$19bo8459bo3474bo19b$11974b$11974b$3498b3o8473b$3498bo8475b$3499bo8474b$11974b$11974b$11974b$11974b$27bo11918bo27b$27b2o11916b2o27b$27b2o11916b2o27b$28bo8414b3o3499bo28b$8445bo3528b$8444bo3529b$11974b$11974b$3533b3o8438b$3533bo8440b$3534bo2423b2o54b2o5958b$5958b2o54b2o5958b$11974b$11974b$11974b$11974b$11974b$8418b3o3553b$19bo5762b2o114b2o174b2o114b2o2228bo3533bo19b$18bobo5761b2o114b2o174b2o114b2o2227bo3533bobo18b$18bobo11932bobo18b$19bo11934bo19b$3558b3o8413b$3558bo8415b$3559bo8414b$11974b$11974b$11974b$11974b$11974b$5158bobo6808b3o2b$27bo5130b2o6786bo22bo2bob$27b2o5130bo3223b3o3559b2o22bo4b$27b2o8356bo3559b2o22bo3bo$28bo8355bo3560bo23bo3bo$6818bobo5148bo4b$6819b2o5149bobob$3593b3o3223bo5154b$3593bo8380b$3594bo8379b$2b3o11958bo10b$bo2bo5953b2o54b2o5946b3o9b$4bo5953b2o54b2o5945b2obo9b$o3bo11956b3o10b$o3bo11956b3o10b$4bo11956b3o10b$bobo8354b3o3601b2o10b$8360bo3613b$8359bo3614b$19bo5762b2o114b2o174b2o114b2o5762bo19b$10bo7bobo5761b2o114b2o174b2o114b2o5761bobo18b$9b3o6bobo3597b3o8332bobo18b$9bob2o6bo3598bo8335bo19b$10b3o3606bo8354b$10b3o11961b$10b3o11961b$10b2o11962b$11974b$11974b$11974b$11974b$8323b3o3648b$27bo8297bo3620bo27b$27b2o8295bo3620b2o27b$27b2o11916b2o27b$28bo11916bo28b$3653b3o8318b$3653bo8320b$3654bo8319b$11974b$11974b$11974b$5958b2o54b2o5958b$5958b2o54b2o5958b$11974b$8298b3o3673b$8300bo3673b$8299bo3674b$11974b$11974b$19bo3658b3o2101b2o114b2o174b2o114b2o5762bo19b$18bobo3657bo2103b2o114b2o174b2o114b2o5761bobo18b$18bobo3658bo8273bobo18b$19bo11934bo19b$11974b$11974b$11974b$11974b$11974b$11974b$8263b3o3708b$8265bo3708b$8264bo3709b$27bo11918bo27b$27b2o11916b2o27b$27b2o3684b3o8229b2o27b$28bo3684bo8231bo28b$3714bo8259b$11974b$11974b$11974b$11974b$11974b$5958b2o54b2o5958b$5958b2o54b2o2222b3o3733b$8240bo3733b$8239bo3734b$11974b$11974b$3738b3o8233b$3738bo8235b$19bo3719bo2042b2o114b2o174b2o114b2o5762bo19b$18bobo5761b2o114b2o174b2o114b2o5761bobo18b$18bobo11932bobo18b$19bo11934bo19b$11974b$11974b$11974b$11974b$8203b3o3763b3o2b$8205bo3763bo2bob$5098bobo3103bo3764bo4b$5098b2o6869bo3bo$5099bo6869bo3bo$27bo3745b3o8170bo22bo4b$27b2o3744bo8171b2o23bobob$27b2o3745bo3103bobo5064b2o27b$28bo6850b2o5064bo28b$6879bo5094b$2b3o11958bo10b$bo2bo11957b3o9b$4bo11956b2obo9b$o3bo11956b3o10b$o3bo6869b3o1301b3o3780b3o10b$4bo5953b2o54b2o860bo1303bo3780b3o10b$bobo5954b2o54b2o859bo1303bo3782b2o10b$11974b$11974b$3798b3o1301b3o6869b$10bo3787bo1303bo6871b$9b3o3787bo1303bo6870b$9bob2o11961b$10b3o6bo5762b2o114b2o174b2o114b2o5762bo19b$10b3o5bobo5761b2o114b2o174b2o114b2o5761bobo18b$10b3o5bobo11932bobo18b$10b2o7bo11934bo19b$11974b$11974b$8143b3o3828b$8145bo3828b$8144bo3829b$11974b$11974b$3833b3o8138b$3833bo8140b$27bo3806bo8111bo27b$27b2o11916b2o27b$27b2o11916b2o27b$28bo11916bo28b$11974b$11974b$11974b$6814b3o1301b3o3853b$6816bo1303bo3853b$6815bo1303bo3854b$5958b2o54b2o5958b$5958b2o54b2o5958b$3858b3o1301b3o6809b$3858bo1303bo6811b$3859bo1303bo6810b$11974b$11974b$11974b$19bo5762b2o114b2o174b2o114b2o5762bo19b$18bobo5761b2o114b2o174b2o114b2o5761bobo18b$18bobo11932bobo18b$19bo11934bo19b$8083b3o3888b$8085bo3888b$8084bo3889b$11974b$11974b$3893b3o8078b$3893bo8080b$3894bo8079b$11974b$27bo11918bo27b$27b2o11916b2o27b$27b2o11916b2o27b$28bo11916bo28b$11974b$6754b3o1301b3o3913b$6756bo1303bo3913b$6755bo1303bo3914b$11974b$11974b$3918b3o1301b3o733b2o54b2o5958b$3918bo1303bo735b2o54b2o5958b$3919bo1303bo6750b$11974b$11974b$11974b$11974b$11974b$19bo5762b2o114b2o174b2o114b2o5762bo19b$18bobo5761b2o114b2o174b2o114b2o5761bobo18b$18bobo8002b3o3927bobo18b$19bo8005bo3928bo19b$8024bo3944b3o2b$11969bo2bob$5144bo6824bo4b$3953b3o1189bo6823bo3bo$3953bo1189b3o6823bo3bo$3954bo8014bo4b$11970bobob$6824bo5149b$6823bo5150b$27bo6795b3o5120bo27b$2b3o22b2o11916b2o16bo10b$bo2bo22b2o11916b2o15b3o9b$4bo23bo6665b3o1301b3o3944bo15b2obo9b$o3bo6691bo1303bo3960b3o10b$o3bo6690bo1303bo3961b3o10b$4bo11956b3o10b$bobo11958b2o10b$3978b3o1301b3o6689b$3978bo1303bo6691b$3979bo1303bo674b2o54b2o5958b$10bo5947b2o54b2o5958b$9b3o11962b$9bob2o11961b$10b3o11961b$10b3o11961b$10b3o11961b$10b2o11962b$19bo5762b2o114b2o174b2o114b2o1771b3o3988bo19b$18bobo5761b2o114b2o174b2o114b2o1773bo3987bobo18b$18bobo7943bo3988bobo18b$19bo11934bo19b$11974b$4013b3o7958b$4013bo7960b$4014bo7959b$11974b$11974b$11974b$11974b$11974b$27bo11918bo27b$27b2o6605b3o1301b3o4004b2o27b$27b2o6607bo1303bo4004b2o27b$28bo6606bo1303bo4005bo28b$11974b$11974b$4038b3o1301b3o6629b$4038bo1303bo6631b$4039bo1303bo6630b$11974b$5958b2o54b2o5958b$5958b2o54b2o5958b$11974b$11974b$11974b$11974b$7903b3o4068b$7905bo4068b$19bo5762b2o114b2o174b2o114b2o1712bo4049bo19b$18bobo5761b2o114b2o174b2o114b2o5761bobo18b$18bobo11932bobo18b$19bo4053b3o7878bo19b$4073bo7900b$4074bo7899b$11974b$11974b$11974b$11974b$11974b$11974b$6574b3o1301b3o4093b$27bo6548bo1303bo4065bo27b$27b2o6546bo1303bo4065b2o27b$27b2o11916b2o27b$28bo11916bo28b$4098b3o1301b3o6569b$4098bo1303bo6571b$4099bo1303bo6570b$11974b$11974b$11974b$5958b2o54b2o5958b$5958b2o54b2o5958b$11974b$11974b$7843b3o4128b$7845bo4128b$7844bo4129b$11974b$19bo5762b2o114b2o174b2o114b2o5762bo14b3o2b$18bobo4112b3o1646b2o114b2o174b2o114b2o5761bobo13bo2bob$18bobo4112bo7819bobo13bo4b$19bo4114bo7819bo14bo3bo$5204bo6764bo3bo$5205bo6763bo4b$5203b3o6764bobob$11974b$11974b$6764bo5209b$2b3o6509b3o246bo1054b3o4142bo10b$bo2bo6511bo246b3o1054bo4141b3o9b$4bo6510bo1303bo4141b2obo9b$o3bo22bo11918bo14b3o10b$o3bo22b2o11916b2o14b3o10b$4bo22b2o4129b3o1301b3o6480b2o14b3o10b$bobo24bo4129bo1303bo6482bo16b2o10b$4159bo1303bo6510b$11974b$11974b$10bo11963b$9b3o11962b$9bob2o11961b$10b3o5945b2o54b2o5958b$10b3o5945b2o54b2o5958b$10b3o7770b3o4188b$10b2o7773bo4188b$7784bo4189b$11974b$11974b$4193b3o7778b$19bo4173bo1588b2o114b2o174b2o114b2o5762bo19b$18bobo4173bo1587b2o114b2o174b2o114b2o5761bobo18b$18bobo11932bobo18b$19bo11934bo19b$11974b$11974b$11974b$11974b$6454b3o1301b3o4213b$6456bo1303bo4213b$6455bo1303bo4214b$11974b$11974b$27bo4190b3o1301b3o6421bo27b$27b2o4189bo1303bo6422b2o27b$27b2o4190bo1303bo6421b2o27b$28bo11916bo28b$11974b$11974b$11974b$11974b$11974b$11974b$5958b2o54b2o1707b3o4248b$5958b2o54b2o1709bo4248b$7724bo4249b$11974b$11974b$4253b3o7718b$4253bo7720b$4254bo7719b$19bo5762b2o114b2o174b2o114b2o5762bo19b$18bobo5761b2o114b2o174b2o114b2o5761bobo18b$18bobo11932bobo18b$19bo11934bo19b$11974b$11974b$6394b3o1301b3o4273b$6396bo1303bo4273b$6395bo1303bo4274b$11974b$11974b$4278b3o1301b3o6389b$4278bo1303bo6391b$27bo4251bo1303bo6362bo27b$27b2o11916b2o27b$27b2o11916b2o27b$28bo11916bo28b$11974b$11974b$11974b$11974b$7663b3o4308b$7665bo4308b$5958b2o54b2o1648bo4309b$5958b2o54b2o5958b$11974b$4313b3o7658b$4313bo7655b3o2b$4314bo7654bo2bob$11969bo4b$11969bo3bo$19bo5762b2o114b2o174b2o114b2o5762bo14bo3bo$18bobo5761b2o114b2o174b2o114b2o5761bobo13bo4b$18bobo5243bo6688bobo14bobob$19bo5245bo6688bo19b$5263b3o1068b3o1301b3o4333b$6336bo1303bo4333b$2b3o6330bo1303bo4323bo10b$bo2bo6699bo5257b3o9b$4bo6698bo5257b2obo9b$o3bo4333b3o1301b3o1058b3o5255b3o10b$o3bo4333bo1303bo6318b3o10b$4bo4334bo1303bo6317b3o10b$bobo11958b2o10b$27bo11918bo27b$27b2o11916b2o27b$27b2o11916b2o27b$10bo17bo11916bo28b$9b3o11962b$9bob2o11961b$10b3o7590b3o4368b$10b3o7592bo4368b$10b3o7591bo4369b$10b2o11962b$5958b2o54b2o5958b$4373b3o1582b2o54b2o5958b$4373bo7600b$4374bo7599b$11974b$11974b$11974b$11974b$19bo5762b2o114b2o174b2o114b2o5762bo19b$18bobo5761b2o114b2o174b2o114b2o5761bobo18b$18bobo6253b3o1301b3o4372bobo18b$19bo6256bo1303bo4373bo19b$6275bo1303bo4394b$11974b$11974b$4398b3o1301b3o6269b$4398bo1303bo6271b$4399bo1303bo6270b$11974b$11974b$11974b$27bo11918bo27b$27b2o11916b2o27b$27b2o11916b2o27b$28bo11916bo28b$7543b3o4428b$7545bo4428b$7544bo4429b$11974b$11974b$4433b3o7538b$4433bo1524b2o54b2o5958b$4434bo1523b2o54b2o5958b$11974b$11974b$11974b$11974b$11974b$11974b$19bo5762b2o114b2o174b2o114b2o22b3o1301b3o4433bo19b$18bobo5761b2o114b2o174b2o114b2o24bo1303bo4432bobo18b$18bobo6194bo1303bo4433bobo18b$19bo11934bo19b$11974b$4458b3o1301b3o6209b$4458bo1303bo6211b$4459bo1303bo6210b$11974b$11974b$11974b$11974b$11974b$27bo11918bo27b$27b2o11916b2o27b$27b2o7454b3o4459b2o27b$28bo7456bo4459bo28b$7484bo4489b$11974b$11974b$4493b3o7478b$4493bo7480b$4494bo7479b$5958b2o54b2o5953b3o2b$5958b2o54b2o5953bo2bob$11969bo4b$11969bo3bo$11969bo3bo$11969bo4b$6154b3o1301b3o4509bobob$6156bo1303bo4513b$19bo5304bo457b2o114b2o174b2o79bo34b2o1267bo4494bo19b$18bobo5304bo456b2o114b2o174b2o114b2o5761bobo18b$2b3o13bobo5302b3o6627bobo7bo10b$bo2bo14bo4498b3o1301b3o6129bo7b3o9b$4bo4513bo1303bo6138b2obo9b$o3bo4514bo1303bo820bo5316b3o10b$o3bo6638bo5317b3o10b$4bo6638b3o5315b3o10b$bobo11958b2o10b$11974b$11974b$11974b$10bo11963b$9b3o15bo7395b3o4520bo27b$9bob2o14b2o7396bo4519b2o27b$10b3o14b2o7395bo4520b2o27b$10b3o15bo11916bo28b$10b3o11961b$10b2o4541b3o7418b$4553bo7420b$4554bo7419b$11974b$11974b$5958b2o54b2o5958b$5958b2o54b2o5958b$11974b$11974b$6094b3o1301b3o4573b$6096bo1303bo4573b$6095bo1303bo4574b$11974b$19bo5762b2o114b2o174b2o114b2o5762bo19b$18bobo4557b3o1201b2o98b3o13b2o174b2o114b2o5761bobo18b$18bobo4557bo1303bo6070bobo18b$19bo4559bo1303bo6070bo19b$11974b$11974b$11974b$11974b$11974b$11974b$11974b$7363b3o4608b$7365bo4608b$27bo7336bo4581bo27b$27b2o11916b2o27b$27b2o11916b2o27b$28bo4584b3o7329bo28b$4613bo7360b$4614bo7359b$11974b$11974b$11974b$11974b$5958b2o54b2o5958b$5958b2o54b2o5958b$6034b3o1301b3o4633b$6036bo1303bo4633b$6035bo1303bo4634b$11974b$11974b$4638b3o1301b3o6029b$19bo4618bo1143b2o114b2o42bo131b2o114b2o5762bo19b$18bobo4618bo1142b2o114b2o43bo130b2o114b2o5761bobo18b$18bobo11932bobo18b$19bo11934bo19b$11974b$11974b$11974b$11974b$11974b$7303b3o4668b$7305bo4668b$7304bo4669b$11974b$27bo11918bo27b$27b2o4644b3o7269b2o27b$27b2o4644bo7271b2o27b$28bo4645bo7270bo28b$11974b$11974b$11969b3o2b$11969bo2bob$11969bo4b$11969bo3bo$5958b2o14b3o37b2o1262b3o4688bo3bo$5958b2o16bo37b2o1264bo4688bo4b$5975bo1303bo4690bobob$11974b$11974b$4698b3o1301b3o5969b$2b3o4693bo685bo617bo5960bo10b$bo2bo4694bo685bo617bo5958b3o9b$4bo14bo5363b3o396b2o114b2o174b2o114b2o5762bo6b2obo9b$o3bo13bobo5761b2o114b2o174b2o114b2o5761bobo5b3o10b$o3bo13bobo11932bobo5b3o10b$4bo14bo6564bo5369bo6b3o10b$bobo6579bo5378b2o10b$6583b3o5388b$11974b$7243b3o4728b$10bo7234bo4728b$9b3o7232bo4729b$9bob2o11961b$10b3o11961b$10b3o4720b3o7238b$10b3o14bo4705bo7212bo27b$10b2o15b2o4705bo7210b2o27b$27b2o11916b2o27b$28bo11916bo28b$11974b$11974b$11974b$11974b$5914b3o1301b3o4753b$5916bo1303bo4753b$5915bo42b2o54b2o1203bo4754b$5958b2o54b2o5958b$11974b$4758b3o1301b3o5909b$4758bo1303bo5911b$4759bo1303bo5910b$11974b$11974b$19bo5762b2o114b2o174b2o114b2o5762bo19b$18bobo5761b2o114b2o174b2o114b2o5761bobo18b$18bobo11932bobo18b$19bo11934bo19b$11974b$7183b3o4788b$7185bo4788b$7184bo4789b$11974b$11974b$4793b3o7178b$4793bo7180b$4794bo7179b$27bo11918bo27b$27b2o11916b2o27b$27b2o11916b2o27b$28bo11916bo28b$11974b$11974b$5854b3o1301b3o4813b$5856bo1303bo4813b$5855bo1303bo4814b$11974b$5958b2o54b2o5958b$4818b3o969bo167b2o54b2o106b3o5849b$4818bo970bobo330bo5851b$4819bo968b2ob2o330bo5850b$5788bo2bo6182b$5787bo3bo6182b$5791bo6182b$11974b$19bo5878b2o174b2o5878bo19b$18bobo5877b2o174b2o107b2o5768bobo18b$18bobo6161bobo5768bobo18b$19bo5760b2o400b3o7b2o929b3o4828bo19b$5780b2o9bo388b5o7b2o931bo4848b$5790b2o388b2o942bo4849b$6181b2obo4bo5784b$6183bo6b2o5782b$4853b3o1327bo5b2o5783b$4853bo7120b$4854bo924bo6194b$5778bob2o6192b$5780b2o6192b$27bo5753bo6164bo27b$27b2o5750b2o413b2o5749b2o27b$27b2o5750bo414b2o5749b2o22b3o2b$28bo11916bo23bo2bob$5794b3o1301b3o4868bo4b$5796bo1303bo4868bo3bo$5795bo1303bo4869bo3bo$11969bo4b$11970bobob$4878b3o901b2o398b3o5b2o5782b$4878bo903b2o174b2o54b2o166bo7b2o5782b$4879bo1078b2o54b2o167bo5790b$2b3o11958bo10b$bo2bo11957b3o9b$4bo5439bo6516b2obo9b$o3bo5440bo6515b3o10b$o3bo5438b3o6515b3o10b$4bo11956b3o10b$bobo15bo5878b2o174b2o5878bo7b2o10b$18bobo5877b2o174b2o448bo538b3o4887bobo18b$18bobo6502bo541bo4887bobo18b$19bo6503b3o538bo4889bo19b$10bo5779b2o390b2o5790b$9b3o5778b2o390b2o5790b$9bob2o4900b3o7058b$10b3o4900bo7060b$10b3o4901bo7059b$10b3o11961b$10b2o11962b$11974b$11974b$27bo11918bo27b$27b2o11916b2o27b$27b2o5705b3o501bo799b3o4904b2o27b$28bo5707bo502bo800bo4904bo28b$5735bo501b3o799bo4934b$6242bo5731b$6242b2o5730b$4938b3o1300bobo5730b$4938bo7035b$4939bo842b2o406b2o5782b$5782b2o174b2o54b2o174b2o5782b$5958b2o54b2o5958b$11974b$11974b$11974b$11974b$11974b$7003b3o4968b$19bo5878b2o174b2o929bo4948bo19b$18bobo5877b2o174b2o928bo4948bobo18b$18bobo11932bobo18b$19bo11934bo19b$4973b3o814b2o390b2o5790b$4973bo816b2o390b2o5790b$4974bo6999b$11974b$11974b$6137bo5836b$6135b2o5837b$5786bo349b2o5836b$5785b2o6187b$27bo5757bobo1190b3o4965bo27b$27b2o5812bo1138bo4964b2o27b$27b2o5813b2o1135bo4965b2o27b$28bo5812b2o339bo5762bo28b$6182b2o5790b$4998b3o1180bobo5790b$4998bo6975b$4999bo6974b$11974b$5782b2o406b2o5782b$5782b2o174b2o54b2o174b2o5782b$5958b2o54b2o5958b$11974b$11974b$11974b$6943b3o5028b$6945bo5028b$6944bo5029b$19bo5878b2o174b2o5878bo19b$18bobo5877b2o174b2o5877bobo18b$18bobo5012b3o6917bobo18b$19bo5013bo6920bo19b$5034bo755b2o390b2o5790b$5790b2o390b2o5790b$11974b$5896bo6077b$5895b2o176b3o5898b$5846bo47bobo3b2o3b2o164bo3b2o5897b$5845b2o38b2o7b2o3bo3b2o2bo165bobo5898b$5845bobo36bo2b2o7b3o4b2ob2o161b4o2b2o5bo4b2o829b3o5048b3o2b$5883bo5bo13b2o5bobo155b2o5b2o2bob3o3bobo830bo5048bo2bob$27bo5854bo2b2o2bo6b2o7bobo3b2o156bobo3b2o2b2o4bo3bo829bo5026bo22bo4b$27b2o5852b2ob2ob3o5b2o10bo3bo158b2o7b5o4b2o32bo5822b2o22bo3bo$27b2o5852bo2bo10b2o183bo2bo38b2o5821b2o22bo3bo$28bo5029b3o820bob2o11bo188bo35bobo5821bo23bo4b$5058bo823b2o11bo6074bobob$5059bo6914b$11974b$11974b$2b3o11958bo10b$bo2bo5777b2o114b2o174b2o114b2o5770b3o9b$4bo5777b2o114b2o58b2o54b2o58b2o114b2o5769b2obo9b$o3bo5953b2o54b2o5945b3o10b$o3bo5499bo6456b3o10b$4bo5500bo1377b3o5075b3o10b$bobo5499b3o1379bo5076b2o10b$6884bo5089b$11974b$6464bo5509b$10bo8bo5073b3o993bo373bo5490bo19b$9b3o6bobo5072bo996bo372b3o5487bobo18b$9bob2o5bobo5073bo993b3o5862bobo18b$10b3o6bo11934bo19b$10b3o5777b2o98b2o190b2o98b2o5790b$10b3o5777b2o87bo10b2o190b2o98b2o5790b$10b2o5866bo6095b$5878b3o25bo6067b$5905b2o6067b$5905bobo950b3o5113b$6860bo5113b$6859bo5114b$6062bo5911b$27bo6034b2o5882bo27b$27b2o5089b3o940bobo5881b2o27b$27b2o5089bo846b3o5977b2o27b$28bo5090bo846bo5978bo28b$5964b3o6007b$11974b$11974b$11974b$11974b$5782b2o114b2o174b2o114b2o5782b$5782b2o114b2o107bo66b2o114b2o5782b$6006b3o814b3o5148b$6005b2obo816bo5148b$5956b2o58b2o806bo5149b$5956b2o8b2o48b2o5956b$5966b2o6006b$5153b3o6818b$5153bo6820b$19bo5134bo859bobo5937bo19b$18bobo5994b2o5936bobo18b$18bobo5934bo59bo5937bobo18b$19bo5934bobo5997bo19b$5790b2o161bo3bo224b2o5790b$5790b2o161bo3bo224b2o5790b$5957bo60b2o5954b$5954b3o61b2o778b3o5173b$6800bo5173b$6799bo5174b$11974b$11974b$5178b3o6793b$27bo5150bo6767bo27b$27b2o5150bo778b2o54b2o5929b2o27b$27b2o5929b2o54b2o5929b2o27b$28bo11916bo28b$11974b$11974b$11974b$11974b$11974b$5782b2o114b2o174b2o114b2o571b3o5208b$5782b2o114b2o174b2o114b2o573bo5208b$6764bo5209b$11974b$11974b$5213b3o750b2o38b2o5966b$5213bo752b2o38b2o5966b$5214bo6759b$11974b$19bo11934bo19b$18bobo11932bobo18b$18bobo11932bobo18b$19bo11934bo19b$5790b2o390b2o5790b$5790b2o390b2o554b3o5233b$6740bo5233b$6739bo5229b3o2b$11969bo2bob$11969bo4b$5238b3o6728bo3bo$5238bo6730bo3bo$5239bo6729bo4b$27bo11918bo23bobob$27b2o5929b2o54b2o5929b2o27b$27b2o5929b2o54b2o5929b2o27b$28bo11916bo28b$2b3o11958bo10b$bo2bo11957b3o9b$4bo11956b2obo9b$o3bo6698b3o5255b3o10b$o3bo6700bo5255b3o10b$4bo5777b2o114b2o174b2o114b2o512bo5256b3o10b$bobo5560bo217b2o114b2o174b2o114b2o5770b2o10b$5565bo6408b$5273b3o287b3o6408b$5273bo6700b$10bo5263bo6699b$9b3o6392bo5569b$9bob2o6136bo253bo5570b$10b3o6137bo252b3o5568b$10b3o6bo6128b3o5803bo19b$10b3o5bobo11932bobo18b$10b2o6bobo11932bobo18b$19bo5799bo858b3o5273bo19b$5790b2o26bo363b2o496bo5293b$5790b2o26b3o361b2o495bo5294b$11974b$11974b$5298b3o6673b$5298bo6675b$5299bo6674b$11974b$11974b$27bo11918bo27b$27b2o5929b2o54b2o5929b2o27b$27b2o5929b2o54b2o5929b2o27b$28bo11916bo28b$11974b$6643b3o5328b$6645bo5328b$6644bo5329b$11974b$5782b2o114b2o174b2o114b2o5782b$5333b3o446b2o114b2o174b2o114b2o5782b$5333bo6640b$5334bo6639b$11974b$11974b$11974b$11974b$11974b$19bo11934bo19b$18bobo6597b3o5332bobo18b$18bobo6599bo5332bobo18b$19bo6599bo5334bo19b$5790b2o390b2o5790b$5790b2o390b2o5790b$5358b3o6613b$5358bo6615b$5359bo6614b$11974b$11974b$11974b$11974b$27bo11918bo27b$27b2o5929b2o54b2o5929b2o27b$27b2o5929b2o54b2o5929b2o27b$28bo6554b3o5359bo28b$6585bo5388b$6584bo5389b$11974b$11974b$5393b3o6578b$5393bo388b2o114b2o174b2o114b2o5782b$5394bo387b2o114b2o174b2o114b2o5782b$11974b$11974b$11974b$11974b$11974b$11974b$23b2o6533b3o5388b2o23b$22bo2bo6534bo5387bo2bo22b$18b2o2bo2bo6533bo5388bo2bo2b2o18b$18b2o3b2o11924b2o3b2o18b$11969b3o2b$5418b3o6548bo2bob$5418bo6550bo4b$5419bo6549bo3bo$11969bo3bo$11969bo4b$11970bobob$11974b$11974b$11974b$2b3o22bo11918bo16bo10b$bo2bo22b2o5929b2o54b2o507b3o5419b2o15b3o9b$4bo22b2o5929b2o54b2o509bo5419b2o14b2obo9b$o3bo23bo6495bo5420bo15b3o10b$o3bo11956b3o10b$4bo11956b3o10b$bobo5449b3o6506b2o10b$75bo5377bo6520b$74b2o5378bo169bo6349b$74bobo5548bo156b2o114b2o174b2o114b2o5782b$10bo5612b3o156b2o114b2o174b2o114b2o5782b$9b3o11962b$9bob2o11880bo80b$10b3o6331bo5548b2o79b$10b3o6330bo5548bobo79b$10b3o6330b3o152b3o5473b$10b2o6178b2o308bo5473b$23b2o6166bo307bo5449b2o23b$22bo2bo5759bo6162bo2bo22b$18b2o2bo2bo5758b5o401bo5bo2bo5748bo2bo2b2o18b$18b2o3b2o5453b3o302b2obo3bo398bo6bo2bo5749b2o3b2o18b$5478bo303b2o2bo4bo382bo13b2o4bo5bo5773b$5479bo303b2o2bo3bo380b2ob2o6b2o3bo5bobob2o5774b$5789b3o381bo2bo6b2o2bob2obobo4bo5774b$6174b2o11bobob8o5775b$6188b9o5777b$5784b2o409bo5778b$5784b2o6188b$5784bo6189b$11974b$6463b3o5508b$27bo5754b2o406b2o273bo5480bo27b$27b2o5753b2o174b2o54b2o174b2o272bo5480b2o27b$27b2o5929b2o54b2o5929b2o27b$28bo11916bo28b$5513b3o6458b$135bo5377bo6460b$134b2o5378bo279bo6179b$134bobo5658bo6178b$5793b3o6178b$5898b2o174b2o5898b$5898b2o174b2o5757bo140b$6174bo5658b2o139b$6173bo5658bobo139b$5790b2o381b3o6b2o254b3o5533b$5790b2o390b2o256bo5533b$6439bo5534b$11974b$23b2o11924b2o23b$22bo2bo5512b3o6407bo2bo22b$18b2o2bo2bo5512bo6409bo2bo2b2o18b$18b2o3b2o5514bo6409b2o3b2o18b$11974b$11974b$11974b$11974b$11974b$11974b$11974b$6403b3o5568b$6405bo5568b$6404bo5569b$27bo5754b2o406b2o5754bo27b$27b2o5753b2o174b2o54b2o174b2o5753b2o27b$27b2o5544b3o382b2o54b2o5929b2o27b$28bo166bo5377bo6371bo28b$194b2o5378bo6399b$194bobo11777b$11974b$6073bo5900b$5897b2o173b3o5698bo200b$5897b2obo170bo3b2o5696b2o199b$6072b5o5695bobo199b$5891bo3bo6bo174bo300b3o5593b$5891bob3o2bo3bo168b2o3bo303bo5593b$5790b2o103bo3bob2o168b2o2b2o105b2o195bo5594b$5790b2o100b3obo2bo2bo170b2o107b2o5790b$5893b3obobobo181bo5890b$5598b3o295bo3b2o181bo5890b$23b2o5573bo484bo5865b2o18b3o2b$22bo2bo5573bo282bo6065bo2bo17bo2bob$18b2o2bo2bo5855b3o6064bo2bo2b2o13bo4b$18b2o3b2o11924b2o3b2o13bo3bo$11969bo3bo$5881b3o6085bo4b$5882bo19b2o166b2o5898bobob$5902bobo165b2o5902b$5903b2o3bo6065b$5904b5o434b3o5628b$2b3o5900bob2o436bo5617bo10b$bo2bo5901b2o436bo5617b3o9b$4bo5900b3o6053b2obo9b$o3bo5900b2o6054b3o10b$o3bo22bo5605b3o146b2o114b2o174b2o114b2o5754bo14b3o10b$4bo22b2o226bo5377bo148b2o114b2o58b2o54b2o58b2o114b2o5753b2o14b3o10b$bobo23b2o225b2o5378bo289bo33b2o54b2o5929b2o15b2o10b$28bo225bobo5665bobo6020bo28b$5923b2o6049b$11974b$10bo5673bo6028bo260b$9b3o5673bo358bo5668b2o259b$9bob2o5670b3o328b2o28bobo5665bobo259b$10b3o6000bo30b2o272b3o5653b$10b3o5946b3o51b3o304bo5653b$10b3o5704bobo238bo3b2o34bo13b3o7b3o259bo34bo5654b$10b2o5705b2o238b4ob2o3b2o28bo2bo10bo10b3o258bo5690b$5718bo71b2o98b2o64b2o2b3o3bo2bo31bo6bob2o3bo4bo4bo56b2o98b2o99b3o5688b$5658b3o129b2o98b2o65bobo6bo2bo26bo4bo5bo7bo4bo3b2o56b2o98b2o5790b$5658bo299b2o5b2ob2o30b2o5bo6bo9bo5949b$5659bo306b2o40bo11bo2bo235bobo5712b$23b2o5972b3o10b3o3b2o3bo238b2o5687b2o23b$22bo2bo5990b2o242bo5687bo2bo22b$18b2o2bo2bo5990bo5931bo2bo2b2o18b$18b2o3b2o11924b2o3b2o18b$11974b$11974b$5958b2o54b2o5958b$5958b2o54b2o267b3o5688b$6285bo5688b$6284bo5689b$5866bobo6105b$5866b2o6106b$5693b3o171bo6106b$315bo5377bo277bo6002b$27bo286b2o5378bo87b2o114b2o72bo101b2o114b2o5754bo27b$27b2o285bobo5465b2o114b2o70b3o101b2o34bobo77b2o5753b2o27b$27b2o6082b2o5832b2o27b$28bo6082bo5833bo28b$5854bo142bo5655bo320b$5855bo110b2o28bo9b2o5645b2o319b$5853b3o110b2o28b3o7b2o5644bobo319b$11974b$11974b$6114bo5859b$6113bo5860b$6113b3o5858b$11974b$5790b2o98b2o190b2o98b2o5790b$5790b2o98b2o190b2o98b2o5790b$11974b$11974b$23b2o11924b2o23b$22bo2bo11922bo2bo22b$18b2o2bo2bo11922bo2bo2b2o18b$18b2o3b2o11924b2o3b2o18b$11974b$6223b3o5748b$5958b2o54b2o209bo5748b$5958b2o54b2o208bo5749b$11974b$11974b$5753b3o6218b$375bo5377bo6220b$374b2o5378bo6219b$374bobo11597b$27bo5754b2o114b2o174b2o114b2o5754bo27b$27b2o5753b2o114b2o174b2o114b2o5753b2o27b$27b2o11564bo351b2o27b$28bo11564b2o350bo28b$11592bobo379b$5966b2o38b2o5966b$5966b2o38b2o5966b$11974b$11974b$11974b$11974b$11974b$11974b$5790b2o98b2o190b2o98b2o5785b3o2b$5790b2o98b2o190b2o98b2o5785bo2bob$11969bo4b$11969bo3bo$23b2o11924b2o18bo3bo$22bo2bo11922bo2bo17bo4b$18b2o2bo2bo11922bo2bo2b2o14bobob$18b2o3b2o6138b3o5783b2o3b2o18b$6165bo5808b$6164bo5809b$2b3o5953b2o54b2o5947bo10b$bo2bo5953b2o54b2o5946b3o9b$4bo5808b3o6145b2obo9b$o3bo430bo5377bo6147b3o10b$o3bo429b2o5378bo6146b3o10b$4bo429bobo11524b3o10b$bobo11958b2o10b$11974b$27bo5754b2o114b2o174b2o114b2o5341bo412bo27b$27b2o5753b2o114b2o174b2o114b2o5341b2o410b2o27b$10bo16b2o11503bobo410b2o27b$9b3o16bo11916bo28b$9bob2o11961b$10b3o11961b$10b3o11961b$10b3o11961b$10b2o11962b$11974b$11974b$11974b$11974b$5790b2o390b2o5790b$5790b2o390b2o5790b$11974b$11974b$23b2o11924b2o23b$22bo2bo6077b3o5842bo2bo22b$18b2o2bo2bo6079bo5842bo2bo2b2o18b$18b2o3b2o6079bo5844b2o3b2o18b$11974b$11974b$5873b3o82b2o54b2o5958b$495bo5377bo84b2o54b2o5958b$494b2o5310bobo65bo6099b$494bobo5309b2o6166b$5807bo6166b$11974b$11473bo500b$6170bobo5300b2o499b$27bo5754b2o114b2o174b2o95b2o17b2o5280bobo471bo27b$27b2o5753b2o114b2o174b2o95bo18b2o5753b2o27b$27b2o11916b2o27b$28bo11916bo28b$11974b$11974b$11974b$11974b$11974b$11974b$11974b$11974b$11974b$5790b2o390b2o5790b$5790b2o390b2o5790b$11974b$6043b3o5928b$23b2o6020bo5903b2o23b$22bo2bo6018bo5903bo2bo22b$18b2o2bo2bo11922bo2bo2b2o18b$18b2o3b2o11924b2o3b2o18b$5933b3o6038b$555bo5377bo6040b$554b2o5378bo23b2o54b2o5958b$554bobo5401b2o54b2o5958b$11974b$11974b$11413bo560b$11413b2o559b$11412bobo559b$11974b$27bo5754b2o114b2o174b2o114b2o5754bo27b$27b2o5753b2o114b2o174b2o114b2o5753b2o27b$27b2o11916b2o27b$28bo11916bo28b$11974b$11974b$11974b$11974b$11974b$11969b3o2b$11969bo2bob$11969bo4b$11969bo3bo$11969bo3bo$5983b3o5983bo4b$5985bo5984bobob$5984bo5989b$23b2o11924b2o23b$22bo2bo11922bo2bo22b$2b3o13b2o2bo2bo5967b3o5952bo2bo2b2o7bo10b$bo2bo13b2o3b2o590bo5377bo5955b2o3b2o6b3o9b$4bo609b2o5378bo5966b2obo9b$o3bo609bobo11344b3o10b$o3bo5953b2o54b2o5945b3o10b$4bo5953b2o54b2o5945b3o10b$bobo11349bo608b2o10b$11353b2o619b$11352bobo619b$11974b$10bo11963b$9b3o11962b$9bob2o14bo5754b2o114b2o174b2o114b2o5754bo27b$10b3o14b2o5753b2o114b2o174b2o114b2o5753b2o27b$10b3o14b2o11916b2o27b$10b3o15bo11916bo28b$10b2o11962b$11974b$11974b$11974b$11974b$11974b$11974b$11974b$5923b3o6048b$5925bo6048b$5924bo6049b$11974b$11974b$23b2o6028b3o5893b2o23b$22bo2bo649bo5377bo5894bo2bo22b$18b2o2bo2bo648b2o5378bo5893bo2bo2b2o18b$18b2o3b2o649bobo11272b2o3b2o18b$11974b$11974b$5958b2o54b2o5277bo680b$5958b2o54b2o5277b2o679b$11292bobo679b$11974b$11974b$11974b$11974b$11974b$27bo5754b2o114b2o174b2o114b2o5754bo27b$27b2o5753b2o114b2o174b2o114b2o5753b2o27b$27b2o11916b2o27b$28bo11916bo28b$11974b$11974b$11974b$11974b$11974b$11974b$5863b3o6108b$5865bo6108b$5864bo6109b$11974b$5785b3o6186b$5785bo2bo324b3o5858b$735bo5047b2o2b2o324bo5860b$23b2o709b2o5046bo5bo325bo5834b2o23b$22bo2bo708bobo5048b3o6160bo2bo22b$18b2o2bo2bo5756b2o398bobo5763bo2bo2b2o18b$18b2o3b2o5757bo2b3o394bo2bo5763b2o3b2o18b$5783bo2bo394bo3b2o5046bo740b$5783b2o396bo5051b2o739b$5958b2o54b2o5216bobo739b$5958b2o54b2o165bo2b3o5787b$5790bo390b2o5791b$5791b2o390b3o5788b$5790b2o391b3o5788b$11974b$11974b$11974b$27bo5870b2o174b2o5870bo27b$27b2o5869b2o174b2o5869b2o27b$27b2o11916b2o27b$28bo6163b2o5751bo28b$5790b2o390b2o8b2o5780b$5790b2o390b2o9bo5775b3o2b$6194bo5774bo2bob$6193b2o5774bo4b$5803b3o386b3o5774bo3bo$5805bo386b2o5775bo3bo$5804bo393bo5770bo4b$11970bobob$11974b$6173b3o5798b$795bo5377bo5800b$2b3o789b2o5378bo5788bo10b$bo2bo789bobo11165b3o9b$4bo18b2o11924b2o10b2obo9b$o3bo17bo2bo11922bo2bo9b3o10b$o3bo13b2o2bo2bo11147bo774bo2bo2b2o5b3o10b$4bo13b2o3b2o11148b2o774b2o3b2o5b3o10b$bobo11168bobo787b2o10b$5782b2o406b2o5782b$5782b2o174b2o54b2o174b2o5782b$5958b2o54b2o5958b$10bo11963b$9b3o11962b$9bob2o11961b$10b3o11961b$10b3o11961b$10b3o11961b$10b2o15bo5870b2o174b2o5870bo27b$27b2o5869b2o174b2o5869b2o27b$27b2o11916b2o27b$28bo11916bo28b$5790b2o390b2o5790b$5790b2o390b2o5790b$5743b3o6228b$5745bo6228b$5744bo6229b$11974b$11974b$6233b3o5738b$855bo5377bo5740b$854b2o5378bo5739b$854bobo11117b$11974b$11974b$23b2o11088bo835b2o23b$22bo2bo11087b2o833bo2bo22b$18b2o2bo2bo11086bobo833bo2bo2b2o18b$18b2o3b2o11924b2o3b2o18b$11974b$5782b2o406b2o5782b$5782b2o174b2o54b2o174b2o5782b$5958b2o54b2o5958b$11974b$11974b$11974b$11974b$11974b$11974b$27bo5870b2o174b2o5870bo27b$27b2o5869b2o174b2o5869b2o27b$27b2o5748bo6167b2o27b$28bo5747b2o6167bo28b$5776bobo11b2o390b2o5790b$5790b2o390b2o5790b$11974b$6191bo5782b$6191b2o5781b$6190bobo5781b$915bo11058b$914b2o11058b$914bobo11057b$11974b$11974b$11053bo920b$11053b2o919b$23b2o11027bobo894b2o23b$22bo2bo6102bo5819bo2bo22b$18b2o2bo2bo6100b2o5820bo2bo2b2o18b$18b2o3b2o6102b2o5820b2o3b2o18b$11974b$5782b2o406b2o5782b$5782b2o66bo107b2o54b2o174b2o5782b$5851b2o105b2o54b2o5958b$5850b2o6122b$11974b$11974b$11974b$11974b$11974b$27bo5809bo236b2o5870bo27b$27b2o5807b2o57b5o174b2o5869b2o22b3o2b$27b2o5807bobo54bo5b2o6044b2o22bo2bob$28bo5863b2o3bob2o6044bo23bo4b$5790b2o105bob2o281b2o5785bo3bo$5790b2o100bobobo3bo172bo57bo50b2o5785bo3bo$5891b2ob2obobo172b3o56b2o5836bo4b$5885bo5b2o5bo169b3o59bobo5837bobob$975bo4905b2o10bo174bobo2bo6b2o5892b$974b2o4904bo6bo191b2o5bo5887b$974bobo4903bob2o4b2o176b2o12bobo2b2o4b2o5881b$2b3o5876bo4bob2o16b2o158b2o11bob4o2bo4bo5870bo10b$bo2bo5882b2o18bo157bobo12b3o4b3o2bo5869b3o9b$4bo5900b2obo3b2o151b3o11bob2o3b7o4900bo967b2obo9b$o3bo5898b2o3bobobo152b3o12b2o4b2o4905b2o966b3o10b$o3bo5894bo2bo5bobo157bo11bo5b2o4904bobo966b3o10b$4bo5893bo3b2ob3obo147bobo8b2o5891b3o10b$bobo19b2o5874bobo3bo151b2o5890b2o11b2o10b$22bo2bo5874b4o154bo5889bo2bo22b$18b2o2bo2bo5875b3o6044bo2bo2b2o18b$18b2o3b2o11924b2o3b2o18b$10bo5908bobo6052b$9b3o5770b2o114b2o20b2o152b2o114b2o5782b$9bob2o5769b2o114b2o20bo37b2o54b2o58b2o114b2o5782b$10b3o5945b2o54b2o5958b$10b3o11961b$10b3o11961b$10b2o11962b$11974b$5897bo6076b$5896b2o6076b$27bo5868bobo6047bo27b$27b2o11916b2o27b$27b2o11916b2o27b$28bo5933bo108bo5873bo28b$5790b2o98b2o69b3o107b2o9b2o98b2o5790b$5790b2o98b2o68b2ob2o105bobo9b2o98b2o5790b$1035bo4928bo6009b$1034b2o10938b$1034bobo4925bo6011b$5961b2o135bo5875b$5960b2obo135bo5874b$6010b2o85b3o4833bo1040b$6010b2o4921b2o1039b$6012bo4919bobo1039b$5870bo88bo50b3o5961b$5869bo88b2o49bobo5962b$5869b3o138b2o5962b$23b2o5984bo5939b2o23b$22bo2bo5983bo5938bo2bo22b$18b2o2bo2bo5941bobo37bo5940bo2bo2b2o18b$18b2o3b2o5943b2o5979b2o3b2o18b$5968bo6005b$5782b2o114b2o174b2o114b2o5782b$5782b2o114b2o174b2o114b2o5782b$11974b$11974b$11974b$5966b2o38b2o5966b$5966b2o38b2o5966b$11974b$11974b$27bo11918bo27b$27b2o11916b2o27b$27b2o11916b2o27b$28bo11916bo28b$1095bo4694b2o390b2o5790b$1094b2o4694b2o390b2o5790b$1094bobo10877b$11974b$11974b$10873bo1100b$10873b2o1099b$10872bobo1099b$11974b$11974b$5958b2o54b2o5958b$5958b2o54b2o5958b$11974b$23b2o11924b2o23b$22bo2bo11922bo2bo22b$18b2o2bo2bo11922bo2bo2b2o18b$18b2o3b2o11924b2o3b2o18b$11974b$5782b2o114b2o174b2o114b2o5782b$5782b2o114b2o174b2o114b2o5782b$11974b$11974b$11974b$5966b2o38b2o5966b$5966b2o38b2o5961b3o2b$11969bo2bob$11969bo4b$27bo11918bo22bo3bo$27b2o11916b2o22bo3bo$27b2o1126bo10789b2o22bo4b$28bo1125b2o10789bo24bobob$1154bobo4633b2o390b2o5790b$5790b2o390b2o5790b$11974b$2b3o10808bo1149bo10b$bo2bo10808b2o1147b3o9b$4bo10807bobo1146b2obo9b$o3bo11956b3o10b$o3bo11956b3o10b$4bo11956b3o10b$bobo11958b2o10b$5958b2o54b2o5958b$5958b2o54b2o5958b$11974b$10bo12b2o11924b2o23b$9b3o10bo2bo11922bo2bo22b$9bob2o5b2o2bo2bo11922bo2bo2b2o18b$10b3o5b2o3b2o11924b2o3b2o18b$10b3o11961b$10b3o5769b2o114b2o174b2o114b2o5782b$10b2o5770b2o114b2o174b2o114b2o5782b$11974b$11974b$11974b$11974b$11974b$11974b$11974b$27bo1187bo10730bo27b$27b2o1185b2o10729b2o27b$27b2o1185bobo10728b2o27b$28bo11916bo28b$5790b2o390b2o5790b$5790b2o390b2o4569bo1220b$10753b2o1219b$6158bo4593bobo1219b$6159bo5814b$6157b3o5814b$11974b$11974b$5810bo6163b$5809bo6164b$5809b3o146b2o54b2o5958b$5958b2o54b2o5958b$11974b$23b2o11924b2o23b$22bo2bo11922bo2bo22b$18b2o2bo2bo11922bo2bo2b2o18b$18b2o3b2o11924b2o3b2o18b$11974b$5782b2o114b2o174b2o114b2o5782b$5782b2o114b2o174b2o114b2o5782b$11974b$11974b$11974b$11974b$11974b$1275bo10698b$1274b2o10698b$27bo1246bobo10669bo27b$27b2o11916b2o27b$27b2o11916b2o27b$28bo10664bo1251bo28b$5790b2o390b2o4509b2o1279b$5790b2o390b2o4508bobo1279b$11974b$11974b$11974b$11974b$11974b$11974b$11974b$11974b$5958b2o54b2o5958b$5958b2o54b2o5958b$11974b$23b2o11924b2o23b$22bo2bo6167bo5754bo2bo22b$18b2o2bo2bo6163bo4b2o5752bo2bo2b2o18b$18b2o3b2o6164bo3b3o5753b2o3b2o18b$6194b2o5778b$5898b2o174b2o118bo5779b$5898b2o174b2o112b2o3b2o5779b$6188bo4b2o5774b3o2b$5784b3o400bo4b2o5775bo2bob$5787bo399bo5bo5775bo4b$1335bo4451b2o398b2o2bobo5775bo3bo$1334b2o4444b3o3b3o402bob2o5774bo3bo$1334bobo4443bo3bo4bo391b3o7bob2o5774bo4b$5780bo3bo6185bobob$27bo5756bob4o6156bo27b$27b2o5757b2obo4843bo1311b2o27b$27b2o5757b3o4844b2o1310b2o27b$2b3o23bo10603bobo1310bo17bo10b$bo2bo11957b3o9b$4bo5773b2o414b2o5765b2obo9b$o3bo5773b2o414b2o5765b3o10b$o3bo11956b3o10b$4bo11956b3o10b$bobo11958b2o10b$11974b$11974b$11974b$10bo5771b2o406b2o5782b$9b3o5770b2o174b2o54b2o174b2o5782b$9bob2o5945b2o54b2o5958b$10b3o11961b$10b3o10b2o11924b2o23b$10b3o9bo2bo11922bo2bo22b$10b2o6b2o2bo2bo11922bo2bo2b2o18b$18b2o3b2o11924b2o3b2o18b$11974b$5898b2o174b2o5898b$5805b3o90b2o174b2o5898b$5805bo6168b$1395bo4410bo6167b$1394b2o4394b2o390b2o5790b$1394bobo4393b2o390b2o5790b$6161b3o5810b$6163bo5810b$6162bo4410bo1400b$27bo10545b2o1371bo27b$27b2o10543bobo1370b2o27b$27b2o11916b2o27b$28bo11916bo28b$11974b$11974b$11974b$11974b$11974b$11974b$11974b$11974b$11974b$5782b2o406b2o5782b$5782b2o174b2o54b2o174b2o5782b$5891bo66b2o54b2o5958b$5890bobo258bo5822b$23b2o5864b2ob2o257bobo5795b2o23b$22bo2bo5864bo2bo257b2o5795bo2bo22b$18b2o2bo2bo5864bo3bo6053bo2bo2b2o18b$18b2o3b2o5865bo6058b2o3b2o18b$5827bo37b3o6106b$5825bobo37bo6108b$1455bo4370b2o38bo214b2o5891b$1454b2o4625bobo5890b$1454bobo4443b2o170b2o7b3o5890b$5790b2o98bo9b2o170b2o7b5o15b3o78b2o5790b$5790b2o98b2o192b2o17bo78b2o5790b$6076bo4bob2o17bo4410bo1460b$6074b2o6bo4430b2o1459b$6075b2o5bo4429bobo1459b$27bo11918bo27b$27b2o5873bo6042b2o27b$27b2o5871b2obo6041b2o27b$28bo5871b2o6043bo28b$5900bo6073b$5901b2o167b2o5902b$5902bo167b2o5902b$11974b$11974b$11974b$11974b$11974b$11974b$5782b2o114b2o174b2o114b2o5782b$5782b2o114b2o114b3o57b2o114b2o5782b$6016bo5957b$6014bobobo5955b$23b2o5931bo57b2o2b3o5928b2o23b$22bo2bo5930bo6b2o54b2o5927bo2bo22b$18b2o2bo2bo5899b3o36bo54b2o5927bo2bo2b2o18b$18b2o3b2o5900bo29bobo4b3o5984b2o3b2o13b3o2b$1515bo4410bo28bobo8b3o36b3o8bo5952bo2bob$1514b2o4440bo6012bo4b$1514bobo4501bo5950bo3bo$6017bo23b3o5925bo3bo$6043bo5925bo4b$5790b2o98b2o150bo39b2o98b2o4269bo1516bobob$5790b2o98b2o190b2o98b2o4269b2o1519b$5954b2o62b2o4432bobo1519b$5954b2o62b2o5954b$2b3o11958bo10b$bo2bo22bo11918bo15b3o9b$4bo22b2o11916b2o14b2obo9b$o3bo22b2o11916b2o14b3o10b$o3bo23bo11916bo15b3o10b$4bo11956b3o10b$bobo5954b2o54b2o5946b2o10b$5958b2o54b2o5958b$11974b$11974b$10bo11963b$9b3o11962b$9bob2o11961b$10b3o11961b$10b3o5769b2o114b2o174b2o114b2o5782b$10b3o5769b2o114b2o174b2o114b2o5782b$10b2o11962b$11974b$23b2o11924b2o23b$22bo2bo5940b2o38b2o5940bo2bo22b$18b2o2bo2bo1549bo4390b2o38b2o5940bo2bo2b2o18b$18b2o3b2o1549b2o10373b2o3b2o18b$1574bobo10397b$11974b$11974b$10393bo1580b$10393b2o1579b$5790b2o98b2o190b2o98b2o4208bobo1579b$5790b2o98b2o190b2o98b2o5790b$11974b$11974b$11974b$27bo6100bo5817bo27b$27bo6101b2o5815bo27b$27bo6100b2o5816bo27b$11974b$5979bo5962b2obo28b$5840bo117b2o18bo35b2o5926b3o29b$5838b2o118b2o18b3o33b2o5958b$5839b2o6133b$11974b$5999bo5974b$6000bo5973b$5998b3o5973b$11974b$5782b2o114b2o174b2o114b2o5782b$5782b2o114b2o174b2o15bo98b2o5782b$6091bobo5880b$6091b2o5881b$23b2o1610bo10313b2o23b$22bo2bo1608b2o4330b2o38b2o5940bo2bo22b$18b2o2bo2bo1608bobo4250bo78b2o38b2o5940bo2bo2b2o18b$18b2o3b2o5860bobo6061b2o3b2o18b$5886b2o6086b$10333bo1640b$10333b2o1639b$10332bobo1639b$11974b$5790b2o98b2o190b2o98b2o5790b$5790b2o98b2o190b2o98b2o5790b$83b3o11888b$83bo11890b$84bo11889b$27bo11918bo27b$27bo11918bo27b$27bo11855b3o60bo27b$11885bo88b$11884bo89b$5958b2o54b2o5958b$5958b2o54b2o5958b$11974b$11974b$11974b$11974b$11974b$11974b$5782b2o114b2o174b2o114b2o5782b$5782b2o114b2o174b2o114b2o5782b$1695bo10278b$1694b2o10273b3o2b$23b2o1669bobo10252b2o18bo2bob$22bo2bo11922bo2bo17bo4b$18b2o2bo2bo11922bo2bo2b2o13bo3bo$18b2o3b2o10248bo1675b2o3b2o13bo3bo$10273b2o1694bo4b$10272bobo1695bobob$11974b$11974b$11974b$2b3o138b3o5644b2o390b2o5779bo10b$bo2bo138bo5646b2o390b2o5778b3o9b$4bo139bo11816b2obo9b$o3bo11956b3o10b$o3bo11956b3o10b$4bo22bo11795b3o120bo14b3o10b$bobo23bo11797bo120bo15b2o10b$27bo11796bo121bo27b$11974b$11974b$10bo5947b2o54b2o5958b$9b3o5946b2o54b2o5958b$9bob2o11961b$10b3o11961b$10b3o11961b$10b3o11961b$10b2o11962b$11974b$1755bo4026b2o114b2o174b2o114b2o5782b$1754b2o4026b2o114b2o174b2o114b2o5782b$1754bobo10217b$11974b$23b2o11924b2o23b$22bo2bo10187bo1734bo2bo22b$18b2o2bo2bo10187b2o1733bo2bo2b2o18b$18b2o3b2o5757bo4429bobo1734b2o3b2o18b$5782b3o6189b$5780b2o2bo6189b$11974b$203b3o5570b5o8b3o3b2o390bo5786b$203bo5572bo3bobo2bobob3o2b2obo388b3o5785b$204bo5571b2obo3b2obo5bo4b2o386b2ob2o5784b$5778b2o10b3o3b2o387bo5788b$5787b2o2b2o6181b$6187bo5575b3o208b$6187b2o5576bo208b$27bo6158bob2o5574bo181bo27b$27bo11918bo27b$27bo11918bo27b$11974b$5782b2o406bo5783b$5782b2o174b2o54b2o174b2o5782b$5958b2o54b2o5958b$11974b$11974b$6180bobo5791b$6180b2o5792b$1815bo4365bo5792b$1814b2o10158b$1814bobo4081b2o174b2o5898b$5775b2o19bobo99b2o174b2o5898b$5774b2o21b2o6175b$5776bo20bo4355bo1820b$23b2o5765b2o390b2o3969b2o1794b2o23b$22bo2bo5764b2o390b2o3968bobo1793bo2bo22b$18b2o2bo2bo6166b2o5754bo2bo2b2o18b$18b2o3b2o6168b2o5754b2o3b2o18b$6192bo5781b$263b3o11708b$263bo11710b$264bo11709b$11974b$11974b$11703b3o268b$11705bo268b$11704bo269b$11974b$27bo11918bo27b$27bo11918bo27b$27bo11918bo27b$11974b$5782b2o406b2o5782b$5782b2o174b2o54b2o174b2o5782b$5958b2o54b2o5958b$11974b$11974b$1875bo10098b$1874b2o10098b$1874bobo10097b$5835b2o6132b3o2b$5834b2o238b2o5893bo2bob$5836bo60bo176b2o4017bo1875bo4b$5891b2o4b5o4191b2o1874bo3bo$5890bobo5b2o4192bobo1874bo3bo$23b2o5765b2o281b2o57b2o48b2o5765b2o18bo4b$22bo2bo5764b2o101b4ob2o2bo165b3o4bo57b2o47b2o5764bo2bo18bobob$18b2o2bo2bo5864bo2b4o3b2o165b2o4bobo3bo52bo5815bo2bo2b2o18b$18b2o3b2o298b3o5569bo170bo3bo2b2o3b3o5868b2o3b2o18b$323bo5743b2o9bo2b2o5891b$2b3o319bo5755b3o4bo5875bo10b$bo2bo5876bo2bo179b2o13bo5bobo3b3o5868b3o9b$4bo5875bo3bo178bo2bo12b4ob2obo5873b2obo9b$o3bo5876bobo180bobo11bo5564b3o315b3o10b$o3bo5877bo20b2o159b2o2bo9b2ob2o5562bo315b3o10b$4bo5898b2o7b2o150b2o2b3o8bo2b2o5560bo316b3o10b$bobo5898bobo6bo158bo9b3o5879b2o10b$5901bo2bo3bob2o156bobo10bo5892b$5907b2o148bo10b2o5904b$27bo5877bo2b2o145b2o5889bo27b$10bo16bo5875bobo150b2o5888bo27b$9b3o15bo5876bo6041bo27b$9bob2o11961b$10b3o5769b2o114b2o21bo152b2o114b2o5782b$10b3o5769b2o114b2o22b2o34b2o54b2o58b2o114b2o5782b$10b3o5908b2o35b2o54b2o5958b$10b2o1923bo10038b$1934b2o10038b$1934bobo10037b$5895b2o6077b$5894b2o6078b$5896bo4136bo1940b$10033b2o1939b$5961b2o4069bobo1939b$5960bo111b2o5900b$5959bo3b3o107b2o5899b$23b2o5765b2o98b2o67bo2b5o105bo9b2o98b2o5765b2o23b$22bo2bo357b3o5404b2o98b2o67b2o5b2o114b2o98b2o5764bo2bo22b$18b2o2bo2bo357bo5581b2o5981bo2bo2b2o18b$18b2o3b2o359bo5574b2o5988b2o3b2o18b$11974b$5962bo6011b$5959b3o48b3o5570b3o388b$6009bo2bo87bo5484bo388b$6009b2o2bo84bobo5483bo389b$6012b2o85b2o5873b$5958b2o6014b$5958b2o49bo5964b$5868bo138b2o5965b$5868bobo137b2o5964b$27bo5840b2o6076bo27b$27bo11918bo27b$27bo5941bo5976bo27b$5970b2o6002b$5782b2o114b2o69b2o103b2o114b2o5782b$1995bo3786b2o114b2o174b2o114b2o5782b$1994b2o9978b$1994bobo4123bobo5851b$6120b2o5852b$5966b2o38b2o113bo5852b$5966b2o38b2o3965bo2000b$9973b2o1999b$5856bobo4113bobo1999b$5857b2o6115b$5857bo6116b$11974b$443b3o11528b$23b2o418bo5346b2o98b2o190b2o98b2o5765b2o23b$22bo2bo418bo5345b2o98b2o190b2o98b2o5764bo2bo22b$18b2o2bo2bo11922bo2bo2b2o18b$18b2o3b2o11924b2o3b2o18b$11523b3o448b$11525bo448b$11524bo449b$11974b$11974b$11974b$5958b2o54b2o5958b$5958b2o54b2o5958b$11974b$11974b$27bo11918bo27b$27bo11918bo27b$27bo11918bo27b$2055bo9918b$2054b2o3726b2o114b2o174b2o114b2o5782b$2054bobo3725b2o114b2o174b2o114b2o5782b$11974b$11974b$9913bo2055b3o2b$5966b2o38b2o3905b2o2054bo2bob$5966b2o38b2o3904bobo2054bo4b$11969bo3bo$11969bo3bo$11969bo4b$503b3o11464bobob$503bo11470b$504bo11469b$23b2o5765b2o98b2o190b2o98b2o5765b2o23b$2b3o17bo2bo5764b2o98b2o190b2o98b2o5764bo2bo11bo10b$bo2bo13b2o2bo2bo11437b3o482bo2bo2b2o6b3o9b$4bo13b2o3b2o11440bo483b2o3b2o5b2obo9b$o3bo11459bo496b3o10b$o3bo11956b3o10b$4bo11956b3o10b$bobo11958b2o10b$11974b$11974b$5958b2o54b2o5958b$10bo5947b2o54b2o5958b$9b3o11962b$9bob2o11961b$10b3o14bo11918bo27b$10b3o14bo2087bo9830bo27b$10b3o14bo2086b2o9830bo27b$10b2o2102bobo9857b$5782b2o114b2o174b2o114b2o5782b$5782b2o114b2o174b2o114b2o5782b$9853bo2120b$9853b2o2119b$9852bobo2119b$11974b$11974b$11974b$563b3o11408b$563bo11410b$564bo11409b$11974b$11974b$23b2o5765b2o390b2o5219b3o543b2o23b$22bo2bo5764b2o390b2o5221bo542bo2bo22b$18b2o2bo2bo11378bo543bo2bo2b2o18b$18b2o3b2o11924b2o3b2o18b$11974b$6160bo5813b$6158bobo5813b$6159b2o5813b$11974b$11974b$5808bo149b2o54b2o5958b$5808bobo147b2o54b2o5958b$5808b2o6164b$2175bo9798b$27bo2146b2o9770bo27b$27bo2146bobo9769bo27b$27bo11918bo27b$11974b$5782b2o114b2o174b2o114b2o3601bo2180b$5782b2o114b2o174b2o114b2o3601b2o2179b$9792bobo2179b$11974b$11974b$11974b$623b3o11348b$623bo11350b$624bo11349b$11974b$11974b$11343b3o628b$11345bo628b$23b2o5765b2o390b2o5160bo604b2o23b$22bo2bo5764b2o390b2o5764bo2bo22b$18b2o2bo2bo11922bo2bo2b2o18b$18b2o3b2o11924b2o3b2o18b$11974b$11974b$11974b$11974b$11974b$11974b$5958b2o54b2o5958b$2235bo3722b2o54b2o5958b$2234b2o9738b$2234bobo9737b$27bo11918bo27b$27bo11918bo27b$27bo9705bo2212bo27b$9733b2o2239b$5785bo112b2o174b2o3656bobo2234b3o2b$5784bobo111b2o174b2o5893bo2bob$5786bo6182bo4b$5781b4obo406bo5775bo3bo$683b3o5095b2o402b2o6bo5775bo3bo$683bo5096bo404bo5783bo4b$684bo5103b2o395b3o4bobo5775bobob$5789b2o390b3o8bobo5779b$5783bo6b2o401bo5780b$11283b3o688b$2b3o5780bo5499bo677bo10b$bo2bo5782bo5496bo677b3o9b$4bo5782bo6173b2obo9b$o3bo18b2o11924b2o10b3o10b$o3bo17bo2bo5752b2o414b2o5752bo2bo9b3o10b$4bo13b2o2bo2bo5752b2o414b2o5752bo2bo2b2o5b3o10b$bobo14b2o3b2o11924b2o3b2o6b2o10b$11974b$11974b$11974b$10bo11963b$9b3o11962b$9bob2o2282bo3486b2o406b2o5782b$10b3o2281b2o3486b2o174b2o54b2o174b2o5782b$10b3o2281bobo3661b2o54b2o5958b$10b3o11961b$10b2o11962b$27bo9645bo2272bo27b$27bo9645b2o2271bo27b$27bo9644bobo2271bo27b$5804b2o6168b$5804bobo91b2o174b2o5898b$5804bo93b2o174b2o5898b$743b3o11228b$743bo11230b$744bo5045b2o371b2o17b2o5790b$5790b2o370bobo17b2o5790b$6164bo5809b$11223b3o748b$11225bo748b$11224bo749b$11974b$11974b$11974b$23b2o11924b2o23b$22bo2bo11922bo2bo22b$18b2o2bo2bo11922bo2bo2b2o18b$18b2o3b2o11924b2o3b2o18b$11974b$11974b$11974b$2355bo9618b$2354b2o9618b$2354bobo3425b2o406b2o5782b$5782b2o106b3o65b2o54b2o174b2o5782b$5891bo66b2o54b2o5958b$5891b3o3719bo2360b$6150bo3462b2o2359b$27bo6121bo3462bobo2331bo27b$27bo5836b2o283b3o5794bo27b$27bo5836bobo6079bo27b$5864bo6109b$803b3o5022bo253bo5891b$803bo5025bo251b3o5890b$804bo5022b3o251bob2o18b2o5869b$5900b2o170b2o28bobo5869b$5790b2o98b2o8b2o170b2o30bo77b2o5790b$5790b2o98b2o290b2o4979b3o808b$11165bo808b$11164bo809b$6073bobo5898b$6073b2o5899b$5902bo171bo5899b$5901bobo6070b$5900bo3bo6069b$23b2o5875bo3bo6044b2o23b$22bo2bo5874bo169b2o5876bo2bo22b$18b2o2bo2bo5875b3o166b2o5876bo2bo2b2o18b$18b2o3b2o11924b2o3b2o18b$11974b$2415bo9558b$2414b2o9558b$2414bobo9557b$6015b3o5956b$5782b2o114b2o114b4o56b2o114b2o5782b$5782b2o114b2o113bo4bo55b2o114b2o3361bo2420b$6012bo2b3o3535b2o2419b$6012bo2bo2bo3533bobo2419b$5924b2o37bobo46b3o2b2o5955b$27bo5896bobo38bo47b3o2bo5927bo22b3o2b$27bo5896bo36bo3bo48b4o5928bo22bo2bob$27bo835b3o5090bo4bo5984bo22bo4b$863bo5092bo4bo2bo40b3o5961bo3bo$864bo5091bo5b3o78b2o5924bo3bo$6042bobo5924bo4b$6044bo5925bobob$11103b3o868b$5790b2o98b2o190b2o98b2o4921bo868b$5790b2o98b2o190b2o98b2o4920bo869b$2b3o5949b2o62b2o5943bo10b$bo2bo5949b2o62b2o5942b3o9b$4bo11956b2obo9b$o3bo11956b3o10b$o3bo11956b3o10b$4bo11956b3o10b$bobo11958b2o10b$23b2o11924b2o23b$22bo2bo5932b2o54b2o5932bo2bo22b$18b2o2bo2bo5932b2o54b2o5932bo2bo2b2o18b$10bo7b2o3b2o2450bo9473b2o3b2o18b$9b3o2462b2o9498b$9bob2o2461bobo9497b$10b3o11961b$10b3o11961b$10b3o9480bo2480b$10b2o5770b2o114b2o174b2o114b2o3301b2o2479b$5782b2o114b2o174b2o114b2o3300bobo2479b$11974b$11974b$11974b$27bo895b3o5040b2o38b2o5938bo27b$27bo895bo5042b2o38b2o5938bo27b$27bo896bo11021bo27b$11974b$11974b$11043b3o928b$11045bo928b$11044bo929b$5790b2o98b2o190b2o98b2o5790b$5790b2o98b2o190b2o98b2o5790b$11974b$11974b$11974b$11974b$11974b$6129bobo5842b$6130b2o5842b$23b2o6105bo5818b2o23b$22bo2bo2509bo3422b2o54b2o5932bo2bo22b$18b2o2bo2bo2508b2o3422b2o17bo36b2o5932bo2bo2b2o18b$18b2o3b2o2509bobo3300bobo137bobo5969b2o3b2o18b$5837b2o138b2o5995b$5838bo6135b$9433bo2540b$6001bo3431b2o2539b$5999bobo3430bobo2539b$5782b2o114b2o100b2o72b2o114b2o5782b$5782b2o114b2o174b2o114b2o5782b$6090bo5883b$983b3o5103bo5884b$983bo5105b3o5882b$27bo956bo4981b2o38b2o5938bo27b$27bo5938b2o38b2o5938bo27b$27bo5860bo6057bo27b$5889bo5093b3o988b$5887b3o5095bo988b$10984bo989b$11974b$11974b$5790b2o98b2o190b2o98b2o5790b$5790b2o98b2o190b2o98b2o5790b$11974b$11974b$11974b$11974b$11974b$11974b$2595bo9378b$23b2o2569b2o9353b2o23b$22bo2bo2568bobo3361b2o54b2o5932bo2bo22b$18b2o2bo2bo5932b2o54b2o5932bo2bo2b2o18b$18b2o3b2o11924b2o3b2o18b$9373bo2600b$9373b2o2599b$9372bobo2599b$11974b$11974b$5782b2o114b2o174b2o114b2o5782b$1043b3o4736b2o114b2o174b2o114b2o5777b3o2b$1043bo10925bo2bob$1044bo10924bo4b$11969bo3bo$27bo11918bo22bo3bo$27bo10895b3o1020bo22bo4b$27bo10897bo1020bo23bobob$10924bo1049b$11974b$11974b$2b3o11958bo10b$bo2bo11957b3o9b$4bo5785b2o390b2o5777b2obo9b$o3bo5785b2o390b2o5777b3o10b$o3bo11956b3o10b$4bo11956b3o10b$bobo11958b2o10b$11974b$2655bo9318b$2654b2o9318b$10bo2643bobo9317b$9b3o11b2o11924b2o23b$9bob2o9bo2bo5932b2o54b2o5932bo2bo22b$10b3o5b2o2bo2bo5932b2o54b2o3297bo2634bo2bo2b2o18b$10b3o5b2o3b2o9288b2o2634b2o3b2o18b$10b3o9299bobo2659b$10b2o11962b$11974b$11974b$1103b3o10868b$1103bo4678b2o114b2o174b2o114b2o5782b$1104bo4677b2o114b2o174b2o114b2o5782b$11974b$11974b$10863b3o1108b$27bo10837bo1080bo27b$27bo10836bo1081bo27b$27bo5754bo6163bo27b$5782b2o6190b$5783b3o401b2o5785b$5775b2o6bo405bo5784b$5774b4o6b2o398b3o3bo5783b$5773bo4bo19bobo382b5o2bo5783b$5774b2ob3o5bo3b2o6bo2bo381b2o5b2o5783b$5775b2o2bo4bobo2b2o6bo2bo382b2o5789b$5776bo3b3obobo11b2o389b2o5783b$5777bobo3bobo6188b$2715bo3062bo408bo5786b$2714b2o3472b3o5783b$2714bobo9257b$11974b$11974b$23b2o5757b2o406b2o3061bo2695b2o23b$22bo2bo5756b2o174b2o54b2o174b2o3061b2o2693bo2bo22b$18b2o2bo2bo5932b2o54b2o3236bobo2693bo2bo2b2o18b$18b2o3b2o11924b2o3b2o18b$11974b$11974b$1163b3o5014bo5793b$1163bo5014b2o5794b$1164bo4609bo404b2o5793b$5773b2o123b2o174b2o5898b$5773bobo122b2o174b2o5898b$5798bo5004b3o1168b$5799b2o5004bo1168b$5790b2o6b2o382b2o10bo4609bo1169b$27bo5762b2o390b2o10b2o5750bo27b$27bo6165bobo5750bo27b$27bo11918bo27b$11974b$11974b$11974b$11974b$11974b$11974b$11974b$2775bo9198b$2774b2o9198b$2774bobo9197b$11974b$11974b$9193bo2780b$9193b2o2779b$23b2o5757b2o406b2o3000bobo2754b2o23b$22bo2bo5756b2o174b2o54b2o174b2o5756bo2bo22b$18b2o2bo2bo5932b2o54b2o5932bo2bo2b2o18b$18b2o3b2o11924b2o3b2o18b$1223b3o10748b$1223bo10750b$1224bo4609bo6134b3o2b$5833b2o6134bo2bob$5833bobo62bo6070bo4b$5897b4o173b2o4667b3o1223bo3bo$5892bo7bo173b2o4669bo1223bo3bo$5891bo3bo3b3o170b3o59bo4609bo1224bo4b$5891b5o3b4o171bo59b2o5834bobob$5790b2o100bo6bo3bo165bo5bob2obo52bobo46b2o5790b$27bo5762b2o100b3o2bobo168bo6b2o3b2o100b2o5762bo27b$27bo5867bobobob2o165bobo10b2o5863bo27b$2b3o22bo5868bo3bo168bo5bo2b2o5866bo16bo10b$bo2bo6067b3o5b2o5bo5874b3o9b$4bo6071bo2bo6b3o5872b2obo9b$o3bo5876b3o192bo11bo2b3o5867b3o10b$o3bo5877bo181b2o20b2o5873b3o10b$4bo5877bo180bob2ob2o6b2o7bo5875b3o10b$bobo2831bo3045b3o178b2o2b2ob2o6b2o5883b2o10b$2834b2o3066b2o159bo6bobo8bo2bo5889b$2834bobo3065bo2bo2bo155b4ob2ob2o7bobo5890b$5904bo3bo156bo5b2o5901b$10bo5893b4o158b2obobo9b2o5891b$9b3o5895bo3225bo2840b$9bob2o5894bo146bobo3076b2o2839b$10b3o5893bo147b2o3076bobo2839b$10b3o5892b2o148bo5918b$10b3o10b2o5757b2o114b2o174b2o114b2o5757b2o23b$10b2o10bo2bo5756b2o114b2o58b2o54b2o58b2o114b2o5756bo2bo22b$18b2o2bo2bo1257b3o4636bobo33b2o54b2o5932bo2bo2b2o18b$18b2o3b2o1258bo4639b2o6024b2o3b2o18b$1284bo4609bo28bo6050b$5893b2o6079b$5893bobo6078b$10683b3o1288b$10685bo1288b$5960bo113bo4609bo1289b$5959b4o111b2o5898b$5957bo5bo109bobo5898b$5956bo3bo6b2o6005b$5790b2o98b2o64bo5b2o2bo2bo112b2o98b2o5790b$27bo5762b2o98b2o64b2obobo4bo2b2o111b2o98b2o5762bo27b$27bo5930b2o5bo2b2o5976bo27b$27bo5937b4o41b3o5933bo27b$6010bo2bo5960b$6009bo3bo5960b$6014bo5959b$2895bo3114b3ob2o5958b$2894b2o3118bo86bo5872b$2894bobo3112bo3b2o87bo5871b$5958b2o53bo86b3o5871b$5958b2o6014b$9073bo2900b$5867bo138bobo3064b2o2899b$5866bo139b2o3064bobo2899b$5866b3o138bo5966b$11974b$11974b$23b2o1318b3o4436b2o114b2o70bobo101b2o114b2o5757b2o23b$22bo2bo1317bo4438b2o114b2o71b2o101b2o114b2o5756bo2bo22b$18b2o2bo2bo1318bo4626bo5976bo2bo2b2o18b$18b2o3b2o11924b2o3b2o18b$6120bo5853b$5966b2o38b2o110b2o4503b3o1348b$5966b2o38b2o111b2o4504bo1348b$10624bo1349b$11974b$5858bo6115b$5859b2o6113b$5858b2o6114b$11974b$5790b2o98b2o190b2o98b2o5790b$27bo5762b2o98b2o190b2o98b2o5762bo27b$27bo11918bo27b$27bo11918bo27b$11974b$2955bo9018b$2954b2o9018b$2954bobo9017b$11974b$11974b$5958b2o54b2o2997bo2960b$5958b2o54b2o2997b2o2959b$9012bobo2959b$11974b$11974b$11974b$1403b3o10568b$1403bo10570b$23b2o1379bo4377b2o114b2o174b2o114b2o5757b2o23b$22bo2bo5756b2o114b2o174b2o114b2o5756bo2bo22b$18b2o2bo2bo11922bo2bo2b2o13b3o2b$18b2o3b2o10538b3o1383b2o3b2o13bo2bob$10565bo1403bo4b$5966b2o38b2o4556bo1404bo3bo$5966b2o38b2o5961bo3bo$11969bo4b$11970bobob$11974b$11974b$11974b$2b3o11958bo10b$bo2bo5785b2o98b2o190b2o98b2o5778b3o9b$4bo22bo5762b2o98b2o190b2o98b2o5762bo14b2obo9b$o3bo22bo11918bo14b3o10b$o3bo22bo2987bo8930bo14b3o10b$4bo3009b2o8945b3o10b$bobo3010bobo8945b2o10b$11974b$11974b$8953bo3020b$10bo8942b2o3019b$9b3o5946b2o54b2o2936bobo3019b$9bob2o5945b2o54b2o5958b$10b3o11961b$10b3o11961b$10b3o1450b3o10508b$10b2o1451bo10510b$1464bo10509b$11974b$23b2o5757b2o114b2o174b2o114b2o5757b2o23b$22bo2bo5756b2o114b2o174b2o114b2o4311b3o1442bo2bo22b$18b2o2bo2bo10479bo1442bo2bo2b2o18b$18b2o3b2o10479bo1444b2o3b2o18b$11974b$11974b$11974b$11974b$11974b$11974b$11974b$11974b$11974b$5790b2o390b2o5790b$27bo3047bo2714b2o390b2o5762bo27b$27bo3046b2o8870bo27b$27bo3046bobo8869bo27b$11974b$11974b$6161bo2731bo3080b$6162bo2730b2o3079b$6160b3o2729bobo3079b$11974b$5958b2o54b2o5958b$5807bo150b2o54b2o5958b$1523b3o4280bo6167b$1523bo4282b3o6165b$1524bo10449b$11974b$11974b$10443b3o1528b$23b2o5757b2o114b2o174b2o114b2o4253bo1503b2o23b$22bo2bo5756b2o114b2o174b2o114b2o4252bo1503bo2bo22b$18b2o2bo2bo11922bo2bo2b2o18b$18b2o3b2o11924b2o3b2o18b$11974b$11974b$11974b$11974b$11974b$11974b$11974b$11974b$3135bo8838b$3134b2o2654b2o390b2o5790b$27bo3106bobo2653b2o390b2o5762bo27b$27bo11918bo27b$27bo11918bo27b$8833bo3140b$8833b2o3139b$8832bobo3139b$11974b$11974b$11974b$1583b3o4372b2o54b2o5958b$1583bo4374b2o54b2o5958b$1584bo10389b$11974b$11974b$10383b3o1588b$10385bo1583b3o2b$10384bo1584bo2bob$23b2o5873b2o174b2o5873b2o18bo4b$22bo2bo5759b2o111b2o174b2o5872bo2bo17bo3bo$18b2o2bo2bo5758b3o6161bo2bo2b2o13bo3bo$18b2o3b2o5755b2o2b2o2b2o394bobo5762b2o3b2o13bo4b$5780b2o6b3o393bo5785bobob$5787bo3bo392bo3bo5785b$5789b3o396bo4bo5780b$5787bo4bo392bo2bo4bo5780b$2b3o5783b2ob2o392b3o5bo5769bo10b$bo2bo5783bo3bo6169b3o9b$4bo3190bo2593b3o6169b2obo9b$o3bo3189b2o8765b3o10b$o3bo3189bobo8764b3o10b$4bo11956b3o10b$bobo23bo5750b2o414b2o5750bo15b2o10b$27bo5750b2o414b2o2577bo3172bo27b$27bo8745b2o3171bo27b$8772bobo3199b$10bo11963b$9b3o11962b$9bob2o11961b$10b3o1630b3o10328b$10b3o1630bo4138b2o406b2o5782b$10b3o1631bo4137b2o174b2o54b2o174b2o5782b$10b2o5946b2o54b2o5958b$11974b$10323b3o1648b$10325bo1648b$10324bo1649b$5802b3o6169b$5802bo6171b$23b2o5778bo94b2o174b2o5873b2o23b$22bo2bo5872b2o174b2o5872bo2bo22b$18b2o2bo2bo11922bo2bo2b2o18b$18b2o3b2o6139b3o5782b2o3b2o18b$5790b2o374bo15b2o5790b$5790b2o373bo16b2o5790b$11974b$11974b$3255bo8718b$3254b2o8718b$3254bobo8717b$11974b$11974b$8713bo3260b$27bo8685b2o3231bo27b$27bo8684bobo3231bo27b$27bo11918bo27b$11974b$11974b$1703b3o10268b$1703bo4187bo6082b$1704bo4185b3o6081b$5782b2o106b4o296b2o5782b$5782b2o174b2o54b2o174b2o5782b$5958b2o54b2o4247b3o1708b$5890b4o4371bo1708b$5890b4o4370bo1709b$5862b3o27bo6081b$5862bo219bo65bo5825b$5863bo217b3o64bobo5823b$6080b2o2bo63b2o5824b$23b2o6055bo3bo5864b2o23b$22bo2bo6054bobo21b3o5841bo2bo22b$18b2o2bo2bo5804bo275bo5841bo2bo2b2o18b$18b2o3b2o5803bobo69b2o170b2o7b2ob2o19bo5843b2o3b2o18b$5790b2o37b2o59b2o8b2o170b2o9bo98b2o5790b$5790b2o98b2o290b2o5790b$3315bo8658b$3314b2o8658b$3314bobo2584b3o6070b$5900bo3bo168bo5900b$5900b2ob2o166b2o5901b$5899b2ob2obo166b2o2579bo3320b$5898b2o5b2o2746b2o3319b$5898b2o3bob2o2745bobo3319b$27bo5876bo165b2o5874bo27b$27bo6042b2o5874bo27b$27bo11918bo27b$1763b3o10208b$1763bo10210b$1764bo4252bo5956b$6016bobo5955b$6012b5obo5955b$5782b2o114b2o111bob2ob3o55b2o114b2o4011b3o1768b$5782b2o114b2o114b2obob2o53b2o114b2o4013bo1768b$6013bob3o4186bo1769b$5922b3o88b2o5954b3o2b$5922bo87bo2b3obo2bo5948bo2bob$5923bo36b3o48b3o2bo5952bo4b$5959bo3bo50b2obo5951bo3bo$5956bo7bo52bo5951bo3bo$5956bob3obob2o39b3o7bobo26b3o5922bo4b$23b2o5931bo3bobob2o50bo29bo5902b2o19bobob$22bo2bo5935bo3bo79bo5902bo2bo22b$18b2o2bo2bo5935b4o5983bo2bo2b2o18b$18b2o3b2o5938bo5985b2o3b2o18b$2b3o3370bo2414b2o98b2o190b2o98b2o5779bo10b$bo2bo3369b2o2414b2o98b2o190b2o98b2o5778b3o9b$4bo3369bobo2577b2o62b2o5941b2obo9b$o3bo5949b2o62b2o5941b3o10b$o3bo11956b3o10b$4bo8588bo3367b3o10b$bobo8589b2o3367b2o10b$8592bobo3379b$11974b$11974b$10bo16bo5930b2o54b2o5930bo27b$9b3o15bo1795b3o4132b2o54b2o5930bo27b$9bob2o14bo1795bo10122bo27b$10b3o1811bo10149b$10b3o11961b$10b3o11961b$10b2o10131b3o1828b$10145bo1828b$5782b2o114b2o174b2o114b2o3952bo1829b$5782b2o114b2o174b2o114b2o5782b$11974b$11974b$11974b$5966b2o38b2o5966b$5966b2o38b2o5966b$11974b$11974b$23b2o11924b2o23b$22bo2bo11922bo2bo22b$18b2o2bo2bo3409bo8512bo2bo2b2o18b$18b2o3b2o3409b2o8513b2o3b2o18b$3434bobo2353b2o98b2o190b2o98b2o5790b$5790b2o98b2o190b2o98b2o5790b$11974b$8533bo3440b$8533b2o3439b$8532bobo3439b$11974b$11974b$6131bo5842b$1883b3o4246b2o5840b$27bo1855bo4074b2o54b2o115b2o5813bo27b$27bo1856bo4073b2o54b2o5930bo27b$27bo5948bo5969bo27b$5837bo137bo5998b$5835b2o138b3o4105b3o1888b$5836b2o4247bo1888b$10084bo1889b$6002bo5971b$5782b2o114b2o103bo70b2o114b2o5782b$5782b2o114b2o101b3o70b2o114b2o5782b$11974b$11974b$6088bo5885b$5966b2o38b2o80bobo5883b$5966b2o38b2o80b2o5884b$11974b$11974b$23b2o3470bo2394bo6058b2o23b$22bo2bo3468b2o2392bobo6057bo2bo22b$18b2o2bo2bo3468bobo2392b2o6057bo2bo2b2o18b$18b2o3b2o5865bo6058b2o3b2o18b$5790b2o98b2o190b2o98b2o5790b$5790b2o98b2o190b2o98b2o2289bo3500b$8473b2o3499b$8472bobo3499b$11974b$11974b$11974b$1943b3o10028b$1943bo10030b$1944bo10029b$27bo5930b2o54b2o5930bo27b$27bo5930b2o54b2o5930bo27b$27bo9995b3o1920bo27b$10025bo1948b$10024bo1949b$11974b$11974b$11969b3o2b$5782b2o114b2o174b2o114b2o5777bo2bob$5782b2o114b2o174b2o114b2o5777bo4b$11969bo3bo$11969bo3bo$11969bo4b$11970bobob$11974b$3555bo8418b$3554b2o8418b$2b3o18b2o3529bobo8392b2o12bo10b$bo2bo17bo2bo11922bo2bo10b3o9b$4bo13b2o2bo2bo11922bo2bo2b2o5b2obo9b$o3bo13b2o3b2o8388bo3535b2o3b2o5b3o10b$o3bo5785b2o390b2o2229b2o3546b3o10b$4bo5785b2o390b2o2228bobo3546b3o10b$bobo11958b2o10b$11974b$11974b$2003b3o9968b$10bo1992bo9970b$9b3o1992bo9969b$9bob2o11961b$10b3o11961b$10b3o14bo5930b2o54b2o3947b3o1980bo27b$10b3o14bo5930b2o54b2o3949bo1980bo27b$10b2o15bo9936bo1981bo27b$11974b$11974b$11974b$11974b$11974b$5782b2o114b2o174b2o114b2o5782b$5782b2o114b2o174b2o114b2o5782b$11974b$11974b$11974b$3615bo8358b$3614b2o8358b$3614bobo2166bo6190b$5784bo404bo5784b$23b2o5749bo7bo404b4o5758b2o23b$22bo2bo5747bobo6bo2bo400bo5bo2160bo3594bo2bo22b$18b2o2bo2bo5746bo2b2o6b2ob2o393b2o6bo3bo2159b2o3593bo2bo2b2o18b$18b2o3b2o5747bo3bo9b2o8b2o382bo2bo2b2o5bo2158bobo3594b2o3b2o18b$5772b2o8b2o5b2o4b2o382b2o2bo4bobob2o5780b$5772b3o14b2o5b2o382b2o2bo5b2o5782b$5786bo10b3o381b4o5789b$2063b3o3714b2o4bo12bo6174b$2063bo3718bo3bo12bo6174b$2064bo3715b2o6192b$11974b$11974b$9903b3o2068b$5782b2o406b2o3713bo2068b$27bo5754b2o174b2o54b2o174b2o3712bo2041bo27b$27bo5930b2o54b2o5930bo27b$27bo11918bo27b$11974b$11974b$11974b$5772b2o6200b$5771b2o404bobo5794b$5773bo124b2o174b2o101b2o5795b$5898b2o174b2o102bo5795b$11974b$3675bo2519b2o5777b$3674b2o2114b2o7bobo380b2o12b2o5776b$3674bobo2113b2o8b2o380b2o11bo5778b$5800bo6173b$11974b$8293bo3680b$23b2o8268b2o3654b2o23b$22bo2bo8266bobo3653bo2bo22b$18b2o2bo2bo11922bo2bo2b2o18b$18b2o3b2o11924b2o3b2o18b$11974b$2123b3o9848b$2123bo9850b$2124bo9849b$11974b$11974b$9843b3o2128b$9845bo2128b$9844bo2129b$5782b2o406b2o5782b$27bo5754b2o174b2o54b2o174b2o5754bo27b$27bo5930b2o54b2o5930bo27b$27bo11918bo27b$11969b3o2b$5832b2o6135bo2bob$5831b2o6136bo4b$5833bo64bo6070bo3bo$5899bo6069bo3bo$5898bo6070bo4b$3735bo2161b3o175bo59b2o5833bobob$3734b2o2162b2o174b5obo55b2o5836b$3734bobo2160b2ob2o172bo2bo3bo53bo5838b$5790b2o109bo178bo101b2o5790b$2b3o5785b2o103bo3bo2bo171b3o2bo102b2o5779bo10b$bo2bo5889bobo2b2obo172bo4b2o4b2o2145bo3728b3o9b$4bo5888bo4bo3b2o176b2o7bo2143b2o3726b2obo9b$o3bo5889bobo3b2o177bo9b3o2140bobo3726b3o10b$o3bo18b2o5870bob2obo180bo4b2o4bo5856b2o10b3o10b$4bo17bo2bo5873bo185bob3o3bo5854bo2bo9b3o10b$bobo14b2o2bo2bo6040b2o17bo4bobo5855bo2bo2b2o6b2o10b$18b2o3b2o2158b3o3876bo3bobo16bo2bo5860b2o3b2o18b$2183bo3876b2o14bo10bo5886b$2184bo3717b2o162bo3bo5903b$10bo5891b2o158b3ob2ob2o2b2o5899b$9b3o6061b2o5899b$9bob2o6056bo2b3o3708b3o2188b$10b3o6056bo3715bo2188b$10b3o6057b2o3712bo2189b$10b3o6041bo5919b$10b2o6040b2o5920b$5782b2o114b2o153b2o19b2o114b2o5782b$27bo5754b2o114b2o58b2o54b2o58b2o114b2o5754bo27b$27bo5930b2o54b2o5930bo27b$27bo5864b2o30bo6021bo27b$5891b2o32b2o6047b$5893bo30b2o6048b$11974b$11974b$3795bo2279b2o5897b$3794b2o2161b2o117b2o5896b$3794bobo2158b3ob2o114bo5898b$5955b3obo7bo6006b$5953b2o4bo2bo3bo4bo6002b$5790b2o98b2o61bo5bo3bo2b2o3b2o38bo70b2o98b2o1989bo3800b$5790b2o98b2o61bobo4bo3bo2bo4b2o35b2ob2o68b2o98b2o1989b2o3799b$5954b2o4bo3b2ob6o36b2o2161bobo3799b$5963bo4b3o37bobo3bo5959b$11974b$23b2o5988bo5935b2o23b$22bo2bo2217b3o3764b3o5935bo2bo22b$18b2o2bo2bo2217bo3766b2o5936bo2bo2b2o18b$18b2o3b2o2219bo3770b2o5932b2o3b2o18b$11974b$5958b2o54bobo86bo5870b$5958b2o54b2o85bobo3619b3o2248b$6102b2o3621bo2248b$9724bo2249b$6006bo5967b$5865bo138b2o5968b$5865bobo137b2o5967b$5865b2o6107b$5782b2o114b2o174b2o114b2o5782b$27bo5754b2o114b2o72bo101b2o114b2o5754bo27b$27bo5945b2o5971bo27b$27bo5944b2o5972bo27b$11974b$5966b2o38b2o5966b$3855bo2110b2o38b2o109bobo5854b$3854b2o2261b2o5855b$3854bobo2261bo5855b$11974b$11974b$5859bobo2251bo3860b$5860b2o2251b2o3859b$5790b2o68bo29b2o190b2o98b2o1928bobo3859b$5790b2o98b2o190b2o98b2o5790b$11974b$11974b$2303b3o9668b$23b2o2278bo9645b2o23b$22bo2bo2278bo9643bo2bo22b$18b2o2bo2bo11922bo2bo2b2o18b$18b2o3b2o11924b2o3b2o18b$9663b3o2308b$5958b2o54b2o3649bo2308b$5958b2o54b2o3648bo2309b$11974b$11974b$11974b$11974b$11974b$11974b$5782b2o114b2o174b2o114b2o5777b3o2b$27bo5754b2o114b2o174b2o114b2o5754bo22bo2bob$27bo11918bo22bo4b$27bo11918bo22bo3bo$3915bo8053bo3bo$3914b2o2050b2o38b2o5961bo4b$3914bobo2049b2o38b2o5962bobob$11974b$11974b$8053bo3920b$2b3o8048b2o3908bo10b$bo2bo8047bobo3907b3o9b$4bo11956b2obo9b$o3bo5785b2o98b2o190b2o98b2o5777b3o10b$o3bo5785b2o98b2o190b2o98b2o5777b3o10b$4bo2358b3o9595b3o10b$bobo2359bo9598b2o10b$2364bo9609b$23b2o11924b2o23b$22bo2bo11922bo2bo22b$10bo7b2o2bo2bo9577b3o2342bo2bo2b2o18b$9b3o6b2o3b2o9580bo2343b2o3b2o18b$9bob2o9591bo2369b$10b3o5945b2o54b2o5958b$10b3o5945b2o54b2o5958b$10b3o11961b$10b2o11962b$11974b$11974b$11974b$11974b$5782b2o114b2o174b2o114b2o5782b$27bo5754b2o114b2o174b2o114b2o5754bo27b$27bo3947bo7970bo27b$27bo3946b2o7970bo27b$3974bobo7997b$11974b$11974b$7993bo3980b$7993b2o3979b$7992bobo3979b$11974b$11974b$11974b$2423b3o3364b2o390b2o5790b$2423bo3366b2o390b2o5790b$2424bo9549b$11974b$11974b$23b2o9518b3o2403b2o23b$22bo2bo9519bo2402bo2bo22b$18b2o2bo2bo9518bo2403bo2bo2b2o18b$18b2o3b2o6138bo5785b2o3b2o18b$6161bobo5810b$5958b2o54b2o146b2o5810b$5958b2o54b2o5958b$11974b$5805bo6168b$5805bobo6166b$5805b2o6167b$11974b$11974b$4035bo1746b2o114b2o174b2o114b2o5782b$27bo4006b2o1746b2o114b2o174b2o114b2o5754bo27b$27bo4006bobo7909bo27b$27bo11918bo27b$11974b$7933bo4040b$7933b2o4039b$7932bobo4039b$11974b$11974b$11974b$2483b3o9488b$2483bo9490b$2484bo3305b2o390b2o5790b$5790b2o390b2o5790b$11974b$9483b3o2488b$9485bo2488b$23b2o9459bo2464b2o23b$22bo2bo11922bo2bo22b$18b2o2bo2bo11922bo2bo2b2o18b$18b2o3b2o11924b2o3b2o18b$11974b$5958b2o54b2o5958b$5958b2o54b2o5958b$11974b$11974b$11969b3o2b$11969bo2bob$4095bo7873bo4b$4094b2o7873bo3bo$4094bobo1801b2o174b2o5893bo3bo$27bo5759b3o108b2o174b2o5870bo22bo4b$27bo5761bo6156bo23bobob$27bo5752b2o4bob2o2083bo4072bo27b$5780b2o4bobo398b3o1683b2o4099b$5786b2o398bo3bo1681bobo4099b$2b3o5784b2o394bo7bo5769bo10b$bo2bo5782bo3b2o391b2obob3obo5768b3o9b$4bo5780b3o396b2obobo3bo5767b2obo9b$o3bo2538b3o3243b3o392bo3bo5772b3o10b$o3bo2538bo3245bo395b4o5772b3o10b$4bo2539bo3244b3o394bo5774b3o10b$bobo5785b3o6170b2o10b$5790bo6183b$5778b2o414b2o3227b3o2548b$5778b2o414b2o3229bo2548b$10bo9413bo2549b$9b3o11962b$9bob2o10b2o11924b2o23b$10b3o9bo2bo11922bo2bo22b$10b3o5b2o2bo2bo11922bo2bo2b2o18b$10b3o5b2o3b2o11924b2o3b2o18b$10b2o5770b2o406b2o5782b$5782b2o174b2o54b2o174b2o5782b$5958b2o54b2o5958b$11974b$11974b$4155bo1645b2o6171b$4154b2o1645bobo6170b$4154bobo1644bo6172b$11974b$5898b2o174b2o5898b$27bo5870b2o174b2o90b2o1645bo4132bo27b$27bo6137bobo1645b2o4131bo27b$27bo6139bo1644bobo4131bo27b$5790b2o390b2o5790b$5790b2o390b2o5790b$11974b$2603b3o9368b$2603bo9370b$2604bo9369b$11974b$11974b$9363b3o2608b$9365bo2608b$9364bo2609b$11974b$11974b$11974b$23b2o11924b2o23b$22bo2bo5865bobo6054bo2bo22b$18b2o2bo2bo5863bo4bo6053bo2bo2b2o18b$18b2o3b2o5864bo4bo6054b2o3b2o18b$5782b2o109b2o295b2o5782b$5782b2o174b2o54b2o174b2o5782b$5889b2o2b2o63b2o54b2o5958b$4215bo1645b2o26b2o2b2o187bo5891b$4214b2o1645bobo26bob3o186b3o5890b$4214bobo1644bo31bo186bo2bo5890b$5892bo187b2o5892b$6081bo65bo5826b$6083b2o21b2o38bo1606bo4220b$6081b4o20bobo38b3o1604b2o4219b$27bo6052bo2bo23bo1644bobo4191bo27b$27bo6054bo5863bo27b$27bo5803bo69bo170b2o5872bo27b$5790b2o40bo57b2o10bo169b2o7bobo98b2o5790b$2663b3o3124b2o38b3o57b2o10b2o178b2o98b2o5790b$2663bo3236bob2o6070b$2664bo9309b$5901bo6072b$11974b$6071bo3231b3o2668b$6070bobo3232bo2668b$6070bobo3231bo2669b$6071b2o5901b$6070b3o5901b$11974b$11974b$11974b$23b2o11924b2o23b$22bo2bo11922bo2bo22b$18b2o2bo2bo11922bo2bo2b2o18b$18b2o3b2o11924b2o3b2o18b$5782b2o114b2o174b2o114b2o5782b$4275bo1506b2o114b2o21b2o151b2o114b2o5777b3o2b$4274b2o1645bobo37bo6007bo2bob$4274bobo1644bo38b3o54bo5951bo4b$5959bo51bo5bo5951bo3bo$5957bob4o47bo5b3o5950bo3bo$5956b4ob2o47bobo33b2o1645bo4275bo4b$5955bob2o2b2o47b2o4b3o26bobo1645b2o4275bobob$5955bo2bo2b2ob3o38b3o9bo29bo1644bobo4279b$5956bo4bo2b3o6007b$27bo5932b7o5979bo27b$2b3o22bo5933bob4o5979bo16bo10b$bo2bo22bo2695b3o3236bo2bo5980bo15b3o9b$4bo2718bo3066b2o98b2o71b2o117b2o98b2o5777b2obo9b$o3bo2719bo3065b2o98b2o190b2o98b2o5777b3o10b$o3bo5949b2o62b2o5941b3o10b$4bo5949b2o62b2o5941b3o10b$bobo9239b3o2716b2o10b$9245bo2728b$9244bo2729b$11974b$10bo11963b$9b3o11962b$9bob2o5945b2o54b2o5958b$10b3o5945b2o54b2o5958b$10b3o11961b$10b3o11961b$10b2o11b2o11924b2o23b$22bo2bo11922bo2bo22b$18b2o2bo2bo11922bo2bo2b2o18b$18b2o3b2o4310bo7613b2o3b2o18b$4334b2o1446b2o114b2o174b2o114b2o5782b$4334bobo1445b2o114b2o174b2o114b2o5782b$11974b$11974b$7633bo4340b$5966b2o38b2o1625b2o4339b$5966b2o38b2o1624bobo4339b$11974b$11974b$11974b$27bo2755b3o9160bo27b$27bo2755bo9162bo27b$27bo2756bo9161bo27b$5790b2o98b2o190b2o98b2o5790b$5790b2o98b2o190b2o98b2o5790b$9183b3o2788b$9185bo2788b$9184bo2789b$11974b$11974b$11974b$11974b$11974b$5958b2o54b2o116bobo5839b$5958b2o54b2o117b2o5839b$6133bo5840b$11974b$23b2o5949bo5974b2o23b$22bo2bo4369bo1438bobo137bobo5971bo2bo22b$18b2o2bo2bo4368b2o1438b2o138b2o5972bo2bo2b2o18b$18b2o3b2o4369bobo1438bo6113b2o3b2o18b$5782b2o114b2o174b2o114b2o5782b$5782b2o114b2o104bo69b2o114b2o5782b$6002bobo1568bo4400b$6003b2o1568b2o4399b$7572bobo4399b$5966b2o38b2o79bo5886b$5966b2o38b2o78bo5887b$6086b3o5885b$2843b3o9128b$2843bo3045b2o6083b$27bo2816bo3043bo6057bo27b$27bo5859bo2bo6055bo27b$27bo5860bobo6055bo27b$5790b2o97b2o191b2o98b2o2939b3o2848b$5790b2o97b2o191b2o98b2o2941bo2848b$9124bo2849b$11974b$11974b$11974b$11974b$11974b$11974b$11974b$5958b2o54b2o5958b$5958b2o54b2o5958b$11974b$4455bo7518b$23b2o4429b2o7493b2o23b$22bo2bo4428bobo7491bo2bo17b3o2b$18b2o2bo2bo11922bo2bo2b2o13bo2bob$18b2o3b2o11924b2o3b2o13bo4b$5782b2o114b2o174b2o114b2o1321bo4455bo3bo$5782b2o114b2o174b2o114b2o1321b2o4454bo3bo$7512bobo4454bo4b$11970bobob$11974b$11974b$2903b3o9068b$2b3o2898bo9059bo10b$bo2bo2899bo9057b3o9b$4bo11956b2obo9b$o3bo22bo11918bo14b3o10b$o3bo22bo9035b3o2880bo14b3o10b$4bo22bo9037bo2880bo14b3o10b$bobo5786b2o390b2o2880bo2897b2o10b$5790b2o390b2o5790b$11974b$11974b$10bo11963b$9b3o11962b$9bob2o11961b$10b3o11961b$10b3o11961b$10b3o11961b$10b2o5946b2o54b2o5958b$4515bo1442b2o54b2o5958b$4514b2o7458b$4514bobo7457b$23b2o11924b2o23b$22bo2bo11922bo2bo22b$18b2o2bo2bo7427bo4494bo2bo2b2o18b$18b2o3b2o7428b2o4494b2o3b2o18b$5782b2o114b2o174b2o114b2o1260bobo4519b$5782b2o114b2o174b2o114b2o5782b$11974b$11974b$2963b3o9008b$2963bo9010b$2964bo9009b$5784b2o6188b$5781bo4bo404b2o5781b$5775b2o4bo5bo401b2ob3o2808b3o2968b$27bo5746bo2bo3bob2ob2o394bo7bob3o2810bo2940bo27b$27bo5742bo4bob2o15b4o380bo4bo3bo2bo4b2o2807bo2941bo27b$27bo5741bo5bobo6bo8b2ob2o379b2o3b2o2bo3bo5bo5749bo27b$5769b3o2b3o7bo7b2o2bo2bo376b2o4bo2bo3bo4bobo5777b$5774bo10bo7bo3b3o377b6ob2o3bo4b2o5778b$5786b2o6bo2bo2bo378b3o4bo5787b$5785bo12bobo6173b$5786b2o10b2o6174b$11974b$11974b$11974b$11974b$4575bo1206b2o406b2o5782b$4574b2o1206b2o174b2o54b2o174b2o5782b$4574bobo1381b2o54b2o5958b$11974b$11974b$23b2o7368bo4555b2o23b$22bo2bo7367b2o4553bo2bo22b$18b2o2bo2bo7366bobo4553bo2bo2b2o18b$18b2o3b2o11924b2o3b2o18b$5898b2o174b2o101bo5796b$5898b2o174b2o99b2o5797b$3023b3o3150b2o5796b$3023bo8950b$3024bo2765b2o390b2o5790b$5790b2o9bo380b2o5790b$5802b2o6170b$5801b2o3140b3o3028b$8945bo3028b$8944bo3029b$27bo11918bo27b$27bo11918bo27b$27bo11918bo27b$11974b$11974b$11974b$11974b$11974b$11974b$11974b$4635bo7338b$4634b2o7338b$4634bobo1145b2o406b2o5782b$5782b2o174b2o54b2o174b2o5782b$5958b2o54b2o5953b3o2b$7333bo4635bo2bob$7333b2o4634bo4b$23b2o7307bobo4614b2o18bo3bo$22bo2bo11922bo2bo17bo3bo$18b2o2bo2bo11922bo2bo2b2o13bo4b$18b2o3b2o5874bo6049b2o3b2o14bobob$3083b3o2812b4o6072b$3083bo2813bobo2bo173bo5897b$3084bo2816b3o168b5o4b2o5891b$2b3o5893bo4bo170b2o5bobo5879bo10b$bo2bo5785b2o106b2o3b3o276b2o5778b3o9b$4bo5785b2o101bo3b3o171bo2b2ob4o101b2o2699b3o3075b2obo9b$o3bo5886b5ob2o173b2o3b4o2bo2801bo3075b3o10b$o3bo5885b3ob5o179bo2805bo3076b3o10b$4bo5886b5ob2o3b2o6057b3o10b$bobo5889bo4bo2b3o6058b2o10b$27bo5872b3o186bo2bo5853bo27b$27bo5872b2o187bo3bo5852bo27b$27bo6062bobo5853bo27b$10bo6058b2o20bo5882b$9b3o5890b2o156b2o7b2o5903b$9bob2o5889b2o158bo6bobo5902b$10b3o6049b2obo3bo2bo5901b$10b3o6052b2o5907b$10b3o4682bo1368b2o2bo5905b$10b2o4682b2o1372bobo5903b$4694bobo1372bo5904b$11974b$5782b2o114b2o152bo21b2o114b2o5782b$5782b2o114b2o58b2o54b2o34b2o22b2o114b2o1081bo4700b$5958b2o54b2o35b2o1220b2o4699b$7272bobo4699b$11974b$23b2o5901bo6022b2o23b$22bo2bo5901b2o6019bo2bo22b$18b2o2bo2bo3117b3o2780b2o6020bo2bo2b2o18b$18b2o3b2o3118bo2814bo5990b2o3b2o18b$3144bo2812bobo6014b$5957bobo5bo5bo39bo5962b$5961b2o3bo2bo40bobo5961b$5951b2o7bo8bo4bo38bo2809b3o3148b$5790b2o98b2o58b2ob2o2bobo15bo32b3o2bo68b2o98b2o74bo2566bo3148b$5790b2o98b2o59bob2o10b2o8bo31b2o3b2o68b2o98b2o75bo2564bo3149b$5952bo8b2o2b2o2bo5bo32b2ob2o244b3o5714b$5953b3ob3obo8bo3bo34b2ob2o5960b$5954bo18bo36bo2bo5960b$5710bo299bo2bo5960b$27bo5681bo302b2o5932bo27b$27bo5681b3o6234bo27b$27bo11918bo27b$11974b$5958b2o54b2o5958b$5958b2o54b2o5958b$4755bo1349bo5868b$4754b2o1347bobo5868b$4754bobo1347b2o5868b$11974b$6003bobo5968b$5863bo139b2o1208bo4760b$5782b2o79bobo32b2o104bo69b2o114b2o1021b2o4759b$5782b2o79b2o33b2o174b2o114b2o1020bobo4759b$11974b$5973bobo5998b$5974b2o5998b$23b2o3178b3o2760b2o6bo31b2o5941b2o23b$22bo2bo3177bo2762b2o38b2o5940bo2bo22b$18b2o2bo2bo3178bo2912bo5830bo2bo2b2o18b$18b2o3b2o6090b2o5832b2o3b2o18b$6116b2o5856b$8763b3o3208b$8765bo3208b$5861bo2902bo3209b$5790b2o70b2o26b2o190b2o98b2o5790b$5790b2o69b2o27b2o190b2o98b2o5790b$11974b$11974b$11974b$11974b$27bo11918bo27b$27bo11918bo27b$27bo11918bo27b$11974b$4815bo1142b2o54b2o5958b$4814b2o1142b2o54b2o5958b$4814bobo7157b$11974b$11974b$7153bo4820b$7153b2o4814b3o2b$7152bobo4814bo2bob$5782b2o114b2o174b2o114b2o5777bo4b$5782b2o114b2o174b2o114b2o5777bo3bo$11969bo3bo$3263b3o8703bo4b$3263bo8706bobob$23b2o3239bo2701b2o38b2o5941b2o23b$22bo2bo5940b2o38b2o5940bo2bo22b$18b2o2bo2bo11922bo2bo2b2o18b$2b3o13b2o3b2o8678b3o3243b2o3b2o7bo10b$bo2bo8700bo3256b3o9b$4bo8699bo3256b2obo9b$o3bo11956b3o10b$o3bo11956b3o10b$4bo5785b2o98b2o190b2o98b2o5777b3o10b$bobo5786b2o98b2o190b2o98b2o5778b2o10b$11974b$11974b$11974b$10bo11963b$9b3o15bo11918bo27b$9bob2o14bo11918bo27b$10b3o14bo4847bo7070bo27b$10b3o4861b2o7098b$10b3o4861bobo1081b2o54b2o5958b$10b2o5946b2o54b2o5958b$11974b$7093bo4880b$7093b2o4879b$7092bobo4879b$11974b$11974b$5782b2o114b2o174b2o114b2o5782b$3323b3o2456b2o114b2o174b2o114b2o5782b$3323bo8650b$3324bo8649b$11974b$23b2o11924b2o23b$22bo2bo8617b3o3302bo2bo22b$18b2o2bo2bo8619bo3302bo2bo2b2o18b$18b2o3b2o8619bo3304b2o3b2o18b$11974b$11974b$6318bo5655b$6319bo5654b$5790b2o390b2o133b3o5654b$5790b2o390b2o5790b$11974b$5650bo6323b$5649bo6324b$5649b3o6322b$27bo4907bo7010bo27b$27bo4906b2o7010bo27b$27bo4906bobo7009bo27b$11974b$5958b2o54b2o149bo5808b$5958b2o54b2o147bobo867bo4940b$6164b2o867b2o4939b$7032bobo4939b$11974b$5803bo6170b$5803bobo6168b$3383b3o2417b2o6169b$3383bo2398b2o114b2o174b2o114b2o5782b$3384bo2397b2o114b2o174b2o114b2o5782b$11974b$11974b$8583b3o3388b$23b2o8560bo3363b2o23b$22bo2bo8558bo3363bo2bo22b$18b2o2bo2bo11922bo2bo2b2o18b$18b2o3b2o11924b2o3b2o18b$11974b$11974b$11974b$11974b$5790b2o390b2o5790b$5790b2o390b2o5790b$11974b$11974b$4995bo6978b$4994b2o6978b$27bo4966bobo6949bo27b$27bo11918bo27b$27bo11918bo27b$6973bo5000b$5958b2o54b2o957b2o4999b$5958b2o54b2o956bobo4999b$11969b3o2b$11969bo2bob$11969bo4b$3443b3o8523bo3bo$3443bo2748bo5776bo3bo$3444bo2746b3o5775bo4b$5898b2o174b2o113b2o3bo5775bobob$5898b2o174b2o113b5o5780b$6188bo2334b3o3448b$5787b2o400bo3b2o2330bo3448b$2b3o5782b3o399b2o2b2o2329bo3438bo10b$bo2bo18b2o5761b2o2bo400b2o5756b2o11b3o9b$4bo17bo2bo5759b3o394bo5765bo2bo9b2obo9b$o3bo13b2o2bo2bo5753b3o4b3o393bo5765bo2bo2b2o5b3o10b$o3bo13b2o3b2o5762bo394bo5766b2o3b2o5b3o10b$4bo11956b3o10b$bobo11958b2o10b$11974b$11974b$11974b$10bo5767b2o414b2o5778b$9b3o5043bo722b2o414b2o5778b$9bob2o5041b2o6918b$10b3o5041bobo6917b$10b3o11961b$10b3o14bo11918bo27b$10b2o15bo6885bo5032bo27b$27bo6885b2o5031bo27b$5782b2o406b2o720bobo5059b$5782b2o174b2o54b2o174b2o5782b$5958b2o54b2o5958b$11974b$3503b3o8468b$3503bo8470b$3504bo8469b$6221bo5752b$6219bobo5752b$5898b2o174b2o144b2o2241b3o3508b$5898b2o174b2o2389bo3508b$8464bo3509b$5747bo6226b$5747bobo40b2o390b2o5790b$23b2o5722b2o41b2o390b2o5765b2o23b$22bo2bo11922bo2bo22b$18b2o2bo2bo11922bo2bo2b2o18b$18b2o3b2o11924b2o3b2o18b$6378bo5595b$6379bo5594b$6377b3o5594b$11974b$5115bo6858b$5114b2o474bo6383b$5114bobo472bo6384b$5589b3o6382b$11974b$6853bo5120b$27bo6825b2o5091bo27b$27bo6824bobo5091bo27b$27bo11918bo27b$5782b2o406b2o5782b$5782b2o174b2o54b2o137bobo34b2o5782b$3563b3o2392b2o54b2o137b2o5819b$3563bo2590bo5819b$3564bo8409b$11974b$5823bobo6148b$5824b2o2577b3o3568b$5824bo2580bo3568b$5743b2o153b2o174b2o2328bo3569b$5743bobo152b2o174b2o5898b$5743bo6230b$11974b$49b2o5739b2o390b2o5790b$49bobo5738b2o390b2o40b2o5748b$22b2o25bo6173bobo5724b2o22b$18b2o2b2o6201bo5724b2o2b2o18b$18b2o11934b2o18b$11918b2o54b$11917bobo54b$5175bo6743bo54b$5174b2o6798b$5174bobo6797b$11974b$5729b3o510b3o5729b$6793bo5180b$5727bo5bo506bo5bo546b2o5179b$5727bo5bo506bo5bo545bobo5179b$27bo5699bo5bo506bo5bo5699bo27b$27bo11918bo27b$27bo5701b3o510b3o5701bo22b3o2b$3623b3o2156b2o406b2o5777bo2bob$3623bo2158b2o174b2o54b2o174b2o5777bo4b$3624bo2333b2o54b2o5953bo3bo$11969bo3bo$11969bo4b$8343b3o3624bobob$8345bo3628b$5803b2o2539bo3629b$5803bobo6168b$2b3o5798bo94b2o174b2o5887bo10b$bo2bo5893b2o174b2o5886b3o9b$4bo104b2o11850b2obo9b$o3bo104bobo6052b2o5795b3o10b$o3bo104bo5680b2o371bobo16b2o5777b3o10b$4bo5785b2o373bo16b2o5777b3o10b$bobo18b2o11926b2o10b2o10b$18b2o2b2o11834b2o90b2o2b2o18b$18b2o11837bobo94b2o18b$5235bo6623bo114b$10bo5223b2o6738b$9b3o5222bobo6737b$9bob2o11961b$10b3o11961b$10b3o6720bo5240b$10b3o5716b3o510b3o488b2o5239b$10b2o6720bobo5239b$5727bo5bo506bo5bo5727b$5727bo5bo506bo5bo5727b$27bo5699bo5bo506bo5bo5699bo27b$27bo3655b3o8260bo27b$27bo3655bo2045b3o159bo350b3o5701bo27b$3684bo2097b2o106b3o297b2o5782b$5782b2o105b5o64b2o54b2o174b2o5782b$5889b2ob3o63b2o54b2o5958b$5890b2ob2o2388b3o3688b$5892bo2392bo3688b$5863b2o2419bo3689b$5863bobo6108b$5863bo218bo5891b$6081b3o5890b$169b2o5909bo2b2o5889b$169bobo5908bo3bo19b2o5868b$169bo5911b2obo18bobo5868b$5900b2o170b2o9b2o20bo5868b$5790b2o98b2o8b2o170b2o108b2o5790b$5790b2o98b2o290b2o5614b2o174b$22b2o11773bobo150b2o22b$18b2o2b2o5271bo1142bo5360bo150b2o2b2o18b$18b2o5274b2o1143bo5514b2o18b$5294bobo604b3o168bobo362b3o5534b$5900bo2bo168b2o5900b$5899bo5bo167bo5900b$5530bo367bo4bobo767bo5300b$5529bo368bobo2b3o767b2o5299b$5529b3o367bo170b2o600bobo5299b$5729b3o338b2o170b3o5729b$11974b$5727bo5bo506bo5bo5727b$3743b3o1981bo5bo506bo5bo5727b$27bo3715bo1983bo5bo506bo5bo5699bo27b$27bo3716bo2272bo5928bo27b$27bo5701b3o281b2ob3o74bobo146b3o5701bo27b$5782b2o114b2o112bo5bo55b2o17b2o95b2o5782b$5782b2o114b2o111bo4b4o54b2o18bo95b2o2031b3o3748b$6011bo7bo2205bo3748b$5923b2o85b2o2b2o3bo2204bo3749b$5883bobo37bobo85bobo5bo5954b$5884b2o37bo37bo50bo2bob2o5955b$5884bo75bobo6011b$229b2o5725bo2b2ob2o50b2ob2o5955b$229bobo5724bo3bobo42b3o8bo27b2o5928b$229bo5726bo5bob2o77bobo5928b$5961b2ob2o79bo5928b$5963bo6010b$11738b2o234b$5790b2o98b2o190b2o98b2o5553bobo234b$5355bo434b2o98b2o190b2o98b2o5555bo234b$22b2o5330b2o598b2o62b2o5930b2o22b$18b2o2b2o5330bobo597b2o62b2o5930b2o2b2o18b$18b2o11934b2o18b$11974b$6613bo5360b$6613b2o5359b$6612bobo5359b$11974b$5958b2o54b2o5958b$5729b3o226b2o54b2o226b3o5729b$3803b3o8168b$3803bo1923bo5bo506bo5bo5722b3o2b$3804bo1922bo5bo506bo5bo5722bo2bob$27bo5699bo5bo506bo5bo5699bo22bo4b$27bo11918bo22bo3bo$27bo5701b3o510b3o1918b3o3780bo22bo3bo$5782b2o114b2o174b2o114b2o1973bo3803bo4b$5782b2o114b2o174b2o114b2o1972bo3805bobob$11974b$11974b$11974b$2b3o284b2o5675b2o38b2o5955bo10b$bo2bo284bobo5674b2o38b2o5954b3o9b$4bo284bo11671b2obo9b$o3bo11956b3o10b$o3bo11956b3o10b$4bo11673b2o281b3o10b$bobo11673bobo282b2o10b$5415bo6263bo294b$5414b2o374b2o390b2o5790b$5414bobo373b2o390b2o5790b$10bo11b2o11926b2o22b$9b3o6b2o2b2o11926b2o2b2o18b$9bob2o5b2o6533bo5400b2o18b$10b3o6540b2o5419b$10b3o6539bobo5419b$10b3o11961b$10b2o6118bobo5841b$6131b2o5841b$3863b3o2092b2o54b2o115bo5842b$3863bo1865b3o226b2o54b2o226b3o5729b$3864bo2111bo5997b$5727bo5bo102bobo137bobo261bo5bo5727b$5727bo5bo102b2o138b2o262bo5bo5727b$27bo5699bo5bo103bo402bo5bo1856b3o3840bo27b$27bo8077bo3840bo27b$27bo5701b3o270bo239b3o1859bo3841bo27b$5782b2o114b2o100bobo71b2o114b2o5782b$5782b2o114b2o101b2o71b2o114b2o5782b$11974b$349b2o11623b$349bobo11622b$349bo5616b2o38b2o5966b$5966b2o38b2o5966b$11974b$11618b2o354b$11617bobo354b$5475bo6143bo354b$5474b2o6498b$5474bobo6497b$5790b2o390b2o5790b$5790b2o390b2o314bo5475b$22b2o6469bo5bo5450b2o22b$18b2o2b2o6469b2o2b3o5450b2o2b2o18b$18b2o6472bobo5459b2o18b$11974b$5470bo6503b$5469bo6504b$3923b3o1543b3o6502b$3923bo8050b$3924bo2033b2o54b2o5958b$5729b3o226b2o54b2o226b3o5729b$11974b$5727bo5bo506bo5bo1796b3o3928b$5727bo5bo506bo5bo1798bo3928b$27bo5699bo5bo506bo5bo1797bo3901bo27b$27bo11918bo27b$27bo5701b3o510b3o5701bo27b$5782b2o114b2o174b2o114b2o5782b$409b2o5371b2o114b2o174b2o114b2o5782b$409bobo11562b$409bo11564b$11974b$11974b$11558b2o414b$11557bobo414b$5535bo6023bo414b$5534b2o6438b$5534bobo6437b$11974b$11974b$5790b2o390b2o249bo5540b$5790b2o390b2o249b2o5539b$22b2o6408bobo5515b2o22b$18b2o2b2o11926b2o2b2o18b$18b2o11934b2o18b$11974b$3983b3o7988b$3983bo7990b$3984bo7989b$11969b3o2b$5958b2o54b2o5953bo2bob$5729b3o226b2o54b2o226b3o1738b3o3983bo4b$7985bo3983bo3bo$5727bo5bo506bo5bo1737bo3984bo3bo$5727bo5bo506bo5bo5722bo4b$27bo5699bo5bo506bo5bo5699bo23bobob$27bo11918bo27b$27bo441b2o5258b3o510b3o5701bo27b$469bobo5310b2o114b2o174b2o114b2o5782b$2b3o464bo5312b2o114b2o174b2o114b2o5771bo10b$bo2bo11957b3o9b$4bo11956b2obo9b$o3bo11493b2o461b3o10b$o3bo11492bobo461b3o10b$4bo5590bo5903bo461b3o10b$bobo5590b2o186b2o6178b2o10b$5594bobo185b2o6190b$5783bo405b2o5783b$5774bo9bo402bobobo5782b$10bo5762b3o8b2o12b3o381bo3b4o2bo180bo5600b$9b3o5760bo3bo5b5o10b4o380b2o9bo180b2o5599b$9bob2o5759b2ob3o4bobobob3o5b2o2b2o378b2obo6bobo179bobo5599b$10b3o5761b3o7bob5o6bob2o380bobo6b2o5782b$10b3o9b2o5751bobo3bo4b2o10b3o381b2o5766b2o22b$10b3o5b2o2b2o5752bo4bo4bo12bo6150b2o2b2o18b$10b2o6b2o4023b3o1734bo4bo6168b2o18b$4043bo1737bo407b2o5783b$4044bo1737bo6191b$11974b$11974b$5782b2o406b2o1731b3o4048b$5782b2o174b2o54b2o174b2o1733bo4048b$5729b3o226b2o54b2o226b3o1679bo4049b$11974b$5727bo5bo506bo5bo5727b$5727bo5bo506bo5bo5727b$27bo501b2o5196bo5bo506bo5bo5699bo27b$27bo501bobo5647bo5766bo27b$27bo501bo5199b3o445b2o63b3o5701bo27b$5898b2o174b2o102b2o5794b$5898b2o174b2o5898b$11438b2o534b$5799bo5637bobo534b$5655bo134b2o8b2o380b2o5255bo534b$5654b2o134b2o7b2o381b2o5790b$5654bobo6317b$11974b$11974b$6313bo5660b$6313b2o5659b$6312bobo5659b$6558bo5415b$6559bo5414b$6557b3o5414b$22b2o4079b3o7844b2o22b$18b2o2b2o4079bo7846b2o2b2o18b$18b2o4084bo1305bo6543b2o18b$5409bo6564b$5409b3o6562b$7863b3o4108b$7865bo4108b$5782b2o406b2o1672bo4109b$5782b2o174b2o54b2o174b2o5782b$5729b3o226b2o54b2o226b3o5729b$11974b$589b2o5136bo5bo506bo5bo5727b$589bobo5135bo5bo506bo5bo5727b$27bo561bo5137bo5bo506bo5bo5699bo27b$27bo11918bo27b$27bo5701b3o510b3o5701bo27b$5898b2o174b2o5302b2o594b$5898b2o174b2o5301bobo594b$5715bo5663bo594b$5714b2o6258b$5714bobo73b2o390b2o5790b$5790b2o390b2o5790b$11974b$6253bo5720b$6253b2o5719b$6252bobo5719b$11974b$11974b$11974b$4163b3o7808b$4163bo7810b$22b2o4140bo7785b2o22b$18b2o2b2o11926b2o2b2o18b$18b2o11934b2o18b$7803b3o4163b3o2b$7805bo4163bo2bob$7804bo4164bo4b$11969bo3bo$5782b2o406b2o5777bo3bo$5782b2o174b2o54b2o174b2o5777bo4b$649b2o5307b2o54b2o5954bobob$649bobo11322b$649bo11324b$11974b$2b3o22bo11918bo16bo10b$bo2bo22bo11290b2o626bo15b3o9b$4bo22bo11289bobo626bo14b2obo9b$o3bo5893b2o174b2o5243bo641b3o10b$o3bo5893b2o174b2o5885b3o10b$4bo11956b3o10b$bobo5774bo6183b2o10b$5777b2o11b2o390b2o5790b$5777bobo10b2o390b2o5790b$11974b$10bo11963b$9b3o6178bo5783b$9bob2o6177b2o5782b$10b3o6176bobo5782b$10b3o4210b3o7748b$10b3o4210bo7750b$10b2o4212bo7749b$11974b$22b2o11926b2o22b$18b2o2b2o7719b3o4204b2o2b2o18b$18b2o7725bo4208b2o18b$7744bo4229b$11974b$11974b$11974b$709b2o5071b2o406b2o5782b$709bobo5070b2o174b2o54b2o174b2o5782b$709bo5248b2o54b2o5958b$11974b$11974b$6119bo5138b2o714b$27bo6089b2o5138bobo686bo27b$27bo6090b2o5139bo686bo27b$27bo11918bo27b$6074b2o5898b$5838bo20bo214b2o5898b$5837b2o21b2o35b2o6075b$5837bobo19b2o31b3obob2o6074b$5790b2o103bo2bo283b2o5790b$5790b2o98bo7bo283b2o5790b$5889bo4bo3bo174b2o55bo5843b$5885b2o3bo175bo6bobo54b2o5842b$5884bo2b2o2b3obo4bo164b2o7b2o53bobo5842b$4283b3o1597bo8b3o5bo164bob4o3bo5899b$4283bo1596b3o6bo18bo155b3obob2o2bobob4o2bo5bo527bo5355b$4284bo1599b2o2bo10bo11bo152b3o2b3o2b5obo3bo2b3ob2o526bo5354b$5886b2o11bo6b2o4bo151bo12bo6bo3bob2o525b3o5354b$5896bo2b2o5bo4b2o152b3obo8b3o8bo5884b$5896b5o5bo3b2o155b3o8b3o5bo2bo1593b3o4288b$22b2o5326bo547b2o3b3obo2bo147bobo7bo19b3o1594bo4264b2o22b$18b2o2b2o5325bo549b3o2bo4b2o147b2o1624bo4265b2o2b2o18b$18b2o5329b3o552bo154bo26bobo5865b2o18b$5901bobo182bobo5885b$5902bo6071b$769b2o5147bobo6053b$769bobo5147b2o6053b$769bo5012b2o114b2o19bo154b2o114b2o5782b$5782b2o114b2o58b2o54b2o58b2o114b2o5782b$5958b2o54b2o5958b$11198b2o774b$11197bobo774b$11199bo774b$27bo11918bo27b$27bo11918bo27b$27bo5870bo6047bo27b$5897b2o6075b$5897bobo6074b$11974b$11974b$5790b2o98b2o178bo11b2o98b2o5790b$5790b2o98b2o69b3o106b2o10b2o98b2o5790b$5961bobo105bobo5902b$4343b3o1615bo3bo6008b$4343bo1615bo2b2obo131bo5876b$4344bo1616bo3bo132bo5875b$5962b2o132b3o5875b$5957bo49bobo5964b$5957bo5bo41bo4bo1612b3o4348b$5871bo86bo4bo41bo4bo1614bo4348b$5870bo87b3o48b2o1613bo4344b3o2b$22b2o5846b3o6077b2o17bo2bob$18b2o2b2o5981b2o2b2o5939b2o2b2o13bo4b$18b2o5985b2o2b2o5943b2o13bo3bo$829b2o5135bobo37bob3o5958bo3bo$829bobo5135b2o40bo5959bo4b$829bo5137bo40bo5961bobob$11974b$5782b2o114b2o174b2o114b2o5782b$5782b2o114b2o174b2o114b2o4946b2o834b$2b3o11132bobo823bo10b$bo2bo11134bo822b3o9b$4bo6012bo5943b2obo9b$o3bo5961b2o38b2o10bo5942b3o10b$o3bo22bo5938b2o38b2o10b2o5926bo14b3o10b$4bo22bo5988bob2o5926bo14b3o10b$bobo23bo11918bo15b2o10b$6017bo5956b$11974b$11974b$10bo11963b$9b3o5778b2o390b2o5790b$9bob2o4390b3o1384b2o390b2o5790b$10b3o4390bo7570b$10b3o4391bo7569b$10b3o11961b$10b2o11962b$7563b3o4408b$7565bo4408b$7564bo4409b$11974b$5958b2o54b2o5958b$22b2o5934b2o54b2o5934b2o22b$18b2o2b2o865b2o11059b2o2b2o18b$18b2o869bobo11062b2o18b$889bo11084b$11974b$11974b$11078b2o894b$5782b2o114b2o174b2o114b2o4885bobo894b$5782b2o114b2o174b2o114b2o4887bo894b$11974b$11974b$11974b$5966b2o38b2o5966b$27bo5938b2o38b2o5938bo27b$27bo11918bo27b$27bo11918bo27b$11974b$11974b$11974b$4463b3o7508b$4463bo1326b2o390b2o5790b$4464bo1325b2o390b2o5790b$11974b$11974b$6678bo824b3o4468b$6679bo825bo4468b$6677b3o824bo4469b$11974b$11974b$5290bo6683b$949b2o4338bo668b2o54b2o5958b$22b2o925bobo4337b3o666b2o54b2o5934b2o22b$18b2o2b2o925bo11000b2o2b2o18b$18b2o11934b2o18b$11974b$11018b2o954b$11017bobo954b$11019bo954b$5782b2o114b2o174b2o114b2o5782b$5782b2o114b2o174b2o114b2o5782b$11974b$11974b$11974b$11974b$27bo11918bo27b$27bo11918bo27b$27bo11918bo27b$11974b$4523b3o7448b$4523bo7450b$4524bo7449b$5790b2o390b2o5790b$5790b2o390b2o5790b$6157bo1285b3o4528b$6158bo1286bo4528b$6156b3o1285bo4529b$11974b$11969b3o2b$5811bo6157bo2bob$1009b2o4799bo6158bo4b$1009bobo4798b3o6156bo3bo$1009bo4948b2o54b2o5953bo3bo$22b2o5934b2o54b2o5934b2o17bo4b$18b2o2b2o11926b2o2b2o14bobob$18b2o10938b2o994b2o18b$10957bobo1014b$10959bo1014b$2b3o11958bo10b$bo2bo11957b3o9b$4bo5777b2o114b2o174b2o114b2o5769b2obo9b$o3bo5777b2o114b2o174b2o114b2o5769b3o10b$o3bo11956b3o10b$4bo11956b3o10b$bobo11958b2o10b$11974b$27bo11918bo27b$27bo11918bo27b$10bo16bo4555b3o7360bo27b$9b3o4571bo7390b$9bob2o4571bo7389b$10b3o11961b$10b3o11961b$10b3o5777b2o390b2o1199b3o4588b$10b2o5778b2o390b2o1201bo4588b$7384bo4589b$11974b$11974b$11974b$1069b2o10903b$1069bobo10902b$1069bo10904b$11974b$5958b2o54b2o5958b$22b2o5934b2o54b2o4882b2o1050b2o22b$18b2o2b2o10873bobo1050b2o2b2o18b$18b2o10879bo1054b2o18b$11974b$6193bo5780b$6189b2ob3o5779b$6188bo5bo5779b$5898b2o174b2o111bo4b4o5778b$5898b2o174b2o111bo7bo5778b$6186b2o2b2o3bo5778b$6187bobo5bo5778b$5785bo402bo2bob2o5779b$5784bobo6187b$27bo4615b3o1134bo2b2ob2o402b2ob2o5751bo27b$27bo4615bo1136bo3bobo394b3o8bo5753bo27b$27bo4616bo1135bo5bob2o6156bo27b$5785b2ob2o6184b$5787bo6186b$7323b3o4648b$7325bo4648b$7324bo4649b$5778b2o414b2o5778b$5778b2o414b2o542bo5235b$6739bo5234b$1129b2o5606b3o5234b$1129bobo10842b$1129bo10844b$5230bo6743b$5229bo6744b$5229b3o550b2o406b2o4646b2o1134b$5782b2o174b2o54b2o174b2o4645bobo1134b$22b2o5934b2o54b2o4823bo1110b2o22b$18b2o2b2o11926b2o2b2o18b$18b2o11934b2o18b$11974b$11974b$11974b$11974b$5898b2o174b2o5898b$5898b2o174b2o5898b$5806b3o6165b$5806bo6167b$4703b3o1084b2o15bo374b2o5790b$4703bo1086b2o390b2o5790b$27bo4676bo7241bo27b$27bo6132b3o5783bo27b$27bo6134bo5783bo27b$6161bo1101b3o4708b$7265bo4708b$7264bo4709b$11974b$40bo11933b$39b2o11933b$39bobo1147b2o10778b3o2b$1189bobo10777bo2bob$1189bo10779bo4b$11928bo40bo3bo$11928b2o39bo3bo$10778b2o1147bobo39bo4b$10777bobo1190bobob$5782b2o406b2o4587bo1194b$5782b2o174b2o54b2o174b2o5782b$22b2o5934b2o54b2o136bo5797b2o22b$2b3o13b2o2b2o6128bobo5795b2o2b2o7bo10b$bo2bo13b2o5871bo260b2o5800b2o6b3o9b$4bo5885b3o6068b2obo9b$o3bo5885bob2o6067b3o10b$o3bo5821bo62b2o6070b3o10b$4bo5819bobo62b2o189bo5880b3o10b$bobo5821b2o39b3o20b2o189bo5881b2o10b$5866bo26bo188bo5891b$29bo4733b3o1101bo24b2o187b2o5861bo29b$29bo4733bo1126bobo7b2o170b2o6b2obo5860bo29b$10bo18bo4734bo1025b2o97bo2bo7b2o170b2o6b2ob2o97b2o5760bo29b$9b3o5778b2o98b2o185bo3b3o16b3o79b2o5790b$9bob2o12b3o3b3o6041b2o5bo19bo5837b3o3b3o25b$10b3o6063b2o23bo1101b3o4768b$10b3o16bo7175bo4738bo29b$10b3o16bo7174bo4739bo29b$10b2o17bo5871bo6042bo29b$100bo5801b2o6070b$99b2o5801b2o6070b$99bobo1147b2o10723b$1249bobo4649bo168b2o5902b$1249bo4652b2o166b2o5902b$11868bo105b$11868b2o104b$10718b2o1147bobo104b$10717bobo1254b$5954b2o4763bo1254b$11974b$5782b2o114b2o174b2o114b2o5782b$5782b2o114b2o174b2o114b2o5782b$22b2o5936bobo50b5o5932b2o22b$18b2o2b2o5989bobob2o5931b2o2b2o18b$18b2o5936bo3bo54bo3bo5934b2o18b$5955b3o5bo51b2ob3o5953b$5955b3o3b3o44b2o5b2ob2o5954b$5926b3o26b3o50b3o3bo2bo5956b$5926bo39b3o38bo2bo3b4o5956b$4823b3o1101bo80b3o2bob2obo5955b$4823bo1184b2o3bo2b3o5955b$29bo4794bo1189bob3o5925bo29b$29bo6010b3o5901bo29b$29bo5760b2o98b2o150bo39b2o98b2o5760bo29b$5790b2o98b2o149bo40b2o98b2o959b3o4828b$25b3o3b3o5920b2o62b2o1125bo4794b3o3b3o25b$5954b2o62b2o1124bo4829b$29bo11914bo29b$29bo130bo11783bo29b$29bo129b2o11783bo29b$159bobo1147b2o10663b$1309bobo10662b$1309bo5488bo5175b$5958b2o54b2o783bo5008bo165b$5958b2o54b2o781b3o5008b2o164b$10658b2o1147bobo164b$10657bobo1314b$5170bo5488bo1314b$5169bo6804b$5169b3o6802b$11974b$5782b2o114b2o174b2o114b2o5782b$5782b2o114b2o174b2o114b2o5782b$22b2o11926b2o22b$18b2o2b2o11926b2o2b2o18b$18b2o11934b2o18b$5966b2o38b2o5966b$5966b2o38b2o5966b$4883b3o7088b$4883bo7090b$4884bo7089b$11974b$29bo11914bo29b$29bo7053b3o4858bo29b$29bo5760b2o98b2o190b2o98b2o901bo4858bo29b$5790b2o98b2o190b2o98b2o900bo4889b$25b3o3b3o11906b3o3b3o25b$220bo11753b$29bo189b2o5906bo5816bo29b$29bo189bobo1147b2o4757b2o5814bo29b$29bo1339bobo4755b2o5815bo29b$1369bo10599b3o2b$5980bo5767bo220bo2bob$5841bo137bo5768b2o219bo4b$5839b2o117b2o19b3o32b2o4582b2o1147bobo219bo3bo$5840b2o116b2o54b2o4581bobo1369bo3bo$10599bo1369bo4b$5998bo5971bobob$5999bo5974b$5997b3o5974b$11974b$2b3o11958bo10b$bo2bo5777b2o114b2o174b2o16bo97b2o5770b3o9b$4bo5777b2o114b2o174b2o16bobo95b2o5769b2obo9b$o3bo17b2o6068b2o5856b2o9b3o10b$o3bo13b2o2b2o11926b2o2b2o5b3o10b$4bo13b2o11934b2o5b3o10b$bobo4939b3o940bo79b2o38b2o5954b2o10b$4943bo940bobo79b2o38b2o5966b$4944bo940b2o6087b$11974b$10bo11963b$9b3o7011b3o4948b$9bob2o16bo6995bo4918bo29b$10b3o16bo6994bo4919bo29b$10b3o16bo5760b2o98b2o190b2o98b2o5760bo29b$10b3o267bo5509b2o98b2o190b2o98b2o5790b$10b2o13b3o3b3o245b2o11659b3o3b3o25b$279bobo1147b2o10543b$29bo1399bobo10512bo29b$29bo1399bo10514bo29b$29bo11658bo255bo29b$11688b2o284b$10538b2o1147bobo284b$10537bobo1434b$5958b2o54b2o4523bo1434b$5958b2o54b2o5958b$11974b$11974b$11974b$11974b$11974b$11974b$5782b2o114b2o174b2o114b2o5782b$5782b2o114b2o174b2o114b2o5782b$22b2o11926b2o22b$18b2o2b2o4979b3o6944b2o2b2o18b$18b2o4983bo6950b2o18b$5004bo6969b$11974b$11974b$6963b3o5008b$6965bo5008b$6964bo5009b$29bo11914bo29b$29bo310bo11603bo29b$29bo309b2o5449b2o390b2o5760bo29b$339bobo1147b2o4299b2o390b2o5790b$25b3o3b3o1455bobo10448b3o3b3o25b$1489bo10484b$29bo11598bo315bo29b$29bo11598b2o314bo29b$29bo10448b2o1147bobo314bo29b$6858bo3618bobo1494b$6859bo3619bo1494b$6857b3o5114b$5958b2o54b2o5958b$5958b2o54b2o5958b$5110bo6863b$5109bo6864b$5109b3o6862b$11974b$11974b$11974b$5782b2o114b2o174b2o114b2o5782b$5063b3o716b2o114b2o174b2o114b2o5782b$22b2o5039bo6886b2o22b$18b2o2b2o5040bo6885b2o2b2o18b$18b2o11934b2o18b$6181bo5792b$6180bo722b3o5068b$6181bo723bo5068b$6904bo5069b$5781b3o6190b$400bo5378b2ob2o8bo6181b$29bo369b2o5377bo6bo5b4o6149bo29b$29bo369bobo1147b2o4227bo5b2o2bob4obo6148bo29b$29bo1519bobo4226b2o7bo7b2o389b3o5755bo29b$1549bo4235bobo3bob3o390bobo5785b$25b3o3b3o5746bo4bo2bobo2b2o389bo3bo5379bo371b3o3b3o25b$5782b2o400bob2o2bo5377b2o399b3o2b$29bo6154bo3bo4229b2o1147bobo374bo24bo2bob$29bo6156b2o4229bobo1524bo24bo4b$29bo6162bo4226bo1524bo24bo3bo$6186bo5bo5776bo3bo$6186bo4bo5777bo4b$5782b2o405b3o5778bobob$5782b2o174b2o54b2o5958b$5958b2o54b2o5958b$11974b$2b3o6176bobo5779bo10b$bo2bo6176b2o5779b3o9b$4bo6177bo5778b2obo9b$o3bo11956b3o10b$o3bo5118b3o6835b3o10b$4bo5118bo671bobo100b2o174b2o5885b3o10b$bobo5120bo671b2o100b2o174b2o5886b2o10b$22b2o5752b2o18bo6153b2o22b$18b2o2b2o5751b2o6173b2o2b2o18b$18b2o5757bo12b2o390b2o659b3o5108b2o18b$10bo5779b2o390b2o661bo5128b$9b3o6832bo5129b$9bob2o6178b2o5781b$10b3o447bo5731b2o5780b$10b3o446b2o5730bo5782b$10b3o446bobo1147b2o10363b$10b2o17bo1579bobo10332bo29b$29bo1579bo10334bo29b$29bo11478bo435bo29b$11508b2o464b$25b3o3b3o10324b2o1147bobo430b3o3b3o25b$10357bobo1614b$29bo10329bo1584bo29b$29bo11914bo29b$29bo11914bo29b$11974b$11974b$5782b2o406b2o5782b$5782b2o174b2o54b2o174b2o5782b$5958b2o54b2o5958b$11974b$11974b$11974b$5183b3o6788b$5183bo6790b$5184bo712bo6076b$5836b2o58bo177b2o5898b$5835b2o56bob2o2bo174b2o5898b$22b2o5813bo54bobo2b4o882b3o5164b2o22b$18b2o2b2o5867bo2bo890bo5164b2o2b2o18b$18b2o5770b2o103b3o2b2o171bo108b2o600bo5169b2o18b$5790b2o99b2obo4b2o171bobo56b2o49b2o5790b$520bo5370b2obo4bo169b2o4bo56b2o5840b$519b2o5372b2obob2o168bobobobo5bo50bo5842b$519bobo1147b2o4396b2obo8b2o5893b$1669bobo4208bobo183b3o10bobo2bo2bo5886b$1669bo4210bob2o182b3o14bo3bo3b3o5880b$29bo5851b2o6bo16b2o157bo2bo14b2o2bo5360bo495bo29b$29bo5858bo15bo3b2o2bo151b2ob3o8b3o5367b2o494bo29b$29bo5858bo14bo2bob2obobo150b2ob3o8b3o8bo3bo4204b2o1147bobo494bo29b$5903bo4bo4bo151bo2bo10bobo4bo2bo2bo4204bobo1674b$25b3o3b3o5865b2o9b3o167b2o4bo3bo4208bo1640b3o3b3o25b$5898b6o4b3o147bo8b3o5904b$29bo5868b2obo5b2o147b2o5886bo29b$29bo5873b2o152b2o859bo5025bo29b$29bo5872b3o1014bo5024bo29b$6917b3o5054b$5920bo6053b$5782b2o114b2o21b2o151b2o114b2o5782b$5050bo731b2o114b2o20b2o36b2o54b2o58b2o114b2o5782b$5049bo908b2o54b2o5958b$5049b3o6922b$5243b3o6728b$5243bo6730b$5244bo6729b$5896b2o6076b$5895b2o6077b$5897bo825b3o5248b$6725bo5248b$22b2o5938bo761bo5225b2o22b$18b2o2b2o5937b3o107b2o5877b2o2b2o18b$18b2o560bo5209b2o98b2o68bo3bo107b2o8b2o98b2o5770b2o18b$579b2o5209b2o98b2o68b2o2b2o105bo10b2o98b2o5790b$579bobo1147b2o4232b2o6009b$1729bobo4230b2o6010b$1729bo4231b2o6011b$5960bo5427bo585b$5960b2o137bo5288b2o584b$29bo5980b2o85bobo4138b2o1147bobo554bo29b$29bo5980bobo85b2o4137bobo1704bo24b3o2b$29bo5982b2o4225bo1704bo24bo2bob$5958b2o51bo5957bo4b$25b3o3b3o5835bo88b2o49bobo5928b3o3b3o20bo3bo$5869bobo136b2o5959bo3bo$29bo5839b2o137b3o5933bo24bo4b$29bo11914bo25bobob$29bo5938bo5975bo29b$5969b2o6003b$5968b2o6004b$2b3o5777b2o114b2o174b2o114b2o5771bo10b$bo2bo5777b2o114b2o174b2o114b2o5770b3o9b$4bo5298b3o815bobo5837b2obo9b$o3bo5298bo817b2o5838b3o10b$o3bo5299bo817bo5838b3o10b$4bo5961b2o38b2o5953b3o10b$bobo5962b2o38b2o5954b2o10b$5855bobo805b3o5308b$5856b2o807bo5308b$5856bo807bo5309b$10bo11963b$9b3o10b2o616bo11309b2o22b$9bob2o5b2o2b2o615b2o11309b2o2b2o18b$10b3o5b2o619bobo1147b2o3999b2o98b2o190b2o98b2o5770b2o18b$10b3o1776bobo3998b2o98b2o190b2o98b2o5790b$10b3o1776bo10184b$10b2o11316bo645b$11328b2o644b$10178b2o1147bobo644b$10177bobo1794b$29bo10149bo1764bo29b$29bo11914bo29b$29bo11914bo29b$5958b2o54b2o5958b$25b3o3b3o5924b2o54b2o5924b3o3b3o25b$11974b$29bo11914bo29b$29bo11914bo29b$29bo11914bo29b$11974b$11974b$5363b3o416b2o114b2o174b2o114b2o5782b$5363bo418b2o114b2o174b2o114b2o5782b$5364bo6609b$11974b$11974b$5966b2o38b2o595b3o5368b$5966b2o38b2o597bo5368b$6604bo5369b$11974b$700bo11273b$699b2o11273b$22b2o675bobo1147b2o10099b2o22b$18b2o2b2o1825bobo10098b2o2b2o18b$18b2o1829bo3940b2o98b2o190b2o98b2o5770b2o18b$5790b2o98b2o190b2o98b2o5084bo705b$11268b2o704b$10118b2o1147bobo704b$10117bobo1854b$10119bo1854b$11974b$29bo11914bo29b$29bo11914bo29b$29bo11914bo29b$5958b2o54b2o5958b$25b3o3b3o5924b2o54b2o5924b3o3b3o25b$6978bo4995b$29bo6949bo4964bo29b$29bo6947b3o4964bo29b$29bo11914bo29b$5423b3o6548b$4990bo432bo6550b$4989bo434bo357b2o114b2o174b2o114b2o5782b$4989b3o790b2o114b2o174b2o114b2o5782b$11974b$6543b3o5428b$6545bo5428b$6544bo5429b$11974b$760bo11213b$759b2o11213b$759bobo1147b2o10063b$1909bobo10062b$22b2o1885bo10040b2o22b$18b2o2b2o11184bo741b2o2b2o18b$18b2o5770b2o390b2o5024b2o744b2o18b$5790b2o390b2o3874b2o1147bobo764b$10057bobo1914b$10059bo1914b$6159bo5809b3o2b$6157bobo5809bo2bob$6158b2o5809bo4b$29bo11914bo24bo3bo$29bo11914bo24bo3bo$29bo5779bo6134bo24bo4b$5809bobo146b2o54b2o5954bobob$25b3o3b3o5775b2o147b2o54b2o5924b3o3b3o25b$11974b$29bo11914bo29b$2b3o24bo5453b3o6458bo18bo10b$bo2bo24bo5453bo6460bo17b3o9b$4bo5479bo6476b2obo9b$o3bo11956b3o10b$o3bo5777b2o114b2o174b2o114b2o5769b3o10b$4bo5777b2o114b2o174b2o114b2o291b3o5475b3o10b$bobo6481bo5476b2o10b$6484bo5489b$11974b$820bo11153b$10bo808b2o11153b$9b3o807bobo1147b2o10003b$9bob2o1956bobo10002b$10b3o1956bo10004b$10b3o11135bo825b$10b3o9b2o11124b2o800b2o22b$10b2o6b2o2b2o9974b2o1147bobo800b2o2b2o18b$18b2o5770b2o390b2o3813bobo1954b2o18b$5790b2o390b2o3815bo1974b$11974b$11974b$11974b$11974b$11974b$29bo11914bo29b$29bo11914bo29b$29bo11914bo29b$5958b2o54b2o5958b$25b3o3b3o5924b2o54b2o5924b3o3b3o25b$5543b3o6428b$29bo5513bo6400bo29b$29bo5514bo6399bo29b$29bo6164b2o5748bo29b$11974b$6423b3o5548b$5898b2o174b2o349bo5548b$5898b2o174b2o111bobo234bo5549b$5785b2o6187b$880bo4903b2obo401bo3bo5780b$879b2o4904bobo398bo5b3o5779b$879bobo1147b2o3749b2o4b3o397b3o3b3o5779b$2029bobo3747bob2o3b3o403b3o5779b$2029bo3749b5obobobo391b3o5790b$5783b3obobo5298bo885b$5789b2o5297b2o884b$5787b3o4148b2o1147bobo884b$22b2o5763b2o4148bobo2010b2o22b$18b2o2b2o5763bo4151bo2010b2o2b2o18b$18b2o11934b2o18b$5778b2o414b2o5778b$5778b2o414b2o5778b$11974b$11974b$11974b$11974b$29bo11914bo29b$29bo11914bo29b$29bo5752b2o406b2o5752bo29b$5603b3o176b2o174b2o54b2o174b2o846bo4935b$25b3o3b3o5569bo354b2o54b2o1023bo4900b3o3b3o25b$5604bo1432b3o4934b$29bo11914bo29b$29bo11914bo29b$29bo4900bo1432b3o5578bo29b$4929bo1435bo5608b$4929b3o1432bo5609b$5805b2o91b2o174b2o5898b$940bo4864bobo90b2o174b2o5898b$939b2o4864bo6168b$939bobo1147b2o9883b$2089bobo3698b2o390b2o5790b$2089bo3700b2o370b2o18b2o5790b$6161bobo4864bo945b$6163bo4864b2o944b$9878b2o1147bobo944b$9877bobo2094b$9879bo2094b$22b2o11926b2o22b$18b2o2b2o11926b2o2b2o18b$18b2o11934b2o13b3o2b$11969bo2bob$11969bo4b$11969bo3bo$11969bo3bo$11969bo4b$11970bobob$29bo11914bo29b$29bo5633b3o6278bo29b$29bo5633bo118b2o406b2o5752bo29b$2b3o5659bo117b2o174b2o54b2o174b2o5771bo10b$bo2bo20b3o3b3o5856b3o65b2o54b2o5924b3o3b3o13b3o9b$4bo5884bo3bo257bo5809b2obo9b$o3bo24bo6120bo152b3o5638bo16b3o10b$o3bo24bo5864bo255b3o152bo5638bo16b3o10b$4bo24bo5859b5o410bo5639bo16b3o10b$bobo5861b2o23bo6071b2o10b$1000bo4826bo37bobo6106b$999b2o4827bo36bo6108b$999bobo1147b2o3675b3o252b2o5891b$10bo2138bobo3928bobo5891b$9b3o2137bo3750b2o170b2o6b2o20b2o5870b$9bob2o5777b2o98b2o8b2o170b2o6b2o19bobo78b2o4784bo1005b$10b3o5777b2o98b2o189bobobo17bo78b2o4784b2o1004b$10b3o6070b2o3733b2o1147bobo1004b$10b3o6061bobo4b2obo3732bobo2154b$10b2o6062b2o3743bo2154b$6075bo5898b$5901bo6072b$22b2o5876bobo6047b2o22b$18b2o2b2o5875b2o6049b2o2b2o18b$18b2o5880bob2o6050b2o18b$5900bo2bo166b2o5902b$5901b2o167b2o5902b$11974b$11974b$11974b$5723b3o6248b$29bo5693bo6220bo29b$29bo5694bo6219bo29b$29bo5752b2o114b2o115b2o57b2o114b2o5752bo29b$5782b2o114b2o114bobo57b2o114b2o5782b$25b3o3b3o5980bobo226b3o5694b3o3b3o25b$6013b2obob2o225bo5728b$29bo5984b6o224bo5699bo29b$29bo5895b2o36b2o53bo2bo5922bo29b$29bo1030bo4864bobo34bo2b2o53bo5923bo29b$1059b2o4864bo30bo5b2obo6008b$1059bobo1147b2o3745bo6bo3b2o36b3o5966b$2209bobo3744bo6017b$2209bo3832b2o5930b$6041bobo4864bo1065b$6043bo4864b2o1064b$5790b2o98b2o190b2o98b2o3574b2o1147bobo1064b$5790b2o98b2o190b2o98b2o3573bobo2214b$5954b2o62b2o3739bo2214b$5954b2o62b2o5954b$11974b$11974b$11974b$22b2o11926b2o22b$18b2o2b2o11926b2o2b2o18b$18b2o11934b2o18b$5958b2o54b2o5958b$5958b2o54b2o5958b$11974b$5783b3o6188b$5783bo6190b$5784bo6189b$29bo11914bo29b$29bo7068bo4845bo29b$29bo5752b2o114b2o174b2o107b3o4b2o907bo4844bo29b$5782b2o114b2o174b2o109bo4b2o905b3o4874b$25b3o3b3o6150bo5755b3o3b3o25b$11974b$29bo1090bo3749bo7073bo29b$29bo1089b2o3748bo1096b2o38b2o5936bo29b$29bo1089bobo1147b2o2598b3o1094b2o38b2o5936bo29b$2269bobo9702b$2269bo9704b$10848bo1125b$10848b2o1124b$9698b2o1147bobo1124b$9697bobo2274b$5790b2o98b2o190b2o98b2o3515bo2274b$5790b2o98b2o190b2o98b2o5790b$11974b$11974b$11974b$11969b3o2b$6128bobo5838bo2bob$22b2o6105b2o5819b2o17bo4b$18b2o2b2o6105bo5820b2o2b2o13bo3bo$18b2o11934b2o13bo3bo$5958b2o18bo35b2o5953bo4b$5838bobo2b3o112b2o18bobo33b2o5954bobob$5838b2o3bo134b2o5994b$5839bo4bo6129b$11974b$2b3o5995bo5962bo10b$bo2bo24bo5968bobo122b3o5818bo17b3o9b$4bo24bo5969b2o124bo5818bo16b2obo9b$o3bo24bo5752b2o114b2o174b2o48bo65b2o5752bo16b3o10b$o3bo5777b2o114b2o174b2o15bo98b2o5769b3o10b$4bo20b3o3b3o1146bo4909bo5849b3o3b3o12b3o10b$bobo1175b2o4909b3o5869b2o10b$29bo1149bobo1147b2o9613bo29b$29bo2299bobo3634b2o38b2o5936bo29b$29bo2299bo3557bo78b2o38b2o5936bo29b$10bo5877bo4899bo1185b$9b3o5874b3o4899b2o1184b$9bob2o9625b2o1147bobo1184b$10b3o9624bobo2334b$10b3o9626bo2334b$10b3o11961b$10b2o5778b2o98b2o190b2o98b2o5790b$5790b2o98b2o190b2o98b2o5790b$11974b$11974b$11974b$11974b$11974b$22b2o11926b2o22b$18b2o2b2o11926b2o2b2o18b$18b2o5883b3o6048b2o18b$5903bo54b2o54b2o5958b$5904bo53b2o54b2o5958b$11974b$11974b$6063b3o5908b$6065bo5908b$29bo6034bo5879bo29b$29bo11914bo29b$29bo1210bo4541b2o114b2o174b2o114b2o5752bo29b$1239b2o4541b2o114b2o174b2o114b2o5782b$25b3o3b3o1205bobo1147b2o9549b3o3b3o25b$2389bobo9582b$29bo2359bo9554bo29b$29bo10698bo1215bo29b$29bo10698b2o1214bo29b$9578b2o1147bobo1244b$9577bobo2394b$9579bo2394b$11974b$11974b$11974b$5790b2o390b2o5790b$5790b2o390b2o5790b$11974b$11974b$11974b$11974b$11974b$22b2o5939b3o5984b2o22b$18b2o2b2o5939bo5986b2o2b2o18b$18b2o5944bo5989b2o18b$5958b2o54b2o5958b$5958b2o54b2o5958b$6003b3o5968b$6005bo5968b$6004bo5969b$7158bo4815b$29bo1270bo5858bo4784bo29b$29bo1269b2o5856b3o4784bo29b$29bo1269bobo1147b2o3331b2o114b2o174b2o114b2o5752bo29b$2449bobo3330b2o114b2o174b2o114b2o5782b$25b3o3b3o2415bo2360bo7129b3o3b3o25b$4809bo5858bo1305b$29bo4779b3o5856b2o1274bo29b$29bo9488b2o1147bobo1274bo29b$29bo9487bobo2424bo29b$9519bo2454b$11974b$11974b$11974b$11974b$11974b$11974b$11969b3o2b$11969bo2bob$11969bo4b$11969bo3bo$6023b3o5943bo3bo$6023bo5945bo4b$22b2o6000bo5925b2o18bobob$18b2o2b2o11926b2o2b2o18b$18b2o11934b2o18b$5943b3o12b2o54b2o5958b$2b3o5940bo12b2o54b2o5947bo10b$bo2bo5939bo6017b3o9b$4bo11956b2obo9b$o3bo1355bo10600b3o10b$o3bo1354b2o10600b3o10b$4bo24bo1329bobo1147b2o9433bo16b3o10b$bobo25bo2479bobo9432bo17b2o10b$29bo2479bo3272b2o114b2o174b2o114b2o5752bo29b$5782b2o114b2o174b2o114b2o4416bo1365b$25b3o3b3o10574b2o1330b3o3b3o25b$10bo9447b2o1147bobo1364b$9b3o17bo9427bobo2484bo29b$9bob2o16bo9429bo2484bo29b$10b3o16bo11914bo29b$10b3o11961b$10b3o11961b$10b2o11962b$11974b$11974b$11974b$11974b$11974b$11974b$6083b3o5888b$6083bo5890b$6084bo5889b$11974b$22b2o11926b2o22b$18b2o2b2o5859b3o6064b2o2b2o18b$18b2o5865bo6068b2o18b$5884bo73b2o54b2o5958b$5958b2o54b2o5958b$1420bo10553b$1419b2o10553b$1419bobo1147b2o9403b$2569bobo9402b$29bo2539bo9374bo29b$29bo6160b2o4356bo1395bo29b$29bo5868b2o174b2o113bo4358b2o1394bo29b$5782b2obo112b2o174b2o113bo3208b2o1147bobo1424b$25b3o3b3o5748bo2b2o3610bobo2540b3o3b3o25b$5782bo2b5o399b2ob2o3205bo2574b$29bo5752bobo3bo401b2ob2o5749bo29b$29bo5752b3o2bobo397bo3bo2bo5749bo29b$29bo5752b3o2bobo396b2o2b3obo5749bo29b$5787bobo6b2o387b2o2bo4b2o5778b$5789bo6b4o386b3obob3o5779b$5794b2o3b2o386b4ob2o5780b$5793bob3ob3o388b2o5782b$5774b2o16b2obo6178b$5769bo4bo19bo6179b$5769bo5bo6198b$5769b3ob3ob2o364b3o48b2o5778b$5771bob3ob2o2b2o360bo50b2o5778b$5771bo4b3o4bo360bo5829b$5780bobo6191b$5777bob3o6192b$5778bo44b3o6148b$22b2o5737bo63bo6124b2o22b$18b2o2b2o5736bo63bo6125b2o2b2o18b$18b2o5740b3o19b2o406b2o5762b2o18b$1480bo4301b2o174b2o54b2o174b2o5782b$1479b2o4477b2o54b2o5958b$1479bobo1147b2o3586bo5756b$2629bobo3586bo999bo4755b$2629bo3586b3o1000bo4754b$7217b3o3268bo1485b$29bo10458b2o1454bo29b$29bo9308b2o1147bobo1454bo29b$29bo4720bo1147b2o174b2o3261bobo2604bo29b$4749bo1148b2o174b2o3263bo2634b$25b3o3b3o4715b3o7188b3o3b3o25b$11974b$29bo5760b2o390b2o5760bo29b$29bo5760b2o390b2o5760bo29b$29bo11914bo29b$11974b$11974b$11974b$11969b3o2b$11969bo2bob$6203b3o5763bo4b$6203bo5765bo3bo$5810bo393bo5764bo3bo$5811b2o6156bo4b$5810b2o6158bobob$5763b3o6208b$5765bo6208b$5764bo393bo5815b$2b3o17b2o6132b2o5792b2o11bo10b$bo2bo13b2o2b2o1516bo4616b2o5791b2o2b2o6b3o9b$4bo13b2o1519b2o4241b2o406b2o5762b2o5b2obo9b$o3bo1534bobo1147b2o3091b2o174b2o54b2o174b2o5769b3o10b$o3bo2684bobo3266b2o54b2o5945b3o10b$4bo2684bo9271b3o10b$bobo10424bo1533b2o10b$10428b2o1544b$9278b2o1147bobo1544b$29bo9247bobo2664bo29b$10bo18bo9249bo2664bo29b$9b3o17bo5868b2o174b2o5868bo29b$9bob2o5885b2o174b2o5898b$10b3o12b3o3b3o11906b3o3b3o25b$10b3o11961b$10b3o16bo5760b2o390b2o5760bo29b$10b2o17bo5760b2o390b2o5760bo29b$29bo11914bo29b$11974b$6221bo5752b$6221b2o5751b$6220bobo5751b$11974b$11974b$5757bo6216b$5756b2o6216b$5756bobo6215b$11974b$11974b$11974b$1600bo10373b$22b2o1575b2o10349b2o22b$18b2o2b2o1575bobo1147b2o9199b2o2b2o18b$18b2o2729bobo3030b2o406b2o5762b2o18b$2749bo3032b2o174b2o54b2o174b2o5782b$5958b2o54b2o4352bo1605b$10368b2o1604b$9218b2o1147bobo1604b$9217bobo2754b$9219bo2754b$29bo11914bo29b$29bo11914bo29b$29bo5868b2o174b2o5868bo29b$5898b2o174b2o5898b$25b3o3b3o11906b3o3b3o25b$11974b$29bo5760b2o390b2o5760bo29b$29bo5760b2o390b2o5760bo29b$29bo6131bo5782bo29b$6161b2o5811b$6160bobo5811b$11974b$11974b$5817bo6156b$5816b2o6156b$5816bobo6155b$11974b$11974b$11974b$1660bo10313b$1659b2o10313b$1659bobo1147b2o9163b$22b2o2785bobo9138b2o22b$18b2o2b2o2785bo9140b2o2b2o18b$18b2o5762b2o406b2o4116bo1645b2o18b$5782b2o174b2o54b2o174b2o4116b2o1664b$5958b2o54b2o1262bo1879b2o1147bobo1664b$7279bo1877bobo2814b$7277b3o1879bo2814b$11974b$11974b$29bo4660bo7253bo29b$29bo4659bo7254bo29b$29bo4659b3o1389bo5862bo29b$5892b3o187bo5891b$25b3o3b3o5858bo187bo2bo5856b3o3b3o25b$5892b2obo4b2o170b2o9b2o5889b$29bo5760b2o101bobo4b2o170b2o10bo16bo80b2o5760bo29b$29bo5760b2o102b2o180bo3bo3bo16b2o79b2o5760bo29b$29bo5861b2o182bo5b3o16bobo5841bo24b3o2b$5889b2o3bo180b3o5891bo2bob$5894b3o6072bo4b$5877bo12b3o6076bo3bo$5876b2o14bo6076bo3bo$5876bobo11b3o6076bo4b$5870bo19b3o6077bobob$5871b2o18bo6082b$5870b2o30b2o166b2o5902b$1720bo4181b2o166b2o5902b$2b3o1714b2o10242bo10b$bo2bo1714bobo1147b2o3227bo5863b3o9b$4bo2864bobo3224b2o5863b2obo9b$o3bo2864bo3227b2o5862b3o10b$o3bo17b2o10224bo1701b2o9b3o10b$4bo13b2o2b2o10224b2o1700b2o2b2o5b3o10b$bobo14b2o5762b2o114b2o174b2o114b2o2906b2o1147bobo1704b2o6b2o10b$5782b2o114b2o114b3o57b2o114b2o2905bobo2874b$5959bobo51bobob2o3080bo2874b$5956b2o2bo4bo47bo3b2o5955b$10bo5945bobo6b2o48bo4bo5953b$9b3o5943b2obo2bo4b2o46bo5bo5953b$9bob2o5942b2o9b2o40bobo3bo5bo5953b$10b3o16bo5927b2obob5o40bo2bo3bo5929bo29b$10b3o16bo5932bo2bo41bo3bobo4bo5925bo29b$10b3o16bo5932bo2bo41bo2bo2bo4bo5925bo29b$10b2o5962bo33bobo2bo5bo5954b$25b3o3b3o5915b2o22bo2bo38b2obo22bo5898b3o3b3o25b$5974b3o40bo23b2o5931b$29bo5760b2o98b2o61bo20b3o63bobo39b2o98b2o5760bo29b$29bo5760b2o98b2o52bo137b2o98b2o5760bo29b$29bo5914bo4bo3b2o63b2o5924bo29b$5937bo7bobo5bobo62b2o5954b$5936b2o9bobo4b2o6018b$5936bobo9b2o4b2o6018b$5949bo2b3o6019b$5952b3o6019b$11974b$1780bo10193b$1779b2o4177b2o54b2o5958b$1779bobo1147b2o3027b2o54b2o5958b$2929bobo9042b$2929bo9044b$10188bo1785b$10188b2o1784b$22b2o9014b2o1147bobo1760b2o22b$18b2o2b2o9013bobo2910b2o2b2o18b$18b2o5762b2o114b2o174b2o114b2o2847bo2914b2o18b$5782b2o114b2o174b2o114b2o5782b$11974b$11974b$11974b$5966b2o38b2o5966b$5966b2o38b2o5966b$29bo11914bo29b$29bo11914bo29b$29bo11914bo29b$11974b$25b3o3b3o11906b3o3b3o25b$5850bo6123b$29bo5760b2o57bo332b2o5760bo29b$29bo5760b2o57b3o330b2o5760bo29b$29bo11914bo29b$11974b$5987bobo138bo5845b$5988b2o139bo5844b$5988bo138b3o5844b$1840bo10133b$1839b2o10133b$1839bobo1147b2o2988bobo5992b$2989bobo2966b2o19b2o33b2o5958b$2989bo2968b2o20bo33b2o5958b$10128bo1845b$10128b2o1844b$8978b2o1147bobo1844b$8977bobo2994b$22b2o8955bo2970b2o22b$18b2o2b2o11926b2o2b2o18b$18b2o5762b2o114b2o174b2o114b2o1146bo4615b2o18b$5782b2o114b2o174b2o114b2o1147bo4634b$7337b3o4634b$11974b$11974b$4630bo1335b2o38b2o5966b$4629bo1336b2o38b2o5966b$29bo4599b3o7312bo29b$29bo11914bo29b$29bo11914bo29b$11974b$25b3o3b3o11906b3o3b3o20b3o2b$11969bo2bob$29bo5760b2o390b2o5760bo24bo4b$29bo5760b2o390b2o5760bo24bo3bo$29bo11914bo24bo3bo$11969bo4b$11970bobob$1900bo10073b$1899b2o10073b$1899bobo1147b2o8923b$2b3o3044bobo8911bo10b$bo2bo3044bo8912b3o9b$4bo5953b2o54b2o4052bo1892b2obo9b$o3bo5953b2o54b2o4052b2o1891b3o10b$o3bo8913b2o1147bobo1891b3o10b$4bo8912bobo3041b3o10b$bobo8915bo3042b2o10b$11974b$22b2o11926b2o22b$18b2o2b2o11926b2o2b2o18b$10bo7b2o5762b2o114b2o174b2o114b2o5762b2o18b$9b3o5770b2o114b2o174b2o114b2o5782b$9bob2o11961b$10b3o11961b$10b3o11961b$10b3o11961b$10b2o11962b$29bo11914bo29b$29bo11914bo29b$29bo11914bo29b$11974b$25b3o3b3o11906b3o3b3o25b$11974b$29bo5760b2o390b2o5760bo29b$29bo5760b2o390b2o5760bo29b$29bo11914bo29b$1960bo10013b$1959b2o10013b$1959bobo1147b2o8863b$3109bobo8862b$3109bo8864b$10008bo1965b$10008b2o1964b$5958b2o54b2o2842b2o1147bobo1964b$5958b2o54b2o2841bobo3114b$8859bo3114b$11974b$11974b$11974b$22b2o11926b2o22b$18b2o2b2o11926b2o2b2o18b$18b2o5762b2o114b2o174b2o114b2o5762b2o18b$5782b2o114b2o174b2o114b2o5782b$11974b$11974b$11974b$11974b$6180b2o5792b$29bo11914bo29b$29bo11914bo29b$29bo5761b2o6151bo29b$5793bo6180b$25b3o3b3o5757bo2bo6145b3o3b3o25b$5791bobo6180b$29bo5761b2o6151bo29b$29bo1990bo3770b2o6151bo29b$29bo1989b2o9923bo29b$2019bobo1147b2o8803b$3169bobo8802b$3169bo8804b$9948bo2025b$5787b2o2bo4156b2o2024b$5786b2o3010b2o1147bobo2024b$5787b2o3008bobo3174b$5958b2o54b2o2783bo3174b$5787b2o2b2o165b2o54b2o5958b$5786bo395b3o5789b$5789b4o389bobo5789b$5787bo2bo391bo2bo5788b$6183b3o5788b$22b2o6159b3o1212bo4551b2o22b$18b2o2b2o6157bo2bo1214bo4550b2o2b2o18b$18b2o5878b2o174b2o108bo1212b3o4554b2o18b$5898b2o174b2o105bo5792b$11974b$4570bo1612bo8b2o5780b$4569bo1208b3o9b2o390bo9b2o5780b$4569b3o1218b2o390b2o5790b$5778b3o6193b$29bo5749b2o6163bo24b3o2b$29bo11914bo24bo2bob$29bo11914bo24bo4b$6194bo5774bo3bo$25b3o3b3o6159bobo5744b3o3b3o20bo3bo$2080bo3704b3o404b2obo5773bo4b$29bo2049b2o3704bo406bo5751bo25bobob$29bo2049bobo1147b2o2555bo406bobo5748bo29b$29bo3199bobo2962bo5749bo29b$3229bo8744b$2b3o6176b3o3704bo2074bo10b$bo2bo6178bo3704b2o2072b3o9b$4bo6177bo2555b2o1147bobo2071b2obo9b$o3bo8732bobo3221b3o10b$o3bo8734bo3221b3o10b$4bo5777b2o406b2o5769b3o10b$bobo5778b2o174b2o54b2o174b2o5770b2o10b$5958b2o54b2o5958b$11974b$11974b$10bo11963b$9b3o11962b$9bob2o9b2o11926b2o22b$10b3o5b2o2b2o11926b2o2b2o18b$10b3o5b2o5878b2o174b2o5878b2o18b$10b3o5885b2o174b2o5898b$10b2o11962b$11974b$5790b2o390b2o5790b$5790b2o390b2o5790b$11974b$29bo5866b2o6046bo29b$29bo5865bo4bo172b2o5869bo29b$29bo5864bo5bo4b2o164b3ob2o5867bo29b$2140bo3704b3o46b2ob2obo3bo2bo163b3obo7bo5890b$25b3o3b3o2105b2o3704bo38b4o15b2obo4bo157b2o4bo2bo3bo4bo5852b3o3b3o25b$2139bobo1147b2o2555bo37b2ob2o8bo6bobo5bo156bo5bo3bo2b2o3b2o5885b$29bo3259bobo2590bo2bo2b2o7bo7b3o2b3o156bobo4bo3bo2bo4b2o5854bo29b$29bo3259bo2592b3o3bo7bo10bo162b2o4bo3b2ob6o5855bo29b$29bo5851bo2bo2bo6b2o183bo4b3o34b3o3704bo2115bo29b$5881bobo12bo226bo3704b2o2144b$5882b2o10b2o226bo2555b2o1147bobo2144b$8677bobo3294b$8679bo3294b$11974b$11974b$5782b2o114b2o174b2o114b2o5782b$5782b2o114b2o58b2o54b2o58b2o114b2o5782b$5958b2o54b2o5958b$11974b$11974b$11974b$11974b$22b2o11926b2o22b$18b2o2b2o11926b2o2b2o18b$18b2o6068bo5865b2o18b$6089b2o5883b$6088b2o5884b$11974b$5790b2o98b2o190b2o98b2o5790b$5790b2o88bo9b2o190b2o98b2o5790b$5878b2o6094b$29bo5849b2o6063bo29b$29bo2170bo3704b3o6036bo29b$29bo2169b2o3704bo6038bo29b$2199bobo1147b2o2555bo6067b$25b3o3b3o3315bobo8588b3o3b3o25b$3349bo8624b$29bo6031b3o3704bo2175bo29b$29bo5936bo96bo67bo3636b2o2174bo29b$29bo5936bo95bo68bobo2484b2o1147bobo2174bo29b$5965bobo163b2o2484bobo3354b$8619bo3354b$5964b2o6008b$5847bo6126b$5845bobo116b2o6008b$5846b2o6126b$5782b2o114b2o174b2o114b2o5782b$5782b2o114b2o174b2o114b2o5782b$6006b3o5965b$6006bo2bo5964b$5956b2o48bo9b2o5956b$5956b2o8b2o48b2o1440bo4515b$5966b2o42bo1448bo4514b$22b2o5982bo2bo1447b3o4490b2o22b$18b2o2b2o5991bo5934b2o2b2o18b$18b2o5996bo5937b2o18b$4510bo1503b3o5957b$4509bo7464b$4509b3o1442b3o6012b3o2b$5790b2o98b2o62b3o125b2o98b2o5785bo2bob$5790b2o98b2o61bob2o125b2o98b2o5785bo4b$2260bo3693b2obo60b2o5949bo3bo$29bo2229b2o3694b2o61b2o5924bo24bo3bo$29bo2229bobo1147b2o8533bo24bo4b$29bo3379bobo8532bo25bobob$3409bo8564b$25b3o3b3o9674bo2231b3o3b3o25b$9708b2o2264b$2b3o24bo8528b2o1147bobo2234bo18bo10b$bo2bo24bo5928b2o54b2o2541bobo3384bo17b3o9b$4bo24bo5928b2o54b2o2543bo3384bo16b2obo9b$o3bo11956b3o10b$o3bo11956b3o10b$4bo11956b3o10b$bobo11958b2o10b$11974b$11974b$5782b2o114b2o174b2o114b2o5782b$10bo5771b2o114b2o174b2o114b2o5782b$9b3o11962b$9bob2o11961b$10b3o11961b$10b3o5953b2o38b2o5966b$10b3o5953b2o38b2o5966b$10b2o10b2o11926b2o22b$18b2o2b2o11926b2o2b2o18b$18b2o11934b2o18b$11974b$11974b$11974b$2320bo3469b2o98b2o190b2o98b2o5790b$2319b2o3469b2o98b2o190b2o98b2o5790b$2319bobo1147b2o8503b$29bo3439bobo8472bo29b$29bo3439bo8474bo29b$29bo9618bo2295bo29b$9648b2o2324b$25b3o3b3o8464b2o1147bobo2290b3o3b3o25b$8497bobo3474b$29bo8469bo3444bo29b$29bo5928b2o54b2o5928bo29b$29bo5928b2o54b2o5928bo29b$11974b$11974b$11974b$11974b$11974b$11974b$5782b2o114b2o174b2o114b2o5782b$5782b2o114b2o174b2o114b2o5782b$11974b$11974b$11974b$11974b$11974b$22b2o6124bo5801b2o22b$18b2o2b2o6125b2o5799b2o2b2o18b$18b2o6128b2o5804b2o18b$11974b$2380bo9593b$2379b2o3439bo6153b$2379bobo1147b2o2259b2o26b2o362b2o5790b$3529bobo2258b2o27b2o361b2o5790b$3529bo8444b$29bo9558bo2355bo29b$29bo9558b2o2354bo29b$29bo8408b2o1147bobo2354bo29b$8437bobo3534b$25b3o3b3o8405bo3500b3o3b3o25b$11974b$29bo11914bo29b$29bo5928b2o54b2o5928bo29b$29bo5928b2o54b2o5928bo29b$11974b$11974b$11974b$11974b$11974b$11974b$5782b2o114b2o174b2o114b2o5782b$5782b2o114b2o174b2o114b2o5782b$11974b$7518bo4455b$7519bo4454b$7517b3o4454b$11974b$22b2o11926b2o22b$18b2o2b2o4426bo7499b2o2b2o13b3o2b$18b2o2420bo2008bo7504b2o13bo2bob$2439b2o2008b3o7517bo4b$2439bobo1147b2o8378bo3bo$3589bobo8377bo3bo$3589bo2200b2o390b2o5785bo4b$5790b2o390b2o3344bo2441bobob$9528b2o2444b$29bo8348b2o1147bobo2414bo29b$29bo8347bobo3564bo29b$2b3o24bo8349bo3564bo18bo10b$bo2bo11957b3o9b$4bo20b3o3b3o11906b3o3b3o12b2obo9b$o3bo11956b3o10b$o3bo24bo11914bo16b3o10b$4bo24bo5928b2o54b2o5928bo16b3o10b$bobo25bo5928b2o54b2o5928bo17b2o10b$11974b$11974b$11974b$10bo11963b$9b3o11962b$9bob2o11961b$10b3o5768b3o114b2o174b2o5898b$10b3o5766b2obobo113b2o174b2o112bobo5783b$10b3o5766b2o3bo399bo4bo2b2o5780b$10b2o5765bo4bo400b2o6bobo5780b$5777bo5bo398b2o4bo2bob2o5779b$5777bo5bo3bobo392b2o9b2o5779b$5783bo3bo2bo392b5obob2o5781b$22b2o2476bo3278bo4bobo3bo393bo2bo5762b2o22b$18b2o2b2o2475b2o3278bo4bo2bo2bo393bo2bo5762b2o2b2o18b$18b2o2479bobo1147b2o2127bo5bo2bobo385bo5778b2o18b$3649bobo2127bob2o390bo2bo22b2o5773b$3649bo2130bo392b3o5798b$6173b3o20bo3271bo2505b$6205bo3262b2o2504b$5778b2o415b2o3bo4bo2112b2o1147bobo2504b$5778b2o414bobo5bobo2112bobo3654b$29bo6164b2o4bobo2116bo3624bo29b$29bo6164b2o4b2o5742bo29b$29bo6165b3o2bo5743bo29b$6195b3o9b2obo5763b$25b3o3b3o11906b3o3b3o25b$6210bo5763b$29bo5752b2o406b2o14bob2o5734bo29b$29bo5752b2o174b2o54b2o174b2o14b4o5734bo29b$29bo5928b2o54b2o191bo5736bo29b$11974b$11974b$11974b$11974b$11974b$11974b$5898b2o174b2o5898b$5898b2o174b2o5898b$11974b$11974b$5790b2o390b2o5790b$2560bo3229b2o390b2o5790b$2559b2o9413b$22b2o2535bobo1147b2o8239b2o22b$18b2o2b2o3685bobo8238b2o2b2o18b$18b2o3689bo8244b2o18b$5815b2o3591bo2565b$5814b2o3592b2o2564b$5816bo2441b2o1147bobo2564b$8257bobo3714b$8259bo3714b$6152b2o5820b$29bo6123b2o5bobo5781bo29b$29bo6122bo7b2o5782bo29b$29bo6131bo5782bo29b$11974b$25b3o3b3o11906b3o3b3o25b$5816bobo6155b$29bo5752b2o33b2o371b2o5752bo29b$29bo5752b2o33bo140b2o54b2o174b2o5752bo29b$29bo5928b2o54b2o5928bo29b$11974b$11974b$11974b$11974b$11974b$5893bo6080b$5892b3o6079b$5892b2obo181bo1500bo4395b$6076b3o1500bo4394b$2620bo3269b2o2bo5b2o173bo1501b3o4394b$2619b2o3169b2o98b2ob2o5b2o171bob4o103b2o5785b3o2b$2619bobo1147b2o2019b2o101b2o177b4ob2o103b2o5785bo2bob$3769bobo618bo1680bob2o2b2o5890bo4b$22b2o3745bo619bo1681bo2bo2b2ob3o5867b2o17bo3bo$18b2o2b2o4365b3o1483b2o195bo4bo2b3o3265bo2601b2o2b2o13bo3bo$18b2o5854b2o200b7o3265b2o2604b2o13bo4b$5876bo200bob4o2115b2o1147bobo2620bobob$6078bo2bo2115bobo3774b$5890bo188b2o2118bo3774b$5889bo2bo199b2o5880b$2b3o5885bobo9b2o166b2o21b2o5868bo10b$bo2bo5886bo10b2o166b2o20bo5869b3o9b$4bo24bo11914bo16b2obo9b$o3bo24bo11914bo16b3o10b$o3bo24bo11914bo16b3o10b$4bo11956b3o10b$bobo21b3o3b3o11906b3o3b3o13b2o10b$11974b$29bo5752b2o114b2o174b2o114b2o5752bo29b$29bo5752b2o114b2o58b3o53b2o58b2o114b2o5752bo29b$10bo18bo5926b2o2bo3b2o48b2o5928bo29b$9b3o5947b2obo3bo6007b$9bob2o5942bo2bob4obo50b3o5955b$10b3o5942b2ob3o4bo44b2o3b6o5953b$10b3o5942b2obobobobo44b3ob2obobo2bo5952b$10b3o5943bobobo3bo42b2o3bobo2bobobo5952b$10b2o5945bo3b2o43bo2b3ob2ob2o2bo5953b$5975bo32b2o2bo3b2o5956b$2680bo3294bo21bo3b3o7b2o11bo5949b$2679b2o3293b3o20bo4bo8b2o8bo3bo5948b$2679bobo1147b2o2166bo5bo8bo7bo5953b$3829bobo1958b2o98b2o111bo6bob2o9b2obo55b2o98b2o5790b$3829bo1960b2o98b2o82b3o28b2o4bo7bob3ob2o55b2o98b2o5790b$5935b2o17b2o19bo32bo8b3o6bo10bo3250bo2685b$22b2o5910b2o13bob2o2bo19bo30b3o8bo2bob2obo9b2o3251b2o2660b2o22b$18b2o2b2o5912bo11bob3obo52bo9bo3b2obo11b2o2100b2o1147bobo2660b2o2b2o18b$18b2o5931bo55bo10bo3bo2114bobo3814b2o18b$5947bo6bo53bo10bobo12bo2104bo3834b$5949bobo2bo80bo5938b$5951bo81b3o5938b$5951b2o6021b$5958b2o54b2o5958b$5958b2o54b2o5958b$29bo11914bo29b$29bo11914bo29b$29bo11914bo29b$11974b$25b3o3b3o11906b3o3b3o25b$11974b$29bo5752b2o114b2o174b2o114b2o5752bo29b$29bo5752b2o114b2o174b2o114b2o5752bo29b$29bo11914bo29b$11974b$11974b$5966b2o38b2o5966b$5966b2o38b2o5966b$11974b$2740bo9233b$2739b2o3379bo5853b$2739bobo1147b2o2227bobo5853b$3889bobo2227b2o5853b$3889bo8084b$5790b2o98b2o97bo92b2o98b2o3044bo2745b$5790b2o56bo41b2o95b2o93b2o98b2o3044b2o2744b$5848bobo137b2o2088b2o1147bobo2744b$22b2o5824b2o2227bobo3870b2o22b$18b2o2b2o8055bo3870b2o2b2o18b$18b2o5969bo5964b2o18b$5990b2o5982b$5989b2o5983b$11974b$11974b$5958b2o54b2o84bobo5871b$5958b2o54b2o84b2o5872b$29bo6071bo5842bo29b$29bo11914bo29b$29bo11914bo29b$5876bobo6095b$25b3o3b3o5843b2o6061b3o3b3o25b$5877bo6096b$29bo5752b2o114b2o174b2o114b2o5752bo29b$29bo5752b2o114b2o174b2o114b2o5752bo29b$29bo11914bo29b$11974b$11974b$5966b2o38b2o5966b$2800bo3165b2o38b2o5966b$2799b2o9173b$2799bobo1147b2o3687bo4335b$3949bobo3687bo4329b3o2b$3949bo3687b3o4329bo2bob$9168bo2800bo4b$9168b2o2799bo3bo$4330bo1459b2o98b2o190b2o98b2o1834b2o1147bobo2799bo3bo$4329bo1460b2o98b2o190b2o98b2o1833bobo3949bo4b$4329b3o3687bo3950bobob$22b2o11926b2o22b$18b2o2b2o11926b2o2b2o18b$18b2o11934b2o18b$2b3o11958bo10b$bo2bo11957b3o9b$4bo11956b2obo9b$o3bo11956b3o10b$o3bo5953b2o54b2o5945b3o10b$4bo5953b2o54b2o5945b3o10b$bobo25bo11914bo17b2o10b$29bo11914bo29b$29bo11914bo29b$11974b$10bo14b3o3b3o11906b3o3b3o25b$9b3o11962b$9bob2o16bo5752b2o114b2o174b2o114b2o5752bo29b$10b3o16bo5752b2o114b2o174b2o114b2o5752bo29b$10b3o16bo11914bo29b$10b3o11961b$10b2o2848bo9113b$2859b2o9113b$2859bobo1147b2o7963b$4009bobo7962b$4009bo7964b$9108bo2865b$9108b2o2864b$7958b2o1147bobo2864b$7957bobo4014b$5790b2o390b2o1775bo4014b$5790b2o390b2o5790b$11974b$22b2o11926b2o22b$18b2o2b2o11926b2o2b2o18b$18b2o11934b2o18b$11974b$11974b$11974b$11974b$5958b2o54b2o5958b$5958b2o54b2o5958b$29bo11914bo29b$29bo11914bo29b$29bo11914bo29b$11974b$25b3o3b3o11906b3o3b3o25b$11974b$29bo5752b2o114b2o174b2o114b2o5752bo29b$29bo5752b2o114b2o174b2o114b2o5752bo29b$29bo2890bo9023bo29b$2919b2o9053b$2919bobo1147b2o7903b$4069bobo7902b$4069bo7904b$6180bo2867bo2925b$6178bobo2867b2o2924b$5791bo387b2o1717b2o1147bobo2924b$5790b3o2104bobo4074b$5789b2ob2o2105bo4074b$5792b3o6179b$5790b2obo388b2o5790b$5791b2o389b2o5790b$5791bo6182b$22b2o11926b2o22b$18b2o2b2o11926b2o2b2o18b$18b2o11934b2o18b$5786b2o6186b$5784b2obo6186b$5784b2o6188b$5786b2o395bo5790b$5788b2o168b2o54b2o167bo5790b$5958b2o54b2o166bobo5789b$29bo5757bobo6154bo29b$29bo5758bo395b2o5758bo29b$29bo11914bo29b$6184b2o5788b$25b3o3b3o11906b3o3b3o25b$11974b$29bo2950bo2917b2o174b2o5868bo29b$29bo2949b2o2917b2o174b2o5868bo29b$29bo2949bobo1147b2o7813bo29b$4129bobo2060b2o5780b$4129bo1660b2o390b2o8b2o5780b$5790b2o390b2o2804bo2980b3o2b$7698bo1289b2o2979bo2bob$7699bo138b2o1147bobo2979bo4b$7697b3o137bobo4129bo3bo$7839bo4129bo3bo$5784b2o6183bo4b$4270bo1513bobo406b3o5774bobob$4269bo1514bo408b3o5778b$4269b3o1921b2obo5777b$6192bob2o5778b$2b3o6178b2o8b2o5768bo10b$bo2bo17b2o6158bobo5765b2o10b3o9b$4bo13b2o2b2o6160bo5765b2o2b2o5b2obo9b$o3bo13b2o11934b2o5b3o10b$o3bo11956b3o10b$4bo11956b3o10b$bobo11958b2o10b$5782b2o406b2o5782b$5782b2o174b2o54b2o174b2o5782b$5958b2o54b2o5958b$10bo18bo11914bo29b$9b3o17bo11914bo29b$9bob2o16bo11914bo29b$10b3o11961b$10b3o12b3o3b3o3006bo8899b3o3b3o25b$10b3o3026b2o8933b$10b2o17bo3009bobo1147b2o1707b2o174b2o5868bo29b$29bo4159bobo1706b2o174b2o5868bo29b$29bo4159bo7754bo29b$8928bo3045b$5790b2o390b2o2744b2o3044b$5790b2o390b2o1594b2o1147bobo3044b$5895bobo1879bobo4194b$5895bo178bo1704bo4194b$5844b2o49bo2b3o4bobo165bobo5898b$5844bobo53bo4bobo165bobo5bo5bo5886b$5844bo38bo12b4o4bo2bo169b2o3bo2bo5888b$5883bo5b2o4bobo6b3o160b2o7bo8bo4bo5883b$5883bo5bobo2b3o9bo159b2ob2o2bobo15bo5882b$5889bob2o2b3o6b3o6bo153bob2o10b2o8bo31b2o5849b$5883b3ob5o5bo13bobo154bo8b2o2b2o2bo5bo30bobo5849b$5883b3obo2bo21b2o155b3ob3obo8bo3bo33bo5849b$22b2o5859b2o2b3o180bo18bo5860b2o22b$18b2o2b2o5857bo2b2o6064b2o2b2o18b$18b2o5861b2ob2o6068b2o18b$5882b2o6090b$11974b$11974b$5782b2o114b2o174b2o114b2o5782b$5782b2o114b2o58b2o54b2o58b2o114b2o5782b$5958b2o54b2o5958b$29bo11914bo29b$29bo11914bo29b$29bo3070bo8843bo29b$3099b2o8873b$25b3o3b3o3065bobo1147b2o7689b3o3b3o25b$4249bobo7722b$29bo4219bo7694bo29b$29bo8838bo3075bo29b$29bo6059bobo2776b2o3074bo29b$6090b2o1626b2o1147bobo3104b$5790b2o98b2o190b2o6bo91b2o1533bobo4254b$5790b2o98b2o190b2o98b2o1535bo4254b$5904b2o6068b$5877bobo24bobo6067b$5877b2o25bo6069b$5878bo6095b$11974b$6063b2o5909b$6062bobo5909b$5965b3o96bo5909b$5964bo3bo6005b$5963bo166bo5843b$22b2o6105bo5820b2o22b$18b2o2b2o5939bo3b2o160b3o5818b2o2b2o18b$18b2o5944b3o5987b2o18b$11974b$5848bo6125b$5849bo156b3o5965b$5782b2o63b3o48b2o105bo2bo65b2o114b2o5782b$5782b2o114b2o105bo3bo64b2o114b2o5782b$6004b2obobo5964b$29bo3130bo2843b2ob2o5935bo29b$29bo3129b2o2795b2o47b3o8b2o5926bo29b$29bo3129bobo1147b2o1645b2o8b2o48b2o5926bo29b$4309bobo1654b2o6006b$25b3o3b3o4275bo7630b3o3b3o25b$8808bo3165b$29bo5925bo2852b2o3134bo29b$29bo5924b3o60bo1640b2o1147bobo3134bo24b3o2b$29bo5923b2ob2o57bobo1639bobo4284bo24bo2bob$5958bo57b2o1641bo4309bo4b$5790b2o98b2o59b2obo4bo122b2o98b2o1574bo4210bo3bo$5790b2o98b2o60bobo4bo122b2o98b2o1575bo4209bo3bo$5953bo4bo59b2o1737b3o4209bo4b$6018b2o5950bobob$11974b$4210bo7763b$4209bo7764b$2b3o4204b3o7751bo10b$bo2bo11957b3o9b$4bo11956b2obo9b$o3bo5953b2o54b2o5945b3o10b$o3bo5953b2o54b2o5945b3o10b$4bo17b2o11926b2o9b3o10b$bobo14b2o2b2o11926b2o2b2o6b2o10b$18b2o11934b2o18b$11974b$11974b$10bo11963b$9b3o5770b2o114b2o174b2o114b2o5782b$9bob2o3207bo2561b2o114b2o174b2o114b2o5782b$10b3o3206b2o8753b$10b3o16bo3189bobo1147b2o7573bo29b$10b3o16bo4339bobo7572bo29b$10b2o17bo4339bo1596b2o38b2o5936bo29b$5966b2o38b2o2740bo3225b$25b3o3b3o8714b2o3190b3o3b3o25b$7598b2o1147bobo3224b$29bo7567bobo4344bo29b$29bo7569bo4344bo29b$29bo11914bo29b$11974b$5790b2o98b2o190b2o98b2o5790b$5790b2o98b2o190b2o98b2o5790b$11974b$11974b$11974b$11974b$11974b$11974b$11974b$11974b$5958b2o54b2o5958b$5958b2o54b2o5958b$22b2o11926b2o22b$18b2o2b2o11926b2o2b2o18b$18b2o11934b2o18b$11974b$11974b$3280bo8693b$3279b2o2501b2o114b2o174b2o114b2o5782b$3279bobo1147b2o1351b2o114b2o174b2o114b2o5782b$4429bobo7542b$29bo4399bo7514bo29b$29bo8658bo3255bo29b$29bo8658b2o3254bo29b$7538b2o1147bobo3284b$25b3o3b3o7503bobo4400b3o3b3o25b$7539bo4434b$29bo6119bobo5792bo29b$29bo6120b2o5792bo29b$29bo6120bo5793bo29b$11974b$5790b2o390b2o5790b$5790b2o25bobo362b2o5790b$5817b2o6155b$5818bo6155b$11974b$11974b$11974b$11974b$11974b$11974b$5958b2o54b2o5958b$5958b2o54b2o5958b$22b2o11926b2o22b$18b2o2b2o11926b2o2b2o18b$18b2o11934b2o18b$3340bo8633b$3339b2o8633b$3339bobo1147b2o7483b$4489bobo1290b2o114b2o174b2o114b2o5782b$4489bo1292b2o114b2o174b2o114b2o5782b$8628bo3345b$29bo8598b2o3314bo29b$29bo7448b2o1147bobo3314bo29b$29bo7447bobo4464bo29b$7479bo4489b3o2b$25b3o3b3o11906b3o3b3o20bo2bob$11969bo4b$29bo11914bo24bo3bo$29bo11914bo24bo3bo$29bo7788bo4125bo24bo4b$7819bo4150bobob$5790b2o390b2o1633b3o4154b$5790b2o390b2o5790b$11974b$2b3o4145bo7812bo10b$bo2bo4144bo7812b3o9b$4bo4144b3o7809b2obo9b$o3bo11956b3o10b$o3bo11956b3o10b$4bo11956b3o10b$bobo11958b2o10b$5958b2o54b2o5958b$5958b2o54b2o5958b$22b2o11926b2o22b$10bo7b2o2b2o3376bo8549b2o2b2o18b$9b3o6b2o3379b2o8553b2o18b$9bob2o3386bobo1147b2o7423b$10b3o4536bobo7422b$10b3o4536bo1231b2o6191b$10b3o5767b2obo114b2o174b2o113b3o2376bo3405b$10b2o5769bobo114b2o174b2o108b2o3bo2b2o2374b2o3404b$5778bo5bo398bo3bob2o1227b2o1147bobo3404b$29bo5747bo3bob2o399bob4obo2bo1222bobo4524bo29b$29bo5747bobob2o401bo4b3ob2o1224bo4524bo29b$29bo6155bobobobob2o5749bo29b$5791bo393bo3bobobo5780b$25b3o3b3o5757bo395b2o3bo5747b3o3b3o25b$5791bo382bo5799b$29bo6144bo5769bo29b$29bo6143b3o5768bo29b$29bo11914bo29b$11974b$6173b3o5798b$5778b2o394bo19b2o5778b$5778b2o394bo19bo2b2obo5773b$6195bob3obo5772b$6198bo5775b$6195bo6bo5771b$6195bo2bobo5773b$6198bo5775b$6197b2o10bo5764b$5782b2o406b2o17bo5764b$5782b2o174b2o54b2o174b2o13bobo5766b$3460bo2497b2o54b2o189bobo5766b$22b2o3435b2o2745b2o5742b2o22b$18b2o2b2o3435bobo1147b2o7339b2o2b2o18b$18b2o4589bobo7342b2o18b$4609bo7364b$8508bo3465b$8508b2o3464b$5898b2o174b2o1282b2o1147bobo3464b$5898b2o174b2o1281bobo4614b$7359bo4614b$29bo11914bo29b$29bo5760b2o390b2o5760bo29b$29bo5760b2o390b2o5760bo29b$11974b$25b3o3b3o11906b3o3b3o25b$5814bo6159b$29bo5783b2o6129bo29b$29bo5783bobo6128bo29b$29bo11914bo29b$11974b$6154bo5819b$6154b2o5818b$6153bobo5818b$11974b$6160bo5813b$6158b2o5814b$6159b2o5813b$11974b$11974b$3520bo2261b2o34bo371b2o5782b$3519b2o2261b2o35b2o137b2o54b2o174b2o5782b$3519bobo1147b2o1147b2o138b2o54b2o5958b$22b2o4645bobo7278b2o22b$18b2o2b2o4645bo7280b2o2b2o18b$18b2o8428bo3505b2o18b$8448b2o3524b$7298b2o1147bobo3524b$5893bo1403bobo4674b$5892bobo183bo1220bo4674b$6078bo5895b$5890bo2bo183bo5891b3o2b$29bo5859bo5bo4b2o170b2o3b2o5865bo24bo2bob$29bo5760b2o98b3o3bo3b2o170b2o3b5o100b2o5760bo24bo4b$29bo5760b2o102b3o183bobo99b2o5760bo24bo3bo$5874bo204b2ob2o5885bo3bo$25b3o3b3o5839b2o205bo2bo5856b3o3b3o20bo4b$5873bobo204b2ob2o5885bobob$29bo6051bobo1794bo4065bo29b$29bo6052bo1796bo4064bo29b$29bo6064bo1782b3o4064bo29b$2b3o6089b2o5867bo10b$bo2bo6088bobo5866b3o9b$4bo4085bo1811b2o166b2o5889b2obo9b$o3bo4084bo1812b2o166b2o5889b3o10b$o3bo4084b3o7869b3o10b$4bo11956b3o10b$bobo11958b2o10b$11974b$3580bo8393b$3579b2o2378bo6014b$10bo3568bobo1147b2o1051b2o114b2o58bobo113b2o114b2o5782b$9b3o4717bobo1050b2o114b2o58bo115b2o114b2o5782b$9bob2o4716bo1231bo6012b$10b3o9b2o5934b2obo47bo3b3o2372bo3561b2o22b$10b3o5b2o2b2o5933bobo49b4o2bo2372b2o3560b2o2b2o18b$10b3o5b2o5936b2o51b3o2bo1223b2o1147bobo3564b2o18b$10b2o5944bobo54b3o1221bobo4734b$5955bobo3b3o41b2o1232bo4734b$5955bo3bo2b2o37b10o5963b$5955bo2b2ob3o36b4o3bo5966b$5957b3o37b3o4bo2bo2bo5963b$5997b4o8bo5964b$29bo5967bo3b4o18bo5920bo29b$29bo5760b2o98b2o42bo66b3o10b2o6b2o4bo53b2o98b2o5760bo29b$29bo5760b2o98b2o41b2o77bo8b2o3bobo53b2o98b2o5760bo29b$5933bobo18b2o56bo7bob2o2bobo5945b$25b3o3b3o5920b2o61bob4o5917b3o3b3o25b$6014b3o8b2o8bo5938b$29bo5987b4o13bo5909bo29b$29bo5988b2o14bo5909bo29b$29bo5988bo17bo5907bo29b$6034bo2bo5936b$6034bobo5937b$5958b2o54b2o19b2o5937b$5958b2o54b2o5958b$11974b$11974b$3640bo8333b$3639b2o8333b$3639bobo1147b2o7183b$4789bobo7182b$4789bo992b2o114b2o174b2o114b2o5782b$5782b2o114b2o174b2o114b2o2136bo3645b$8328b2o3644b$22b2o7154b2o1147bobo3620b2o22b$18b2o2b2o7153bobo4770b2o2b2o18b$18b2o5946b2o38b2o1171bo4774b2o18b$5966b2o38b2o5966b$11974b$11974b$11974b$6121bo5852b$6122bo5851b$29bo6090b3o5821bo29b$29bo5760b2o98b2o190b2o98b2o5760bo29b$29bo5760b2o98b2o190b2o98b2o5760bo29b$5847bo138bobo5985b$25b3o3b3o5812bo139b2o5952b3o3b3o25b$5846b3o138bo5986b$29bo11914bo29b$29bo11914bo29b$29bo5960bobo5951bo29b$5991b2o5981b$5991bo5982b$5958b2o54b2o5958b$5958b2o54b2o84bo5873b$3700bo2397b2o5874b$3699b2o2398b2o5873b$3699bobo1147b2o7123b$4849bobo7122b$4849bo1028bo6095b$5879b2o2387bo3705b$5782b2o94b2o18b2o174b2o114b2o2076b2o3704b$5782b2o114b2o174b2o114b2o926b2o1147bobo3704b$7117bobo4854b$22b2o7095bo4830b2o22b$18b2o2b2o11926b2o2b2o18b$18b2o5946b2o38b2o5946b2o18b$5966b2o38b2o5966b$11969b3o2b$11969bo2bob$11969bo4b$11969bo3bo$11969bo3bo$29bo11914bo24bo4b$29bo5760b2o98b2o190b2o98b2o5760bo25bobob$29bo5760b2o98b2o190b2o98b2o5760bo29b$11974b$25b3o3b3o7904bo4001b3o3b3o25b$2b3o7934bo4023bo10b$bo2bo24bo7907b3o4004bo17b3o9b$4bo24bo11914bo16b2obo9b$o3bo24bo11914bo16b3o10b$o3bo4025bo7930b3o10b$4bo4024bo7931b3o10b$bobo3756bo268b3o1926b2o54b2o5946b2o10b$3759b2o2197b2o54b2o5958b$3759bobo1147b2o7063b$4909bobo7062b$10bo4898bo7064b$9b3o8196bo3765b$9bob2o8195b2o3764b$10b3o7045b2o1147bobo3764b$10b3o5769b2o114b2o174b2o114b2o865bobo4914b$10b3o5769b2o114b2o174b2o114b2o867bo4914b$10b2o11962b$22b2o11926b2o22b$18b2o2b2o11926b2o2b2o18b$18b2o11934b2o18b$11974b$11974b$11974b$11974b$11974b$11974b$29bo11914bo29b$29bo5760b2o390b2o5760bo29b$29bo5760b2o390b2o5760bo29b$11974b$25b3o3b3o11906b3o3b3o25b$11974b$29bo11914bo29b$29bo11914bo29b$29bo11914bo29b$3820bo8153b$3819b2o8153b$3819bobo1147b2o987b2o54b2o5958b$4969bobo986b2o54b2o5958b$4969bo7004b$8148bo3825b$8148b2o3824b$6998b2o1147bobo3824b$6997bobo4974b$6999bo4974b$5782b2o114b2o174b2o114b2o5782b$5782b2o114b2o174b2o114b2o5782b$11974b$22b2o11926b2o22b$18b2o2b2o11926b2o2b2o18b$18b2o11934b2o18b$5791bo6182b$5790b3o6181b$5789bo3bo387bo5792b$5788bo393bo5791b$5787b2ob2o3bo384b3o5791b$5790b2o6182b$29bo5757bo6b2o6148bo29b$29bo5758b2o392b2o5760bo29b$29bo6152b2o5760bo29b$11974b$25b3o3b3o5752bo6153b3o3b3o25b$5785b3o6186b$29bo5754bo2b2o6155bo29b$29bo3850bo1902b4obo6155bo29b$29bo3849b2o1902bo4bo6155bo29b$3879bobo1147b2o753b2o2bo393b3o5789b$5029bobo753b2o394bo3bo5788b$5029bo928b2o54b2o170bo5787b$5790bo167b2o54b2o2072bo3885b$5788bobo390b2o3bo1901b2o3884b$5789b2o392b3o752b2o1147bobo3884b$6937bobo5034b$6939bo5034b$11974b$11974b$5898b2o174b2o5898b$5898b2o174b2o5898b$11974b$22b2o6168b2o5756b2o17b3o2b$18b2o2b2o5766b2o390b2o8b2o5756b2o2b2o13bo2bob$18b2o5770b2o390b2o5770b2o13bo4b$11969bo3bo$11969bo3bo$6194bo5774bo4b$6193b3o5774bobob$6192b2ob2o5777b$6191bo5782b$29bo6160bo4bob2o5745bo29b$2b3o24bo6160bo4bobo5746bo18bo10b$bo2bo24bo6161bo4bo1801bo3945bo17b3o9b$4bo7994bo3961b2obo9b$o3bo20b3o3b3o7963b3o3940b3o3b3o12b3o10b$o3bo3935bo8020b3o10b$4bo24bo3909b2o8003bo16b3o10b$bobo25bo3909bobo28bo1118b2o6853bo17b2o10b$29bo3939bo1119bobo6852bo29b$3969b3o1117bo6884b$5782b2o406b2o1836bo3945b$10bo5771b2o174b2o54b2o174b2o1836b2o3944b$9b3o5946b2o54b2o862b2o1147bobo3944b$9bob2o6864bobo5094b$10b3o6866bo5094b$10b3o11961b$10b3o11961b$10b2o11962b$11974b$5898b2o174b2o5898b$5898b2o174b2o5898b$11974b$22b2o11926b2o22b$18b2o2b2o5766b2o390b2o5766b2o2b2o18b$18b2o5770b2o390b2o5770b2o18b$11974b$11974b$11974b$11974b$11974b$11974b$29bo11914bo29b$29bo11914bo29b$29bo5700bo512bo5700bo29b$4000bo1729bo512bo5730b$25b3o3b3o3965b2o1729bo512bo5696b3o3b3o25b$3999bobo1147b2o6823b$29bo5119bobo574b3o3b3o504b3o3b3o5696bo29b$29bo5119bo6794bo29b$29bo5700bo512bo1724bo3975bo29b$5730bo512bo1724b2o4004b$5730bo51b2o406b2o51bo574b2o1147bobo4004b$5782b2o174b2o54b2o174b2o625bobo5154b$5958b2o54b2o803bo5154b$11974b$11974b$11974b$11974b$11974b$11974b$5898b2o174b2o5898b$5898b2o174b2o5898b$11974b$22b2o11926b2o22b$18b2o2b2o5754b2o10b2o390b2o5766b2o2b2o18b$18b2o5757b2o11b2o390b2o5770b2o18b$5779bo6194b$11974b$11974b$6189b2o5783b$6190b2o5782b$6189bo5784b$29bo11914bo29b$29bo4030bo7883bo29b$29bo4029b2o1669bo512bo5700bo29b$4059bobo1147b2o519bo512bo5730b$25b3o3b3o5175bobo518bo512bo5696b3o3b3o25b$5209bo918bo5845b$29bo5696b3o3b3o393bobo108b3o3b3o1660bo4035bo29b$29bo6098b2o1778b2o4034bo29b$29bo5700bo512bo514b2o1147bobo4034bo29b$5730bo512bo513bobo5214b$5730bo51b2o66bo339b2o51bo515bo5214b$5782b2o64bobo107b2o54b2o174b2o5782b$5849b2o107b2o54b2o5958b$11974b$11974b$11974b$11974b$11974b$11969b3o2b$6074b2o5893bo2bob$6074b2o5893bo4b$5838b2o6129bo3bo$22b2o5813b2o54bo3b3o6050b2o17bo3bo$18b2o2b2o5766b2o47bo52bobobo285b2o5766b2o2b2o13bo4b$18b2o5770b2o99bo4bo285b2o5770b2o14bobob$5890b2o2bobo7b2o167b2o5899b$5886bo4bo2b2obo2bo171bo2bo2b2o49b2o5843b$5885bobo4b2o4bo2bo164b2o7bo2b3o49b2o5842b$2b3o5879b2obo6bo3bobo164b2o3bo4b2ob3o48bo5833bo10b$bo2bo5875b3o2bobo9bo10bo156bo2bobo2b4ob3o2bobo3b2o5871b3o9b$4bo4115bo1765b2o7bobo6bo3b3o153b2ob4o9bobo2bo3b3o5869b2obo9b$o3bo24bo4089b2o1765b2o10bo3b4o5bo153bo3bo8bo7bo3bo1967bo3885bo16b3o10b$o3bo24bo4089bobo1147b2o624bobo3b3ob3o4bo153bob2o8bo7b2o1971bo3884bo16b3o10b$4bo24bo5239bobo458bo165bo3b2o2bobo4bo148bo6b2o10bo163bo1813b3o3884bo16b3o10b$bobo5265bo460bo160b2o6b2o2b2o3b2o148b2o20bo6b4o152bo5718b2o10b$25b3o3b3o5696bo169bo3bo2bobo149b2o20bo3bo157bo1604bo4091b3o3b3o25b$3910bo1990b3o182b4o1758b2o4124b$29bo3879bo1816b3o3b3o167bo184bo151b3o3b3o450b2o1147bobo4094bo29b$10bo18bo3879b3o2006bo778bobo5244bo29b$9b3o17bo5700bo188b2o322bo455bo5244bo29b$9bob2o5717bo187b2o323bo5730b$10b3o5717bo51b2o114b2o174b2o114b2o51bo5730b$10b3o5769b2o114b2o58b2o54b2o58b2o114b2o5782b$10b3o5945b2o54b2o5958b$10b2o11962b$11974b$11974b$11974b$11974b$11974b$5898b2o6074b$5897b2o6075b$5899bo6074b$22b2o11926b2o22b$18b2o2b2o5766b2o98b2o190b2o98b2o5766b2o2b2o18b$18b2o5770b2o98b2o177b2o11b2o98b2o5770b2o18b$5961b3o106b2o5902b$5961bo2bo104bo5904b$5959b2o2b2o132bo5876b$4180bo1777bo5bo130bobo5876b$4179b2o1780b3o132b2o5876b$4179bobo1147b2o627b2o46bobo5965b$29bo5299bobo626bo2b3o42bo2bo5934bo29b$29bo5299bo541bo87bo2bo42bo3b2o5933bo29b$29bo5700bo140bobo85b2o44bo237bo1544bo4155bo29b$5730bo140b2o370bo1544b2o4184b$25b3o3b3o5696bo274bo2b3o232bo394b2o1147bobo4150b3o3b3o25b$5966bo38b2o630bobo5334b$29bo5696b3o3b3o232b2o38b3o229b3o3b3o391bo5304bo29b$29bo5936b2o39b3o5934bo29b$29bo5700bo512bo5700bo29b$5730bo512bo5730b$5730bo51b2o114b2o174b2o114b2o51bo5730b$5782b2o114b2o174b2o114b2o5782b$11974b$11974b$6016b2o5956b$5966b2o38b2o8b2o5956b$5966b2o38b2o9bo5956b$6018bo5955b$6017b2o5955b$6016b3o5955b$6016b2o5956b$6022bo5951b$22b2o11926b2o22b$18b2o2b2o5766b2o390b2o5766b2o2b2o18b$18b2o5770b2o390b2o5770b2o18b$11974b$4240bo7733b$4239b2o7733b$4239bobo1147b2o6583b$5389bobo6582b$5389bo6584b$29bo7698bo4215bo29b$29bo7698b2o4214bo29b$29bo5700bo227b2o54b2o227bo334b2o1147bobo4214bo29b$5730bo227b2o54b2o227bo333bobo5394b$25b3o3b3o5696bo512bo335bo5360b3o3b3o25b$11974b$29bo5696b3o3b3o504b3o3b3o5696bo29b$29bo11914bo29b$29bo5700bo512bo5700bo29b$5730bo512bo5730b$5730bo51b2o114b2o174b2o114b2o51bo5730b$5782b2o114b2o174b2o114b2o5782b$11974b$11974b$11969b3o2b$5966b2o38b2o5961bo2bob$5966b2o38b2o5961bo4b$11969bo3bo$11969bo3bo$11969bo4b$11970bobob$11974b$22b2o11926b2o22b$18b2o2b2o5766b2o390b2o5766b2o2b2o18b$2b3o13b2o4280bo1489b2o390b2o5770b2o7bo10b$bo2bo4294b2o7661b3o9b$4bo4294bobo1147b2o6510b2obo9b$o3bo5444bobo6509b3o10b$o3bo5444bo6511b3o10b$4bo7663bo449bo3842b3o10b$bobo7664b2o449bo3842b2o10b$29bo6488b2o1147bobo447b3o3824bo29b$29bo6487bobo5424bo29b$29bo5700bo227b2o54b2o227bo275bo5424bo29b$10bo3839bo1879bo227b2o54b2o227bo5730b$9b3o13b3o3b3o3815bo1880bo512bo5696b3o3b3o25b$9bob2o3836b3o8122b$10b3o16bo5696b3o3b3o504b3o3b3o5696bo29b$10b3o16bo11914bo29b$10b3o16bo5700bo512bo5700bo29b$10b2o5718bo512bo5730b$5730bo51b2o114b2o174b2o114b2o51bo5730b$5782b2o114b2o174b2o114b2o5782b$11974b$11974b$11974b$11974b$11974b$11974b$11974b$11974b$11974b$11974b$22b2o4336bo7589b2o22b$18b2o2b2o4335b2o1429b2o390b2o5766b2o2b2o18b$18b2o4339bobo1147b2o279b2o390b2o5770b2o18b$5509bobo645bo5816b$5509bo645bobo5816b$6156b2o1450bo4365b$7608b2o4364b$6458b2o1147bobo4364b$5811bo645bobo5514b$29bo5781bobo645bo5484bo29b$29bo5781b2o6131bo29b$29bo5700bo227b2o54b2o227bo5700bo29b$5730bo227b2o54b2o227bo5730b$25b3o3b3o5696bo512bo5696b3o3b3o25b$11974b$5726b3o3b3o504b3o3b3o5726b$28b2o11914b2o28b$27bo2bo5699bo512bo5699bo2bo27b$28bobo5699bo512bo5699bobo28b$29bo5700bo51b2o114b2o174b2o114b2o51bo5700bo29b$5782b2o114b2o174b2o114b2o5782b$11974b$11974b$63b3o11908b$63bo11910b$64bo11909b$11974b$11974b$11903b3o68b$4420bo7484bo68b$4419b2o7483bo69b$22b2o4395bobo1147b2o6379b2o22b$18b2o2b2o5545bobo218b2o390b2o5766b2o2b2o18b$18b2o5549bo220b2o390b2o5770b2o18b$7548bo4425b$7548b2o4424b$6398b2o1147bobo4424b$6397bobo5574b$6399bo5574b$11974b$29bo11914bo29b$29bo11914bo29b$29bo5700bo227b2o54b2o227bo5700bo29b$5730bo227b2o54b2o227bo5730b$25b3o3b3o5696bo512bo5696b3o3b3o25b$11974b$5726b3o3b3o504b3o3b3o5726b$28b2o11914b2o28b$27bo2bo5699bo460bobo49bo5699bo2bo27b$28bobo5699bo458b2o2b2o48bo5699bobo28b$29bo5700bo167b2o174b2o112bo3bob2o47bo5700bo24b3o2b$5898b2o174b2o111bo3b2ob2o5773bo2bob$123b3o6061bo5781bo4b$123bo5665bo398b2o2bo2bo5773bo3bo$124bo5664bo398b2o5bo5773bo3bo$5785bo405b3o5775bo4b$5780bo3b3o404b3o5776bobob$5780bo3bo3bo392b3o5659b3o128b$4480bo1299bo5bobo6056bo128b$4479b2o1305b3o6055bo129b$2b3o4474bobo1147b2o6332bo10b$bo2bo5624bobo6330b3o9b$4bo17b2o5605bo6320b2o9b2obo9b$o3bo13b2o2b2o7464bo4461b2o2b2o5b3o10b$o3bo13b2o5758b2o414b2o1292b2o4464b2o5b3o10b$4bo5773b2o414b2o142b2o1147bobo4471b3o10b$bobo6333bobo5622b2o10b$6339bo1838bo3795b$8179bo3794b$8177b3o3794b$10bo11963b$9b3o17bo11914bo29b$9bob2o16bo3760bo1991b2o406b2o5752bo29b$10b3o16bo3759bo1940bo51b2o174b2o54b2o174b2o51bo5700bo29b$10b3o3776b3o1938bo227b2o54b2o227bo5730b$10b3o12b3o3b3o5696bo512bo5696b3o3b3o25b$10b2o11962b$5726b3o3b3o504b3o3b3o5726b$28b2o11914b2o28b$27bo2bo5699bo512bo5699bo2bo27b$28bobo5699bo489bobo20bo5699bobo28b$29bo153b3o5544bo167b2o174b2o145b2o20bo5700bo29b$183bo5714b2o174b2o145bo5752b$184bo11789b$11974b$5746bobo41b2o390b2o5790b$5746b2o42b2o390b2o5599b3o188b$4540bo1206bo6037bo188b$4539b2o7243bo189b$4539bobo1147b2o6283b$5689bobo6282b$5689bo6284b$7428bo4545b$22b2o7404b2o4520b2o22b$18b2o2b2o6254b2o1147bobo4520b2o2b2o18b$18b2o6257bobo5674b2o18b$6279bo5694b$11974b$11974b$11974b$11974b$11974b$29bo11914bo29b$29bo5752b2o406b2o5752bo29b$29bo5700bo51b2o174b2o54b2o137bo36b2o51bo5700bo29b$5730bo227b2o54b2o136bo90bo5730b$25b3o3b3o5696bo421b3o88bo5696b3o3b3o25b$11974b$5726b3o3b3o504b3o3b3o5726b$28b2o5795bo6118b2o28b$27bo2bo212b3o5484bo95bo416bo5699bo2bo27b$28bobo212bo5486bo93b3o416bo5699bobo28b$29bo214bo5485bo167b2o174b2o167bo5700bo29b$5898b2o174b2o5898b$11974b$11723b3o248b$4600bo1189b2o390b2o5541bo248b$4599b2o1189b2o390b2o5540bo249b$4599bobo7372b$11974b$11974b$5752b2o1614bo4605b$5752bobo1613b2o4604b$5752bo1614bobo4604b$22b2o11926b2o22b$18b2o2b2o11926b2o2b2o18b$18b2o6195b2o5737b2o18b$6214bobo5757b$6216bo5757b$11974b$11974b$11974b$11974b$29bo11914bo29b$29bo5752b2o406b2o5752bo29b$29bo5752b2o174b2o54b2o174b2o5752bo29b$5958b2o54b2o5958b$25b3o3b3o11906b3o3b3o25b$11974b$303b3o11663b3o2b$28b2o273bo11640b2o23bo2bob$27bo2bo273bo11638bo2bo22bo4b$28bobo11912bobo23bo3bo$29bo5868b2o174b2o5868bo24bo3bo$5898b2o174b2o5587b3o303bo4b$4660bo7004bo304bobob$4659b2o7003bo309b$4659bobo1128b2o390b2o5790b$5790b2o390b2o5790b$2b3o11958bo10b$bo2bo5807b2o1494bo4653b3o9b$4bo5807bobo1493b2o4651b2obo9b$o3bo5807bo1494bobo4651b3o10b$o3bo11956b3o10b$4bo11956b3o10b$bobo18b2o6131b2o5793b2o10b2o10b$18b2o2b2o6130bobo5793b2o2b2o18b$18b2o6136bo5797b2o18b$8238bo3735b$10bo8228bo3734b$9b3o8225b3o3734b$9bob2o11961b$10b3o11961b$10b3o3717bo8243b$10b3o16bo3699bo8214bo29b$10b2o17bo3699b3o2050b2o406b2o5752bo29b$29bo5752b2o174b2o54b2o174b2o5752bo29b$5958b2o54b2o5958b$25b3o3b3o329b3o11574b3o3b3o25b$363bo11610b$364bo11609b$28b2o11914b2o28b$27bo2bo11912bo2bo27b$28bobo5862bo5709b3o337bobo28b$29bo4690bo1172bo5711bo338bo29b$4719b2o1172bo5710bo369b$4719bobo1357b3o5892b$5890b3o7b2o170b2o4bo5895b$5790b2o98bobo7b2o170b2o4bo4bo98b2o5790b$5790b2o80b2o16b3o2bobo181bo4bo97b2o1064bo4725b$5872bobo21b2o185bo1164b2o4724b$5872bo23bo182bob4o1162bobo4724b$6078b2o4bo5889b$6079bo3bo5890b$6080b2ob2o10b2o5877b$6081bobo10bobo5877b$22b2o6058bo13bo5853b2o22b$18b2o2b2o11926b2o2b2o18b$18b2o5882b2o166b2o5882b2o18b$5902b2o166b2o5902b$11974b$11974b$11974b$11974b$11974b$29bo6063bo5850bo29b$29bo5752b2o114b2o113bo60b2o16bo97b2o5752bo29b$29bo393b3o5356b2o114b2o112bo61b2o16b3o95b2o5752bo29b$423bo5534bobo48bob2o2bo5958b$25b3o3b3o390bo5530b2obo2bo46bobo2b4o5923b3o3b3o25b$5885bo69b2obo2bo45bo2bo5963b$5886bo67bob2o53b3o2b2o5956b$28b2o5854b3o67b4o5bo43b2obo4b2o5526b3o398b2o28b$27bo2bo4749bo1183b2o41b2obo4bo5529bo397bo2bo27b$28bobo4748b2o1176b2o6bo43b2obob2o5528bo398bobo28b$29bo4749bobo1172bo3b2obob3o5978bo29b$5955b5o36bobo5975b$5958bo37bob2o5974b$5932b2o63b2o6bo16b2o1164bo4785b$5790b2o98b2o40bobo69bo15bo3b2o2bo53b2o98b2o1004b2o4784b$5790b2o98b2o40bo71bo14bo2bob2obobo52b2o98b2o1003bobo4784b$5954b2o63bo4bo4bo5944b$5954b2o59b2o9b3o5945b$6014b6o4b3o8b2o5937b$6014b2obo5b2o9bobo5937b$6019b2o15bo5937b$6018b3o5953b$22b2o11926b2o22b$18b2o2b2o11926b2o2b2o18b$18b2o5938b2o54b2o5938b2o18b$5958b2o54b2o5958b$11974b$11974b$11974b$11974b$11974b$29bo453b3o11458bo29b$29bo453bo5298b2o114b2o174b2o114b2o5752bo29b$29bo454bo5297b2o114b2o174b2o114b2o5752bo24b3o2b$11969bo2bob$25b3o3b3o11906b3o3b3o20bo4b$11483b3o483bo3bo$4840bo1125b2o38b2o5477bo483bo3bo$28b2o4809b2o1125b2o38b2o5476bo459b2o23bo4b$27bo2bo4808bobo7101bo2bo23bobob$28bobo11912bobo28b$29bo11914bo29b$7128bo4845b$2b3o7123b2o4833bo10b$bo2bo6116bobo1003bobo4832b3o9b$4bo5785b2o330b2o58b2o5777b2obo9b$o3bo5785b2o330bo59b2o5777b3o10b$o3bo11956b3o10b$4bo5980bo5975b3o10b$bobo5841bobo137bobo5974b2o10b$5845b2o138b2o5987b$5846bo6127b$11974b$10bo11b2o5969bo5956b2o22b$9b3o6b2o2b2o5967bobo2304bo3651b2o2b2o18b$9bob2o5b2o5938b2o32b2o20b2o2283bo3654b2o18b$10b3o5945b2o54b2o2281b3o3674b$10b3o11961b$10b3o11961b$10b2o3658bo8303b$543b3o3123bo8304b$543bo3125b3o8302b$29bo514bo11399bo29b$29bo5752b2o114b2o174b2o114b2o5752bo29b$29bo5752b2o114b2o174b2o114b2o5752bo29b$11423b3o548b$25b3o3b3o4866bo6524bo514b3o3b3o25b$4899b2o6523bo549b$4899bobo1064b2o38b2o5966b$28b2o5936b2o38b2o5936b2o28b$27bo2bo11912bo2bo27b$28bobo7037bo4874bobo28b$29bo7038b2o4874bo29b$7067bobo4904b$11974b$11974b$5790b2o390b2o5790b$5790b2o390b2o5790b$11974b$11974b$11974b$11974b$11974b$11974b$22b2o11926b2o22b$18b2o2b2o11926b2o2b2o18b$18b2o5938b2o54b2o5938b2o18b$5958b2o54b2o5958b$11974b$603b3o11368b$603bo11370b$604bo11369b$11974b$29bo11914bo29b$29bo5752b2o114b2o174b2o114b2o5171b3o578bo29b$29bo4930bo821b2o114b2o174b2o114b2o5173bo578bo29b$4959b2o6403bo609b$25b3o3b3o4925bobo6978b3o3b3o25b$11974b$11974b$28b2o6978bo4935b2o28b$27bo2bo6977b2o4933bo2bo27b$28bobo6976bobo4933bobo28b$29bo11914bo29b$11974b$11974b$11974b$5790b2o390b2o5790b$5790b2o390b2o5790b$11974b$11974b$11974b$11974b$11974b$11974b$22b2o11926b2o22b$18b2o2b2o11926b2o2b2o18b$18b2o5938b2o54b2o5938b2o18b$663b3o5292b2o54b2o5958b$663bo11310b$664bo11309b$11974b$11969b3o2b$11303b3o663bo2bob$29bo4990bo6284bo638bo24bo4b$29bo4989b2o761b2o114b2o174b2o114b2o5112bo639bo24bo3bo$29bo4989bobo760b2o114b2o174b2o114b2o5752bo24bo3bo$11969bo4b$25b3o3b3o11906b3o3b3o21bobob$6948bo5025b$5791b2o1155b2o5024b$28b2o5761b2o1154bobo4994b2o28b$2b3o22bo2bo5761bo6150bo2bo16bo10b$bo2bo23bobo11912bobo16b3o9b$4bo24bo6152bo5761bo16b2obo9b$o3bo6176bobo5777b3o10b$o3bo6176bobo5777b3o10b$4bo6176b2o5778b3o10b$bobo6177b3o5778b2o10b$5785b3o6186b$5785bo2bo6185b$5783b2o2b2o6185b$10bo5771bo5bo6185b$9b3o5773b3o6186b$9bob2o5769b2o398bobo5789b$10b3o5769bo2b3o394bo2bo2172bo3615b$10b3o9b2o5759bo2bo394bo3b2o2172bo3590b2o22b$10b3o5b2o2b2o699b3o5057b2o396bo2175b3o3590b2o2b2o18b$10b2o6b2o703bo5234b2o54b2o5938b2o18b$724bo5233b2o54b2o165bo2b3o5787b$3610bo2179bo390b2o5791b$3609bo2181b2o390b3o5788b$3609b3o2178b2o391b3o5057b3o728b$5080bo6164bo728b$5079b2o6163bo729b$29bo5049bobo6862bo29b$29bo5868b2o174b2o5868bo29b$29bo5868b2o174b2o5868bo29b$6888bo5085b$25b3o3b3o6158b2o694b2o5050b3o3b3o25b$5790b2o390b2o8b2o693bobo5084b$5790b2o390b2o9bo5780b$28b2o6164bo5749b2o28b$27bo2bo6162b2o5748bo2bo27b$28bobo6161b3o5748bobo28b$29bo6162b2o5750bo29b$6198bo5775b$11974b$11974b$11974b$11974b$11974b$11974b$11974b$11974b$11974b$783b3o11188b$22b2o759bo11166b2o22b$18b2o2b2o760bo4997b2o406b2o5758b2o2b2o18b$18b2o5762b2o174b2o54b2o174b2o5762b2o18b$5958b2o54b2o5958b$11183b3o788b$5140bo6044bo788b$5139b2o6043bo789b$5139bobo6832b$11974b$29bo11914bo29b$29bo6044b2o752bo5115bo29b$29bo5865b5o174b2o752b2o5114bo29b$5893bo5b2o926bobo5144b$25b3o3b3o5858b2o3bob2o6039b3o3b3o25b$5790b2o105bob2o281b2o5790b$5790b2o100bobobo3bo172bo108b2o5790b$28b2o5861b2ob2obobo172b3o5869b2o28b$27bo2bo5854bo5b2o5bo169b3o5872bo2bo27b$28bobo5850b2o10bo174bobo2bo6b2o5861bobo28b$29bo5850bo6bo191b2o5bo5857bo29b$5880bob2o4b2o176b2o12bobo2b2o4b2o5881b$5881bo4bob2o16b2o158b2o11bob4o2bo4bo5881b$5887b2o18bo157bobo12b3o4b3o2bo5881b$5905b2obo3b2o151b3o11bob2o3b7o5881b$5903b2o3bobobo152b3o12b2o4b2o5886b$5899bo2bo5bobo157bo11bo5b2o5886b$5898bo3b2ob3obo147bobo8b2o5904b$5899bobo3bo151b2o5915b$843b3o5054b4o154bo5915b$843bo5057b3o6070b$844bo11129b$22b2o5895bobo6028b2o22b$18b2o2b2o5758b2o114b2o20b2o152b2o114b2o5758b2o2b2o18b$18b2o5762b2o114b2o20bo37b2o54b2o58b2o114b2o4931b3o828b2o18b$5200bo757b2o54b2o231bo4877bo843b3o2b$5199b2o1047bo4875bo844bo2bob$5199bobo1044b3o5720bo4b$11969bo3bo$11969bo3bo$5721bo1046bo5200bo4b$29bo5690bo1047b2o5174bo25bobob$29bo5690b3o1044bobo5174bo29b$29bo11914bo29b$11974b$2b3o20b3o3b3o11906b3o3b3o14bo10b$bo2bo5785b2o98b2o70bo119b2o98b2o5778b3o9b$4bo5785b2o98b2o68b2ob2o117b2o98b2o5777b2obo9b$o3bo23b2o5933b2o5979b2o15b3o10b$o3bo22bo2bo5928bo3bobo5977bo2bo14b3o10b$4bo23bobo11912bobo15b3o10b$bobo25bo5930bo137bo5845bo17b2o10b$5961b3o135bo5874b$5962b2o133b3o5874b$5957b2o50b3o5962b$10bo6000bo5962b$9b3o5858bo86bobo49b3o5962b$9bob2o5856bo88b2o6014b$10b3o890b3o4963b3o138bo5963b$10b3o890bo5104b3o5963b$10b3o891bo5062bo38b3o119bo2289bo3555b$10b2o5956b2o37b2o117b2o2291bo3554b$5967b2o158b2o2288b3o3554b$22b2o11039b3o884b2o22b$18b2o2b2o5236bo521b2o114b2o174b2o114b2o4873bo884b2o2b2o18b$18b2o3530bo1708b2o521b2o66bo47b2o174b2o114b2o4872bo889b2o18b$3549bo1709bobo589b2o6121b$3549b3o2298b2o6122b$6018bo5955b$5966b2o38b2o10bo689bo5265b$5966b2o38b2o700b2o5264b$6017bobo687bobo5264b$29bo5987bobo5924bo29b$29bo11914bo29b$29bo11914bo29b$11974b$25b3o3b3o11906b3o3b3o25b$5790b2o98b2o190b2o98b2o5790b$5790b2o98b2o190b2o98b2o5790b$28b2o11914b2o28b$27bo2bo11912bo2bo27b$28bobo11912bobo28b$29bo11914bo29b$11974b$11974b$11974b$11974b$963b3o4992b2o54b2o5958b$963bo4994b2o54b2o5958b$964bo11009b$11974b$11974b$11003b3o968b$5320bo5684bo968b$22b2o5295b2o5683bo945b2o22b$18b2o2b2o5295bobo460b2o114b2o174b2o114b2o5758b2o2b2o18b$18b2o5762b2o114b2o174b2o114b2o5762b2o18b$11974b$6648bo5325b$6648b2o5324b$5966b2o38b2o639bobo5324b$5966b2o38b2o5966b$11974b$29bo11914bo29b$29bo11914bo29b$29bo11914bo29b$11974b$25b3o3b3o11906b3o3b3o25b$5790b2o98b2o190b2o98b2o5790b$5790b2o98b2o190b2o98b2o5790b$28b2o11914b2o28b$27bo2bo11912bo2bo27b$28bobo11912bobo28b$29bo11914bo29b$11974b$11974b$1023b3o10948b$1023bo10950b$1024bo4933b2o54b2o5958b$5958b2o54b2o5958b$11974b$10943b3o1028b$5380bo5564bo1028b$5379b2o5563bo1029b$5379bobo6587b3o2b$22b2o11926b2o17bo2bob$18b2o2b2o5758b2o114b2o174b2o114b2o115bo5642b2o2b2o13bo4b$18b2o5762b2o114b2o174b2o114b2o116bo279bo5365b2o13bo3bo$6306b3o279b2o5379bo3bo$6587bobo5379bo4b$11970bobob$5661bo6312b$5660bo6313b$5660b3o6311b$2b3o24bo11914bo18bo10b$bo2bo24bo11914bo17b3o9b$4bo24bo11914bo16b2obo9b$o3bo11956b3o10b$o3bo20b3o3b3o11906b3o3b3o12b3o10b$4bo5785b2o390b2o5777b3o10b$bobo5786b2o390b2o5778b2o10b$28b2o11914b2o28b$27bo2bo6127bo5784bo2bo27b$28bobo6128bo5783bobo28b$10bo18bo6127b3o5784bo29b$9b3o1071b3o10888b$9bob2o1070bo10890b$10b3o1071bo4725bo6163b$10b3o5796bo6164b$10b3o5796b3o146b2o54b2o5958b$10b2o5946b2o54b2o4867b3o1088b$5440bo3037bo2406bo1088b$5439b2o3038bo2404bo1089b$5439bobo3035b3o3494b$11974b$11974b$22b2o3466bo3037bo5421b2o22b$18b2o2b2o3465bo2292b2o114b2o174b2o114b2o336b2o5420b2o2b2o18b$18b2o3469b3o2290b2o114b2o174b2o114b2o335bobo5424b2o18b$11974b$11974b$11974b$11974b$11974b$11974b$29bo11914bo29b$29bo11914bo29b$29bo11914bo29b$11974b$25b3o3b3o11906b3o3b3o25b$5790b2o390b2o5790b$5790b2o390b2o5790b$28b2o11914b2o28b$27bo2bo11912bo2bo27b$28bobo1112b3o10797bobo28b$29bo1113bo10800bo29b$1144bo10829b$11974b$11974b$10823b3o1148b$5500bo457b2o54b2o4809bo1148b$5499b2o457b2o54b2o4808bo1149b$5499bobo6472b$11974b$11974b$6468bo5505b$6468b2o5504b$22b2o6443bobo5480b2o22b$18b2o2b2o5758b2o114b2o174b2o114b2o5758b2o2b2o18b$18b2o5762b2o114b2o174b2o114b2o5762b2o18b$11974b$11974b$11974b$11974b$11974b$11974b$29bo11914bo29b$29bo11914bo29b$29bo11914bo29b$11974b$25b3o3b3o11906b3o3b3o25b$11974b$11974b$28b2o1173b3o10738b2o28b$27bo2bo1172bo10739bo2bo27b$28bobo1173bo10738bobo28b$29bo11914bo29b$11974b$10763b3o1208b$5560bo5204bo1208b$5559b2o5203bo1209b$5559bobo396b2o54b2o5958b$5958b2o54b2o5958b$11969b3o2b$6408bo5560bo2bob$6408b2o5559bo4b$6407bobo5559bo3bo$6367bo5601bo3bo$22b2o6344bo5581b2o17bo4b$18b2o2b2o5758b2o114b2o174b2o114b2o174b3o5581b2o2b2o14bobob$18b2o5762b2o114b2o174b2o114b2o5762b2o18b$11974b$5601bo6372b$2b3o5595bo6362bo10b$bo2bo5595b3o6359b3o9b$4bo11956b2obo9b$o3bo11956b3o10b$o3bo24bo11914bo16b3o10b$4bo24bo11914bo16b3o10b$bobo25bo11914bo17b2o10b$11974b$25b3o3b3o11906b3o3b3o25b$1263b3o10708b$10bo1252bo4337b3o6370b$9b3o16b2o1234bo4336bo6342b2o28b$9bob2o14bo2bo5571bo6340bo2bo27b$10b3o15bobo11912bobo28b$10b3o16bo10673b3o1238bo29b$10b3o6352b3o4337bo1268b$10b2o5777b3o575bo4336bo1269b$5788bo577bo5607b$5788bo2bo6182b$5789b2o167b2o54b2o2522bo3435b$5789b2o167b2o54b2o2523bo3434b$5788bo2bo2745b3o3434b$5791bo6182b$5788b2o6184b$3430bo2751b3o5789b$3429bo2752bo2bo5788b$22b2o3405b3o2749bo3bo5764b2o22b$18b2o2b2o5874b2o174b2o106bo2b2o5763b2o2b2o18b$18b2o5878b2o174b2o108bo5769b2o18b$6182b2o5790b$5609b3o168b2o399b3o8b2o168b3o5609b$5780b2o8b2o389b3o8b2o5780b$5607bo5bo176b2o568bo5bo5607b$5607bo5bo746bo5bo5607b$5607bo5bo165bo580bo5bo5607b$29bo5748b3o6163bo29b$29bo5579b3o165bo3bo411bo168b3o5579bo29b$29bo5746bo417bo5749bo29b$1323b3o4449b2ob2o3bo408b3o5779b$25b3o3b3o1289bo4337b3o114b2o6160b3o3b3o25b$1324bo4336bo113bo6b2o6190b$5662bo113b2o416b2o5778b$28b2o6164b2o5748b2o28b$27bo2bo10612b3o1297bo2bo27b$28bobo6274b3o4337bo1297bobo28b$29bo6277bo4336bo1299bo29b$6306bo5667b$11974b$11974b$5782b2o406b2o5782b$5782b2o174b2o54b2o174b2o5782b$5958b2o54b2o5958b$11974b$11974b$11974b$11974b$11974b$22b2o11926b2o22b$18b2o2b2o5874b2o174b2o5874b2o2b2o18b$18b2o5878b2o174b2o5878b2o18b$11974b$5609b3o750b3o5609b$5790b2o390b2o5790b$5607bo5bo176b2o390b2o176bo5bo5607b$5607bo5bo746bo5bo5607b$5607bo5bo746bo5bo5607b$29bo11914bo29b$29bo1353b3o4223b3o750b3o5579bo29b$29bo1353bo4337b3o6220bo29b$1384bo4336bo6252b$25b3o3b3o5688bo6217b3o3b3o25b$11974b$10583b3o1388b$28b2o6215b3o4337bo1358b2o28b$27bo2bo6216bo4336bo1358bo2bo27b$28bobo6215bo5696bobo28b$29bo11914bo29b$6240bobo5731b$6241b2o5731b$6241bo5727b3o2b$5782b2o406b2o5777bo2bob$5782b2o174b2o54b2o174b2o5777bo4b$5726bobo229b2o54b2o5953bo3bo$5726b2o6241bo3bo$5727bo6241bo4b$11970bobob$11974b$11974b$22b2o11926b2o22b$2b3o13b2o2b2o5874b2o174b2o5874b2o2b2o7bo10b$bo2bo13b2o5878b2o174b2o5878b2o6b3o9b$4bo11956b2obo9b$o3bo5604b3o750b3o5596b3o10b$o3bo5785b2o390b2o5777b3o10b$4bo5602bo5bo176b2o390b2o176bo5bo5594b3o10b$bobo5603bo5bo746bo5bo5595b2o10b$1443b3o4161bo5bo746bo5bo5607b$29bo1413bo4337b3o6160bo29b$29bo1414bo4164b3o169bo580b3o5579bo29b$10bo18bo5752bo6161bo29b$9b3o11962b$9bob2o12b3o3b3o6099bo4389b3o1414b3o3b3o25b$10b3o6119bo52b3o4337bo1448b$10b3o6119b3o52bo4336bo1449b$10b3o15b2o6156bo5757b2o28b$10b2o15bo2bo11912bo2bo27b$28bobo5814bo6097bobo28b$29bo5693b2o121bo6097bo29b$5723bobo118b3o6127b$5723bo6250b$8598bo3375b$5782b2o406b2o2407bo3374b$5782b2o174b2o54b2o174b2o52b2o2351b3o3374b$5958b2o54b2o227bobo5728b$6245bo5728b$3370bo8603b$3369bo8604b$3369b3o8602b$11974b$22b2o11926b2o22b$18b2o2b2o5874b2o174b2o5874b2o2b2o18b$18b2o5878b2o174b2o5878b2o18b$11974b$5609b3o750b3o5609b$5790b2o390b2o5790b$1503b3o4101bo5bo176b2o390b2o176bo5bo5607b$1503bo4103bo5bo227b3o55b3o458bo5bo5607b$1504bo4102bo5bo227bo56bo2bo2b2o2bo451bo5bo5607b$29bo5812bo50bo6b4obo2bo6035bo29b$29bo5579b3o270bo9b2o8bo163b2o6b2obo284b3o5579bo29b$29bo5852bo3b3o2bobo8bo4bo156bo3bo5bo2b2o4384b3o1478bo29b$5881bo7bo2bo13b2o155bo5bo4bo5bo7bo36b3o4337bo1508b$25b3o3b3o5847b2o4bo2bo2b2o168bo4bo7b3o8b2o38bo4336bo1475b3o3b3o25b$5882b5o5bo14b2o154bo2bo10b2o3bo3b2o38bo5847b$5886bo5b2o12b2o156bobo13bobo4bo5886b$28b2o5854bobo7bo8bobo9bo149bo12bo9bob3o5851b2o28b$27bo2bo5752b2o99bobo17b2o10bo161bo11b3o5850bo2bo27b$28bobo5752bobo128b3o156b2o3bo5864bobo28b$29bo5753bo6160bo29b$11974b$11974b$6184b2o5788b$5782b2o114b2o174b2o107bobo4b2o5782b$5782b2o114b2o58b2o54b2o58b2o109bo4b2o5782b$5958b2o54b2o5958b$11974b$11974b$11974b$11974b$11974b$22b2o11926b2o22b$18b2o2b2o11926b2o2b2o18b$18b2o11934b2o18b$11974b$1563b3o4043b3o750b3o5609b$1563bo4226b2o98b2o9b3o178b2o8bo89b2o5790b$1564bo4042bo5bo176b2o98b2o9bo180b2o9b2o87b2o176bo5bo5607b$5607bo5bo288bo189b2o266bo5bo5607b$5607bo5bo746bo5bo5607b$29bo10373b3o1538bo29b$29bo5579b3o264bo188b3o294b3o4040bo1538bo29b$29bo5844b2o191bo4336bo1539bo29b$5875b2o86bo102bo5907b$25b3o3b3o5928b2o5976b3o3b3o25b$5961bo6012b$5843b2o117b2o6010b$28b2o5813bobo116bobo5979b2o28b$27bo2bo5812bo119bo43bo5935bo2bo27b$28bobo5932bobo39b2ob2o5933bobo23b3o2b$29bo5937bo37b2ob2o5934bo24bo2bob$5965bobo38bob3o113b2o5843bo4b$6005b3o115bobo5843bo3bo$6125bo5843bo3bo$5782b2o114b2o174b2o114b2o5777bo4b$5782b2o114b2o174b2o114b2o5778bobob$11974b$11974b$6016b2o5956b$2b3o5961b2o38b2o8b2o5945bo10b$bo2bo5950bo10b2o38b2o5954b3o9b$4bo11956b2obo9b$o3bo17b2o11926b2o9b3o10b$o3bo13b2o2b2o11926b2o2b2o5b3o10b$4bo13b2o1603b3o10328b2o5b3o10b$bobo1619bo4393b2o5943b2o10b$1624bo3984b3o404bo345b3o5609b$5790b2o223bo2bo163b2o5790b$5607bo5bo176b2o224bobo163b2o176bo5bo5607b$10bo5596bo5bo403b2o341bo5bo3976b3o1628b$9b3o5595bo5bo403b2o341bo5bo3978bo1628b$9bob2o16bo10314bo1599bo29b$10b3o16bo5579b3o750b3o5579bo29b$10b3o16bo11914bo29b$10b3o11961b$10b2o13b3o3b3o5869b2o6035b3o3b3o25b$5903bobo6068b$5903bo54b2o54b2o5958b$28b2o5928b2o54b2o5928b2o28b$27bo2bo11912bo2bo27b$28bobo6033b2o5877bobo28b$29bo6033bobo5878bo29b$6065bo2592bo3315b$8659bo3314b$8657b3o3314b$5782b2o114b2o174b2o114b2o5782b$5782b2o114b2o174b2o114b2o5782b$3310bo8663b$3309bo8664b$3309b3o8662b$5966b2o38b2o5966b$5966b2o38b2o5966b$11974b$22b2o1659b3o10264b2o22b$18b2o2b2o1659bo10266b2o2b2o18b$18b2o1664bo10269b2o18b$11974b$5609b3o750b3o5609b$5790b2o390b2o4099b3o1688b$5607bo5bo176b2o390b2o176bo5bo3918bo1688b$5607bo5bo746bo5bo3917bo1689b$5607bo5bo746bo5bo5607b$29bo11914bo29b$29bo5579b3o750b3o5579bo29b$29bo3b2o5928b2o5974b2o3bo29b$32bo2bo5927bobo5972bo2bo32b$25b3o4bo2bo5927bo5974bo2bo4b3o25b$33b2o11904b2o33b$5958b2o54b2o5958b$28b2o5928b2o44b2o8b2o5928b2o28b$27bo2bo5972bobo5937bo2bo27b$28bobo5974bo5937bobo28b$29bo11914bo29b$11974b$11974b$11974b$5782b2o114b2o174b2o114b2o5782b$5782b2o114b2o174b2o114b2o5782b$11974b$11974b$11974b$85bo11888b$84b2o1657b3o10228b$84bobo1656bo10230b$22b2o1720bo10205b2o22b$18b2o2b2o11926b2o2b2o18b$18b2o11863bo70b2o18b$6152bo4070b3o1657b2o89b$5609b3o541b2o207b3o3860bo1656bobo89b$5790b2o360b2o28b2o4040bo1749b$5607bo5bo176b2o390b2o176bo5bo5607b$5607bo5bo746bo5bo5607b$5607bo5bo202bo543bo5bo5607b$29bo5784b2o207b2o5919bo29b$29bo5579b3o203b2o206bobo336b3o5579bo29b$29bo3b2o5988bo5915b2o3bo29b$32bo2bo11902bo2bo32b$25b3o4bo2bo11902bo2bo4b3o25b$33b2o5909b2o5993b2o28b3o2b$5943bobo12b2o54b2o5953bo2bob$28b2o5915bo12b2o54b2o5928b2o23bo4b$27bo2bo11912bo2bo22bo3bo$28bobo11912bobo23bo3bo$29bo11914bo24bo4b$11970bobob$11974b$11974b$5782b2o114b2o174b2o114b2o5782b$2b3o5777b2o114b2o174b2o114b2o5771bo10b$bo2bo11957b3o9b$4bo140bo11815b2obo9b$o3bo139b2o1657b3o10155b3o10b$o3bo139bobo1656bo10157b3o10b$4bo1799bo10156b3o10b$bobo11958b2o10b$22b2o11799bo126b2o22b$18b2o2b2o10139b3o1657b2o125b2o2b2o18b$18b2o10145bo1656bobo129b2o18b$10bo10153bo1809b$9b3o5597b3o750b3o5609b$9bob2o5777b2o390b2o5790b$10b3o5594bo5bo176b2o390b2o176bo5bo5607b$10b3o5594bo5bo469b2o275bo5bo5607b$10b3o5594bo5bo469bobo274bo5bo5607b$10b2o17bo6053bo5860bo29b$29bo5579b3o750b3o5579bo29b$29bo3b2o11904b2o3bo29b$32bo2bo5848b2o6052bo2bo32b$25b3o4bo2bo5847bobo6052bo2bo4b3o25b$33b2o5850bo6053b2o33b$5958b2o54b2o5958b$28b2o5928b2o54b2o5928b2o28b$27bo2bo11912bo2bo27b$28bobo8687bo3224bobo28b$29bo8689bo3224bo29b$8717b3o3254b$11974b$11974b$3250bo2532b3o112b2o174b2o5898b$205bo3043bo2531b5o112b2o174b2o113b2o5783b$204b2o1657b3o1383b3o2535b3o399b3obo5780b$204bobo1656bo3916bo7b2o398bo2bob2o5779b$1864bo3915bo3b2o3bo398b3o5783b$5781bo2b2obob2o395b2ob3o2b2o5778b$5782b6o397bob5ob2o5568bo210b$5783bo3bo2bo393b2o2b2o2b4o3907b3o1657b2o209b$22b2o5765bo10bo384b2o7b2o3909bo1656bobo185b2o22b$18b2o2b2o5769bo4bo2bo387b2ob2o3910bo1845b2o2b2o18b$18b2o5772bo6bobo389bo5762b2o18b$5774b2o23b2o390bo5782b$5609b3o161bo2bo15b3o567b3o5609b$5768b3ob2ob3o365b2o5829b$5607bo5bo154b2o3bo2b3o364bobo48b2o164bo5bo5607b$5607bo5bo156b2obob2o2bo363bo50b2o164bo5bo5607b$5607bo5bo158b12o576bo5bo5607b$29bo5746bo5bo6161bo29b$29bo5579b3o165b2o45b2o536b3o5579bo29b$29bo3b2o5743bo2bo41bobo6113b2o3bo29b$32bo2bo5743bo45bo6112bo2bo32b$25b3o4bo2bo5724bo6177bo2bo4b3o25b$33b2o5725bobo19b2o406b2o5747b2o33b$5760b2o20b2o174b2o54b2o174b2o5782b$28b2o5928b2o54b2o5928b2o28b$27bo2bo11912bo2bo27b$28bobo6187bo5724bobo28b$29bo6186bobo5725bo29b$6217b2o5755b$11974b$265bo11708b$264b2o1657b3o3972b2o174b2o5898b$264bobo1656bo3974b2o174b2o5898b$1924bo10049b$11974b$5790b2o390b2o5519bo270b$5790b2o390b2o3859b3o1657b2o269b$10045bo1656bobo269b$10044bo1929b$22b2o11926b2o22b$18b2o2b2o11926b2o2b2o18b$18b2o11934b2o18b$6203b2o5769b$5609b3o591bobo156b3o5609b$6203bo5770b$5607bo5bo746bo5bo5607b$5607bo5bo196bobo547bo5bo5607b$5607bo5bo150b2o45b2o547bo5bo5607b$29bo5733bobo45bo6132bo29b$29bo5579b3o153bo596b3o5579bo24b3o2b$29bo3b2o11904b2o3bo24bo2bob$32bo2bo6120bobo5779bo2bo27bo4b$25b3o4bo2bo6120b2o5780bo2bo4b3o20bo3bo$33b2o5747b2o373bo32b2o5747b2o28bo3bo$5782b2o174b2o54b2o174b2o5777bo4b$28b2o5928b2o54b2o5928b2o24bobob$27bo2bo11912bo2bo27b$28bobo11912bobo28b$29bo11914bo29b$2b3o320bo11637bo10b$bo2bo319b2o1657b3o9976b3o9b$4bo319bobo1656bo9977b2obo9b$o3bo1979bo3913b2o174b2o5885b3o10b$o3bo5893b2o174b2o5885b3o10b$4bo11638bo317b3o10b$bobo9979b3o1657b2o317b2o10b$5790b2o390b2o3801bo1656bobo329b$5790b2o390b2o3800bo1989b$11974b$10bo11963b$9b3o10b2o6197b2o5727b2o22b$9bob2o5b2o2b2o6198b2o5726b2o2b2o18b$10b3o5b2o6201bo5732b2o18b$10b3o11961b$10b3o5596b3o750b3o5609b$10b2o5744b2o6216b$5607bo5bo141b2o603bo5bo5607b$5607bo5bo143bo602bo5bo5607b$5607bo5bo746bo5bo5607b$29bo11914bo29b$29bo5579b3o750b3o5579bo29b$29bo3b2o11904b2o3bo29b$32bo2bo11902bo2bo32b$25b3o4bo2bo11902bo2bo4b3o25b$33b2o5747b2o406b2o5747b2o33b$5782b2o174b2o54b2o174b2o5782b$28b2o5928b2o54b2o2762bo3165b2o28b$27bo2bo8748bo3163bo2bo27b$28bobo354bo8391b3o3163bobo28b$29bo354b2o1657b3o9898bo29b$384bobo1656bo9930b$2044bo1145bo8783b$3189bo8784b$3189b3o2706b2o174b2o5507bo390b$5898b2o174b2o3847b3o1657b2o389b$9925bo1656bobo389b$9924bo2049b$5790b2o390b2o5790b$5790b2o390b2o5790b$6161b2o5811b$6162b2o5810b$22b2o6137bo5788b2o22b$18b2o2b2o11926b2o2b2o18b$18b2o11934b2o18b$5816b2o6156b$5609b3o203b2o545b3o5609b$5817bo6156b$5607bo5bo746bo5bo5607b$5607bo5bo746bo5bo5607b$5607bo5bo746bo5bo5607b$29bo11914bo29b$29bo5579b3o750b3o5579bo29b$29bo3b2o11904b2o3bo29b$32bo2bo11902bo2bo32b$25b3o4bo2bo11902bo2bo4b3o25b$33b2o5747b2o406b2o5747b2o33b$5782b2o174b2o54b2o174b2o5782b$28b2o415bo5512b2o54b2o5928b2o28b$27bo2bo413b2o1657b3o9837bo2bo27b$28bobo413bobo1656bo9839bobo28b$29bo2074bo9839bo29b$11974b$11523bo450b$9863b3o1657b2o449b$5892b2o3971bo1656bobo449b$5892b2o187b2o3781bo2109b$5891bo189bo2bo5889b$5891bob2o5b2o170b2o8bo5891b$5790b2o99bo3b2o3b2o170b2o8bo2bo15b2o79b2o5790b$5790b2o289bo2b2o16b2o78b2o5790b$5890bo184bo25bo5872b$5889bobo183bobo3b3o5890b$22b2o5871bo179b2o5873b2o22b$18b2o2b2o5852b2o17bo6054b2o2b2o18b$18b2o5855b2o14bobo6060b2o18b$5877bo6096b$5609b3o278bobo469b3o5609b$5870bobo18bo6082b$5607bo5bo257b2o18bo10b2o166b2o288bo5bo5602b3o2b$5607bo5bo257bo30b2o166b2o288bo5bo5602bo2bob$5607bo5bo746bo5bo5602bo4b$29bo11914bo24bo3bo$29bo5579b3o484bobo263b3o5579bo24bo3bo$29bo3b2o6061b2o5841b2o3bo24bo4b$32bo2bo6061bo5840bo2bo28bobob$25b3o4bo2bo11902bo2bo4b3o25b$33b2o470bo5276b2o114b2o114b2o58b2o114b2o5747b2o33b$504b2o1657b3o3616b2o114b2o117bo56b2o114b2o5782b$2b3o23b2o474bobo1656bo3793b2obo54bo3bo5924b2o17bo10b$bo2bo22bo2bo2133bo3792bo2bo4b2o47bo2bobo5923bo2bo15b3o9b$4bo23bobo5929bo4bo48b2o5927bobo15b2obo9b$o3bo24bo5930bob3o54b2o5442bo480bo16b3o10b$o3bo5951b3ob2o2bo44bo2bo7bo3782b3o1657b2o496b3o10b$4bo5951b3obo3bo41bo3798bo1656bobo496b3o10b$bobo5957b2o43bo8bo3788bo2157b2o10b$6006bo8bobobo5954b$6009bo3b4o5957b$6015bo3bo21b2o5931b$10bo5962b5o38bobo23b2o5930b$9b3o5778b2o98b2o82b3o64bo40b2o98b2o5790b$9bob2o5777b2o98b2o61b2o20bo106b2o98b2o5790b$10b3o5932bo6bo2bo62b2o5954b$10b3o5923b2o8b2o4b2obo62b2o5954b$10b3o9b2o5911b2o9b5o3bo5995b2o22b$10b2o6b2o2b2o5913bo9bo2bo5999b2o2b2o18b$18b2o5928b4obo6000b2o18b$5952bo6021b$5609b3o341bo408b3o5609b$11974b$5607bo5bo344b2o54b2o344bo5bo5607b$5607bo5bo344b2o54b2o344bo5bo5607b$5607bo5bo746bo5bo5607b$29bo11914bo29b$29bo5579b3o750b3o5579bo29b$29bo3b2o11904b2o3bo29b$32bo2bo529bo11372bo2bo32b$25b3o4bo2bo528b2o1657b3o9712bo2bo4b3o25b$33b2o529bobo1656bo3558b2o114b2o174b2o114b2o2646bo3100b2o33b$2224bo3557b2o114b2o174b2o114b2o2647bo3134b$28b2o8807b3o3104b2o28b$27bo2bo11372bo539bo2bo27b$28bobo9712b3o1657b2o538bobo28b$29bo3100bo2835b2o38b2o3737bo1656bobo539bo29b$3129bo2836b2o38b2o3736bo2229b$3129b3o8842b$11974b$11974b$11974b$11974b$11974b$5790b2o57bo332b2o5790b$5790b2o57bobo330b2o5790b$5849b2o6123b$11974b$22b2o5964bo5961b2o22b$18b2o2b2o5965b2o138bo5820b2o2b2o18b$18b2o5968b2o137bobo5824b2o18b$6128b2o5844b$5609b3o750b3o5609b$5980bo5993b$5607bo5bo344b2o18b2o34b2o344bo5bo5607b$5607bo5bo344b2o19b2o33b2o344bo5bo5607b$5607bo5bo746bo5bo5607b$29bo11914bo29b$29bo595bo4983b3o750b3o5579bo29b$29bo3b2o589b2o1657b3o9653b2o3bo29b$32bo2bo588bobo1656bo9654bo2bo32b$25b3o4bo2bo2248bo9653bo2bo4b3o25b$33b2o5747b2o114b2o174b2o114b2o5747b2o33b$5782b2o114b2o174b2o114b2o5151bo630b$28b2o9653b3o1657b2o599b2o28b$27bo2bo9654bo1656bobo598bo2bo27b$28bobo9653bo2258bobo28b$29bo5936b2o38b2o5936bo29b$5966b2o38b2o5966b$11974b$11974b$11974b$11974b$11974b$11974b$5790b2o390b2o5790b$5790b2o390b2o5790b$11974b$11974b$22b2o11926b2o22b$18b2o2b2o11926b2o2b2o18b$18b2o11934b2o13b3o2b$11969bo2bob$5609b3o750b3o5604bo4b$11969bo3bo$5607bo5bo344b2o54b2o344bo5bo5602bo3bo$5607bo5bo344b2o54b2o344bo5bo5602bo4b$685bo4921bo5bo746bo5bo5603bobob$29bo654b2o1657b3o9598bo29b$29bo654bobo1656bo3265b3o750b3o5579bo29b$29bo3b2o2309bo9594b2o3bo29b$2b3o27bo2bo11902bo2bo21bo10b$bo2bo20b3o4bo2bo11247bo654bo2bo4b3o13b3o9b$4bo28b2o5747b2o114b2o174b2o114b2o3431b3o1657b2o654b2o20b2obo9b$o3bo5777b2o114b2o174b2o114b2o3433bo1656bobo676b3o10b$o3bo23b2o9594bo2319b2o15b3o10b$4bo22bo2bo11912bo2bo14b3o10b$bobo24bobo11912bobo16b2o10b$29bo11914bo29b$11974b$11974b$10bo11963b$9b3o11962b$9bob2o11961b$10b3o11961b$10b3o11961b$10b3o5777b2o390b2o5790b$10b2o5778b2o390b2o5790b$11974b$11974b$22b2o11926b2o22b$18b2o2b2o11926b2o2b2o18b$18b2o11934b2o18b$11974b$5609b3o750b3o5609b$11974b$745bo4861bo5bo344b2o54b2o344bo5bo5607b$744b2o1657b3o3201bo5bo344b2o54b2o344bo5bo5607b$744bobo1656bo3203bo5bo746bo5bo5607b$29bo2374bo9539bo29b$29bo5579b3o750b3o5579bo29b$29bo3b2o11188bo715b2o3bo29b$32bo2bo8862bo664b3o1657b2o713bo2bo32b$25b3o4bo2bo8863bo665bo1656bobo713bo2bo4b3o25b$33b2o5747b2o114b2o174b2o114b2o2705b3o664bo2374b2o33b$5782b2o114b2o174b2o114b2o5782b$28b2o11914b2o28b$27bo2bo3039bo8872bo2bo27b$28bobo3038bo8873bobo28b$29bo3039b3o8872bo29b$11974b$11974b$11974b$5792bo6181b$5793b2o6179b$5790b2ob2o6179b$5790b2obo6180b$5790bo2bo6180b$5791b2o6181b$11974b$11974b$22b2o11926b2o22b$18b2o2b2o11926b2o2b2o18b$18b2o11934b2o18b$11974b$805bo4803b3o750b3o5609b$804b2o1657b3o9508b$804bobo1656bo3143bo5bo344b2o54b2o344bo5bo5607b$2464bo3142bo5bo344b2o54b2o344bo5bo5607b$5607bo5bo746bo5bo5607b$29bo11133bo780bo29b$29bo5579b3o750b3o3138b3o1657b2o779bo29b$29bo3b2o9470bo1656bobo774b2o3bo29b$32bo2bo9468bo2433bo2bo32b$25b3o4bo2bo11902bo2bo4b3o25b$33b2o5747b2o114b2o174b2o114b2o5747b2o33b$5782b2o114b2o174b2o114b2o5782b$28b2o11914b2o28b$27bo2bo11912bo2bo27b$28bobo11912bobo28b$29bo11914bo29b$6188bo5785b$5782bo403b2o2b2o5782b$5781bobo407b2o5781b$5784bo403bo3bo3b2ob2o5773b$5784b2o8bo393b4o4bo2bo5774b$5774b4o6b2o388b3o4b2o3bo9bob2o5774b$5774bo3bo19b2o380b2ob2obo12bo5774b$5774b2o2bo10b2o7b3o374bo8bobo2bo7b2o5bo5769b$5776bo2bo2bob3o2b2o7b2o375bobobo4bo4bo7bo7b2o5767b$5777b3o2bob3o11bo375bo8bo20b2o5763b3o2b$5777b3o2bo391bo4b3o5787bo2bob$22b2o6149bo4bobo5769b2o17bo4b$18b2o2b2o6149bo3bo5772b2o2b2o13bo3bo$18b2o845bo5307b4o5777b2o13bo3bo$864b2o1657b3o9443bo4b$864bobo1656bo3085b3o750b3o5605bobob$2524bo3257b2o406b2o5782b$5607bo5bo168b2o174b2o54b2o174b2o168bo5bo5607b$5607bo5bo344b2o54b2o344bo5bo4736bo870b$2b3o5602bo5bo746bo5bo3076b3o1657b2o858bo10b$bo2bo24bo6173b3o3239bo1656bobo839bo17b3o9b$4bo24bo5579b3o593bo156b3o3079bo2499bo16b2obo9b$o3bo24bo3b2o6169bo5734b2o3bo16b3o10b$o3bo27bo2bo11902bo2bo19b3o10b$4bo20b3o4bo2bo11902bo2bo4b3o12b3o10b$bobo29b2o5738b3o122b2o174b2o5863b2o21b2o10b$5773bo124b2o174b2o5898b$28b2o5744bo24bo6144b2o28b$27bo2bo5766bobo6143bo2bo27b$10bo17bobo5759b2o6b2o382b2o5759bobo28b$9b3o17bo5760b2o390b2o5760bo29b$9bob2o11961b$10b3o6156bo5804b$10b3o6156bobo5802b$10b3o6156b2o5803b$10b2o11962b$11974b$11974b$11974b$11974b$11974b$11974b$22b2o901bo11024b2o22b$18b2o2b2o900b2o1657b3o9364b2o2b2o18b$18b2o904bobo1656bo9370b2o18b$2584bo9389b$5609b3o750b3o5609b$5782b2o406b2o4851bo930b$5607bo5bo168b2o174b2o54b2o174b2o168bo5bo3016b3o1657b2o929b$5607bo5bo344b2o54b2o127b3o214bo5bo3018bo1656bobo929b$5607bo5bo531bo214bo5bo3017bo2589b$29bo6114bo5799bo29b$29bo5579b3o750b3o2593bo2985bo29b$29bo3b2o8924bo2979b2o3bo29b$32bo2bo5797b3o3121b3o2978bo2bo32b$25b3o4bo2bo5797bo239b2o5863bo2bo4b3o25b$33b2o5799bo62b3o172b2obo5863b2o33b$3010bo2881b2o3bo2b2o171bobo5898b$28b2o2979bo2881bo3bob2o171bo5bo5867b2o28b$27bo2bo2978b3o2880bob4obo2bo166bo3bob2o5866bo2bo27b$28bobo5759b2o100bo4b3ob2o166bobob2o107b2o5759bobo28b$29bo5760b2o101bobobobob2o279b2o5760bo29b$5893bo3bobobo181bo5890b$5895b2o3bo182bo5890b$5882bo200bo5890b$5882bo6091b$5881b3o6090b$11974b$11974b$5881b3o6090b$5882bo19b2o166b2o5902b$985bo4896bo19bo2b2obo161b2o5902b$984b2o1657b3o3257bob3obo6064b$22b2o960bobo1656bo3262bo6043b2o22b$18b2o2b2o2620bo3258bo6bo6039b2o2b2o18b$18b2o5883bo2bobo6045b2o18b$5906bo5076bo990b$5609b3o293b2o455b3o2958b3o1657b2o989b$5782b2o114b2o174b2o7b3o104b2o3133bo1656bobo989b$5607bo5bo168b2o114b2o23bo34b2o54b2o58b2o9bo104b2o168bo5bo2957bo2649b$5607bo5bo310bo33b2o54b2o68bo275bo5bo5607b$5607bo5bo308b3o435bo5bo5607b$29bo11914bo29b$29bo5579b3o281b3o466b3o5579bo29b$29bo3b2o5858bo151bo5893b2o3bo29b$32bo2bo5858bo149bo5893bo2bo32b$25b3o4bo2bo5978b2o28b3o5891bo2bo4b3o25b$33b2o5978bo5925b2o33b$5959b3o51b3o5958b$28b2o5928bo3b2o34bo13b3o7b3o5919b2o28b$27bo2bo5926b4ob2o3b2o28bo2bo10bo10b3o5918bo2bo27b$28bobo5759b2o98b2o64b2o2b3o3bo2bo31bo6bob2o3bo4bo4bo56b2o98b2o5759bobo28b$29bo5760b2o98b2o65bobo6bo2bo26bo4bo5bo7bo4bo3b2o56b2o98b2o5760bo29b$5958b2o5b2ob2o30b2o5bo6bo9bo5949b$5966b2o40bo11bo2bo5950b$5997b3o10b3o3b2o3bo5952b$6016b2o5956b$6016bo5957b$11969b3o2b$11969bo2bob$1045bo10923bo4b$1044b2o1657b3o3252b2o54b2o5953bo3bo$1044bobo1656bo3254b2o54b2o5953bo3bo$2704bo9264bo4b$22b2o5844bo6081b2o18bobob$18b2o2b2o5842b2o5055bo1026b2o2b2o18b$18b2o5847b2o3394b3o1657b2o1029b2o18b$9265bo1656bobo1049b$2b3o5604b3o359bo390b3o2899bo2698bo10b$bo2bo5777b2o114b2o72bo101b2o34bo79b2o5770b3o9b$4bo5602bo5bo168b2o114b2o70b3o101b2o35b2o77b2o168bo5bo5594b2obo9b$o3bo5602bo5bo496b2o248bo5bo5594b3o10b$o3bo5602bo5bo746bo5bo5594b3o10b$4bo24bo5967bo5946bo16b3o10b$bobo25bo5579b3o354b2o28bo9b2o354b3o5579bo17b2o10b$29bo3b2o5931b2o28b3o7b2o5931b2o3bo29b$32bo2bo11902bo2bo32b$25b3o4bo2bo11902bo2bo4b3o25b$10bo22b2o5824bo6079b2o33b$9b3o5845bobo6114b$9bob2o15b2o5828b2o6084b2o28b$10b3o14bo2bo11912bo2bo27b$10b3o15bobo5759b2o98b2o190b2o98b2o5759bobo28b$10b3o16bo5760b2o98b2o190b2o25bo72b2o5760bo29b$10b2o6097bobo5862b$6109b2o5863b$11974b$11974b$11974b$1105bo10868b$1104b2o1657b3o9208b$1104bobo1656bo9210b$2764bo3193b2o54b2o5958b$5958b2o54b2o5958b$10863bo1110b$22b2o9179b3o1657b2o1085b2o22b$18b2o2b2o9181bo1656bobo1085b2o2b2o18b$18b2o9184bo2749b2o18b$11974b$5609b3o750b3o5609b$5782b2o114b2o174b2o114b2o5782b$5607bo5bo168b2o114b2o174b2o114b2o168bo5bo5607b$5607bo5bo746bo5bo5607b$5607bo5bo746bo5bo2651bo2955b$29bo8989bo2924bo29b$29bo5579b3o354b2o38b2o354b3o2652b3o2924bo29b$29bo3b2o5931b2o38b2o5931b2o3bo29b$32bo2bo11902bo2bo32b$25b3o4bo2bo2914bo8987bo2bo4b3o25b$33b2o2914bo8989b2o33b$2949b3o9022b$28b2o11914b2o28b$27bo2bo11912bo2bo27b$28bobo5759b2o98b2o190b2o98b2o5759bobo28b$29bo5760b2o98b2o190b2o98b2o5760bo29b$11974b$11974b$11974b$1165bo10808b$1164b2o1657b3o9148b$1164bobo1656bo9150b$2824bo9149b$11974b$5958b2o54b2o4787bo1170b$5958b2o54b2o3127b3o1657b2o1169b$9145bo1656bobo1169b$22b2o9120bo2805b2o22b$18b2o2b2o11926b2o2b2o18b$18b2o11934b2o18b$11974b$5609b3o750b3o5609b$5782b2o114b2o174b2o114b2o5782b$5607bo5bo168b2o114b2o174b2o114b2o168bo5bo5607b$5607bo5bo746bo5bo5607b$5607bo5bo746bo5bo5607b$29bo11914bo29b$29bo5579b3o750b3o5579bo29b$29bo3b2o11904b2o3bo29b$32bo2bo11902bo2bo32b$25b3o4bo2bo11902bo2bo4b3o25b$33b2o11904b2o33b$11974b$28b2o11914b2o28b$27bo2bo11912bo2bo27b$28bobo5759b2o390b2o5759bobo28b$29bo5760b2o390b2o5760bo29b$11974b$1225bo10743b3o2b$1224b2o1657b3o9083bo2bob$1224bobo1656bo9085bo4b$2884bo9084bo3bo$11969bo3bo$10743bo1225bo4b$9083b3o1657b2o1225bobob$5958b2o54b2o3069bo1656bobo1229b$5808bo149b2o54b2o3068bo2889b$5806b2o6166b$2b3o17b2o5783b2o6141b2o11bo10b$bo2bo13b2o2b2o11926b2o2b2o6b3o9b$4bo13b2o11934b2o5b2obo9b$o3bo6165bo5790b3o10b$o3bo5604b3o559b2o189b3o5596b3o10b$4bo5777b2o114b2o174b2o94b2o18b2o5769b3o10b$bobo5603bo5bo168b2o114b2o174b2o114b2o168bo5bo5595b2o10b$5607bo5bo746bo5bo5607b$5607bo5bo746bo5bo5607b$29bo11914bo29b$10bo18bo5579b3o750b3o5579bo29b$9b3o17bo3b2o11904b2o3bo29b$9bob2o19bo2bo11902bo2bo32b$10b3o12b3o4bo2bo11902bo2bo4b3o25b$10b3o20b2o11904b2o33b$10b3o11961b$10b2o16b2o11914b2o28b$27bo2bo11912bo2bo27b$28bobo5759b2o390b2o5759bobo28b$29bo1255bo4504b2o390b2o5760bo29b$1284b2o1657b3o9028b$1284bobo1656bo9030b$2944bo9029b$11974b$10683bo1290b$9023b3o1657b2o1289b$9025bo1656bobo1289b$9024bo2949b$5958b2o54b2o5958b$5958b2o54b2o5958b$11974b$22b2o11926b2o22b$18b2o2b2o11926b2o2b2o18b$18b2o11934b2o18b$11974b$5609b3o572b2o176b3o5609b$5785bo112b2o174b2o107b3o5788b$5607bo5bo172bo111b2o174b2o107b3o174bo5bo2711bo2895b$5607bo5bo168bobob2o395bo176bo5bo2712bo2894b$5607bo5bo167bobobo400b2o4b2o166bo5bo2710b3o2894b$29bo5750bo402b3obo4b2o5750bo29b$29bo5579b3o169bo401b4o175b3o5579bo29b$29bo3b2o2855bo2897b3o394b2o5752b2o3bo29b$32bo2bo2853bo2898bo2bo6146bo2bo32b$25b3o4bo2bo2853b3o2897b3o6146bo2bo4b3o25b$33b2o11904b2o33b$11974b$28b2o5756bo6157b2o28b$27bo2bo1314bo4836bo5760bo2bo27b$28bobo1313b2o1657b3o3175bobo5759bobo28b$29bo1314bobo1656bo2774b2o401bo12b2o5748bo29b$3004bo2773b2o402bo11b2o5778b$11974b$10623bo1350b$8963b3o1657b2o1349b$8965bo1656bobo1349b$8964bo3009b$11974b$5782b2o406b2o5782b$5782b2o174b2o54b2o174b2o5782b$5958b2o54b2o5958b$11974b$22b2o11926b2o22b$18b2o2b2o11926b2o2b2o18b$18b2o11934b2o18b$11974b$5609b3o750b3o5609b$5898b2o174b2o5898b$5607bo5bo284b2o174b2o284bo5bo5607b$5607bo5bo746bo5bo5607b$5607bo5bo746bo5bo5607b$29bo5760b2o390b2o5760bo29b$29bo5579b3o178b2o390b2o178b3o5579bo29b$29bo3b2o11904b2o3bo29b$32bo2bo5707bo6194bo2bo32b$25b3o4bo2bo5707bobo6192bo2bo4b3o25b$33b2o5708b2o6194b2o33b$1405bo10568b$28b2o1374b2o1657b3o8878b2o28b$27bo2bo1373bobo1656bo3171bo5707bo2bo22b3o2b$28bobo3033bo3168bobo5707bobo23bo2bob$29bo6204b2o5708bo24bo4b$6345b2o4216bo1405bo3bo$6344bobo2556b3o1657b2o1404bo3bo$6346bo2558bo1656bobo1404bo4b$8904bo3065bobob$11974b$5632b2o6340b$5632bobo6339b$2b3o5627bo149b2o406b2o5771bo10b$bo2bo5777b2o174b2o54b2o174b2o5770b3o9b$4bo5953b2o54b2o5945b2obo9b$o3bo11956b3o10b$o3bo17b2o11926b2o9b3o10b$4bo13b2o2b2o11926b2o2b2o5b3o10b$bobo14b2o11934b2o6b2o10b$11974b$11974b$5898b2o174b2o5898b$10bo5816bobo68b2o174b2o5898b$9b3o5816b2o6144b$9bob2o5815bo6145b$10b3o16bo5760b2o390b2o5760bo29b$10b3o16bo5760b2o390b2o5760bo29b$10b3o16bo3b2o6104bobo5797b2o3bo29b$10b2o20bo2bo6103b2o5797bo2bo32b$25b3o4bo2bo1429bo4674bo5797bo2bo4b3o25b$33b2o1429b2o1657b3o8813b2o33b$1464bobo1656bo8850b$28b2o3094bo8819b2o28b$27bo2bo11912bo2bo27b$28bobo6254b2o4216bo1439bobo28b$29bo6254bobo2556b3o1657b2o1439bo29b$6286bo2558bo1656bobo1469b$8844bo3129b$11974b$5692b2o6280b$5692bobo6279b$5692bo6281b$11974b$5782b2o406b2o5782b$5782b2o174b2o54b2o174b2o5782b$5958b2o54b2o5958b$11974b$22b2o11926b2o22b$18b2o2b2o11926b2o2b2o18b$18b2o11934b2o18b$11974b$9138bo2835b$5898b2o174b2o3063bo2834b$5898b2o174b2o3061b3o2834b$11974b$11974b$29bo2800bo2959b2o390b2o5760bo29b$29bo2799bo2960b2o390b2o5760bo29b$29bo3b2o1490bo1303b3o9107b2o3bo29b$32bo2bo1488b2o1657b3o8752bo2bo32b$25b3o4bo2bo1488bobo1656bo8754bo2bo4b3o25b$33b2o3149bo2889bo5864b2o33b$6072bob2o8bo5889b$28b2o6041b3o2bo7b3o138b2o4216bo1500b2o28b$27bo2bo6039b2ob5o2bo2bo3bo136bobo2556b3o1657b2o1498bo2bo27b$28bobo5864bo175bob2o5b3o4bo138bo2558bo1656bobo1498bobo28b$29bo5864b3o175b6o2b3obob2o2696bo3159bo29b$5893bo2bo176b4o3b2o3bo5888b$5752b2o138b3o2b2o6075b$5752bobo138bo2b3o6075b$5752bo141b2o2b2o6074b$5897b3o6074b$5894b4obo6074b$5894b2o2b2o6074b$5782b2o113b2o175b2o114b2o5782b$5782b2o174b2o54b2o58b2o114b2o5782b$5958b2o54b2o5958b$5890bo6083b$22b2o5865bo6060b2o22b$18b2o2b2o5865b3o6058b2o2b2o18b$18b2o11934b2o18b$11974b$6088bo5885b$6089bo5884b$6087b3o5884b$11974b$11974b$29bo1555bo4204b2o98b2o190b2o98b2o5760bo29b$29bo1554b2o1657b3o2437bo106b2o98b2o190b2o98b2o5760bo29b$29bo3b2o1549bobo1656bo2439bobo6253b2o3bo29b$32bo2bo3208bo2438b2o6253bo2bo32b$25b3o4bo2bo11902bo2bo4b3o20b3o2b$33b2o6130b2o4216bo1555b2o28bo2bob$6164bobo128bo2427b3o1657b2o1584bo4b$28b2o6136bo126bobo2429bo1656bobo1559b2o23bo3bo$27bo2bo6263b2o2428bo3218bo2bo22bo3bo$28bobo11912bobo23bo4b$29bo5782b2o6130bo25bobob$5812bobo6159b$5812bo6161b$11974b$2b3o11958bo10b$bo2bo11957b3o9b$4bo11956b2obo9b$o3bo11956b3o10b$o3bo5777b2o114b2o174b2o114b2o5769b3o10b$4bo5777b2o114b2o64b2o108b2o114b2o5769b3o10b$bobo5960bobo40b2o5953b2o10b$5963bo2bo39bobo5965b$22b2o5932b2o4b2o2b2o38b3o7b2o5932b2o22b$18b2o2b2o5932b2o4b2obo38b5o7b2o5932b2o2b2o18b$10bo7b2o5984b2o5948b2o18b$9b3o5955bo37b2obo4bo5960b$9bob2o5874bobo77bo39bo6b2o66b3o5889b$10b3o5875b2o117bo5b2o67bo2bo5888b$10b3o5875bo74bo116bo5bo5887b$10b3o1632bo4434bobo4bo5886b$10b2o1632b2o1657b3o2659b2o113b3o2bobo5886b$29bo1614bobo1656bo2486b2o98b2o74bo119bo95b2o5760bo29b$29bo3274bo2485b2o98b2o73b3o214b2o5760bo29b$29bo3b2o5919b2o62b2o5919b2o3bo29b$32bo2bo5918b2o62b2o85b2o4216bo1614bo2bo32b$25b3o4bo2bo6068bobo2556b3o1657b2o1613bo2bo4b3o25b$33b2o6071bo2558bo1656bobo1614b2o33b$8664bo3309b$28b2o11914b2o28b$27bo2bo5841b2o6069bo2bo27b$28bobo5841bobo6068bobo28b$29bo5842bo85b2o54b2o5928bo29b$5958b2o54b2o5958b$11974b$11974b$11974b$11974b$11974b$11974b$5782b2o114b2o174b2o114b2o5782b$5782b2o114b2o174b2o114b2o5782b$11974b$11974b$22b2o11926b2o22b$18b2o2b2o5942b2o38b2o5942b2o2b2o18b$18b2o5946b2o38b2o3190bo2755b2o18b$9199bo2774b$9197b3o2774b$1705bo10268b$1704b2o1657b3o8608b$1704bobo1063bo592bo8610b$2769bo594bo8609b$29bo2739b3o3018b2o390b2o5760bo29b$29bo5760b2o253b2o135b2o4079bo1680bo29b$29bo3b2o6009bobo2556b3o1657b2o1674b2o3bo29b$32bo2bo6010bo2558bo1656bobo1673bo2bo32b$25b3o4bo2bo8568bo3333bo2bo4b3o25b$33b2o11904b2o33b$5932b2o6040b$28b2o5902bobo6009b2o28b$27bo2bo5901bo6010bo2bo27b$28bobo11912bobo28b$29bo5928b2o54b2o5928bo29b$5958b2o54b2o5958b$11974b$11974b$11974b$11974b$11974b$11974b$5782b2o114b2o174b2o114b2o5782b$5782b2o46bo67b2o174b2o114b2o5782b$5829bo6144b$5829b3o6142b$22b2o11926b2o22b$18b2o2b2o11926b2o2b2o18b$18b2o6128bo5805b2o18b$1765bo4383bo5824b$1764b2o1657b3o2721b3o5824b$1764bobo1656bo8550b$3424bo8549b$11974b$5623bo361b2o4216bo1770b$29bo5593bobo164b2o192bobo195b2o2359b3o1657b2o1739bo24b3o2b$29bo5593b2o165b2o194bo195b2o2361bo1656bobo1739bo24bo2bob$29bo3b2o8509bo3394b2o3bo24bo4b$32bo2bo11902bo2bo27bo3bo$25b3o4bo2bo5956b2o361bo5582bo2bo4b3o20bo3bo$33b2o5957bobo358bobo5583b2o28bo4b$5992bo361b2o5614bobob$28b2o11914b2o28b$27bo2bo11912bo2bo27b$28bobo11912bobo28b$2b3o24bo5928b2o54b2o5928bo18bo10b$bo2bo5953b2o54b2o5946b3o9b$4bo11956b2obo9b$o3bo11956b3o10b$o3bo11956b3o10b$4bo11956b3o10b$bobo11958b2o10b$11974b$5782b2o114b2o174b2o114b2o5782b$5782b2o114b2o174b2o114b2o5782b$10bo11963b$9b3o11962b$9bob2o9b2o11926b2o22b$10b3o5b2o2b2o1801bo10124b2o2b2o18b$10b3o5b2o1804b2o1657b3o8468b2o18b$10b3o1811bobo1656bo8490b$10b2o3472bo8489b$11974b$5925b2o4216bo1830b$5924bobo2556b3o1657b2o1829b$5926bo2558bo1656bobo1829b$29bo5760b2o390b2o2300bo3459bo29b$29bo5760b2o390b2o5760bo29b$29bo3b2o6017b2o5885b2o3bo29b$32bo2bo6016bobo5883bo2bo32b$25b3o4bo2bo6016bo5885bo2bo4b3o25b$33b2o11904b2o33b$11974b$28b2o11914b2o28b$27bo2bo11912bo2bo27b$28bobo11912bobo28b$29bo5928b2o54b2o5928bo29b$5958b2o54b2o5958b$11974b$11974b$11974b$11974b$11974b$11974b$5782b2o114b2o174b2o114b2o5782b$5782b2o114b2o174b2o114b2o5782b$11974b$1885bo10088b$22b2o1860b2o1657b3o5712bo2691b2o22b$18b2o2b2o1860bobo1656bo5715bo2690b2o2b2o18b$18b2o3524bo5712b3o2694b2o18b$11974b$5865b2o4216bo1890b$2710bo3153bobo2556b3o1657b2o1889b$2709bo3156bo2558bo1656bobo1889b$2709b3o3074bo2637bo3549b$5785b3o6186b$29bo5754b2ob2o323b2o5830bo29b$29bo5758bo323bobo5829bo29b$29bo3b2o6077bo5826b2o3bo29b$32bo2bo5750bo6151bo2bo32b$25b3o4bo2bo5749b2o6151bo2bo4b3o25b$33b2o5749b2obo6151b2o33b$6186b2o5786b$28b2o6156b2o5756b2o28b$27bo2bo6157bo5754bo2bo27b$28bobo5752bo402b3o5754bobo28b$29bo5752b2o174b2o54b2o169bobo5756bo29b$5958b2o54b2o170b2o5786b$6185bo5788b$6185bo5788b$5791bobo389bo5790b$5792b2o6180b$5792bo6181b$11974b$5898b2o174b2o5898b$1945bo3952b2o174b2o5898b$1944b2o1657b3o8368b$1944bobo1656bo8370b$22b2o3580bo2185b2o390b2o5766b2o22b$18b2o2b2o5766b2o390b2o5766b2o2b2o18b$18b2o5785b2o4216bo1930b2o18b$5804bobo2556b3o1657b2o1949b$5806bo2558bo1656bobo1949b$8364bo3604b3o2b$5563bo6405bo2bob$5563bobo606b2o5795bo4b$5563b2o607bobo5794bo3bo$29bo6142bo5771bo24bo3bo$29bo11914bo24bo4b$29bo3b2o6380bo5523b2o3bo25bobob$32bo2bo6377bobo5522bo2bo32b$25b3o4bo2bo6378b2o5522bo2bo4b3o25b$33b2o11904b2o33b$2b3o11958bo10b$bo2bo23b2o11914b2o16b3o9b$4bo22bo2bo11912bo2bo14b2obo9b$o3bo23bobo5751b2o406b2o5751bobo15b3o10b$o3bo24bo5752b2o174b2o54b2o174b2o5752bo16b3o10b$4bo5953b2o54b2o5945b3o10b$bobo11958b2o10b$11974b$11974b$11974b$10bo11963b$9b3o1993bo9968b$9bob2o1991b2o1657b3o2232b2o174b2o5898b$10b3o1991bobo1656bo2234b2o174b2o5898b$10b3o3651bo8309b$10b3o11961b$10b2o10b2o5721b2o43b2o390b2o3779bo1986b2o22b$18b2o2b2o5720bobo43b2o390b2o2119b3o1657b2o1985b2o2b2o18b$18b2o5726bo2558bo1656bobo1989b2o18b$8304bo3669b$11974b$6232b2o5740b$6232bobo5739b$6232bo5741b$11974b$29bo11914bo29b$29bo11914bo29b$29bo3b2o11904b2o3bo29b$32bo2bo11902bo2bo32b$25b3o4bo2bo11902bo2bo4b3o25b$33b2o11904b2o33b$11974b$28b2o11914b2o28b$27bo2bo11912bo2bo27b$28bobo5751b2o406b2o5751bobo28b$29bo5752b2o174b2o54b2o174b2o5752bo29b$5958b2o54b2o5958b$11974b$11974b$11974b$2065bo9908b$2064b2o1657b3o8248b$2064bobo1656bo8250b$3724bo2173b2o174b2o5898b$5775b2o121b2o174b2o5898b$5774b2o3542bo584bo2070b$5776bo2466b3o1073bo583b2o2069b$22b2o5766b2o390b2o2061bo1071b3o582bobo2045b2o22b$18b2o2b2o5766b2o390b2o2060bo3705b2o2b2o18b$18b2o6172b2o5760b2o18b$2650bo3542b2o5779b$2649bo3542bo5781b$2649b3o9322b$11974b$11974b$11974b$29bo11914bo29b$29bo11914bo29b$29bo3b2o11904b2o3bo29b$32bo2bo11902bo2bo32b$25b3o4bo2bo11902bo2bo4b3o25b$33b2o11904b2o33b$11974b$28b2o6095bobo5816b2o28b$27bo2bo6094b2o5816bo2bo27b$28bobo5751b2o342bo63b2o5751bobo28b$29bo5752b2o174b2o54b2o174b2o5752bo29b$5958b2o54b2o5958b$5851bobo6120b$2125bo3726b2o6120b$2124b2o1657b3o2066bo6121b$2124bobo1656bo8190b$3784bo8189b$5835b2o6137b$5834b2o238b2o3767bo2130b$5836bo60bo176b2o2107b3o1657b2o2129b$5891b2o4b5o2283bo1656bobo2129b$5890bobo5b2o2284bo3789b$22b2o5766b2o281b2o57b2o48b2o5766b2o22b$18b2o2b2o5766b2o101b4ob2o2bo165b3o4bo57b2o47b2o5766b2o2b2o13b3o2b$18b2o5870bo2b4o3b2o165b2o4bobo3bo52bo5821b2o13bo2bob$5895bo170bo3bo2b2o3b3o5888bo4b$5503bo563b2o9bo2b2o5886bo3bo$5503bobo574b3o4bo5881bo3bo$5503b2o376bo2bo179b2o13bo5bobo3b3o5875bo4b$5880bo3bo178bo2bo12b4ob2obo5882bobob$5881bobo180bobo11bo5895b$29bo5852bo20b2o159b2o2bo9b2ob2o392bo5468bo29b$29bo5873b2o7b2o150b2o2b3o8bo2b2o389bobo5468bo29b$2b3o24bo3b2o5867bobo6bo158bo9b3o391b2o5463b2o3bo18bo10b$bo2bo27bo2bo5865bo2bo3bob2o156bobo10bo5856bo2bo20b3o9b$4bo20b3o4bo2bo5871b2o148bo10b2o5868bo2bo4b3o12b2obo9b$o3bo28b2o5870bo2b2o145b2o5882b2o20b3o10b$o3bo5898bobo150b2o5903b3o10b$4bo23b2o5874bo6039b2o15b3o10b$bobo23bo2bo11912bo2bo15b2o10b$28bobo5751b2o114b2o21bo152b2o114b2o5751bobo28b$29bo5752b2o114b2o22b2o34b2o54b2o58b2o114b2o5752bo29b$2185bo3735b2o35b2o54b2o5958b$10bo2173b2o1657b3o8128b$9b3o2172bobo1656bo8130b$9bob2o3831bo8129b$10b3o5882b2o6077b$10b3o5881b2o3887bo2190b$10b3o5883bo2226b3o1657b2o2189b$10b2o8113bo1656bobo2189b$5961b2o2161bo3849b$5960bo111b2o5900b$5959bo3b3o107b2o5899b$22b2o5766b2o98b2o67bo2b5o105bo9b2o98b2o5766b2o22b$18b2o2b2o5766b2o98b2o67b2o5b2o114b2o98b2o5766b2o2b2o18b$18b2o5945b2o5987b2o18b$5959b2o6013b$11974b$5962bo6011b$5959b3o48b3o5961b$6009bo2bo87bo5873b$6009b2o2bo84bobo5873b$29bo5982b2o85b2o5843bo29b$29bo5928b2o5984bo29b$29bo3b2o5923b2o49bo5929b2o3bo29b$32bo2bo5832bo138b2o5929bo2bo32b$25b3o4bo2bo5832bobo137b2o5928bo2bo4b3o25b$33b2o5833b2o6069b2o33b$11974b$28b2o5939bo5974b2o28b$27bo2bo5939b2o5971bo2bo27b$28bobo2214bo3536b2o114b2o69b2o103b2o114b2o5751bobo28b$29bo2214b2o1657b3o1876b2o114b2o174b2o114b2o5752bo29b$2244bobo1656bo8070b$3904bo8069b$11974b$5966b2o38b2o3715bo2250b$5966b2o38b2o2055b3o1657b2o2249b$8065bo1656bobo2249b$8064bo3909b$9378bo2595b$9379bo2594b$9377b3o2594b$11974b$22b2o5766b2o390b2o5766b2o22b$18b2o2b2o2566bo3199b2o390b2o5766b2o2b2o18b$18b2o2569bo9364b2o18b$2589b3o9382b$11974b$11974b$11974b$11974b$11974b$29bo11914bo29b$29bo5928b2o54b2o5928bo29b$29bo3b2o5923b2o54b2o5923b2o3bo29b$32bo2bo11902bo2bo32b$25b3o4bo2bo11902bo2bo4b3o25b$33b2o11904b2o33b$11974b$28b2o2275bo9638b2o28b$27bo2bo2273b2o1657b3o7977bo2bo27b$28bobo2273bobo1656bo1818b2o114b2o174b2o114b2o5751bobo28b$29bo3934bo1817b2o114b2o174b2o114b2o5752bo29b$11974b$9663bo2310b$8003b3o1657b2o2309b$5966b2o38b2o1997bo1656bobo2309b$5966b2o38b2o1996bo3969b$11974b$11974b$11974b$11969b3o2b$11969bo2bob$11969bo4b$22b2o5766b2o390b2o5766b2o17bo3bo$18b2o2b2o5766b2o390b2o5766b2o2b2o13bo3bo$18b2o5423bo6510b2o13bo4b$5443bobo6524bobob$5443b2o6529b$11974b$11974b$2b3o6530bo5427bo10b$bo2bo6528bobo5426b3o9b$4bo24bo6504b2o5408bo16b2obo9b$o3bo24bo5928b2o54b2o5928bo16b3o10b$o3bo24bo3b2o5923b2o54b2o5923b2o3bo16b3o10b$4bo27bo2bo11902bo2bo19b3o10b$bobo21b3o4bo2bo11902bo2bo4b3o13b2o10b$33b2o2330bo9573b2o33b$2364b2o1657b3o7948b$28b2o2334bobo1656bo7920b2o28b$10bo16bo2bo3993bo7918bo2bo27b$9b3o16bobo5751b2o114b2o174b2o114b2o5751bobo28b$9bob2o16bo5752b2o114b2o174b2o114b2o3411bo2340bo29b$10b3o7930b3o1657b2o2369b$10b3o7932bo1656bobo2369b$10b3o7931bo4029b$10b2o11962b$11974b$11974b$11974b$11974b$11974b$11974b$11974b$22b2o5766b2o390b2o5766b2o22b$18b2o2b2o5766b2o390b2o5766b2o2b2o18b$18b2o11934b2o18b$11974b$11974b$6160bo5813b$6158bobo5813b$6159b2o5813b$11974b$29bo11914bo29b$29bo5778bo149b2o54b2o5928bo29b$29bo3b2o5773bobo147b2o54b2o5923b2o3bo29b$32bo2bo2389bo3382b2o6128bo2bo32b$25b3o4bo2bo2388b2o1657b3o7852bo2bo4b3o25b$33b2o2389bobo1656bo7855b2o33b$4084bo7889b$28b2o11914b2o28b$27bo2bo9512bo2399bo2bo27b$28bobo5751b2o114b2o174b2o114b2o1691b3o1657b2o2398bobo28b$29bo5752b2o114b2o174b2o114b2o1693bo1656bobo2399bo29b$7884bo4089b$11974b$11974b$11974b$11974b$9438bo2535b$9439bo2534b$9437b3o2534b$11974b$11974b$2530bo9443b$22b2o2505bo3260b2o390b2o5766b2o22b$18b2o2b2o2505b3o3258b2o390b2o5766b2o2b2o18b$18b2o11934b2o18b$11974b$11974b$11974b$11974b$11974b$11974b$29bo11914bo29b$29bo2455bo3472b2o54b2o5928bo29b$29bo3b2o2449b2o1657b3o1812b2o54b2o5923b2o3bo29b$32bo2bo2448bobo1656bo7794bo2bo32b$25b3o4bo2bo4108bo7793bo2bo4b3o25b$33b2o11904b2o33b$9483bo2490b$28b2o7793b3o1657b2o2459b2o28b$27bo2bo5751b2o2041bo1656bobo2458bo2bo27b$28bobo5749bo117b2o174b2o1748bo4118bobo28b$29bo5748bo3bo115b2o174b2o5868bo29b$5778bobo2bo6190b$5782b2o6190b$5777b2o407bo5b3o5779b$5777bo7bo2bo396b2o5787b$5791bo390bo3b2o4b3o5774b3o2b$5782bo8bo390bo9b3o5774bo2bob$5778bobobo8bo390bo5786bo4b$5781b4o3bo6180bo3bo$5778bo3bo6186bo3bo$5779bobo6187bo4b$11970bobob$22b2o5359bo6566b2o22b$18b2o2b2o5359bobo392b2o414b2o5754b2o2b2o18b$18b2o5363b2o393b2o414b2o5758b2o18b$2b3o11958bo10b$bo2bo11957b3o9b$4bo6590bo5365b2obo9b$o3bo6588bobo5365b3o10b$o3bo6589b2o5365b3o10b$4bo2540bo9415b3o10b$bobo25bo2514b2o1657b3o1576b2o406b2o5752bo17b2o10b$29bo2514bobo1656bo1578b2o174b2o54b2o174b2o5752bo29b$29bo3b2o4169bo1753b2o54b2o5923b2o3bo29b$32bo2bo11902bo2bo32b$10bo14b3o4bo2bo9387bo2514bo2bo4b3o25b$9b3o21b2o7728b3o1657b2o2514b2o33b$9bob2o7752bo1656bobo2549b$10b3o15b2o7734bo4179b2o28b$10b3o14bo2bo11912bo2bo27b$10b3o15bobo5867b2o174b2o5867bobo28b$10b2o17bo5868b2o174b2o5868bo29b$11974b$11974b$5790b2o371bo18b2o5790b$5790b2o371b2o17b2o5790b$6162bobo5809b$11974b$11974b$5815bo6158b$5814b2o6158b$5814bobo6157b$11974b$22b2o11926b2o22b$18b2o2b2o11926b2o2b2o18b$18b2o11934b2o18b$11974b$11974b$11974b$2605bo9368b$2604b2o1657b3o7708b$2604bobo1656bo1553bo6156b$29bo4234bo1517b2o34b2o370b2o5752bo29b$29bo5752b2o33b2o139b2o54b2o174b2o5752bo29b$29bo3b2o5923b2o54b2o3347bo2575b2o3bo29b$32bo2bo7667b3o1657b2o2573bo2bo32b$25b3o4bo2bo6115bo1553bo1656bobo2573bo2bo4b3o25b$33b2o6114b2o1553bo4234b2o33b$6150b2o5822b$28b2o5863bo6050b2o28b$27bo2bo5862bo6049bo2bo27b$28bobo5861bo6050bobo28b$29bo5861b2o188b3o5860bo29b$5890bo3bo185bo2bo19bo5870b$5895bo4b2o170b2o9bo19b2o5869b$5790b2o98bo4bo4b2o170b2o28bobo77b2o5790b$5790b2o99b4o184bo102b2o3314bo2475b$5893bo186bo2bo3415bo2474b$5875bo198bo3422b3o2474b$5874b2o197bo5900b$5874bobo196b3o5898b$2470bo9503b$2469bo9504b$2469b3o9502b$22b2o5865b3o6058b2o22b$18b2o2b2o5865b2o11b2o166b2o5878b2o2b2o18b$18b2o5871bo10b2o166b2o5882b2o18b$11974b$2665bo9308b$2664b2o1657b3o7648b$2664bobo1656bo7650b$4324bo7649b$6016bo5957b$29bo5752b2o114b2o59b2o54b3o56b2o114b2o3111bo2640bo29b$29bo5752b2o114b2o57bob2o52b2o3bo55b2o114b2o1451b3o1657b2o2639bo29b$29bo3b2o5978b5o1627bo1656bobo2634b2o3bo29b$32bo2bo5919bo6bo3bo45bo1631bo4293bo2bo32b$25b3o4bo2bo5919bo3bo2b3obo46bo3b2o5919bo2bo4b3o25b$33b2o5920b2obo3bo50b2o2b2o5920b2o33b$5955bo2bo2bob3o49b2o5957b$28b2o5926bobobob3o41bo5937b2o28b$27bo2bo5925b2o3bo44bo5936bo2bo27b$28bobo5975bo36bo5899bobo28b$29bo5945bo67b2o5899bo29b$5974b3o65bobo5924b3o2b$11969bo2bob$5790b2o98b2o190b2o98b2o5785bo4b$5790b2o98b2o43bo38b3o105b2o98b2o5785bo3bo$5934b2o18b2o19bo42b2o5949bo3bo$5934bobo16bobo62b2o5949bo4b$5949bo3b2o6015bobob$5949b5o6020b$5949b2obo6021b$5323bo626b2o6022b$2b3o5318bobo624b3o6010bo10b$bo2bo17b2o5299b2o626b2o5997b2o10b3o9b$4bo13b2o2b2o5934b2o54b2o5934b2o2b2o5b2obo9b$o3bo13b2o2705bo3232b2o54b2o5938b2o5b3o10b$o3bo2719b2o1657b3o2269bo5305b3o10b$4bo2719bobo1656bo2269bobo5305b3o10b$bobo4380bo2269b2o5306b2o10b$11974b$9243bo2730b$7583b3o1657b2o2729b$10bo18bo5752b2o114b2o174b2o114b2o1393bo1656bobo2699bo29b$9b3o17bo5752b2o114b2o174b2o114b2o1392bo4359bo29b$9bob2o16bo3b2o11904b2o3bo29b$10b3o19bo2bo11902bo2bo32b$10b3o12b3o4bo2bo11902bo2bo4b3o25b$10b3o20b2o5931b2o38b2o5931b2o33b$10b2o5954b2o38b2o5966b$28b2o11914b2o28b$27bo2bo11912bo2bo27b$28bobo11912bobo28b$29bo11914bo29b$11974b$11974b$5790b2o98b2o190b2o98b2o5790b$5790b2o56bo41b2o190b2o98b2o5790b$5847bo6126b$5847b3o6124b$11974b$11974b$5989bobo138bo5843b$5990b2o139bo5842b$5990bo138b3o5842b$22b2o2761bo9164b2o22b$18b2o2b2o2760b2o1657b3o1512b2o54b2o5934b2o2b2o18b$18b2o2764bobo1656bo1514b2o17bobo34b2o5938b2o18b$4444bo1532b2o5995b$5978bo5995b$9183bo2790b$5877bo1645b3o1657b2o2789b$5878b2o1645bo1656bobo2789b$5877b2o1645bo4449b$29bo5752b2o114b2o174b2o114b2o5752bo29b$29bo5752b2o114b2o174b2o114b2o5752bo29b$29bo3b2o6056bo5847b2o3bo29b$32bo2bo6053b2o5847bo2bo32b$25b3o4bo2bo6054b2o5846bo2bo4b3o25b$33b2o5931b2o38b2o5931b2o33b$5966b2o38b2o5966b$28b2o11914b2o28b$27bo2bo11912bo2bo27b$28bobo11912bobo28b$29bo11914bo29b$11974b$9558bo2415b$5790b2o98b2o190b2o98b2o3375bo2414b$5790b2o98b2o190b2o98b2o3373b3o2414b$11974b$11974b$2410bo9563b$2409bo9564b$2409b3o9562b$2845bo9128b$2844b2o1657b3o7468b$22b2o2820bobo1656bo7446b2o22b$18b2o2b2o4480bo1453b2o54b2o5934b2o2b2o18b$18b2o5938b2o54b2o5938b2o18b$9123bo2850b$7463b3o1657b2o2849b$7465bo1656bobo2849b$7464bo4509b$11974b$11974b$29bo5752b2o114b2o174b2o114b2o5752bo29b$29bo5752b2o114b2o174b2o114b2o5752bo29b$29bo3b2o11904b2o3bo29b$32bo2bo11902bo2bo32b$25b3o4bo2bo11902bo2bo4b3o25b$33b2o11904b2o33b$11974b$28b2o11914b2o23b3o2b$27bo2bo11912bo2bo22bo2bob$28bobo11912bobo23bo4b$29bo11914bo24bo3bo$11969bo3bo$11969bo4b$5790b2o390b2o5786bobob$5790b2o390b2o5790b$11974b$11974b$2b3o11958bo10b$bo2bo2900bo2357bo6698b3o9b$4bo2899b2o1657b3o697bobo6695b2obo9b$o3bo2899bobo1656bo699b2o6696b3o10b$o3bo4559bo7396b3o10b$4bo17b2o11926b2o9b3o10b$bobo14b2o2b2o5934b2o54b2o699bo2347bo2886b2o2b2o6b2o10b$18b2o5938b2o54b2o697bobo687b3o1657b2o2889b2o18b$6714b2o689bo1656bobo2909b$7404bo4569b$10bo11963b$9b3o11962b$9bob2o11961b$10b3o11961b$10b3o16bo5752b2o114b2o174b2o114b2o5752bo29b$10b3o16bo5752b2o114b2o174b2o114b2o5752bo29b$10b2o17bo3b2o11904b2o3bo29b$32bo2bo11902bo2bo32b$25b3o4bo2bo11902bo2bo4b3o25b$33b2o11904b2o33b$11974b$28b2o11914b2o28b$27bo2bo5760bo6151bo2bo27b$28bobo5759b3o394bo5755bobo28b$29bo5759bo2b2o393b2o5755bo29b$5788b3o2b2o391b4o5784b$5789bo3b3o387b3o3b2o5783b$6183bo5bo5784b$5791bo391bo5790b$6184bo4bo5784b$2965bo3220bo2b2o5783b$2964b2o1657b3o1561bob2o5783b$2964bobo1656bo1162bo401b2o5784b$4624bo1160b3o6186b$5784bo2b2o6185b$5784bo3218bo2970b$22b2o5761bo404b2o1151b3o1657b2o2945b2o22b$18b2o2b2o5765bo168b2o54b2o174b2o1153bo1656bobo2945b2o2b2o18b$18b2o5767bobo168b2o54b2o1328bo4609b2o18b$5788b2o6184b$11974b$11974b$6179bo5794b$6179bobo5792b$6179b2o5793b$29bo5868b2o174b2o5868bo29b$29bo5868b2o174b2o5868bo29b$29bo3b2o11904b2o3bo29b$32bo2bo11902bo2bo32b$25b3o4bo2bo5754b2o390b2o5754bo2bo4b3o25b$33b2o5755b2o390b2o9b3o5743b2o33b$6195bo5778b$28b2o6164bo5749b2o28b$27bo2bo11912bo2bo27b$28bobo11912bobo28b$29bo5753b3o3832bo2325bo29b$5783bo3835bo2354b$5784bo3832b3o2354b$11974b$3025bo8948b$2350bo673b2o1657b3o7288b$2349bo674bobo1656bo7290b$2349b3o2332bo7289b$11974b$8943bo3030b$7283b3o1657b2o3029b$7285bo1656bobo3029b$22b2o5758b2o406b2o1092bo4665b2o22b$18b2o2b2o5758b2o174b2o54b2o174b2o5758b2o2b2o18b$18b2o5938b2o54b2o5938b2o18b$11974b$11974b$11974b$11974b$11974b$11974b$29bo5868b2o174b2o5868bo29b$29bo5868b2o174b2o5868bo29b$29bo3b2o11904b2o3bo29b$32bo2bo6035b3o59b3o5802bo2bo27b3o2b$25b3o4bo2bo5754b2o277b6o3b2o55bo46b2o5754bo2bo4b3o20bo2bob$33b2o5755b2o276bo2bobob2ob3o53bo47b2o5755b2o28bo4b$5895bo172bobobo2bobo3b2o5886bo3bo$28b2o5865bo2b3o168bo2b2ob2ob3o2bo5860b2o23bo3bo$27bo2bo5812b3o49bo2bobo171b2o3bo2b2o5861bo2bo22bo4b$28bobo5812bo52bo3bo3b5o156bo11b2o7b3o3bo5850bobo24bobob$29bo5814bo38bo11b5o3b2o159bo3bo8b2o8bo4bo5851bo29b$5883bo4b4obobob2o6b4o160bo7bo8bo5bo5881b$3085bo2796bobo3b2ob2ob2o11bo155bob2o9b2obo6bo5887b$2b3o3079b2o1657b3o1138bo3bo3bo12b2o6bo149b2ob3obo7bo4b2o5878bo10b$bo2bo3079bobo1656bo1138b3o6b3o11b2o7bo148bo6b3o8bo5880b3o9b$4bo4739bo1137b2o2b2o24b3o149bob2obo2bo8b3o5877b2obo9b$o3bo5198bo677b2o4b3o175bob2o3bo9bo5878b3o10b$o3bo5198bobo675b2o3bob2o177bo3bo10bo2800bo3077b3o10b$4bo5198b2o675b2ob3o169bo12bobo10bo1141b3o1657b2o3076b3o10b$bobo5877b4o169bo1170bo1656bobo3077b2o10b$5882b2o170b3o1167bo4749b$6775bo5198b$22b2o5758b2o114b2o174b2o114b2o581bobo5174b2o22b$10bo7b2o2b2o5758b2o114b2o58b2o54b2o58b2o114b2o582b2o5174b2o2b2o18b$9b3o6b2o5938b2o54b2o5938b2o18b$9bob2o11961b$10b3o11961b$10b3o11961b$10b3o11961b$10b2o11962b$11974b$29bo11914bo29b$29bo6043b3o5868bo29b$29bo3b2o6040bo5863b2o3bo29b$32bo2bo6038bo5863bo2bo32b$25b3o4bo2bo5754b2o98b2o190b2o98b2o5754bo2bo4b3o25b$33b2o5755b2o98b2o190b2o98b2o5755b2o33b$5903b3o6068b$28b2o5848bo24bo107bo5932b2o28b$27bo2bo5845b2o26bo105b3o5930bo2bo27b$28bobo5846b2o130bo2b2o5929bobo28b$29bo3115bo2863bob2o5931bo29b$3144b2o1657b3o1205b2ob2o5958b$3144bobo1656bo1161b3o40bo5bo85bo5873b$4804bo1159bo44bo4bo86b2o5871b$5964bo2bo42bo2bo86b2o5872b$5965b2o45bo2810bo3150b$5965b2o40bo1155b3o1657b2o3149b$5964bo2bo38bo1158bo1656bobo3149b$5967bo38b3o1155bo4809b$5964b2o6008b$11974b$5849bo6124b$22b2o5758b2o63bobo48b2o174b2o114b2o5758b2o22b$18b2o2b2o5758b2o64b2o48b2o174b2o114b2o5758b2o2b2o18b$18b2o11934b2o18b$11974b$5956b2o161bo5854b$5956b2o8b2o38b2o111bobo5852b$5966b2o38b2o111b2o5853b$11974b$5955bo6018b$29bo5924b3o5987bo29b$29bo5923bo3bo5986bo29b$29bo3b2o5917bo5986b2o3bo29b$32bo2bo5915b2ob2o3bo5978bo2bo32b$25b3o4bo2bo5754b2o98b2o62b2o126b2o98b2o5754bo2bo4b3o25b$33b2o5755b2o98b2o59bo6b2o122b2o98b2o5755b2o33b$5952b2o6020b$28b2o11914b2o28b$27bo2bo3174bo6472bo2264bo2bo27b$28bobo3173b2o1657b3o4813bo2263bobo28b$29bo3174bobo1656bo4813b3o2264bo29b$4864bo7109b$11974b$2290bo6472bo3210b$2289bo3668b2o54b2o1087b3o1657b2o3209b$2289b3o3666b2o54b2o1089bo1656bobo3209b$7104bo4869b$11974b$11974b$11974b$11974b$11974b$22b2o5758b2o114b2o174b2o114b2o5758b2o22b$18b2o2b2o5758b2o114b2o174b2o114b2o5758b2o2b2o18b$18b2o11934b2o18b$11974b$11974b$5966b2o38b2o5966b$5966b2o38b2o5966b$11974b$11969b3o2b$29bo11914bo24bo2bob$29bo11914bo24bo4b$29bo3b2o11904b2o3bo24bo3bo$32bo2bo11902bo2bo27bo3bo$25b3o4bo2bo5754b2o98b2o190b2o98b2o5754bo2bo4b3o20bo4b$33b2o5755b2o98b2o190b2o98b2o5755b2o29bobob$3265bo8708b$28b2o3234b2o1657b3o7018b2o28b$27bo2bo3233bobo1656bo7019bo2bo27b$2b3o23bobo4893bo7018bobo17bo10b$bo2bo24bo11914bo17b3o9b$4bo8698bo3257b2obo9b$o3bo7038b3o1657b2o3256b3o10b$o3bo7040bo1656bobo3256b3o10b$4bo5138bo814b2o54b2o1028bo4916b3o10b$bobo5139bobo812b2o54b2o5946b2o10b$5143b2o6829b$11974b$11974b$10bo6824bo5138b$9b3o6821bobo5138b$9bob2o6821b2o5138b$10b3o9b2o5758b2o114b2o174b2o114b2o5758b2o22b$10b3o5b2o2b2o5758b2o114b2o174b2o114b2o5758b2o2b2o18b$10b3o5b2o11934b2o18b$10b2o11962b$11974b$11974b$11974b$11974b$11974b$29bo11914bo29b$29bo11914bo29b$29bo3b2o11904b2o3bo29b$32bo2bo11902bo2bo32b$25b3o4bo2bo3289bo2464b2o390b2o5754bo2bo4b3o25b$33b2o3289b2o1657b3o804b2o26bo363b2o5755b2o33b$3324bobo1656bo832b2o6156b$28b2o4954bo832b2o6125b2o28b$27bo2bo11912bo2bo27b$28bobo8612bo3299bobo28b$29bo6130bo822b3o1657b2o3299bo29b$6161b2o822bo1656bobo3329b$6160b2o822bo4989b$11974b$5958b2o54b2o5958b$5958b2o54b2o5958b$11974b$11974b$11974b$11974b$11974b$11974b$22b2o5758b2o114b2o174b2o114b2o5758b2o22b$18b2o2b2o5758b2o114b2o174b2o114b2o5758b2o2b2o18b$18b2o11934b2o18b$11974b$11974b$11974b$11974b$11974b$11974b$29bo11914bo29b$29bo11914bo29b$29bo3b2o3350bo8553b2o3bo29b$32bo2bo3348b2o1657b3o6892bo2bo32b$25b3o4bo2bo3348bobo1656bo746b2o390b2o5754bo2bo4b3o25b$33b2o5009bo745b2o390b2o5755b2o33b$9738bo2235b$28b2o8553bo1155bo2204b2o28b$27bo2bo6892b3o1657b2o1152b3o2203bo2bo27b$28bobo6894bo1656bobo3358bobo28b$29bo6894bo5019bo29b$2230bo9743b$2229bo9744b$2229b3o9742b$5958b2o54b2o5958b$5958b2o54b2o5958b$11974b$11974b$11974b$11974b$5781bo6192b$5780b3o6191b$22b2o5755bo3b2o113b2o174b2o5874b2o22b$18b2o2b2o5756b5o113b2o174b2o5874b2o2b2o18b$18b2o5765bo6168b2o18b$5779b2o3bo400b2o5787b$5779b2o2b2o399b3o5782b3o2b$5781b2o400bo2b2o5781bo2bob$5791bo394b3o5780bo4b$5791bo393b3o4b3o5774bo3bo$5791bo394bo5782bo3bo$29bo3415bo8498bo24bo4b$29bo3414b2o1657b3o6838bo25bobob$29bo3b2o3409bobo1656bo6835b2o3bo29b$32bo2bo5068bo6833bo2bo32b$25b3o4bo2bo11902bo2bo4b3o25b$2b3o28b2o5743b2o414b2o2327bo3415b2o22bo10b$bo2bo5773b2o414b2o667b3o1657b2o3437b3o9b$4bo23b2o6835bo1656bobo3419b2o15b2obo9b$o3bo22bo2bo6833bo5078bo2bo14b3o10b$o3bo23bobo11912bobo15b3o10b$4bo24bo11914bo16b3o10b$bobo11958b2o10b$5083bo6890b$5083bobo696b2o406b2o5782b$5083b2o697b2o174b2o54b2o174b2o5782b$10bo5947b2o54b2o5958b$9b3o11962b$9bob2o6882bo5078b$10b3o6880bobo5078b$10b3o6881b2o5078b$10b3o11961b$10b2o11962b$22b2o5874b2o174b2o5874b2o22b$18b2o2b2o5874b2o174b2o5874b2o2b2o18b$18b2o11934b2o18b$6164b2o5808b$5790b2o373b2o15b2o5790b$5790b2o372bo17b2o5790b$11974b$3505bo8468b$3504b2o1657b3o647b2o6159b$29bo3474bobo1656bo648b2o6130bo29b$29bo5134bo649bo6129bo29b$29bo3b2o11904b2o3bo29b$32bo2bo8427bo3474bo2bo32b$25b3o4bo2bo6767b3o1657b2o3473bo2bo4b3o25b$33b2o6770bo1656bobo3474b2o33b$6804bo5169b$28b2o11914b2o28b$27bo2bo11912bo2bo27b$28bobo11912bobo28b$29bo11914bo29b$11974b$11974b$5782b2o406b2o5782b$5782b2o34bobo137b2o54b2o174b2o5782b$5819b2o137b2o54b2o5958b$5819bo6154b$11974b$11974b$6148bobo5823b$6081b3o64b2o5824b$6081bo2bo64bo5824b$22b2o5868b3o185bo3bo5865b2o22b$18b2o2b2o6056bobob2o18b2o5844b2o2b2o18b$18b2o6061b2ob2o19b2o5847b2o18b$5890b2o8b2o170b2o8b3o19bo5869b$5790b2o98b3o3bo3b2o170b2o108b2o5790b$3565bo2224b2o98b2o2bobo285b2o5790b$3564b2o1657b3o647b2o20b2o6077b$3564bobo1656bo648b2o6100b$5224bo649bo6099b$29bo6042bo5871bo29b$29bo6042bobo2328bo3540bo29b$29bo3b2o6037b2o669b3o1657b2o3534b2o3bo29b$32bo2bo6709bo1656bobo3533bo2bo32b$25b3o4bo2bo6708bo3053bo2139bo2bo4b3o25b$33b2o5867b2o166b2o3727bo2139b2o33b$5902b2o166b2o3725b3o2174b$28b2o11914b2o28b$27bo2bo11912bo2bo27b$28bobo2139bo9772bobo28b$29bo2139bo9774bo29b$2169b3o3844b3o5955b$6013bo2bobo5955b$5782b2o114b2o58b2o52b2obo58b2o114b2o5782b$5782b2o114b2o60bo50b2o4bobo54b2o114b2o5782b$5960bo50b2o2b3ob2o5953b$6010b2o2bo3b3o5953b$5956b2ob2o49b2obob2o2bo5954b$5955b2ob2o52bo5bo5955b$5955bo2bo3bo51b2o5958b$5955bob3o2b2o42bo8b3o5956b$5954b2o4bo2b2o41bo8b3o26b2o5928b$22b2o5931b3obob3o42bo38b2o5903b2o17b3o2b$18b2o2b2o5932b2ob4o81bo5905b2o2b2o13bo2bob$18b2o5938b2o5994b2o13bo4b$3625bo8343bo3bo$3624b2o1657b3o504b2o98b2o41b2o147b2o98b2o5785bo3bo$3624bobo1656bo506b2o98b2o40b2o148b2o98b2o5785bo4b$5284bo649bo19b2o62b2o5950bobob$5954b2o62b2o5954b$8343bo3630b$29bo6653b3o1657b2o3599bo29b$2b3o24bo6655bo1656bobo3599bo18bo10b$bo2bo24bo3b2o6649bo5254b2o3bo17b3o9b$4bo27bo2bo11902bo2bo19b2obo9b$o3bo20b3o4bo2bo11902bo2bo4b3o12b3o10b$o3bo28b2o5923b2o54b2o5923b2o20b3o10b$4bo5953b2o54b2o5945b3o10b$bobo24b2o11914b2o16b2o10b$27bo2bo11912bo2bo27b$28bobo11912bobo28b$29bo4993bo6920bo29b$10bo5012bobo6948b$9b3o5011b2o6949b$9bob2o5769b2o114b2o174b2o114b2o5782b$10b3o5769b2o114b2o174b2o114b2o5782b$10b3o6942bo5018b$10b3o6940bobo5018b$10b2o6942b2o5018b$5966b2o38b2o5966b$5966b2o38b2o5966b$11974b$11974b$22b2o11926b2o22b$18b2o2b2o3661bo8264b2o2b2o18b$18b2o3664b2o1657b3o6608b2o18b$3684bobo1656bo6630b$5344bo445b2o98b2o190b2o98b2o5790b$5790b2o98b2o190b2o98b2o5790b$8283bo3690b$5846bo776b3o1657b2o3689b$5846bobo776bo1656bobo3689b$29bo5816b2o776bo5319bo29b$29bo11914bo29b$29bo3b2o5956bo5947b2o3bo29b$32bo2bo5956b2o138bo5805bo2bo32b$25b3o4bo2bo5955b2o137bobo5805bo2bo4b3o25b$33b2o5923b2o54b2o115b2o5806b2o33b$5958b2o54b2o5958b$28b2o5947bo5966b2o28b$27bo2bo5944b2o5966bo2bo27b$28bobo5945b2o5965bobo28b$29bo11914bo29b$11974b$5878bobo6093b$5782b2o95b2o17b2o174b2o114b2o5782b$5782b2o95bo18b2o174b2o114b2o5782b$11974b$11974b$6088bobo5883b$5966b2o38b2o80b2o5884b$5966b2o38b2o81bo5884b$11974b$3745bo8228b$22b2o3720b2o1657b3o6544b2o22b$18b2o2b2o3720bobo1656bo6546b2o2b2o18b$18b2o5384bo6549b2o18b$11974b$5790b2o98b2o190b2o98b2o2039bo3750b$5790b2o98b2o190b2o98b2o379b3o1657b2o3749b$6565bo1656bobo3749b$6564bo5409b$11974b$29bo11914bo29b$29bo11914bo29b$29bo3b2o9823bo2080b2o3bo29b$32bo2bo9823bo2078bo2bo32b$25b3o4bo2bo9821b3o2078bo2bo4b3o25b$33b2o5923b2o54b2o5923b2o33b$5958b2o54b2o5958b$28b2o2080bo9833b2o28b$27bo2bo2078bo9833bo2bo27b$28bobo2078b3o9831bobo28b$29bo11914bo29b$11974b$11974b$5782b2o114b2o174b2o114b2o5782b$5782b2o114b2o174b2o114b2o5782b$11974b$11974b$11974b$11969b3o2b$3805bo8163bo2bob$3804b2o1657b3o6503bo4b$3804bobo1656bo6505bo3bo$22b2o5440bo6485b2o17bo3bo$18b2o2b2o11926b2o2b2o13bo4b$18b2o8143bo3790b2o14bobob$6503b3o1657b2o3809b$5790b2o390b2o321bo1656bobo3809b$5790b2o390b2o320bo5469b$2b3o11958bo10b$bo2bo11957b3o9b$4bo11956b2obo9b$o3bo24bo11914bo16b3o10b$o3bo24bo11914bo16b3o10b$4bo24bo3b2o11904b2o3bo16b3o10b$bobo28bo2bo11902bo2bo20b2o10b$25b3o4bo2bo11902bo2bo4b3o25b$33b2o5923b2o54b2o5923b2o33b$5958b2o54b2o5958b$10bo17b2o11914b2o28b$9b3o15bo2bo4932bo6979bo2bo27b$9bob2o15bobo4932bobo6977bobo28b$10b3o16bo4933b2o6979bo29b$10b3o11961b$10b3o11961b$10b2o5770b2o114b2o174b2o114b2o823bo4958b$5782b2o114b2o174b2o114b2o821bobo4958b$7014b2o4958b$11974b$3865bo8108b$3864b2o1657b3o265bo6182b$3864bobo1656bo266bobo6181b$5524bo268bo6180b$5788bo3bo6181b$22b2o5763bo4bo395b3o1912bo3846b2o22b$18b2o2b2o5762bo399b2o3bo251b3o1657b2o3845b2o2b2o18b$18b2o6161b2o3b2ob4o252bo1656bobo3849b2o18b$5791bo388bo2bo3b3o2b2o250bo5529b$5788bo391bo2bo6bobo5781b$6180b2ob2o5b2o5782b$5786bo395b2o5790b$5785b3o6186b$5784b2o2bo6185b$29bo5755b2obo6155bo29b$29bo5752b2ob2o6157bo29b$29bo3b2o5748bo5bo6149b2o3bo29b$32bo2bo5747bo4bo6149bo2bo32b$25b3o4bo2bo5748bo2bo402b2o5746bo2bo4b3o25b$33b2o5750bo172b2o54b2o174b2o5747b2o33b$5790bo167b2o54b2o5958b$28b2o5761bo6152b2o28b$27bo2bo5758b3o6151bo2bo27b$28bobo11912bobo28b$29bo11914bo29b$6178bo5795b$6177bo5796b$5898b2o174b2o101b3o5794b$5898b2o174b2o5898b$3925bo8048b$3924b2o1657b3o609b2o5777b$3924bobo1656bo206b2o390b2o10bobo5777b$5584bo205b2o390b2o12bo5777b$11974b$8043bo3930b$5782b2o599b3o1657b2o3929b$22b2o5758bobo600bo1656bobo3905b2o22b$18b2o2b2o5758bo601bo5565b2o2b2o18b$18b2o11934b2o18b$11974b$11974b$11974b$11974b$11974b$11974b$29bo9888bo2025bo29b$29bo9889bo2024bo29b$29bo3b2o9882b3o2019b2o3bo29b$32bo2bo11902bo2bo32b$25b3o4bo2bo5746b2o406b2o5746bo2bo4b3o25b$33b2o2015bo3731b2o174b2o54b2o174b2o5747b2o33b$2049bo3908b2o54b2o5958b$28b2o2019b3o9892b2o28b$27bo2bo11912bo2bo27b$28bobo11912bobo28b$29bo11914bo29b$11974b$11974b$3985bo1912b2o6074b$3984b2o1657b3o252b2o235b2o5832b3o2b$3984bobo1656bo430b3o3bo53bobo5832bo2bob$5644bo429bo2b4o55bo5832bo4b$5790b2o283bo2b3o101b2o5785bo3bo$5790b2o282b3o105b2o1799bo3985bo3bo$5842b2o55b2o182b2o238b3o1657b2o3984bo4b$5842bobo53bobo6b2o170b10o236bo1656bobo3985bobob$5842bo55bobo3b2o2bo173bo3b4o234bo5649b$22b2o5869b2o4b2ob2obo173bo2bo2bo4b3o5857b2o22b$18b2o2b2o5858b4o6b2obobob2o179bo8b4o5857b2o2b2o18b$2b3o13b2o5861bo3b2ob3ob2o5bo2bobob2o2bo155bo18b4o3bo5861b2o7bo10b$bo2bo5876b2o3bo6bo4bo5b3o2bo151bo4b2o6b2o10b3o5873b3o9b$4bo5879b2o7bo2bo7bob3o152bobo3b2o8bo5883b2obo9b$o3bo5888bobo8bo156bobo2b2obo7bo5883b3o10b$o3bo5878b3o8bo9b3o8bo151b4obo5888b3o10b$4bo5880b2o26bobo147b2o8b3o5885b3o10b$bobo5910b2o153b4o5889b2o10b$29bo6040b2o5872bo29b$29bo6041bo5872bo29b$29bo3b2o6018bo5885b2o3bo29b$10bo21bo2bo6017bobo5882bo2bo32b$9b3o13b3o4bo2bo5746b2o114b2o153b2o19b2o114b2o5746bo2bo4b3o25b$9bob2o20b2o5747b2o114b2o58b2o54b2o58b2o114b2o5747b2o33b$10b3o4890bo1054b2o54b2o5958b$10b3o15b2o4873bobo7038b2o28b$10b3o14bo2bo4872b2o7038bo2bo27b$10b2o16bobo11912bobo28b$29bo11914bo29b$4045bo3029bo4898b$4044b2o1657b3o369b2o996bobo4898b$4044bobo1656bo370bobo997b2o4898b$5704bo371bo5897b$11974b$7923bo4050b$5790b2o98b2o10b2o107bo70b2o98b2o79b3o1657b2o4049b$5790b2o98b2o10bobo105bobo69b2o98b2o81bo1656bobo4049b$5902bo106b2ob2o250bo5709b$6010bob2o5960b$6007b2o2b3o5960b$22b2o5851bobo134bo5937b2o22b$18b2o2b2o5851b2o134bo5938b2o2b2o18b$18b2o5856bo133b2o5942b2o18b$5963b2o2bo47b2o5957b$5962b2o51b2o5957b$5963b2o49b2o85bobo5870b$6014bo87b2o5870b$5963b2o2b2o133bo5871b$5962bo6011b$29bo5935b4o36bo5938bo29b$29bo5933bo2bo38bobo5936bo29b$29bo3b2o5970b2o5932b2o3bo29b$32bo2bo11902bo2bo32b$25b3o4bo2bo5746b2o66bo47b2o174b2o114b2o5746bo2bo4b3o25b$33b2o5747b2o67bo46b2o174b2o114b2o5747b2o33b$5849b3o6122b$28b2o11914b2o28b$27bo2bo11912bo2bo27b$28bobo4074bo1848b3o9b2o38b2o110bo5824bobo28b$29bo4074b2o1657b3o200b2o38b2o109bo5826bo29b$4104bobo1656bo190b3o160b3o5854b$5764bo190b2o6017b$11974b$7863bo4110b$6203b3o1657b2o4109b$6205bo1656bobo4109b$5790b2o98b2o190b2o98b2o20bo5769b$5790b2o98b2o190b2o98b2o5790b$11974b$11974b$11974b$22b2o11926b2o22b$18b2o2b2o11926b2o2b2o18b$18b2o11934b2o18b$11974b$11974b$5958b2o54b2o5958b$5958b2o54b2o5958b$9978bo1995b$9979bo1994b$29bo9947b3o1964bo29b$29bo11914bo29b$29bo3b2o11904b2o3bo29b$32bo2bo1954bo9947bo2bo32b$25b3o4bo2bo1953bo3792b2o114b2o174b2o114b2o5746bo2bo4b3o25b$33b2o1954b3o3790b2o114b2o174b2o114b2o5747b2o33b$11974b$28b2o4135bo7778b2o28b$27bo2bo4133b2o1657b3o6117bo2bo27b$28bobo4133bobo1656bo142b2o38b2o5935bobo28b$29bo5794bo141b2o38b2o5936bo24b3o2b$11969bo2bob$7803bo4165bo4b$6143b3o1657b2o4164bo3bo$6145bo1656bobo4164bo3bo$6144bo5824bo4b$11970bobob$5790b2o98b2o190b2o98b2o5790b$5790b2o98b2o190b2o98b2o5790b$11974b$2b3o11958bo10b$bo2bo11957b3o9b$4bo17b2o11926b2o9b2obo9b$o3bo13b2o2b2o11926b2o2b2o5b3o10b$o3bo13b2o11934b2o5b3o10b$4bo11956b3o10b$bobo11958b2o10b$5958b2o54b2o5958b$5958b2o54b2o5958b$11974b$10bo11963b$9b3o17bo11914bo29b$9bob2o16bo11914bo29b$10b3o16bo3b2o11904b2o3bo29b$10b3o19bo2bo11902bo2bo32b$10b3o12b3o4bo2bo4807bo938b2o114b2o174b2o114b2o5746bo2bo4b3o25b$10b2o21b2o4190bo617bobo936b2o114b2o174b2o114b2o5747b2o33b$4224b2o617b2o1038b3o6088b$28b2o4194bobo1656bo6060b2o28b$27bo2bo5853bo6058bo2bo27b$28bobo7104bo4807bobo28b$29bo7103bobo607bo4200bo29b$6083b3o1048b2o607b2o4229b$6085bo1656bobo4229b$6084bo5889b$11974b$11974b$11974b$5790b2o390b2o5790b$5790b2o390b2o5790b$11974b$5815bobo6156b$5815b2o6157b$22b2o5792bo6133b2o22b$18b2o2b2o11926b2o2b2o18b$18b2o11934b2o18b$6161bobo5810b$6162b2o5810b$5958b2o54b2o146bo5811b$5958b2o54b2o5958b$11974b$11974b$29bo11914bo29b$29bo11914bo29b$29bo3b2o11904b2o3bo29b$32bo2bo4249bo7652bo2bo32b$25b3o4bo2bo4248b2o1496b2o114b2o43b3o128b2o114b2o5746bo2bo4b3o25b$33b2o4249bobo1495b2o114b2o43bo130b2o114b2o5747b2o33b$5944bo6029b$28b2o11914b2o28b$27bo2bo7652bo4259bo2bo27b$28bobo5992b3o1657b2o4258bobo28b$29bo5995bo1656bobo4259bo29b$6024bo5949b$11974b$11974b$11974b$11974b$11974b$5790b2o390b2o5790b$5790b2o390b2o5790b$11974b$11974b$11974b$22b2o11926b2o22b$18b2o2b2o11926b2o2b2o18b$18b2o11934b2o18b$11974b$11974b$5958b2o54b2o4022bo1935b$5958b2o54b2o4023bo1934b$10037b3o1934b$11974b$29bo11914bo29b$29bo1900bo2414bo7598bo29b$29bo3b2o1894bo2414b2o1657b3o5933b2o3bo29b$32bo2bo1893b3o2412bobo1656bo5934bo2bo32b$25b3o4bo2bo5746b2o114b2o104bo69b2o114b2o5746bo2bo4b3o25b$33b2o5747b2o114b2o174b2o114b2o5747b2o33b$7623bo4345b3o2b$28b2o5933b3o1657b2o4319b2o23bo2bob$27bo2bo5934bo1656bobo4318bo2bo22bo4b$28bobo5933bo5978bobo23bo3bo$29bo11914bo24bo3bo$11969bo4b$11970bobob$11974b$11974b$11974b$2b3o11958bo10b$bo2bo11957b3o9b$4bo11956b2obo9b$o3bo11956b3o10b$o3bo11956b3o10b$4bo11956b3o10b$bobo18b2o11926b2o10b2o10b$18b2o2b2o11926b2o2b2o18b$18b2o11934b2o18b$11974b$10bo11963b$9b3o5946b2o54b2o5958b$9bob2o5945b2o54b2o5958b$10b3o11961b$10b3o4392bo7568b$10b3o16bo4374b2o1657b3o5878bo29b$10b2o17bo4374bobo1656bo5880bo29b$29bo3b2o4748bo1280bo5874b2o3bo29b$32bo2bo4747bobo7152bo2bo32b$25b3o4bo2bo4747b2o997b2o114b2o174b2o114b2o1371bo4374bo2bo4b3o25b$33b2o5747b2o114b2o3b3o168b2o114b2o1371b2o4374b2o33b$5905bo1656bobo4409b$28b2o5874bo1290bo4748b2o28b$27bo2bo7162bobo4747bo2bo27b$28bobo7163b2o4747bobo28b$29bo11914bo29b$11974b$11974b$11974b$11974b$11974b$11974b$11974b$11974b$11974b$11974b$11974b$22b2o11926b2o22b$18b2o2b2o11926b2o2b2o18b$18b2o11934b2o18b$11974b$11974b$5958b2o54b2o5958b$4465bo1492b2o54b2o5958b$4464b2o1657b3o5848b$4464bobo1656bo5850b$29bo6094bo5819bo29b$29bo11914bo29b$29bo3b2o7468bo4435b2o3bo29b$32bo2bo5807b3o339bo1317b2o4433bo2bo32b$25b3o4bo2bo5809bo52b2o174b2o109bo1316bobo4433bo2bo4b3o25b$33b2o5752b2o55bo53b2o174b2o107bo5755b2o33b$5788b2o393b2o5789b$28b2o5750b2o4bobo393bob2o6b2o5750b2o28b$27bo2bo5749b2o4b2o393b2ob2o6b2o5749bo2bo27b$28bobo5756bo394b3o3bo5754bobo28b$29bo5758b2o2bo390bo5b2o5753bo29b$5786bob2obo396b2o5784b$5785bo3b2obo6181b$5786bo2b2o6183b$11974b$5788bo3bo6181b$5789b3o6182b$11974b$5778b2o414b2o5778b$5778b2o414b2o5778b$11974b$11974b$22b2o11926b2o22b$18b2o2b2o11926b2o2b2o18b$18b2o11934b2o18b$10098bo1875b$4525bo1256b2o406b2o3907bo1874b$4524b2o1256b2o174b2o54b2o167b3o4b2o3905b3o1874b$4524bobo1431b2o54b2o167bo5790b$6184bo5789b$1870bo10103b$29bo1839bo5573bo4500bo29b$29bo1839b3o3911b3o1657b2o4499bo29b$29bo3b2o5750bo1656bobo4494b2o3bo24b3o2b$32bo2bo5748bo6153bo2bo27bo2bob$25b3o4bo2bo5862b2o174b2o5862bo2bo4b3o20bo4b$33b2o5863b2o174b2o5863b2o28bo3bo$11969bo3bo$28b2o11914b2o23bo4b$27bo2bo5759b2o390b2o5759bo2bo23bobob$28bobo5759b2o390b2o5759bobo28b$29bo11914bo29b$11974b$2b3o11958bo10b$bo2bo5736bo6220b3o9b$4bo5735bo6220b2obo9b$o3bo5735b3o6218b3o10b$o3bo11956b3o10b$4bo11956b3o10b$bobo6233bo5724b2o10b$6238bo5735b$6236b3o5735b$11974b$10bo11b2o11926b2o22b$9b3o6b2o2b2o6217bo5708b2o2b2o18b$9bob2o5b2o4565bo1655b2o5711b2o18b$10b3o4571b2o1654bobo5731b$10b3o4571bobo1195b2o406b2o5782b$10b3o5769b2o174b2o54b2o174b2o5782b$10b2o5725bo220b2o54b2o5958b$5736b2o1645bo4590b$5736bobo1644b2o4589b$29bo4693bo2658bobo4559bo29b$29bo4693bobo7218bo29b$29bo3b2o4688b2o7214b2o3bo29b$32bo2bo11902bo2bo32b$25b3o4bo2bo5862b2o174b2o5862bo2bo4b3o25b$33b2o5863b2o174b2o1179bo4683b2o33b$7253bobo4718b$28b2o5800bo1423b2o4688b2o28b$27bo2bo5759b2o39b2o349b2o5759bo2bo27b$28bobo5759b2o38b2o350b2o5759bobo28b$29bo11914bo29b$11974b$6138bo5835b$6136b2o5836b$6137b2o5835b$11974b$11974b$11974b$11974b$11974b$11974b$6181bo5792b$22b2o4621bo1535b2o5767b2o22b$18b2o2b2o4620b2o1534bobo5767b2o2b2o18b$18b2o4624bobo7307b2o18b$11974b$5782b2o13bo392b2o5782b$5782b2o12b2o160b2o54b2o174b2o1131bo4650b$5796bobo159b2o54b2o1307b2o4649b$7322bobo4649b$11974b$29bo11914bo29b$29bo11914bo29b$29bo3b2o11904b2o3bo29b$32bo2bo11902bo2bo32b$25b3o4bo2bo5862b2o174b2o5862bo2bo4b3o25b$33b2o5863b2o174b2o5863b2o33b$11974b$28b2o11914b2o28b$27bo2bo5759b2o390b2o5759bo2bo27b$28bobo5759b2o390b2o5759bobo28b$29bo11914bo29b$11974b$11974b$6074bo5899b$6072bob2o8bo5889b$6071b3o2bo7b3o5887b$6070b2ob5o2bo2bo3bo5886b$5895bo175bob2o5b3o4bo5886b$5894b3o175b6o2b3obob2o5886b$5893bo2bo176b4o3b2o3bo35bo5852b$4705bo1186b3o2b2o222b2o5851b$4704b2o1187bo2b3o221bobo5851b$22b2o4680bobo1187b2o2b2o6050b2o22b$18b2o2b2o5873b3o4258bo1791b2o2b2o18b$18b2o5837bo36b4obo4259bo1794b2o18b$5856b2o36b2o2b2o1363bo2893b3o1814b$5782b2o72bobo38b2o175b2o114b2o1071b2o4709b$5782b2o174b2o54b2o58b2o114b2o1070bobo4709b$1810bo4147b2o54b2o5958b$1809bo4080bo6078b3o2b$1809b3o4077bo6079bo2bob$29bo5859b3o6052bo24bo4b$29bo11914bo24bo3bo$29bo3b2o11904b2o3bo24bo3bo$32bo2bo6052bo5849bo2bo27bo4b$25b3o4bo2bo6053bo5848bo2bo4b3o21bobob$33b2o6052b3o5849b2o33b$11974b$28b2o11914b2o28b$2b3o22bo2bo5759b2o98b2o190b2o98b2o5759bo2bo16bo10b$bo2bo23bobo5759b2o98b2o190b2o98b2o5759bobo16b3o9b$4bo24bo11914bo16b2obo9b$o3bo11956b3o10b$o3bo11956b3o10b$4bo11956b3o10b$bobo11958b2o10b$11974b$11974b$6061bo5912b$10bo4754bo1295b2o5911b$9b3o4752b2o1294bobo5911b$9bob2o4751bobo7207b$10b3o11961b$10b3o9b2o5893bo6032b2o22b$10b3o5b2o2b2o5892b2o1285bo4746b2o2b2o18b$10b2o6b2o5896bobo1284b2o4749b2o18b$7202bobo4769b$5782b2o114b2o174b2o114b2o5782b$5782b2o114b2o63b3o108b2o114b2o5782b$5962bo3bo40b2o5965b$4663bo1298bo44bobo5964b$4663bobo1290b2o9bo40b2o6b2o5956b$29bo4633b2o1291b2o5b2ob2o40b2o6b2o66bo5859bo29b$29bo5933bo40bobobo76bo5858bo29b$29bo3b2o5970b2o77bo5854b2o3bo29b$32bo2bo5969bob2o4bobo1299bo4622bo2bo32b$25b3o4bo2bo5854bo123b2o1297bobo4622bo2bo4b3o25b$33b2o5853b2obo122bo1299b2o4623b2o33b$5888b2o6084b$28b2o5858bo6055b2o28b$27bo2bo5759b2o97b2o76bo214b2o5759bo2bo27b$28bobo5759b2o98bo74b3o214b2o5759bobo28b$29bo5924b2o9b3o50b2o5924bo29b$5954b2o62b2o5954b$11974b$11974b$11974b$11974b$4825bo7148b$4824b2o7148b$4824bobo1131b2o54b2o5958b$5958b2o54b2o5958b$11974b$7143bo4830b$22b2o7119b2o4805b2o22b$18b2o2b2o7118bobo4805b2o2b2o18b$18b2o11934b2o18b$11974b$5782b2o114b2o174b2o114b2o5782b$5782b2o114b2o174b2o114b2o5782b$11974b$11974b$24bo11924bo24b$24bo5941b2o38b2o5941bo24b$24bo7bo10bo5922b2o38b2o5922bo10bo7bo24b$31bobo8bobo11884bobo8bobo31b$31bo2bo7bobo11884bobo7bo2bo31b$32b2o9bo11886bo9b2o32b$15b3o11938b3o15b$11974b$11974b$5790b2o390b2o5790b$5790b2o390b2o5790b$11974b$11974b$65b2o11907b$64b2o11908b$66bo4818bo7088b$4884b2o7088b$4884bobo7087b$11902b2o70b$5958b2o54b2o5887b2o69b$5958b2o54b2o1067bo4818bo71b$7083b2o4889b$7082bobo3133bo1755b$22b2o10195bo1730b2o22b$18b2o2b2o10193b3o1730b2o2b2o18b$18b2o11934b2o18b$11969b3o2b$1750bo4031b2o114b2o174b2o114b2o5777bo2bob$1749bo4032b2o46bo67b2o174b2o114b2o5777bo4b$1749b3o4077bo6139bo3bo$5829b3o6137bo3bo$24bo11924bo19bo4b$24bo11924bo20bobob$24bo7bo10bo6104bo5781bo10bo7bo24b$31bobo8bobo6104bo5779bobo8bobo31b$31bo2bo7bobo6102b3o5779bobo7bo2bo31b$2b3o27b2o9bo11886bo9b2o21bo10b$bo2bo10b3o11938b3o3b3o9b$4bo11956b2obo9b$o3bo11956b3o10b$o3bo5785b2o390b2o5777b3o10b$4bo5785b2o390b2o5777b3o10b$bobo121b2o11835b2o10b$124b2o11848b$126bo4818bo7028b$4944b2o7028b$10bo4933bobo7027b$9b3o11830b2o130b$9bob2o11830b2o129b$10b3o7010bo4818bo131b$10b3o5945b2o54b2o1007b2o4949b$10b3o5945b2o54b2o1006bobo4949b$10b2o11962b$11974b$22b2o11926b2o22b$18b2o2b2o11926b2o2b2o18b$18b2o11934b2o18b$11974b$5782b2o114b2o174b2o114b2o5782b$4603bo1178b2o114b2o174b2o114b2o5782b$4603bobo7368b$4603b2o7369b$24bo11924bo24b$24bo11924bo24b$24bo7bo10bo7331bo4554bo10bo7bo24b$31bobo8bobo7328bobo4553bobo8bobo31b$31bo2bo7bobo7329b2o4553bobo7bo2bo31b$32b2o9bo11886bo9b2o32b$15b3o11938b3o15b$11974b$11974b$185b2o5603b2o390b2o5790b$184b2o5604b2o390b2o5790b$186bo4818bo6968b$5004b2o6968b$5004bobo6967b$11782b2o190b$11783b2o189b$6963bo4818bo191b$6963b2o5009b$6962bobo5009b$5958b2o54b2o5958b$5958b2o54b2o5958b$11974b$11974b$22b2o11926b2o22b$18b2o2b2o11926b2o2b2o18b$18b2o11934b2o18b$11974b$5782b2o114b2o174b2o114b2o5782b$5782b2o114b2o174b2o114b2o5782b$11974b$11974b$24bo11924bo24b$24bo11924bo24b$24bo7bo10bo5736b3o6147bo10bo7bo24b$31bobo8bobo5728bo2b2o2bo2bo6145bobo8bobo31b$31bo2bo7bobo5728bo2bob4o6bo6140bobo7bo2bo31b$32b2o9bo5735bo8b2o9bo388bob2o6b2o5730bo9b2o32b$15b3o5756bo4bo8bobo2b3o3bo387b2o2bo5bo3bo5754b3o15b$245b2o5527b2o13bo2bo7bo376bo7bo5bo4bo5bo5771b$244b2o5541b2o2bo2bo4b2o376b2o8b3o7bo4bo5771b$246bo4818bo707b2o14bo5b5o378b2o3bo3b2o10bo2bo5771b$5064b2o708b2o12b2o5bo382bo4bobo13bobo5772b$5064bobo699bo9bobo8bo7bobo375b3obo9bo12bo5773b$5765bo10b2o17bobo375b3o11bo5534b2o250b$5765b3o419bo3b2o5530b2o249b$6903bo4818bo251b$6903b2o5069b$6902bobo5069b$11974b$5782b2o406b2o5782b$5782b2o174b2o54b2o174b2o5782b$5958b2o54b2o4262bo1695b$10279bo1694b$10277b3o1689b3o2b$22b2o11926b2o17bo2bob$18b2o2b2o11926b2o2b2o13bo4b$18b2o1670bo10263b2o13bo3bo$1689bo10279bo3bo$1689b3o4206b2o174b2o5893bo4b$5898b2o174b2o5894bobob$11974b$11974b$24bo5765b2o381bo8b2o5765bo24b$2b3o19bo5765b2o379b2o9b2o5765bo13bo10b$bo2bo19bo7bo10bo6128b2o5756bo10bo7bo12b3o9b$4bo26bobo8bobo11884bobo8bobo18b2obo9b$o3bo26bo2bo7bobo11884bobo7bo2bo18b3o10b$o3bo27b2o9bo261b2o5498bo6124bo9b2o19b3o10b$4bo10b3o286b2o5500b2o6148b3o2b3o10b$bobo302bo4818bo679b2o6155b2o10b$5124b2o6848b$5124bobo6847b$11662b2o310b$10bo11652b2o309b$9b3o6831bo4818bo311b$9bob2o6830b2o5129b$10b3o6829bobo5129b$10b3o11961b$10b3o11961b$10b2o11962b$5782b2o406b2o5782b$5782b2o174b2o54b2o174b2o5782b$5958b2o54b2o5958b$11974b$11974b$22b2o6048bo5877b2o22b$18b2o2b2o6047bobo5876b2o2b2o18b$18b2o6051bob5o5876b2o18b$4543bo1527b3ob2obo5895b$4543bobo1523b2obob2o5898b$4543b2o1527b3obo5897b$6075b2o5897b$6069bo2bob3o2bo5894b$24bo5765b2o103b3o175bo2b3o103b2o1251bo4513bo24b$24bo5765b2o102bo3bo173bob2o106b2o1249bobo4513bo24b$24bo7bo10bo5849bo7bo170bo1361b2o4494bo10bo7bo24b$31bobo8bobo320b2o5525b2obob3obo170bobo7b3o5844bobo8bobo31b$31bo2bo7bobo319b2o5526b2obobo3bo171bo5855bobo7bo2bo31b$32b2o9bo322bo4818bo706bo3bo6033bo9b2o32b$15b3o5166b2o707b4o6059b3o15b$5184bobo707bo6079b$11602b2o370b$11603b2o369b$5902b2o166b2o711bo4818bo371b$5902b2o166b2o711b2o5189b$6782bobo5189b$11974b$11974b$11974b$11974b$11974b$5782b2o114b2o174b2o114b2o5782b$5782b2o114b2o58b2o54b2o58b2o114b2o5782b$5958b2o54b2o5958b$11974b$11974b$22b2o5933bo5992b2o22b$18b2o2b2o5933b2o5991b2o2b2o18b$18b2o5933b2o3b2o5994b2o18b$5951b2obo8b2o47b2o5960b$5950bo4bo7bobo45bo4bo25bobo5929b$5963bo12bo33bo5bo4b2o19b2o5930b$5949bo3bo12b2o2b3o3bo33b2ob2obo3bo2bo19bo5930b$5948b2o13bo3b2o7bo23b4o15b2obo4bo5946b$24bo5765b2o98b2o70bobo35b2ob2o8bo6bobo5bo53b2o98b2o5765bo24b$24bo400b2o5363b2o98b2o42bobo28bo32bo2bo2b2o7bo7b3o2b3o53b2o98b2o5765bo24b$24bo7bo10bo380b2o5509b2o11b6o8bo2bo7b2o23b3o3bo7bo10bo5906bo10bo7bo24b$31bobo8bobo381bo4818bo689bo15bobo10b2o31bo2bo2bo6b2o5917bobo8bobo31b$31bo2bo7bobo5199b2o695bo10bo44bobo12bo249bo5666bobo7bo2bo31b$32b2o9bo5200bobo693bo11bo45b2o10b2o251bo5666bo9b2o32b$15b3o5922b3o318b3o5278b2o412b3o15b$11543b2o429b$6723bo4818bo431b$5706bo1016b2o5249b$5705bo252b2o54b2o706bobo5249b$5705b3o250b2o54b2o5958b$11974b$11974b$11974b$11974b$11974b$11974b$5782b2o114b2o174b2o114b2o4146bo1630b3o2b$5782b2o114b2o174b2o114b2o4147bo1629bo2bob$6113bo4223b3o1629bo4b$6114bo5854bo3bo$6112b3o5854bo3bo$22b2o1606bo4335b2o38b2o5942b2o17bo4b$18b2o2b2o1605bo4336b2o28bo9b2o5942b2o2b2o14bobob$18b2o1609b3o4223bo138b2o5958b2o18b$5854bo140b2o5977b$5854b3o6117b$2b3o11958bo10b$bo2bo5977bo130bo5848b3o9b$4bo480b2o5496b2o126b2o5848b2obo9b$o3bo19bo459b2o5304b2o98b2o90b2o98b2o28b2o68b2o5765bo11b3o10b$o3bo19bo461bo4818bo484b2o98b2o190b2o98b2o5765bo11b3o10b$4bo19bo7bo10bo5260b2o6624bo10bo7bo11b3o10b$bobo27bobo8bobo5259bobo558bo6063bobo8bobo19b2o10b$31bo2bo7bobo5821b2o5614b2o445bobo7bo2bo31b$32b2o9bo5821b2o5616b2o445bo9b2o32b$15b3o6645bo4818bo473b3o15b$10bo6652b2o5309b$9b3o6650bobo5309b$9bob2o11961b$10b3o5945b2o54b2o5958b$10b3o5945b2o54b2o5958b$10b3o11961b$10b2o11962b$11974b$11974b$11974b$11974b$5782b2o114b2o174b2o114b2o5782b$5782b2o114b2o174b2o114b2o5782b$11974b$11974b$11974b$22b2o5942b2o38b2o5942b2o22b$18b2o2b2o4459bo1482b2o38b2o5942b2o2b2o18b$18b2o4463bobo7468b2o18b$4483b2o7489b$11974b$545b2o11427b$544b2o6949bo4478b$546bo4818bo2127bobo4478b$24bo5339b2o424b2o98b2o190b2o98b2o1310b2o4453bo24b$24bo5339bobo423b2o98b2o190b2o98b2o5765bo24b$24bo7bo10bo11378b2o506bo10bo7bo24b$31bobo8bobo11378b2o504bobo8bobo31b$31bo2bo7bobo6558bo4818bo506bobo7bo2bo31b$32b2o9bo6559b2o5325bo9b2o32b$15b3o6584bobo5351b3o15b$11974b$11974b$11974b$5958b2o54b2o5958b$5958b2o54b2o5958b$11974b$11974b$11974b$11974b$11974b$11974b$5782b2o114b2o174b2o114b2o5782b$5782b2o114b2o174b2o114b2o5782b$11974b$11974b$11974b$22b2o11926b2o22b$18b2o2b2o11926b2o2b2o18b$18b2o11934b2o18b$605b2o11367b$604b2o11368b$606bo4818bo6548b$5424b2o6548b$5424bobo6547b$24bo5765b2o390b2o5178b2o585bo24b$24bo5765b2o390b2o5179b2o584bo24b$24bo7bo10bo6278bo220bo4818bo567bo10bo7bo24b$31bobo8bobo6278bo219b2o5384bobo8bobo31b$31bo2bo7bobo6276b3o218bobo5384bobo7bo2bo31b$32b2o9bo11886bo9b2o32b$15b3o11938b3o15b$5646bo6327b$5645bo6328b$5645b3o6326b$5958b2o54b2o5958b$5958b2o54b2o5958b$11974b$11974b$11969b3o2b$11969bo2bob$10398bo1570bo4b$10399bo1569bo3bo$5782b2o114b2o174b2o97bo16b2o4205b3o1569bo3bo$5782b2o114b2o174b2o98bo15b2o5777bo4b$6172b3o5795bobob$1570bo10403b$1569bo10404b$22b2o1545b3o4223bo6154b2o22b$2b3o13b2o2b2o641b2o5127bo6155b2o2b2o7bo10b$bo2bo13b2o644b2o5128b3o6157b2o6b3o9b$4bo661bo4818bo6475b2obo9b$o3bo5479b2o6475b3o10b$o3bo5479bobo6474b3o10b$4bo11297b2o657b3o10b$bobo11299b2o657b2o10b$24bo5765b2o390b2o299bo4818bo646bo24b$24bo5765b2o390b2o299b2o5464bo24b$24bo7bo10bo6438bobo5445bo10bo7bo24b$10bo20bobo8bobo11884bobo8bobo31b$9b3o19bo2bo7bobo11884bobo7bo2bo31b$9bob2o19b2o9bo11886bo9b2o32b$10b3o2b3o11938b3o15b$10b3o11961b$10b3o11961b$10b2o11962b$5958b2o54b2o5958b$5958b2o54b2o5958b$11974b$11974b$11974b$11974b$11974b$11974b$5782b2o114b2o174b2o114b2o5782b$5782b2o114b2o174b2o114b2o5782b$11974b$11974b$725b2o3696bo7550b$22b2o700b2o3697bobo7524b2o22b$18b2o2b2o702bo3696b2o1120bo6404b2o2b2o18b$18b2o5524b2o6408b2o18b$5544bobo6427b$7555bo3686b2o730b$7553bobo3687b2o729b$6423bo1130b2o3686bo731b$6423b2o5549b$24bo6397bobo5524bo24b$24bo11924bo24b$24bo7bo10bo11886bo10bo7bo24b$31bobo8bobo11884bobo8bobo31b$31bo2bo7bobo11884bobo7bo2bo31b$32b2o9bo11886bo9b2o32b$15b3o11938b3o15b$11974b$11974b$11974b$5958b2o54b2o5958b$5958b2o54b2o5958b$11974b$11974b$11974b$11974b$11974b$11974b$5782b2o114b2o174b2o114b2o5782b$5782b2o114b2o174b2o114b2o5782b$785b2o11187b$784b2o4819b2o6367b$786bo4818b4o6365b$22b2o5580bo4bo6340b2o22b$18b2o2b2o5580bobo2bo6340b2o2b2o18b$18b2o5585b4o173b2o585b3o4810b2o770b2o18b$5606b2o176bo583bob2o4811b2o789b$5782b3o403b3o177bobo9bo4801bo791b$5773b3o7b3o13bo386b2o3bo176b2o10b2o5592b$5773b3o10bo10bo2bo380b2o3b2ob4o186bo2bo5591b$5772bo4bo4bo3b2obo6bo383bo2bo3b3o2b2o187bo5592b$24bo5747b2o3bo4bo7bo5bo4bo378bo2bo6bobo5756bo24b$24bo5748bo9bo6bo5b2o382b2ob2o5b2o5757bo24b$24bo7bo10bo5730bo2bo11bo392b2o5746bo10bo7bo24b$31bobo8bobo5731bo3b2o3b3o10b3o6128bobo8bobo31b$31bo2bo7bobo5735b2o6147bobo7bo2bo31b$32b2o9bo5737bo6148bo9b2o32b$15b3o11938b3o15b$11974b$11974b$5782b2o406b2o5782b$5782b2o174b2o54b2o174b2o5777b3o2b$5958b2o54b2o5953bo2bob$11969bo4b$11969bo3bo$10458bo1510bo3bo$5646b3o4810bo1509bo4b$5646bo531bo4278b3o1510bobob$5647bo529bo5796b$845b2o5051b2o174b2o101b3o5794b$844b2o664bo4387b2o174b2o5898b$2b3o841bo662bo4810b3o5640bo10b$bo2bo1504b3o4097b3o188bo521bo39b3o5597b3o9b$4bo5785b2o9bo380b2o137bo5639b2obo9b$o3bo17b2o5583bo5bo176b2o7b3o380b2o176bo5bo4755b2o826b2o9b3o10b$o3bo13b2o2b2o5583bo5bo746bo5bo4756b2o825b2o2b2o5b3o10b$4bo13b2o5587bo5bo746bo5bo4755bo831b2o5b3o10b$bobo11958b2o10b$5609b3o750b3o5609b$11974b$11974b$10bo11963b$9b3o12bo11924bo24b$9bob2o11bo11924bo24b$10b3o11bo7bo10bo11886bo10bo7bo24b$10b3o18bobo8bobo11884bobo8bobo31b$10b3o18bo2bo7bobo11884bobo7bo2bo31b$10b2o20b2o9bo11886bo9b2o32b$15b3o11938b3o15b$11974b$11974b$5782b2o406b2o5782b$5782b2o174b2o54b2o174b2o5782b$5958b2o54b2o5958b$11974b$5706b3o6265b$5706bo6267b$5707bo6266b$905b2o11067b$904b2o11068b$906bo4991b2o174b2o184b3o5711b$5898b2o174b2o186bo5711b$4363bo1897bo5712b$4363bobo1243b3o750b3o4697b2o910b$4363b2o1425b2o390b2o4879b2o909b$22b2o5583bo5bo176b2o390b2o176bo5bo4695bo887b2o22b$18b2o2b2o5583bo5bo746bo5bo5583b2o2b2o18b$18b2o5587bo5bo746bo5bo1248bo4338b2o18b$7613bobo4358b$5609b3o750b3o1249b2o4358b$11974b$11974b$11974b$24bo11924bo24b$24bo11924bo24b$24bo7bo10bo11886bo10bo7bo24b$31bobo8bobo11884bobo8bobo31b$31bo2bo7bobo11884bobo7bo2bo31b$32b2o9bo11886bo9b2o32b$15b3o11938b3o15b$11974b$11974b$5782b2o406b2o5782b$5782b2o174b2o54b2o174b2o5782b$5766b3o189b2o54b2o5958b$5766bo6207b$5767bo6206b$965b2o11007b$964b2o11008b$966bo5233b3o5771b$6202bo5771b$5898b2o174b2o125bo5772b$5898b2o174b2o4926b2o970b$11003b2o969b$5609b3o643bobo104b3o4637bo971b$5790b2o390b2o72b2o5716b$22b2o5583bo5bo176b2o390b2o72bo103bo5bo5583b2o22b$18b2o2b2o5583bo5bo746bo5bo5583b2o2b2o18b$18b2o5587bo5bo746bo5bo5587b2o18b$6259b2o5713b$5609b3o646bobo101b3o5609b$6260bo5713b$11974b$11974b$24bo11924bo24b$24bo11924bo24b$24bo7bo10bo11886bo10bo7bo24b$31bobo8bobo11884bobo8bobo31b$31bo2bo7bobo11884bobo7bo2bo31b$32b2o9bo11886bo9b2o32b$15b3o11938b3o10b3o2b$11969bo2bob$11969bo4b$5782b2o42b3o361b2o5777bo3bo$5782b2o42bo131b2o54b2o174b2o5777bo3bo$5827bo130b2o54b2o5953bo4b$1025b2o9491bo1451bobob$1024b2o9493bo1454b$1026bo5091bo21b3o4374b3o1454b$5900b3o214bo24bo5831b$2b3o5892bo2bobo214b3o21bo5821bo10b$bo2bo1445bo4445b2obo174b2o4866b2o1018b3o9b$4bo1444bo4445b2o4bobo172bo4866b2o1016b2obo9b$o3bo1444b3o4316b2o90bo34b2o2b3ob2o171bo4865bo1018b3o10b$o3bo5763bobo90bo32b2o2bo3b3o6056b3o10b$4bo5604b3o156bo90b3o32b2obob2o2bo168b2ob2o285b3o5596b3o10b$bobo5786b2o104bo5bo168b2ob2o106b2o5778b2o10b$22b2o5583bo5bo176b2o106b2o171bo2bo3bo103b2o176bo5bo5583b2o22b$18b2o2b2o5583bo5bo276bo8b3o169bob3o2b2o119b2o159bo5bo5583b2o2b2o18b$18b2o5587bo5bo276bo8b3o168b2o4bo2b2o117bobo159bo5bo5587b2o18b$10bo5879bo180b3obob3o120bo5773b$9b3o5597b3o460b2ob4o283b3o5609b$9bob2o6061b2o5898b$10b3o11961b$10b3o11961b$10b3o11bo11924bo24b$10b2o12bo5877b2o166b2o5877bo24b$24bo7bo10bo5858b2o166b2o5858bo10bo7bo24b$31bobo8bobo11884bobo8bobo31b$31bo2bo7bobo11884bobo7bo2bo31b$32b2o9bo11886bo9b2o32b$15b3o11938b3o15b$5886b3o6085b$5886bo6087b$5782b2o103bo10b2o174b2o114b2o5782b$1085b2o4695b2o114b2o58b2o54b2o58b2o114b2o5782b$1084b2o4872b2o54b2o5958b$1086bo4961bo31b3o5891b$6047bo34bo5891b$6047b3o31bo5892b$10882b2o1090b$10883b2o1089b$5828b2o100bo30bo4920bo1091b$4303bo1524bobo100bo29b2o51b3o5957b$4303bobo1522bo100b3o19b2o3b2o3bobo49b2o3bo5955b$4303b2o1645bo2b2o3bo3b2o7b2o41bobo5957b$5609b3o338b2ob2o4b3o7b2o2bo27b2o4bo5b2o2b4o341b3o5609b$5790b2o98b2o53bobo5b2o13bo5bo25bobo3b3obo2b2o5b2o60b2o55b2o41b2o5790b$22b2o5583bo5bo176b2o98b2o53b2o3bobo7b2o6bo2b2o2bo24bo3bo4b2o2b2o3bobo61b2o54bobo41b2o176bo5bo1308bo4274b2o22b$18b2o2b2o5583bo5bo332bo3bo10b2o5b3ob2ob2o23b2o4b5o7b2o120bo219bo5bo1306bobo4274b2o2b2o18b$18b2o5587bo5bo347b2o10bo2bo29bo2bo350bo5bo1307b2o4278b2o18b$5961bo11b2obo27bo5969b$5609b3o350bo11b2o386b3o5609b$11974b$11974b$11974b$24bo11924bo24b$24bo5933b2o54b2o5933bo24b$24bo7bo10bo5914b2o54b2o5914bo10bo7bo24b$31bobo8bobo11884bobo8bobo31b$31bo2bo7bobo11884bobo7bo2bo31b$32b2o9bo11886bo9b2o32b$15b3o6089bo5848b3o15b$6108b2o5864b$1145b2o4960b2o5865b$1144b2o4636b2o114b2o174b2o114b2o5782b$1146bo4635b2o114b2o100bo73b2o114b2o5782b$5861bo137bo5974b$5859b2o138b3o5972b$5860b2o4960b2o1150b$5966b2o38b2o4815b2o1149b$5888b2o76b2o10bo27b2o4814bo1151b$5888bobo88bo5994b$5888bo88b3o5994b$11974b$11974b$6079b2o5893b$5609b3o466bobo281b3o5609b$5790b2o288bo101b2o5790b$22b2o5583bo5bo176b2o390b2o176bo5bo5583b2o22b$18b2o2b2o5583bo5bo746bo5bo5583b2o2b2o18b$18b2o5587bo5bo746bo5bo5587b2o18b$11974b$5609b3o750b3o5609b$11974b$11974b$11974b$24bo11924bo24b$24bo5933b2o54b2o5933bo24b$24bo7bo10bo5914b2o54b2o5914bo10bo7bo19b3o2b$31bobo8bobo11884bobo8bobo26bo2bob$31bo2bo7bobo11884bobo7bo2bo26bo4b$32b2o9bo11886bo9b2o27bo3bo$15b3o1187b2o10749b3o10bo3bo$1204b2o10763bo4b$1206bo10763bobob$5782b2o114b2o174b2o114b2o5782b$5782b2o114b2o174b2o114b2o4386bo1395b$10579bo182b2o1210b$2b3o10572b3o183b2o1198bo10b$bo2bo5943b2o4812bo1199b3o9b$4bo5943bobo15b2o38b2o5953b2obo9b$o3bo1385bo4557bo17b2o38b2o5953b3o10b$o3bo1384bo10571b3o10b$4bo1384b3o10569b3o10b$bobo6015b2o5941b2o10b$6018bobo5953b$6020bo5953b$5609b3o750b3o5609b$10bo5779b2o390b2o5790b$9b3o10b2o5583bo5bo176b2o390b2o176bo5bo5583b2o22b$9bob2o5b2o2b2o5583bo5bo746bo5bo5583b2o2b2o18b$10b3o5b2o5587bo5bo746bo5bo5587b2o18b$10b3o11961b$10b3o5596b3o750b3o5609b$10b2o11962b$11974b$11974b$24bo11924bo24b$24bo5933b2o54b2o5933bo24b$24bo7bo10bo5914b2o54b2o5914bo10bo7bo24b$31bobo8bobo11884bobo8bobo31b$31bo2bo7bobo1220b2o10662bobo7bo2bo31b$32b2o9bo1220b2o10664bo9b2o32b$15b3o1248bo10689b3o15b$11974b$11974b$5782b2o114b2o174b2o114b2o4510b2o1270b$5782b2o114b2o174b2o114b2o4511b2o1269b$6008b2o4692bo1271b$6008bobo5963b$6008bo5965b$11974b$11974b$4243bo1715b2o6013b$4243bobo1712bobo6013b$4243b2o1715bo6013b$11974b$11974b$5609b3o750b3o1370bo4238b$5790b2o390b2o1549bobo4238b$22b2o5583bo5bo176b2o390b2o176bo5bo1367b2o4214b2o22b$18b2o2b2o5583bo5bo746bo5bo5583b2o2b2o18b$18b2o5587bo5bo746bo5bo5587b2o18b$11974b$5609b3o750b3o5609b$11974b$11974b$11974b$24bo11924bo24b$24bo5933b2o54b2o5933bo24b$24bo7bo10bo1281b2o4631b2o54b2o5914bo10bo7bo24b$31bobo8bobo1279b2o10603bobo8bobo31b$31bo2bo7bobo1281bo4840bo5761bobo7bo2bo31b$32b2o9bo6124b2o5760bo9b2o32b$15b3o6149b2o5787b3o15b$10642b2o1330b$10643b2o1329b$5782b2o17bo96b2o168b2o4b2o114b2o4450bo1331b$5782b2o15b2o97b2o168bobo3b2o114b2o5782b$5800b2o266bo5905b$11974b$11974b$5899b2o6073b$5898bobo6073b$5900bo6073b$11974b$11974b$11974b$11974b$5609b3o750b3o5609b$5790b2o390b2o5790b$22b2o5583bo5bo176b2o390b2o176bo5bo5583b2o22b$18b2o2b2o5583bo5bo746bo5bo5583b2o2b2o18b$18b2o5587bo5bo746bo5bo5587b2o18b$11974b$5609b3o750b3o5609b$11974b$11969b3o2b$11969bo2bob$24bo1360b2o10562bo19bo4b$24bo1359b2o4572b2o54b2o5933bo19bo3bo$24bo7bo10bo1342bo4571b2o54b2o5914bo10bo7bo19bo3bo$31bobo8bobo11884bobo8bobo26bo4b$31bo2bo7bobo11884bobo7bo2bo27bobob$32b2o9bo10538b2o1346bo9b2o32b$15b3o10565b2o1371b3o15b$6128b2o4452bo1391b$2b3o6123bobo4507bo1324bo10b$bo2bo5893b2o174b2o52bo56bo4453bo1322b3o9b$4bo5893b2o174b2o108b2o4451b3o1321b2obo9b$o3bo6178bo5777b3o10b$o3bo5780bo53b2o343b2o6b2o5767b3o10b$4bo1325bo4453b3o51bobo343b2ob2o3b2o5767b3o10b$bobo1325bo4454b4o52bo343b4o5774b2o10b$1329b3o4449b2obo3b2o392b2ob3o5786b$5779b2o2b2o397b2ob2o5787b$5781bo2bobo3bo390bo3b3o5786b$10bo5773bo4bo393b3obo5786b$9b3o5773bob2o396bo5788b$9bob2o5774b2o393bo2bo5788b$10b3o5596b3o750b3o5609b$10b3o6169b3o5789b$10b3o9b2o5583bo5bo164b2o414b2o164bo5bo5583b2o22b$10b2o6b2o2b2o5583bo5bo164b2o414b2o164bo5bo5583b2o2b2o18b$18b2o5587bo5bo746bo5bo5587b2o18b$11974b$5609b3o750b3o5609b$11974b$1445b2o10527b$1444b2o10528b$24bo1421bo4335b2o406b2o5757bo24b$24bo5757b2o174b2o54b2o174b2o5757bo24b$24bo7bo10bo5914b2o54b2o5914bo10bo7bo24b$31bobo8bobo10477b2o1405bobo8bobo31b$31bo2bo7bobo10478b2o1404bobo7bo2bo31b$32b2o9bo6144b2o4332bo1407bo9b2o32b$15b3o6170bobo5765b3o15b$6188bo5785b$11974b$5898b2o174b2o5898b$5779b2o117b2o174b2o5898b$5778bobo6193b$5780bo6193b$5790b2o390b2o5790b$4183bo1561bo44b2o390b2o5790b$4183bobo1559bobo6226b$4183b2o1560b2o6227b$11974b$11974b$6233bo1561bo4178b$6231bobo1559bobo4178b$5609b3o620b2o128b3o1429b2o4178b$11974b$22b2o5583bo5bo746bo5bo5583b2o22b$18b2o2b2o5583bo5bo746bo5bo5583b2o2b2o18b$18b2o5587bo5bo746bo5bo5587b2o18b$11974b$1505b2o4102b3o750b3o5609b$1504b2o10468b$1506bo10467b$11974b$24bo5757b2o406b2o5757bo24b$24bo5757b2o174b2o54b2o174b2o4270b2o1485bo24b$24bo7bo10bo5914b2o54b2o220b2o4225b2o1465bo10bo7bo24b$31bobo8bobo6192b2o4223bo1466bobo8bobo31b$31bo2bo7bobo6191bo5692bobo7bo2bo31b$32b2o9bo11886bo9b2o32b$15b3o11938b3o15b$5741b2o6231b$5740b2o83bobo6146b$5742bo83b2o70b2o174b2o5898b$5826bo71b2o174b2o5898b$11974b$11974b$5790b2o349bobo38b2o5790b$5790b2o349b2o39b2o5790b$6142bo5831b$11974b$11974b$11974b$11974b$11974b$5609b3o750b3o5609b$11974b$22b2o5583bo5bo746bo5bo5583b2o22b$18b2o2b2o5583bo5bo746bo5bo5583b2o2b2o18b$18b2o1545b2o4040bo5bo746bo5bo5587b2o13b3o2b$1564b2o10403bo2bob$1566bo4042b3o750b3o5604bo4b$11969bo3bo$11969bo3bo$10402b2o1565bo4b$24bo5757b2o392b2o12b2o4211b2o1544bo20bobob$24bo5757b2o174b2o54b2o161b2o11b2o4210bo1546bo24b$24bo7bo10bo5914b2o54b2o160bo5753bo10bo7bo24b$31bobo8bobo11884bobo8bobo31b$2b3o26bo2bo7bobo11884bobo7bo2bo20bo10b$bo2bo27b2o9bo5757b2o6127bo9b2o20b3o9b$4bo10b3o5782b2o4896bo1257b3o2b2obo9b$o3bo5797bo4896bo1261b3o10b$o3bo10692b3o1261b3o10b$4bo5893b2o174b2o5885b3o10b$bobo5894b2o174b2o5886b2o10b$1270bo10703b$1269bo10704b$1269b3o4518b2o390b2o5790b$10bo5779b2o390b2o5790b$9b3o11962b$9bob2o11961b$10b3o11961b$10b3o11961b$10b3o11961b$10b2o11962b$5609b3o466bo283b3o5609b$6077bobo5894b$22b2o1601b2o3980bo5bo462b2ob2o279bo5bo5583b2o22b$18b2o2b2o1600b2o3981bo5bo462b2obo280bo5bo5583b2o2b2o18b$18b2o1606bo3980bo5bo462b3o2b2o277bo5bo5587b2o18b$6077bo5896b$5609b3o466bo283b3o5609b$6078b2o4262b2o1630b$5890bo2b2o178b2o41b2o4225b2o1629b$5894b2o177b2o42b2o4223bo1631b$24bo5757b2o109b2o179b2o40bo73b2o5757bo24b$24bo5757b2o174b2o54b2o59bo114b2o5757bo24b$24bo7bo10bo5845b2o2b2o63b2o54b2o5914bo10bo7bo24b$31bobo8bobo5816b2o32bo6033bobo8bobo31b$31bo2bo7bobo5815b2o27b4o191bo5844bobo7bo2bo31b$32b2o9bo5818bo28bo2bo187bobo5845bo9b2o32b$15b3o6065b2o5871b3o15b$11974b$11974b$11974b$11974b$11974b$4123bo7850b$4123bobo1664b2o98b2o9b3o178b2o98b2o5790b$4123b2o1665b2o98b2o190b2o98b2o5790b$5901b3o6070b$5901b2o6071b$7855bo4118b$7853bobo4118b$7854b2o4118b$11974b$1685b2o3922b3o750b3o5609b$1684b2o10288b$22b2o1662bo3920bo5bo746bo5bo5583b2o22b$18b2o2b2o5583bo5bo746bo5bo5583b2o2b2o18b$18b2o5587bo5bo746bo5bo5587b2o18b$10282b2o1690b$5609b3o444b2o304b3o3918b2o1689b$6057b2o4223bo1691b$6056bo5917b$11974b$24bo5757b2o114b2o108b3o63b2o114b2o5757bo24b$24bo5757b2o114b2o21b2o151b2o114b2o5757bo24b$24bo7bo10bo5876b2o38b3o45bo5921bo10bo7bo24b$31bobo8bobo5877bo37b3o44b4o5918bobo8bobo31b$31bo2bo7bobo5913b2o46b5o5b2o5911bobo7bo2bo31b$32b2o9bo5912b2o4bo43b2o3bo4b2o5912bo9b2o32b$15b3o5867bobo75bo44b3o5945b3o15b$5886b2o67bo9bo6008b$5886bo68bo2bobo3bobo6007b$5967bo116bo5889b$5960bo6bo115bobo5888b$5960bo124b2o5887b$5962bo3bo115b2obo5888b$5790b2o98b2o71b2o117bo2bo96b2o5790b$5790b2o98b2o113b2o76b2o97b2o5790b$5954b2o50bobo9b2o5954b$5954b2o51bo10b2o5954b$11974b$11974b$1745b2o10227b$1744b2o10228b$1746bo3862b3o750b3o5604b3o2b$11969bo2bob$22b2o5583bo5bo344b2o54b2o344bo5bo5583b2o17bo4b$18b2o2b2o5583bo5bo344b2o54b2o344bo5bo3855b2o1726b2o2b2o13bo3bo$18b2o5587bo5bo746bo5bo3856b2o1729b2o13bo3bo$10222bo1746bo4b$5609b3o750b3o5605bobob$11974b$11974b$11974b$2b3o19bo5757b2o114b2o174b2o114b2o5757bo13bo10b$bo2bo19bo5757b2o114b2o174b2o114b2o5757bo12b3o9b$4bo19bo7bo10bo11886bo10bo7bo11b2obo9b$o3bo26bobo8bobo11884bobo8bobo18b3o10b$o3bo26bo2bo7bobo10713bo1170bobo7bo2bo18b3o10b$4bo27b2o9bo5922b2o38b2o4751bo1170bo9b2o19b3o10b$bobo11b3o5948b2o38b2o4749b3o1196b3o3b2o10b$11974b$11974b$1210bo10763b$10bo1198bo10764b$9b3o1197b3o10762b$9bob2o11961b$10b3o5777b2o390b2o5790b$10b3o5777b2o390b2o5790b$10b3o11961b$10b2o11962b$1805b2o10167b$1804b2o10168b$1806bo10167b$11974b$5609b3o750b3o5609b$10162b2o1810b$22b2o5583bo5bo344b2o54b2o344bo5bo3796b2o1785b2o22b$18b2o2b2o5583bo5bo344b2o54b2o344bo5bo3795bo1787b2o2b2o18b$18b2o5587bo5bo746bo5bo5587b2o18b$11974b$5609b3o750b3o5609b$5834bo6139b$5834bobo6137b$5834b2o6138b$24bo5757b2o114b2o174b2o114b2o5757bo24b$24bo5757b2o114b2o103bo70b2o114b2o5757bo24b$24bo7bo10bo5960b2o138bo5785bo10bo7bo24b$31bobo8bobo5958b2o137bobo5784bobo8bobo31b$31bo2bo7bobo6098b2o5784bobo7bo2bo31b$32b2o9bo5962b2o5922bo9b2o32b$15b3o5988b2o5948b3o15b$11974b$11974b$11974b$4063bo7910b$4063bobo7908b$4063b2o7909b$5790b2o390b2o5790b$5790b2o390b2o5790b$1865b2o6048bo4058b$1864b2o6047bobo4058b$1866bo6047b2o4058b$11974b$11974b$10102b2o1870b$5609b3o750b3o3738b2o1869b$10102bo1871b$22b2o5583bo5bo344b2o54b2o344bo5bo5583b2o22b$18b2o2b2o5583bo5bo344b2o54b2o344bo5bo5583b2o2b2o18b$18b2o5587bo5bo746bo5bo5587b2o18b$11974b$5609b3o750b3o5609b$11974b$11974b$11974b$24bo5757b2o114b2o174b2o114b2o5757bo24b$24bo5757b2o114b2o174b2o114b2o5757bo24b$24bo7bo10bo11886bo10bo7bo24b$31bobo8bobo11884bobo8bobo31b$31bo2bo7bobo11884bobo7bo2bo31b$32b2o9bo11886bo9b2o32b$15b3o11938b3o15b$11974b$11974b$11974b$11974b$11974b$11974b$1925b2o3863b2o390b2o5790b$1924b2o3864b2o390b2o5790b$1926bo10047b$11974b$11969b3o2b$10042b2o1925bo2bob$10043b2o1924bo4b$10042bo1926bo3bo$5609b3o750b3o5604bo3bo$11969bo4b$22b2o5583bo5bo344b2o54b2o344bo5bo5583b2o18bobob$18b2o2b2o5583bo5bo344b2o54b2o344bo5bo5583b2o2b2o18b$18b2o5587bo5bo746bo5bo5587b2o18b$11974b$2b3o5604b3o750b3o5598bo10b$bo2bo11957b3o9b$4bo11956b2obo9b$o3bo11956b3o10b$o3bo19bo5757b2o114b2o174b2o114b2o5757bo11b3o10b$4bo19bo5757b2o114b2o174b2o114b2o5757bo11b3o10b$bobo20bo7bo10bo10774bo1111bo10bo7bo12b2o10b$31bobo8bobo10774bo1109bobo8bobo31b$31bo2bo7bobo10772b3o1109bobo7bo2bo31b$32b2o9bo11886bo9b2o32b$10bo4b3o11938b3o15b$9b3o1138bo10823b$9bob2o1136bo10824b$10b3o1136b3o10822b$10b3o11961b$10b3o1972b2o9987b$10b2o1972b2o9988b$1986bo9987b$11974b$11974b$9982b2o1990b$9983b2o1989b$9982bo1991b$11974b$11974b$5609b3o750b3o5609b$11974b$22b2o5583bo5bo344b2o54b2o344bo5bo5583b2o22b$18b2o2b2o5583bo5bo344b2o54b2o344bo5bo5583b2o2b2o18b$18b2o5587bo5bo746bo5bo5587b2o18b$11974b$5609b3o750b3o5609b$11974b$11974b$11974b$24bo5873b2o174b2o5873bo24b$24bo5873b2o174b2o110b2o5761bo24b$24bo7bo10bo6142b2ob3o5738bo10bo7bo24b$31bobo8bobo6142b6o5736bobo8bobo31b$31bo2bo7bobo5742b2o402b3o5735bobo7bo2bo31b$32b2o9bo5742bo2b2o393bo5745bo9b2o32b$15b3o5762bo5b2obo393b3o5770b3o15b$5780bo6bo3b2o389bo2bo5788b$4003bo1776bo401b3o5789b$2045b2o1956bobo2177bo5790b$2044b2o1957b2o7969b$2046bo9927b$11974b$7975bo3998b$5778b2o414b2o1777bobo1946b2o2050b$5778b2o414b2o1778b2o1947b2o2049b$9922bo2051b$11974b$11974b$11974b$11974b$5609b3o750b3o5609b$5782b2o406b2o5782b$22b2o5583bo5bo168b2o174b2o54b2o174b2o168bo5bo5583b2o22b$18b2o2b2o5583bo5bo344b2o54b2o344bo5bo5583b2o2b2o18b$18b2o5587bo5bo746bo5bo5587b2o18b$11974b$5609b3o750b3o5609b$11974b$11974b$6168b3o5803b$24bo5873b2o174b2o94bo5778bo24b$24bo5873b2o174b2o93bo5779bo24b$24bo7bo10bo11886bo10bo7bo24b$31bobo8bobo11884bobo8bobo31b$31bo2bo7bobo5745b2o16b3o371b2o5745bobo7bo2bo31b$32b2o9bo5746b2o16bo373b2o5746bo9b2o32b$15b3o5791bo6146b3o15b$2105b2o9867b$2104b2o9868b$2106bo9867b$11974b$11974b$9862b2o2110b$9863b2o2104b3o2b$9862bo2106bo2bob$11969bo4b$11969bo3bo$11969bo3bo$11969bo4b$11970bobob$11974b$5609b3o750b3o5609b$5782b2o297b3o106b2o5782b$2b3o17b2o5583bo5bo168b2o174b2o54b2o65b3o106b2o168bo5bo5583b2o11bo10b$bo2bo13b2o2b2o5583bo5bo344b2o54b2o64bo2bo276bo5bo5583b2o2b2o6b3o9b$4bo13b2o5587bo5bo466b3o277bo5bo5587b2o5b2obo9b$o3bo6076b2o5878b3o10b$o3bo5604b3o212bo537b3o5596b3o10b$4bo5817bobo283b3o5850b3o10b$bobo5819b2o285bo5851b2o10b$5891bo217bo5864b$24bo5865b3o4985bo1070bo24b$24bo5864bo2b2o250bo4734bo1069bo24b$10bo13bo7bo10bo5824b3o18b3o252bobo4730b3o1050bo10bo7bo24b$9b3o19bobo8bobo5823bo31b2o170b2o70b2o5783bobo8bobo31b$9bob2o18bo2bo7bobo5745b2o77bo30b2o170b2o8b2o98b2o5745bobo7bo2bo31b$10b3o19b2o9bo1046bo1074b2o3623b2o290b2o98b2o5746bo9b2o32b$10b3o2b3o1071bo1074b2o9790b3o15b$10b3o1076b3o1074bo9807b$10b2o5887bo6074b$5900b2o6072b$5899b2o169b3o3729b2o2170b$6069bo3bo3729b2o2169b$6069b2o3bo3727bo2171b$6069bo4bo5899b$5902b2o166bo3bo5899b$5902b2o6070b$6071b2o5901b$11974b$11974b$11974b$11974b$5609b3o344bobo403b3o5609b$5782b2o114b2o55b2o2b2o113b2o114b2o5782b$22b2o5583bo5bo168b2o114b2o54b2obo3bo112b2o114b2o168bo5bo5583b2o22b$18b2o2b2o5583bo5bo340b2ob2o3bo397bo5bo5583b2o2b2o18b$18b2o5587bo5bo348bo397bo5bo5587b2o18b$5954bo2bo2b2o46bo39b3o5923b$5609b3o342bo5b2o46bo41bo311b3o5609b$5956b3o53bo36bo5924b$5956b3o52b3o3bo5956b$5966b3o40bo3bo3bo5956b$24bo5903b3o78bobo5bo5931bo24b$24bo5903bo80b3o5937bo24b$24bo7bo10bo5885bo6000bo10bo7bo24b$31bobo8bobo2180b2o9702bobo8bobo31b$31bo2bo7bobo2179b2o3564b2o98b2o190b2o98b2o5745bobo7bo2bo31b$32b2o9bo2182bo3563b2o98b2o190b2o98b2o5746bo9b2o32b$15b3o3925bo2010b2o62b2o5936b3o15b$3943bobo2008b2o62b2o5954b$3943b2o5797b2o2230b$9743b2o2229b$9742bo2231b$8035bo3938b$8033bobo3938b$8034b2o3938b$5958b2o54b2o5958b$5958b2o54b2o5958b$11974b$11974b$11974b$11974b$11974b$5609b3o750b3o5609b$5782b2o114b2o174b2o114b2o5782b$22b2o5583bo5bo168b2o114b2o174b2o114b2o168bo5bo5583b2o22b$18b2o2b2o5583bo5bo746bo5bo5583b2o2b2o18b$18b2o5587bo5bo746bo5bo5587b2o18b$11974b$5609b3o354b2o38b2o354b3o5609b$5966b2o38b2o5966b$11974b$11974b$24bo11924bo24b$24bo2260b2o9662bo24b$24bo7bo10bo2240b2o9644bo10bo7bo24b$31bobo8bobo2241bo9642bobo8bobo31b$31bo2bo7bobo5745b2o98b2o190b2o98b2o5745bobo7bo2bo31b$32b2o9bo5746b2o98b2o190b2o98b2o5746bo9b2o32b$15b3o9664b2o2272b3o15b$9683b2o2289b$9682bo2291b$11969b3o2b$11969bo2bob$5843bo6125bo4b$5841b2o6126bo3bo$5842b2o6125bo3bo$5958b2o54b2o5953bo4b$5958b2o36bo17b2o5954bobob$5997bo137bo5838b$5995b3o138b2o5836b$6135b2o5837b$2b3o11958bo10b$bo2bo5967bo5989b3o9b$4bo5604b3o359bo390b3o5596b2obo9b$o3bo5777b2o114b2o71b3o100b2o114b2o5769b3o10b$o3bo17b2o5583bo5bo168b2o114b2o174b2o114b2o168bo5bo5583b2o9b3o10b$4bo13b2o2b2o5583bo5bo746bo5bo5583b2o2b2o5b3o10b$bobo14b2o5587bo5bo270bo475bo5bo5587b2o6b2o10b$5882bobo6089b$5609b3o271b2o81b2o38b2o354b3o5609b$5966b2o38b2o5966b$10bo10927bo1035b$9b3o2333b2o3737bo4854bo1034b$9bob2o11bo2319b2o3738bobo4850b3o1009bo24b$10b3o11bo2321bo3737b2o5863bo24b$10b3o11bo7bo10bo11886bo10bo7bo24b$10b3o18bobo8bobo985bo10898bobo8bobo31b$10b2o19bo2bo7bobo984bo4760b2o98b2o190b2o98b2o3438b2o2305bobo7bo2bo31b$32b2o9bo985b3o4758b2o98b2o190b2o98b2o3439b2o2305bo9b2o32b$15b3o9604bo2333b3o15b$11974b$11974b$11974b$11974b$11974b$11974b$11974b$5958b2o54b2o5958b$5958b2o54b2o5958b$11974b$11974b$11974b$11974b$11974b$5609b3o750b3o5609b$5782b2o114b2o174b2o114b2o5782b$22b2o5583bo5bo168b2o114b2o174b2o114b2o168bo5bo5583b2o22b$18b2o2b2o5583bo5bo746bo5bo5583b2o2b2o18b$18b2o5587bo5bo746bo5bo5587b2o18b$11974b$5609b3o750b3o5609b$2405b2o9567b$2404b2o9568b$2406bo9567b$24bo11924bo24b$24bo11924bo24b$24bo7bo10bo9518b2o2366bo10bo7bo24b$31bobo8bobo9518b2o2364bobo8bobo31b$31bo2bo7bobo3838bo1906b2o390b2o3378bo2366bobo7bo2bo31b$32b2o9bo3839bobo1904b2o390b2o5746bo9b2o32b$15b3o3865b2o8071b3o15b$11974b$11974b$8095bo3878b$8093bobo3878b$8094b2o3878b$11974b$11974b$5958b2o54b2o5958b$5958b2o54b2o5958b$11974b$11974b$11974b$11974b$11974b$5609b3o750b3o5609b$5782b2o114b2o174b2o114b2o5782b$22b2o5583bo5bo168b2o114b2o174b2o114b2o168bo5bo5583b2o22b$18b2o2b2o5583bo5bo746bo5bo5583b2o2b2o18b$18b2o5587bo5bo746bo5bo5587b2o18b$2465b2o9507b$2464b2o3143b3o750b3o5609b$2466bo9507b$11974b$11974b$24bo9477b2o2445bo24b$24bo9478b2o2444bo24b$24bo7bo10bo9458bo2427bo10bo7bo24b$31bobo8bobo11884bobo8bobo31b$31bo2bo7bobo11884bobo7bo2bo31b$32b2o9bo11886bo9b2o27b3o2b$15b3o11938b3o10bo2bob$11969bo4b$11969bo3bo$11969bo3bo$11969bo4b$11970bobob$11974b$11974b$5958b2o54b2o5958b$2b3o5953b2o54b2o5947bo10b$bo2bo11957b3o9b$4bo11956b2obo9b$o3bo11956b3o10b$o3bo11956b3o10b$4bo11956b3o10b$bobo5605b3o750b3o5597b2o10b$5898b2o174b2o5898b$22b2o5583bo5bo284b2o174b2o110b2o172bo5bo5583b2o22b$18b2o2b2o2501b2o3080bo5bo572b2ob3o168bo5bo5583b2o2b2o18b$10bo7b2o2504b2o3081bo5bo573b6o167bo5bo5587b2o18b$9b3o2514bo3260b2o402b3o5780b$9bob2o5596b3o174bo2b2o393bo177b3o4633bo975b$10b3o5767bo5b2obo393b3o4813bo974b$10b3o5767bo6bo3b2o389bo2bo3256b2o1553b3o974b$10b3o5767bo401b3o3258b2o2529b$10b2o12bo6158bo3258bo2506bo24b$24bo945bo10978bo24b$24bo7bo10bo925bo10960bo10bo7bo24b$31bobo8bobo924b3o10957bobo8bobo31b$31bo2bo7bobo11884bobo7bo2bo31b$32b2o9bo5734b2o414b2o5734bo9b2o32b$15b3o5760b2o414b2o5760b3o15b$11974b$11974b$11974b$11974b$11974b$11974b$5782b2o406b2o5782b$5782b2o174b2o54b2o174b2o5782b$5958b2o54b2o5958b$11974b$11974b$11974b$11974b$11974b$6168b3o5803b$2585b2o3311b2o174b2o94bo5803b$22b2o2560b2o3026b2o284b2o174b2o93bo5780b2o22b$18b2o2b2o2562bo3027bo6335b2o2b2o18b$18b2o11934b2o18b$5790b2o16b3o371b2o5790b$5790b2o16bo373b2o3198b2o2590b$5809bo3573b2o2589b$9382bo2591b$11974b$24bo11924bo24b$24bo11924bo24b$24bo7bo10bo3779bo8106bo10bo7bo24b$31bobo8bobo3778bobo8103bobo8bobo31b$31bo2bo7bobo3778b2o8104bobo7bo2bo31b$32b2o9bo11886bo9b2o32b$15b3o11938b3o15b$8155bo3818b$8153bobo3818b$8154b2o3818b$6310b2o5662b$6309bobo5662b$6311bo5662b$5782b2o297b3o106b2o5782b$5782b2o174b2o54b2o65b3o106b2o5782b$5667b2o289b2o54b2o64bo2bo5890b$5667bobo410b3o5891b$5667bo413b2o5891b$5824bo6149b$5822bobo283b3o5863b$2645b2o3176b2o285bo5863b$2644b2o3245bo217bo5864b$2646bo3243b3o6081b$22b2o5865bo2b2o250bo5805b2o22b$18b2o2b2o5844b3o18b3o252bobo5803b2o2b2o18b$18b2o5848bo31b2o170b2o70b2o3176b2o2630b2o18b$5790b2o77bo30b2o170b2o8b2o98b2o3139b2o2649b$5790b2o290b2o98b2o3138bo2651b$11974b$11974b$5899bo6074b$24bo5875b2o6047bo24b$24bo5874b2o169b3o5876bo19b3o2b$24bo7bo10bo6025bo3bo5856bo10bo7bo19bo2bob$31bobo8bobo6024b2o3bo5854bobo8bobo26bo4b$31bo2bo7bobo6024bo4bo5854bobo7bo2bo26bo3bo$32b2o9bo5858b2o166bo3bo5855bo9b2o27bo3bo$15b3o5884b2o6052b3o10bo4b$6071b2o5897bobob$6250b2o5722b$6249bobo5722b$6251bo5722b$2b3o11958bo10b$bo2bo5951bobo6003b3o9b$4bo5722b2o53b2o114b2o55b2o2b2o113b2o114b2o5769b2obo9b$o3bo5722bobo52b2o114b2o54b2obo3bo112b2o114b2o5769b3o10b$o3bo5722bo226b2ob2o3bo5998b3o10b$4bo5957bo5998b3o10b$bobo5950bo2bo2b2o46bo39b3o5911b2o10b$2705b2o3247bo5b2o46bo41bo5923b$2704b2o3250b3o53bo36bo5924b$2706bo3249b3o52b3o3bo5956b$10bo5955b3o40bo3bo3bo5956b$9b3o5916b3o78bobo5bo5956b$9bob2o9b2o5904bo80b3o3250b2o2686b2o22b$10b3o5b2o2b2o5905bo3333b2o2685b2o2b2o18b$10b3o5b2o9242bo1795bo895b2o18b$10b3o5777b2o98b2o190b2o98b2o4875bo914b$10b2o5778b2o98b2o190b2o98b2o4873b3o914b$5954b2o62b2o5954b$5954b2o62b2o5954b$910bo11063b$24bo884bo11039bo24b$24bo884b3o11037bo24b$24bo7bo10bo11886bo10bo7bo24b$31bobo8bobo11884bobo8bobo31b$31bo2bo7bobo11884bobo7bo2bo31b$32b2o9bo5914b2o54b2o5914bo9b2o32b$15b3o5940b2o54b2o174b2o5764b3o15b$6189bobo5782b$6191bo5782b$11974b$11974b$5787b2o6185b$5787bobo6184b$5782b2o3bo110b2o174b2o114b2o5782b$5782b2o114b2o174b2o114b2o5782b$11974b$2765b2o9207b$2764b2o9208b$2766bo3199b2o38b2o5966b$5966b2o38b2o5966b$11974b$9202b2o2770b$9203b2o2769b$22b2o9178bo2747b2o22b$18b2o2b2o11926b2o2b2o18b$18b2o11934b2o18b$5790b2o98b2o190b2o98b2o5790b$5790b2o98b2o190b2o98b2o5790b$11974b$11974b$11974b$24bo3738bo8185bo24b$24bo3738bobo8183bo24b$24bo7bo10bo3719b2o2078bo6086bo10bo7bo24b$31bobo8bobo5796b2o6086bobo8bobo31b$31bo2bo7bobo5797b2o286b2o5797bobo7bo2bo31b$32b2o9bo5914b2o54b2o113bobo2083bo3714bo9b2o32b$15b3o5940b2o36bo17b2o115bo2081bobo3740b3o15b$5997bo137bo2078b2o3758b$5995b3o138b2o5836b$5847b2o286b2o5837b$5847bobo6124b$5847bo124bo6001b$5971bo6002b$5782b2o114b2o71b3o100b2o114b2o5782b$2825b2o2955b2o114b2o174b2o114b2o5782b$2824b2o9148b$2826bo3057bo6089b$5882bobo6089b$5883b2o81b2o38b2o5966b$5966b2o38b2o3134b2o2830b$9143b2o2829b$6084bo3057bo2831b$6084bobo5887b$22b2o6060b2o5864b2o22b$18b2o2b2o11926b2o2b2o18b$18b2o11934b2o18b$5790b2o98b2o190b2o98b2o5790b$5790b2o98b2o190b2o98b2o5790b$11969b3o2b$11969bo2bob$11969bo4b$24bo11924bo19bo3bo$24bo11924bo19bo3bo$24bo7bo10bo6026b2o5858bo10bo7bo19bo4b$31bobo8bobo6024bobo5857bobo8bobo27bobob$31bo2bo7bobo6026bo5857bobo7bo2bo31b$32b2o9bo5914b2o54b2o5914bo9b2o32b$15b3o5940b2o54b2o5940b3o15b$2b3o5902b2o6054bo10b$bo2bo5902bobo6052b3o9b$4bo5902bo6053b2obo9b$o3bo11956b3o10b$o3bo11956b3o10b$4bo2880b2o9074b3o10b$bobo2880b2o2896b2o114b2o174b2o114b2o5770b2o10b$2886bo2895b2o114b2o174b2o114b2o5782b$11974b$11974b$10bo9071b2o2890b$9b3o9071b2o2889b$9bob2o9069bo2891b$10b3o11961b$10b3o11961b$10b3o11961b$10b2o10b2o11094bo831b2o22b$18b2o2b2o11095bo830b2o2b2o18b$18b2o11097b3o834b2o18b$5790b2o390b2o5790b$5790b2o390b2o5790b$850bo11123b$849bo11124b$849b3o11122b$24bo5985b2o5937bo24b$24bo5984bobo5937bo24b$24bo7bo10bo5967bo5918bo10bo7bo24b$31bobo8bobo11884bobo8bobo31b$31bo2bo7bobo11884bobo7bo2bo31b$32b2o9bo5914b2o7b2o45b2o5914bo9b2o32b$15b3o5940b2o7bobo44b2o5940b3o15b$5967bo6006b$11974b$11974b$2945b2o9027b$2944b2o9028b$2946bo9027b$5782b2o114b2o174b2o114b2o5782b$5782b2o114b2o174b2o114b2o5782b$9022b2o2950b$9023b2o2949b$9022bo2951b$11974b$11974b$11974b$11974b$11974b$22b2o11926b2o22b$18b2o2b2o11926b2o2b2o18b$18b2o11934b2o18b$11974b$11974b$11974b$3703bo2246b2o6022b$3703bobo2243bobo6022b$24bo3678b2o2246bo5997bo24b$24bo11924bo24b$24bo7bo10bo11886bo10bo7bo24b$31bobo8bobo5982b2o2246bo3653bobo8bobo31b$31bo2bo7bobo5982bobo2243bobo3653bobo7bo2bo31b$32b2o9bo5914b2o54b2o11bo2246b2o3654bo9b2o32b$15b3o5940b2o54b2o5940b3o15b$11974b$3005b2o8967b$3004b2o8968b$3006bo8967b$11974b$11974b$5782b2o114b2o174b2o114b2o2770b2o3010b$5782b2o114b2o174b2o114b2o2771b2o3009b$8962bo3011b$11974b$11974b$11974b$11974b$11974b$11974b$11974b$22b2o11926b2o22b$18b2o2b2o11926b2o2b2o13b3o2b$18b2o11934b2o13bo2bob$11969bo4b$5890b2o6077bo3bo$5889bobo6077bo3bo$5891bo6077bo4b$11970bobob$24bo11924bo24b$24bo6062b2o5860bo24b$24bo7bo10bo6043bobo5840bo10bo7bo24b$2b3o26bobo8bobo6042bo5841bobo8bobo20bo10b$bo2bo26bo2bo7bobo11884bobo7bo2bo19b3o9b$4bo27b2o9bo5914b2o54b2o5914bo9b2o19b2obo9b$o3bo10b3o3047b2o2891b2o54b2o5940b3o2b3o10b$o3bo3059b2o8895b3o10b$4bo3061bo8894b3o10b$bobo11958b2o10b$11974b$8902b2o3070b$8903b2o3069b$10bo5770b3o114b2o174b2o2826bo3071b$9b3o5767b2obobo113b2o174b2o112bobo5783b$9bob2o5766b2o3bo399bo4bo2b2o5780b$10b3o5764bo4bo400b2o6bobo5780b$10b3o5764bo5bo398b2o4bo2bob2o5779b$10b3o5764bo5bo3bobo392b2o9b2o5779b$10b2o5771bo3bo2bo392b5obob2o5781b$5779bo4bobo3bo393bo2bo5786b$5779bo4bo2bo2bo393bo2bo4990bo795b$5778bo5bo2bobo385bo5003bo794b$22b2o5755bob2o390bo2bo22b2o4976b3o770b2o22b$18b2o2b2o5756bo392b3o5774b2o2b2o18b$18b2o5810b2o341b3o20bo5757b2o18b$790bo5038bobo373bo5768b$789bo4988b2o51bo363b2o3bo4bo5768b$789b3o4986b2o414bobo5bobo5769b$6194b2o4bobo5771b$6147b2o45b2o4b2o5772b$24bo6122bobo45b3o2bo5748bo24b$24bo6122bo47b3o5751bo24b$24bo7bo10bo11886bo10bo7bo24b$31bobo8bobo11884bobo8bobo31b$31bo2bo7bobo3080b2o2655b2o406b2o22bo5714bobo7bo2bo31b$32b2o9bo3080b2o2656b2o174b2o54b2o174b2o20bobo5715bo9b2o32b$15b3o3108bo2831b2o54b2o197b2o5741b3o15b$11974b$11974b$5754bo3087b2o3130b$5754bobo3086b2o3129b$5754b2o3086bo3131b$11974b$5898b2o174b2o5898b$5898b2o174b2o5898b$11974b$11974b$5790b2o390b2o5790b$5790b2o390b2o5790b$11974b$11974b$11974b$11974b$22b2o5746b2o6178b2o22b$18b2o2b2o5745bobo6178b2o2b2o18b$18b2o5751bo6182b2o18b$11974b$3643bo8330b$3643bobo2561b2o5765b$3643b2o2515bobo44bobo5764b$6160b2o45bo5766b$24bo6136bo5787bo24b$24bo8310bo3613bo24b$24bo7bo10bo3141b2o5146bobo3594bo10bo7bo24b$31bobo8bobo3139b2o2630bobo2515b2o3593bobo8bobo31b$31bo2bo7bobo3141bo2595b2o33b2o371b2o5737bobo7bo2bo31b$32b2o9bo5738b2o33bo140b2o54b2o174b2o5738bo9b2o32b$15b3o5940b2o54b2o5940b3o15b$8782b2o3190b$8783b2o3189b$8782bo3191b$11974b$11974b$11974b$5898b2o174b2o5898b$5898b2o174b2o5898b$11974b$11974b$5790b2o390b2o5790b$5790b2o390b2o5790b$11974b$5750b2o6217b3o2b$5749b2o6218bo2bob$5751bo6217bo4b$22b2o11926b2o17bo3bo$18b2o2b2o11926b2o2b2o13bo3bo$18b2o6197b2o5735b2o13bo4b$6218b2o5750bobob$6217bo5756b$11974b$11974b$2b3o11958bo10b$bo2bo19bo3220b2o8702bo12b3o9b$4bo19bo3219b2o8703bo11b2obo9b$o3bo19bo7bo10bo3202bo8683bo10bo7bo11b3o10b$o3bo26bobo8bobo11884bobo8bobo18b3o10b$4bo26bo2bo7bobo5737b2o406b2o5737bobo7bo2bo18b3o10b$bobo28b2o9bo5738b2o174b2o54b2o174b2o2530b2o3206bo9b2o20b2o10b$15b3o5940b2o54b2o2707b2o3231b3o15b$8722bo3251b$11974b$10bo11963b$9b3o11962b$9bob2o11961b$10b3o11961b$10b3o5885b2o174b2o5898b$10b3o5885b2o174b2o5898b$10b2o11962b$11974b$5790b2o390b2o5790b$5790b2o18b2o370b2o5790b$5809b2o5427bo735b$5811bo5427bo734b$11237b3o734b$11974b$22b2o6133b2o5791b2o22b$18b2o2b2o706bo5427b2o5790b2o2b2o18b$18b2o709bo5427bo5796b2o18b$729b3o11242b$11974b$11974b$3305b2o8667b$3304b2o8668b$24bo3281bo8642bo24b$24bo11924bo24b$24bo7bo10bo11886bo10bo7bo24b$31bobo8bobo8617b2o3265bobo8bobo31b$31bo2bo7bobo5737b2o406b2o2471b2o3264bobo7bo2bo31b$32b2o9bo5738b2o174b2o54b2o174b2o2470bo3267bo9b2o32b$15b3o5940b2o54b2o5940b3o15b$11974b$11974b$11974b$11974b$11974b$6080bo5893b$6079b3o5892b$5891b2o185bob2o5892b$5891bobo6080b$5870b2o19bo2bo5b2o170b2o5bo2b2o5890b$5790b2o77b2o29b2o170b2o5b2ob2o98b2o5790b$5790b2o79bo18bob2o185b2o101b2o5790b$5888bo3bo6081b$5889bobo7bo6074b$5897bobo197b2o5875b$5898b2o198b2o5874b$22b2o6073bo5852b2o22b$18b2o2b2o11926b2o2b2o18b$18b2o3563bo2499bo5870b2o18b$3583bobo2495bo2bo5889b$3365b2o216b2o2317b2o166b2o9bobo16bobo5871b$3364b2o2536b2o166b2o10bo17b2o5872b$3366bo2734bo5872b$8395bo3578b$24bo8368bobo3553bo24b$24bo5851bobo2515b2o206b2o3345bo24b$24bo7bo10bo5833b2o2724b2o3325bo10bo7bo24b$31bobo8bobo5832bo2724bo3326bobo8bobo31b$31bo2bo7bobo5737b2o114b2o57b2o115b2o114b2o5737bobo7bo2bo31b$32b2o9bo5738b2o114b2o56b2obo53b3o58b2o114b2o5738bo9b2o32b$15b3o5939bobo48b2o3bo2b2o5938b3o15b$5954bo5bo46bo3bob2o5959b$5953bo3bob2o47bob4obo2bo5955b$5953bobob2o49bo4b3ob2o5955b$6009bobobobob2o5955b$5967bo41bo3bobobo5956b$5967bo43b2o3bo5957b$5967bo30bo5975b$5930b2o66bo5975b$5929b2o66b3o5974b$5931bo6037b3o2b$5790b2o98b2o190b2o98b2o5785bo2bob$5790b2o98b2o105b3o82b2o98b2o5785bo4b$5954b2o42bo19b2o17b2o5930bo3bo$5954b2o42bo19bo2b2obo13b2o5929bo3bo$6019bob3obo11bo5931bo4b$6022bo5947bobob$22b2o5995bo6bo5923b2o22b$18b2o2b2o5995bo2bobo5925b2o2b2o18b$18b2o3405b2o2595bo5931b2o18b$2b3o3419b2o2595b2o5940bo10b$bo2bo3421bo2531b2o54b2o5946b3o9b$4bo5953b2o54b2o5945b2obo9b$o3bo11956b3o10b$o3bo8537b2o3417b3o10b$4bo19bo8518b2o3404bo11b3o10b$bobo20bo8517bo3406bo12b2o10b$24bo7bo10bo11886bo10bo7bo24b$31bobo8bobo11884bobo8bobo31b$31bo2bo7bobo5737b2o114b2o174b2o114b2o5737bobo7bo2bo31b$10bo21b2o9bo5738b2o114b2o174b2o114b2o5738bo9b2o32b$9b3o3b3o11938b3o15b$9bob2o11961b$10b3o11961b$10b3o5953b2o38b2o5966b$10b3o5953b2o38b2o5966b$10b2o11962b$11974b$11974b$11974b$11974b$11974b$5790b2o390b2o5114bo675b$5790b2o333bo56b2o5115bo674b$6123bobo5171b3o674b$6124b2o5848b$11974b$670bo5313bo5989b$22b2o645bo2815b2o2356bo138b2o5966b2o22b$18b2o2b2o645b3o2812b2o2357bobo137b2o5965b2o2b2o18b$18b2o3466bo2356b2o6109b2o18b$11974b$5958b2o34bo19b2o5958b$5958b2o35b2o17b2o2466b2o3490b$5994b2o2487b2o3489b$8482bo3491b$24bo11924bo24b$24bo11924bo24b$24bo7bo10bo11886bo10bo7bo24b$31bobo8bobo11884bobo8bobo31b$31bo2bo7bobo5737b2o114b2o174b2o114b2o5737bobo7bo2bo31b$32b2o9bo5738b2o114b2o174b2o114b2o5738bo9b2o32b$15b3o11938b3o15b$11974b$11974b$5966b2o38b2o5966b$5966b2o38b2o5966b$11974b$11974b$11974b$11974b$11974b$11974b$5790b2o390b2o5790b$5790b2o390b2o5790b$11974b$11974b$3545b2o8427b$3544b2o8428b$22b2o3499bo22bo8403b2o22b$18b2o2b2o3499bobo8424b2o2b2o18b$18b2o3503b2o8429b2o18b$8422b2o3550b$5958b2o54b2o2407b2o3549b$5958b2o54b2o2406bo32bo3518b$8453bobo3518b$8454b2o3518b$24bo11924bo24b$24bo11924bo24b$24bo7bo10bo11886bo10bo7bo24b$31bobo8bobo11884bobo8bobo31b$31bo2bo7bobo5737b2o114b2o174b2o114b2o5737bobo7bo2bo31b$32b2o9bo5738b2o114b2o174b2o114b2o5738bo9b2o32b$15b3o11938b3o15b$11974b$11974b$11974b$11974b$11974b$11969b3o2b$11969bo2bob$11969bo4b$11969bo3bo$11969bo3bo$5790b2o390b2o5785bo4b$5790b2o390b2o5786bobob$3605b2o8367b$3604b2o8368b$3606bo8367b$2b3o11958bo10b$bo2bo17b2o11926b2o10b3o9b$4bo13b2o2b2o8338b2o3586b2o2b2o5b2obo9b$o3bo13b2o8343b2o3589b2o5b3o10b$o3bo8357bo3598b3o10b$4bo5953b2o54b2o5945b3o10b$bobo5954b2o54b2o5946b2o10b$11974b$11974b$24bo11924bo24b$10bo13bo11924bo24b$9b3o12bo7bo10bo11886bo10bo7bo24b$9bob2o18bobo8bobo11884bobo8bobo31b$10b3o18bo2bo7bobo5737b2o114b2o174b2o114b2o5737bobo7bo2bo31b$10b3o19b2o9bo5738b2o114b2o174b2o114b2o5738bo9b2o32b$10b3o2b3o11938b3o15b$10b2o11962b$11974b$11974b$11974b$11974b$11974b$6182bo5791b$5785b3o393b3o5790b$5785b3o392b2ob2o5173bo615b$5784bo3b2o389b3o5177bo614b$3665b2o2117b2o3bo390bob2o5173b3o614b$3664b2o2119bo3bo391b2o5791b$3666bo2118bo2bo393bo5791b$610bo5174b3o6186b$609bo5174bobo6187b$609b3o5172b2o2516b2o3670b$22b2o6162b2o2115b2o3645b2o22b$18b2o2b2o6162bob2o2112bo3647b2o2b2o18b$18b2o6168b2o5764b2o18b$5782b2o402b2o5786b$5782b2o174b2o54b2o168b2o5788b$5958b2o54b2o5958b$6184bobo5787b$6185bo5788b$24bo5768bo6155bo24b$24bo5769bo6154bo24b$24bo7bo10bo5748b3o6135bo10bo7bo24b$31bobo8bobo11884bobo8bobo31b$31bo2bo7bobo5853b2o174b2o5853bobo7bo2bo31b$32b2o9bo5854b2o174b2o5854bo9b2o32b$15b3o11938b3o15b$11974b$5790b2o390b2o5790b$5779b2o9b2o390b2o5790b$5779bobo6192b$5779bo6194b$11974b$11974b$6188b2o5784b$3725b2o2460bobo5784b$3724b2o2463bo5784b$3726bo8247b$11974b$11974b$8242b2o3730b$3463bo4779b2o3729b$3463bobo4776bo3731b$22b2o3439b2o8485b2o22b$18b2o2b2o11926b2o2b2o18b$18b2o11934b2o18b$5782b2o406b2o2323bo3458b$5782b2o174b2o54b2o174b2o2321bobo3458b$5958b2o54b2o2498b2o3458b$11974b$11974b$24bo11924bo24b$24bo11924bo24b$24bo7bo10bo11886bo10bo7bo24b$31bobo8bobo11884bobo8bobo31b$31bo2bo7bobo5853b2o174b2o5853bobo7bo2bo31b$32b2o9bo5854b2o174b2o5854bo9b2o32b$15b3o11938b3o15b$5839b2o6133b$5790b2o47bobo57bo282b2o5785b3o2b$5790b2o47bo53b2o3bob5o277b2o5785bo2bob$5892bo2b4o2b4ob2o168bobo5890bo4b$5891bobob2o2b3o176bo5890bo3bo$5887b2ob2o174bobo4b3o2bo49b2o5839bo3bo$3785b2o2094bo4b4o3b3o170bobo4bo53bobo5839bo4b$3784b2o2095bo4bo8bo11b3o156bo2bo4b4o12bo38bo5840bobob$3786bo2094bo5bobob2o13b2o3bo155b3o6bobo4b2o5bo5883b$5888bobo2b4o7b2o3bobo155bo9b3o2bobo5bo5883b$5895b2o6bobo5bo148bo6b3o6b3o2b2obo5889b$2b3o5887b3o7bo4b3o150bobo13bo5b5ob3o2091b2o3779bo10b$bo2bo5884b2o2b2o6bo6bo151b2o21bo2bob3o2092b2o3777b3o9b$4bo5886bobo8bo181b3o2b2o2091bo3778b2obo9b$o3bo5886b3o9b4o181b2o2bo5868b3o10b$o3bo5913bo169b2ob2o5868b3o10b$4bo17b2o5892bobo171b2o5858b2o9b3o10b$bobo14b2o2b2o5893b2o6031b2o2b2o6b2o10b$18b2o11934b2o18b$5782b2o114b2o174b2o114b2o5782b$5782b2o114b2o58b2o54b2o58b2o114b2o5782b$10bo5947b2o54b2o5958b$9b3o11962b$9bob2o11961b$10b3o11bo11924bo24b$10b3o11bo11924bo24b$10b3o11bo7bo10bo11886bo10bo7bo24b$10b2o19bobo8bobo11884bobo8bobo31b$31bo2bo7bobo11884bobo7bo2bo31b$32b2o9bo5855b2o6029bo9b2o32b$15b3o5881bobo6054b3o15b$5899bo6074b$5790b2o98b2o190b2o98b2o5790b$5790b2o98b2o190b2o98b2o5790b$6068b2o5904b$3845b2o2220bobo24bobo5877b$3844b2o2116bo106bo25b2o5877b$3846bo2114b3o131bo5322bo555b$5960bo2b2o5454bo554b$5959b4obo5452b3o554b$5872bobo84bo4bo2157b2o3850b$5872b2o86b2o2bo41b3o2114b2o3849b$550bo5322bo87b2o42bo3bo2112bo3851b$549bo5460bo5963b$549b3o5414bo6007b$5964bobo38b2o3bo5963b$5965b2o40b3o5964b$22b2o11926b2o22b$18b2o2b2o6101bo5824b2o2b2o18b$18b2o6104bo5829b2o18b$5782b2o114b2o174b2o48b3o63b2o5782b$5782b2o114b2o174b2o114b2o5782b$11974b$5853bo6120b$5854bo161b2o5956b$24bo5827b3o111b2o38b2o8b2o5931bo24b$24bo5941b2o38b2o5941bo24b$24bo7bo10bo11886bo10bo7bo24b$31bobo8bobo11884bobo8bobo31b$31bo2bo7bobo5973bo5910bobo7bo2bo31b$32b2o9bo5973b3o5910bo9b2o32b$15b3o5998b2ob2o5935b3o15b$6015bo5958b$5790b2o98b2o122bo4bob2o59b2o98b2o5790b$3905b2o1883b2o98b2o122bo4bobo60b2o98b2o5790b$3904b2o2109bo4bo5953b$3906bo8067b$11974b$11974b$8062b2o3910b$8063b2o3909b$8062bo3911b$11974b$5958b2o54b2o5958b$3403bo2554b2o54b2o5958b$3403bobo8568b$3403b2o8569b$11974b$22b2o11926b2o22b$18b2o2b2o8551bo3374b2o2b2o18b$18b2o8553bobo3378b2o18b$5782b2o114b2o174b2o114b2o2382b2o3398b$5782b2o114b2o174b2o114b2o5782b$11974b$11974b$11974b$24bo5941b2o38b2o5941bo24b$24bo5941b2o38b2o5941bo24b$24bo7bo10bo11886bo10bo7bo24b$31bobo8bobo11884bobo8bobo31b$31bo2bo7bobo11884bobo7bo2bo26b3o2b$32b2o9bo11886bo9b2o27bo2bob$15b3o11938b3o10bo4b$3965b2o8002bo3bo$3964b2o1824b2o98b2o190b2o98b2o5785bo3bo$3966bo1823b2o98b2o190b2o98b2o5785bo4b$11970bobob$11974b$8002b2o3970b$8003b2o3969b$2b3o7997bo3960bo10b$bo2bo11957b3o9b$4bo11956b2obo9b$o3bo11956b3o10b$o3bo5953b2o54b2o5945b3o10b$4bo5953b2o54b2o5945b3o10b$bobo11958b2o10b$11974b$11974b$22b2o11926b2o22b$10bo7b2o2b2o11926b2o2b2o18b$9b3o6b2o11934b2o18b$9bob2o5769b2o114b2o174b2o114b2o5782b$10b3o5769b2o114b2o174b2o114b2o5782b$10b3o11961b$10b3o11961b$10b2o11962b$24bo11924bo24b$24bo11924bo24b$24bo7bo10bo11886bo10bo7bo24b$31bobo8bobo11884bobo8bobo31b$31bo2bo7bobo11884bobo7bo2bo31b$32b2o9bo3981b2o7903bo9b2o32b$15b3o4006b2o7930b3o15b$4026bo7947b$5790b2o390b2o5790b$5790b2o362bobo25b2o5790b$6155b2o1785b2o4030b$6155bo1787b2o3533bo495b$7942bo3536bo494b$11477b3o494b$5812bobo6159b$5812b2o6160b$490bo5322bo6160b$489bo11484b$489b3o5466b2o54b2o5958b$5958b2o54b2o5958b$11974b$11974b$11974b$22b2o11926b2o22b$18b2o2b2o11926b2o2b2o18b$18b2o11934b2o18b$5782b2o114b2o174b2o114b2o5782b$5782b2o114b2o174b2o114b2o5782b$11974b$11974b$11974b$24bo11924bo24b$24bo11924bo24b$24bo7bo10bo11886bo10bo7bo24b$31bobo8bobo4040b2o7842bobo8bobo31b$31bo2bo7bobo4039b2o7843bobo7bo2bo31b$32b2o9bo4042bo7843bo9b2o32b$15b3o11938b3o15b$11974b$5790b2o390b2o1698b2o4090b$5790b2o390b2o1699b2o4089b$7882bo4091b$11974b$11974b$11974b$11974b$11974b$11974b$3343bo8630b$3343bobo2612b2o54b2o5958b$3343b2o2613b2o54b2o5958b$11974b$11974b$8635bo3338b$22b2o8609bobo3314b2o22b$18b2o2b2o8610b2o3314b2o2b2o18b$18b2o6171b2o5761b2o18b$5898b2o174b2o114bob2o5780b$5898b2o174b2o114bobo5781b$6189bo5bo5778b$6189b2obo3bo5777b$5787b3o401b2obobo5777b$24bo5761bo2b2o6158bo19b3o2b$24bo4120b2o1639b2obobo390bo5766bo19bo2bob$24bo7bo10bo4100b2o1633b3o4b3o393bo5747bo10bo7bo19bo4b$31bobo8bobo4101bo2035bo5746bobo8bobo26bo3bo$31bo2bo7bobo11884bobo7bo2bo26bo3bo$32b2o9bo11886bo9b2o27bo4b$15b3o7804b2o4132b3o11bobob$7823b2o4149b$7822bo4151b$5778b2o414b2o5778b$2b3o5773b2o414b2o5767bo10b$bo2bo11957b3o9b$4bo11956b2obo9b$o3bo11956b3o10b$o3bo11956b3o10b$4bo11956b3o10b$bobo11958b2o10b$5782b2o406b2o5782b$5782b2o174b2o54b2o174b2o5782b$5958b2o54b2o5958b$10bo11963b$9b3o11962b$9bob2o11961b$10b3o9b2o11926b2o22b$10b3o5b2o2b2o11926b2o2b2o18b$10b3o5b2o11934b2o18b$10b2o5886b2o174b2o5898b$5898b2o174b2o5898b$11974b$5809bo6164b$4205b2o1583b2o16b2o372b2o5790b$24bo4179b2o1584b2o16bobo371b2o5765bo24b$24bo4181bo7742bo24b$24bo7bo10bo11886bo10bo7bo24b$31bobo8bobo6114bo5769bobo8bobo31b$31bo2bo7bobo6114b2o1601b2o4165bobo7bo2bo31b$32b2o9bo6114bobo1602b2o4165bo9b2o32b$15b3o7744bo4193b3o15b$11974b$11974b$11538bo435b$11539bo434b$11537b3o434b$11974b$11974b$430bo11543b$429bo11544b$429b3o11542b$5782b2o371bo34b2o5782b$5782b2o174b2o54b2o137b2o35b2o5782b$5958b2o54b2o138b2o5818b$11974b$11974b$5823bo6150b$22b2o5800b2o6124b2o22b$18b2o2b2o5799b2o6125b2o2b2o18b$18b2o5870b3o187bo5873b2o18b$5890bo2bo185bobo5892b$5869bo19bo3bo6080b$4265b2o1601b2o19b4o187bo2bo5890b$4264b2o1602bobo19bo9b2o170b2o4bo5bo5889b$4266bo1523b2o108b2o170b2o3bo3b3o98b2o5790b$24bo5765b2o285b3o102b2o5765bo24b$24bo6074bo5849bo24b$24bo7bo10bo6055b2o1601b2o4226bo10bo7bo24b$31bobo8bobo5855bo197bobo1602b2o4224bobo8bobo31b$31bo2bo7bobo5856bo1800bo4226bobo7bo2bo31b$32b2o9bo5855b3o6028bo9b2o32b$15b3o11938b3o15b$11974b$11974b$5902b2o166b2o5902b$5902b2o166b2o5902b$11974b$11974b$11974b$11974b$3283bo8690b$3283bobo2669b3obo54bo5959b$3283b2o2497b2o114b2o54bo3b3o52bobo58b2o114b2o5782b$5782b2o114b2o57bob3o53bo58b2o114b2o5782b$5954b2ob2o2b2o49bo5961b$5954b5o3bo49bob2o2679bo3278b$5960bobo51bobo2676bobo3278b$5955b2ob4o54b2o2676b2o3278b$22b2o5931b2ob2o55bobo5932b2o22b$18b2o2b2o5932bobo8bo42b3o3bobo5931b2o2b2o18b$18b2o5909bo27bo9bo42b2o2bo3bo5935b2o18b$4325b2o1601b2o37bo42b3ob2o2bo5955b$4324b2o1602bobo83b3o5952b3o2b$4326bo7642bo2bob$11969bo4b$5790b2o98b2o147bo42b2o98b2o5785bo3bo$24bo5765b2o98b2o147b2o41b2o98b2o1458b2o4305bo19bo3bo$24bo5929b2o62b2o18bobo1602b2o4304bo19bo4b$24bo7bo10bo5910b2o62b2o1622bo4287bo10bo7bo20bobob$31bobo8bobo11884bobo8bobo31b$31bo2bo7bobo11884bobo7bo2bo31b$32b2o9bo11886bo9b2o32b$2b3o10b3o11938b3o4bo10b$bo2bo11957b3o9b$4bo11956b2obo9b$o3bo5953b2o54b2o5945b3o10b$o3bo5953b2o54b2o5945b3o10b$4bo11956b3o10b$bobo11958b2o10b$11974b$11974b$11974b$10bo11963b$9b3o5770b2o114b2o174b2o114b2o5782b$9bob2o5769b2o114b2o174b2o114b2o5782b$10b3o11961b$10b3o11961b$10b3o11961b$10b2o5954b2o38b2o5966b$22b2o5942b2o38b2o5942b2o22b$18b2o2b2o4361b2o7563b2o2b2o18b$18b2o4364b2o7568b2o18b$4386bo7587b$11974b$11974b$7582b2o4390b$5790b2o98b2o190b2o98b2o1399b2o4389b$24bo5765b2o98b2o190b2o98b2o1398bo4366bo24b$24bo6101bo5822bo24b$24bo7bo10bo6083bo5802bo10bo7bo24b$31bobo8bobo6080b3o5801bobo8bobo31b$31bo2bo7bobo11884bobo7bo2bo31b$32b2o9bo11886bo9b2o32b$15b3o5824bo138bobo5972b3o15b$5841bo139b2o5615bo375b$5841b3o138bo5616bo374b$5958b2o54b2o5581b3o374b$5958b2o54b2o5958b$5995bobo5976b$370bo5625b2o5976b$369bo5626bo5977b$369b3o11602b$6095bo5878b$6093b2o5879b$5782b2o114b2o174b2o18b2o94b2o5782b$5782b2o114b2o174b2o114b2o5782b$11974b$5883bo6090b$5884b2o6088b$4445b2o1436b2o81b2o38b2o5966b$22b2o4420b2o1520b2o38b2o5942b2o22b$18b2o2b2o4422bo7503b2o2b2o18b$18b2o11934b2o18b$11974b$7522b2o4450b$7523b2o4449b$7522bo4451b$5790b2o98b2o190b2o98b2o5790b$24bo5765b2o98b2o190b2o98b2o5765bo24b$24bo11924bo24b$24bo7bo10bo11886bo10bo7bo24b$31bobo8bobo11884bobo8bobo31b$31bo2bo7bobo11884bobo7bo2bo31b$32b2o9bo11886bo9b2o32b$15b3o11938b3o15b$11974b$11974b$5958b2o54b2o5958b$5958b2o54b2o5958b$11974b$11974b$3223bo8750b$3223bobo8748b$3223b2o8749b$11974b$5782b2o114b2o174b2o114b2o5782b$5782b2o114b2o174b2o114b2o2563bo3218b$8753bobo3218b$4505b2o4247b2o3218b$4504b2o7468b$4506bo7467b$22b2o11926b2o17b3o2b$18b2o2b2o11926b2o2b2o13bo2bob$18b2o7442b2o4490b2o13bo4b$7463b2o4504bo3bo$7462bo4506bo3bo$11969bo4b$11970bobob$5790b2o390b2o5790b$24bo5765b2o390b2o5765bo24b$24bo11924bo24b$2b3o19bo7bo10bo11886bo10bo7bo13bo10b$bo2bo26bobo8bobo11884bobo8bobo19b3o9b$4bo26bo2bo7bobo11884bobo7bo2bo18b2obo9b$o3bo27b2o9bo11886bo9b2o19b3o10b$o3bo10b3o11938b3o2b3o10b$4bo11956b3o10b$bobo11958b2o10b$5958b2o54b2o5958b$5958b2o54b2o5958b$11974b$10bo11963b$9b3o11962b$9bob2o11961b$10b3o11961b$10b3o11961b$10b3o5769b2o114b2o174b2o114b2o5782b$10b2o4553b2o1215b2o114b2o174b2o114b2o5782b$4564b2o7408b$4566bo7407b$11974b$11974b$22b2o6158bo1219b2o4546b2o22b$18b2o2b2o6157b3o1219b2o4545b2o2b2o18b$18b2o6160bo3bo1217bo4551b2o18b$5784bobo398bo5788b$5783b2obo391bo3b2ob2o5787b$5782b2o2b2o394b2o5790b$5781b2o7b3o385b2o6bo5787b$5782b2o8bo391b2o5788b$24bo5758bo6bobo6156bo24b$24bo5765b2o6157bo24b$24bo7bo10bo6143bo5742bo10bo7bo24b$31bobo8bobo5739bo401b3o5740bobo8bobo31b$31bo2bo7bobo5738bo401b2o2bo5739bobo7bo2bo31b$32b2o9bo5740bo400bob4o5467bo271bo9b2o32b$15b3o6167bo4bo5468bo296b3o15b$6185bo2b2o5467b3o314b$5782b2o403b2o5785b$5782b2o174b2o54b2o5958b$310bo5647b2o54b2o167bo5790b$309bo5873bobo5788b$309b3o5871b2o5789b$11974b$11974b$5795bo6178b$4625b2o1166bobo6178b$4624b2o1168b2o102b2o174b2o5898b$4626bo1271b2o174b2o5898b$11974b$11974b$5777b3o10b2o390b2o1158b2o4630b$5777bo12b2o390b2o1159b2o4629b$22b2o5754bo1563bo4607b2o22b$18b2o2b2o11926b2o2b2o18b$18b2o11934b2o18b$6189b3o5782b$6191bo5782b$6190bo5783b$11974b$11974b$24bo11924bo24b$24bo11924bo24b$24bo7bo10bo11886bo10bo7bo24b$31bobo8bobo11884bobo8bobo31b$31bo2bo7bobo11884bobo7bo2bo31b$32b2o9bo11886bo9b2o32b$15b3o11938b3o15b$11974b$5782b2o406b2o5782b$5782b2o174b2o54b2o174b2o5782b$5958b2o54b2o5958b$3163bo8810b$3163bobo8808b$3163b2o8809b$4685b2o7287b$4684b2o7288b$4686bo4128bo3158b$6074b2o2737bobo3158b$6074b2o2738b2o3158b$5837b3o58bo1383b2o4685b3o2b$5837bo55bo3b2o1384b2o4684bo2bob$5790b2o46bo53b2ob2obo283b2o1098bo4686bo4b$5790b2o98b4o2b2o284b2o5785bo3bo$22b2o5866b3obob2o175b2o5875b2o17bo3bo$18b2o2b2o5862bo3b2o2b4o175bobo2bobo48b3o5818b2o2b2o13bo4b$18b2o5864b2obo4b2obob2ob2o163b3o6b2o55bo5822b2o14bobob$5881bo2b2ob2o4bo3b3o165bo3bo11bo48bo5843b$5881bo2b2ob2o7b3o9bo159bob2o2bobobo5bo4bobo5882b$5881bo3bo2bo7b3o5b2o2b3o153b2obo2bo3b2ob2ob2o2b3o4bo5882b$2b3o5881b2o9b2o2bo5b5o152b2o13bo5b3ob3o5871bo10b$bo2bo5891b2o2bo6bo3b2o153bo2bo8b2o6b2o5874b3o9b$4bo19bo5871bo2bo6bobo150bo7b3o9bo6bo2bo5859bo11b2obo9b$o3bo19bo5874bo3b2o2b4o147bo21bo7b2o5859bo11b3o10b$o3bo19bo7bo10bo5855b2o3bo4bo148b3o29bo5839bo10bo7bo11b3o10b$4bo26bobo8bobo5856b3o182b3o5840bobo8bobo18b3o10b$bobo27bo2bo7bobo5856b3o182b2o5841bobo7bo2bo19b2o10b$32b2o9bo5875bo6010bo9b2o32b$15b3o5902bo6035b3o15b$5918b3o6053b$10bo5771b2o114b2o174b2o114b2o5782b$9b3o5770b2o114b2o58b2o54b2o58b2o114b2o5782b$9bob2o5945b2o54b2o5958b$10b3o11961b$10b3o4732b2o7227b$10b3o4731b2o7228b$10b2o4734bo7227b$11974b$11974b$5897b3o1322b2o4750b$5897bo1325b2o4749b$5898bo1323bo4751b$11974b$5790b2o98b2o190b2o98b2o5790b$5790b2o98b2o70bo106b3o10b2o98b2o5790b$22b2o5937b3o107bo5878b2o22b$18b2o2b2o5937bo2bo105bo5879b2o2b2o18b$18b2o5939b2o2b3o130bo5857b2o18b$5959b3o2bo132b2o5875b$5958b2o2b2o132b2o5876b$5958b3o46bo5966b$5958bob4o41b6o5963b$5872bo85b2o2b2o41b2o2b2o5963b$24bo5845b2o87b2o5988bo24b$24bo5846b2o136bo5939bo24b$24bo7bo10bo5961b2o2bo5920bo10bo7bo24b$31bobo8bobo5922bo37b2o3bo5707bo210bobo8bobo31b$31bo2bo7bobo5923bo40bo5709bo209bobo7bo2bo31b$32b2o9bo5922b3o38bobo5707b3o210bo9b2o32b$15b3o5990bo5947b3o15b$11974b$250bo5531b2o114b2o174b2o47bo66b2o5782b$249bo5532b2o114b2o174b2o47bobo64b2o5782b$249b3o4553b2o1316b2o5849b$4804b2o7168b$4806bo1209b2o5956b$5855bo110b2o38b2o10bo5955b$5853bobo110b2o38b2o8b3o5955b$5854b2o162bo1143b2o4810b$6016bo2bo1143b2o4809b$7162bo4811b$6016bobo5955b$11974b$11974b$5790b2o98b2o190b2o98b2o5790b$5790b2o98b2o190b2o98b2o5790b$22b2o11926b2o22b$18b2o2b2o11926b2o2b2o18b$18b2o11934b2o18b$11974b$11974b$11974b$11974b$11974b$24bo5933b2o54b2o5933bo24b$24bo5933b2o54b2o5933bo24b$24bo7bo10bo11886bo10bo7bo24b$31bobo8bobo11884bobo8bobo31b$31bo2bo7bobo11884bobo7bo2bo31b$32b2o9bo11886bo9b2o32b$15b3o11938b3o15b$11974b$4865b2o915b2o114b2o174b2o114b2o5782b$3103bo1760b2o916b2o114b2o174b2o114b2o5782b$3103bobo1760bo7107b$3103b2o8869b$11974b$5966b2o38b2o1094b2o4870b$5966b2o38b2o1095b2o1770bo3098b$7102bo1770bobo3093b3o2b$8874b2o3093bo2bob$11969bo4b$11969bo3bo$11969bo3bo$11969bo4b$5790b2o98b2o190b2o98b2o5786bobob$5790b2o98b2o190b2o98b2o5790b$22b2o11926b2o22b$18b2o2b2o11926b2o2b2o18b$2b3o13b2o11934b2o7bo10b$bo2bo11957b3o9b$4bo11956b2obo9b$o3bo11956b3o10b$o3bo11956b3o10b$4bo11956b3o10b$bobo20bo5933b2o54b2o5933bo12b2o10b$24bo5933b2o54b2o5933bo24b$24bo7bo10bo11886bo10bo7bo24b$31bobo8bobo11884bobo8bobo31b$10bo20bo2bo7bobo11884bobo7bo2bo31b$9b3o20b2o9bo11886bo9b2o32b$9bob2o2b3o4907b2o7029b3o15b$10b3o4911b2o7048b$10b3o4913bo855b2o114b2o174b2o114b2o5782b$10b3o5769b2o114b2o174b2o114b2o5782b$10b2o11962b$7042b2o4930b$7043b2o4929b$7042bo4931b$11974b$11974b$11974b$11974b$11974b$11974b$11974b$5790b2o390b2o5790b$5790b2o390b2o5790b$22b2o6132bo5793b2o22b$18b2o2b2o6133b2o5791b2o2b2o18b$18b2o6136b2o5796b2o18b$11974b$11974b$5812bo6161b$5810b2o6162b$5811b2o6161b$24bo5933b2o54b2o5933bo24b$24bo5933b2o54b2o5762bo170bo24b$24bo7bo10bo11735bo150bo10bo7bo24b$31bobo8bobo11732b3o149bobo8bobo31b$31bo2bo7bobo4940b2o6942bobo7bo2bo31b$32b2o9bo4940b2o6944bo9b2o32b$15b3o172bo4795bo6969b3o15b$189bo11784b$189b3o5590b2o114b2o174b2o114b2o5782b$5782b2o114b2o174b2o114b2o790b2o4990b$6983b2o4989b$6982bo4991b$11974b$11974b$11974b$11974b$11974b$11974b$11974b$11974b$11974b$5790b2o390b2o5790b$5790b2o390b2o5790b$22b2o11926b2o22b$18b2o2b2o11926b2o2b2o18b$18b2o11934b2o18b$11974b$11974b$11974b$11974b$11974b$24bo5933b2o54b2o5933bo24b$24bo5933b2o54b2o5933bo24b$24bo7bo10bo5001b2o6883bo10bo7bo24b$31bobo8bobo4999b2o6883bobo8bobo31b$31bo2bo7bobo5001bo6882bobo7bo2bo31b$32b2o9bo11886bo9b2o32b$15b3o6172bob3o5761b3o15b$3043bo3145b3o3bo726b2o5050b$3043bobo2852b2o174b2o112b3obo730b2o5049b$3043b2o2853b2o174b2o111b2o2b2ob2o726bo5051b$6187bo3b5o5778b$6187bobo5779b3o2b$6188b4ob2o2740bo3033bo2bob$5784b3o403b2ob2o2738bobo3033bo4b$5784bobo395bo8bobo2740b2o3033bo3bo$5779b3o2bobo395bo9bo5776bo3bo$5785b2ob2o392bo5786bo4b$5786bobo6181bobob$5787bo6186b$11974b$11974b$2b3o11958bo10b$bo2bo5773b2o414b2o5766b3o9b$4bo17b2o5754b2o414b2o5754b2o9b2obo9b$o3bo13b2o2b2o11926b2o2b2o5b3o10b$o3bo13b2o11934b2o5b3o10b$4bo11956b3o10b$bobo11958b2o10b$11974b$11974b$5782b2o406b2o5782b$10bo13bo5080b2o675b2o174b2o54b2o174b2o5757bo24b$9b3o12bo5079b2o852b2o54b2o5933bo24b$9bob2o11bo7bo10bo5062bo6823bo10bo7bo24b$10b3o18bobo8bobo11884bobo8bobo31b$10b3o18bo2bo7bobo11884bobo7bo2bo31b$10b3o19b2o9bo6818b2o5066bo9b2o32b$10b2o3b3o6845b2o5091b3o15b$6222bo639bo5111b$5898b2o174b2o144bobo5751b$5898b2o174b2o145b2o5751b$11974b$11974b$5746bo43b2o390b2o5790b$5746bobo41b2o390b2o5790b$5746b2o6226b$11974b$11974b$11974b$11974b$11974b$11974b$11974b$11974b$22b2o11926b2o22b$18b2o2b2o11926b2o2b2o18b$18b2o11934b2o18b$11974b$5891b2o6081b$5890b3o6081b$5165b2o723bo2bo6080b$5164b2o616b2o106b2ob2o295b2o5646bo135b$24bo5141bo615b2o106b2ob2o63b2o54b2o174b2o5647bo109bo24b$24bo5864b2ob2o64b2o54b2o136bobo5682b3o109bo24b$24bo7bo10bo5846bo261b2o5776bo10bo7bo24b$31bobo8bobo5846b3o259bo648b2o5125bobo8bobo31b$31bo2bo7bobo85bo5761bo188b3o719b2o5124bobo7bo2bo31b$32b2o9bo85bo5951bo2bo717bo5127bo9b2o32b$15b3o111b3o5692bobo253bo5875b3o15b$5825b2o256b2o5889b$5825bo253bo3b2o5889b$6079bo5894b$6081bo5892b$5900b2o170b2o7b3o5890b$5790b2o98b2o8b2o170b2o8b2o98b2o5790b$5790b2o98b2o191bo98b2o5790b$5902bo6071b$5901bobo6070b$5900bo6073b$5901bo3bo6068b$5901bo4bo164bo5902b$5907bo163bobo5900b$6071b2o5901b$5902bo168bo5902b$5905bo164b2o5902b$22b2o6046b2o5878b2o22b$18b2o2b2o11926b2o2b2o18b$18b2o11934b2o18b$11974b$5225b2o790bo5956b$5224b2o787b2obobo5955b$5226bo785bo5b2o5954b$5782b2o114b2o174b2o114b2o5782b$24bo5757b2o114b2o112bo6bo54b2o114b2o5757bo24b$24bo5988bo3b2o723b2o5205bo24b$24bo7bo10bo5968bo4bo725b2o5185bo10bo7bo24b$31bobo8bobo5916bo49bo3b2o725bo5186bobo8bobo31b$31bo2bo7bobo5915b3o48b2o4bo5911bobo7bo2bo31b$32b2o9bo2939bo2976b4o48b4obo5912bo9b2o32b$15b3o2965bobo2971b2obo3b2o40bo7b2ob2o5937b3o15b$2983b2o2970b2o2b2o45bo10bo5951b3o2b$5957bo2bobo3bo39bo9bo5952bo2bob$5960bo4bo6003bo4b$5961bob2o3030bo2973bo3bo$5963b2o3028bobo2973bo3bo$5790b2o98b2o190b2o98b2o2810b2o2973bo4b$5790b2o98b2o190b2o98b2o5786bobob$5954b2o62b2o5954b$5954b2o62b2o5954b$11974b$2b3o11958bo10b$bo2bo11957b3o9b$4bo11956b2obo9b$o3bo11956b3o10b$o3bo11956b3o10b$4bo5953b2o54b2o5945b3o10b$bobo18b2o5934b2o54b2o5934b2o10b2o10b$18b2o2b2o11926b2o2b2o18b$18b2o5265b2o6667b2o18b$5284b2o6688b$10bo5275bo6687b$9b3o11962b$9bob2o11961b$10b3o5769b2o114b2o174b2o114b2o490b2o5290b$10b3o11bo5757b2o114b2o174b2o114b2o491b2o5264bo24b$10b3o11bo6657bo5266bo24b$10b2o12bo7bo10bo11886bo10bo7bo24b$31bobo8bobo11884bobo8bobo31b$31bo2bo7bobo5921b2o38b2o5921bobo7bo2bo31b$32b2o9bo5922b2o38b2o274bo5647bo9b2o32b$15b3o6262bobo5673b3o15b$6281b2o5691b$11974b$11974b$5686bo6287b$5686bobo6285b$5686b2o102b2o98b2o190b2o98b2o5790b$5790b2o98b2o190b2o98b2o5790b$11974b$11974b$11974b$11974b$11974b$11974b$11974b$6133bo5840b$5958b2o54b2o115bobo5840b$22b2o5321b2o611b2o54b2o116b2o5816b2o22b$18b2o2b2o5320b2o6604b2o2b2o18b$18b2o5326bo628bobo5976b2o18b$5835bo139b2o5997b$5835bobo138bo5997b$5835b2o785b2o5274bo75b$6623b2o5274bo74b$5782b2o114b2o101bobo70b2o16bobo95b2o430bo5274b3o74b$24bo5757b2o114b2o102b2o70b2o16b2o96b2o5757bo24b$24bo5977bo90bo5855bo24b$24bo7bo10bo26bo11859bo10bo7bo24b$31bobo8bobo24bo11859bobo8bobo31b$31bo2bo7bobo24b3o5812bobo79b2o38b2o5921bobo7bo2bo31b$32b2o9bo5841b2o79b2o38b2o5922bo9b2o32b$15b3o5867bo6070b3o15b$11974b$11974b$11974b$11974b$11974b$5790b2o98b2o190b2o98b2o5790b$5790b2o98b2o190b2o98b2o5790b$11974b$11974b$11974b$11974b$11974b$11974b$11974b$5405b2o6567b$5404b2o552b2o54b2o5958b$22b2o5382bo551b2o54b2o5934b2o22b$18b2o2b2o11926b2o2b2o18b$18b2o11934b2o18b$6562b2o5410b$6563b2o5409b$6562bo5411b$11974b$5782b2o114b2o174b2o114b2o5782b$24bo5757b2o114b2o174b2o114b2o5757bo24b$24bo11924bo24b$24bo7bo10bo11886bo10bo7bo24b$31bobo8bobo2878bo9005bobo8bobo26b3o2b$31bo2bo7bobo2878bobo9003bobo7bo2bo26bo2bob$32b2o9bo2879b2o9005bo9b2o27bo4b$15b3o11938b3o10bo3bo$11969bo3bo$9055bo2913bo4b$9053bobo2914bobob$9054b2o2918b$11974b$5790b2o390b2o5790b$2b3o5785b2o390b2o5779bo10b$bo2bo11957b3o9b$4bo11956b2obo9b$o3bo11956b3o10b$o3bo11956b3o10b$4bo11956b3o10b$bobo5461b2o6495b2o10b$5464b2o6508b$5466bo6507b$5958b2o54b2o5958b$10bo11b2o5934b2o54b2o5934b2o22b$9b3o6b2o2b2o6478b2o5446b2o2b2o18b$9bob2o5b2o6483b2o5449b2o18b$10b3o6489bo5471b$10b3o11961b$10b3o11961b$10b2o11962b$5782b2o114b2o174b2o114b2o5782b$5782b2o114b2o174b2o114b2o5782b$60b2o11912b$60bobo11911b$27b2o6bo24bo6281bo5595bo6b2o27b$27b2o5bobo6303bobo5594bobo5b2o27b$34bo2bo6303b2o5593bo2bo34b$15b3o17b2o11870b2o28b2o17b3o15b$11906bobo65b$5626bo6281bo65b$5626bobo6345b$5626b2o6346b$11974b$11974b$11974b$11974b$11974b$11974b$5525b2o6447b$5524b2o6448b$5526bo6447b$11974b$11974b$5958b2o54b2o426b2o5530b$22b2o5934b2o54b2o427b2o5505b2o22b$18b2o2b2o6418bo5507b2o2b2o18b$18b2o11934b2o18b$11974b$11974b$11974b$11974b$120b2o5660b2o114b2o174b2o114b2o5782b$120bobo5659b2o114b2o174b2o114b2o5782b$120bo11853b$11974b$27b2o6bo11902bo6b2o27b$27b2o5bobo11810b2o88bobo5b2o27b$34bo2bo11808bobo87bo2bo34b$15b3o17b2o11811bo88b2o17b3o15b$11974b$11974b$11974b$11974b$11974b$11974b$11974b$11974b$5585b2o6387b$5584b2o6388b$5586bo6387b$11974b$11974b$6382b2o5590b$6383b2o5589b$5958b2o54b2o366bo5591b$22b2o5934b2o54b2o5934b2o22b$18b2o2b2o11926b2o2b2o18b$18b2o11934b2o18b$11974b$11974b$180b2o5598b3o6191b$180bobo5597b4o405b3o5782b$180bo5598bo4bo113b2o174b2o113b3o5777b3o2b$5780b3o2bo112b2o174b2o5893bo2bob$2863bo2915bo2bo2bo398bo2bo5781bo4b$2863bobo2743b3o167b2o2b3o398bo2b2o5b2o166b3o5422b2o180bo3bo$27b2o6bo2827b2o2914bo2b3o403bob6o5590bobo149bo6b2o22bo3bo$27b2o5bobo5570bo5bo166b4o400bo3bo2bo2bo165bo5bo5421bo148bobo5b2o22bo4b$34bo2bo5569bo5bo570bo4b3ob2o165bo5bo5569bo2bo30bobob$15b3o17b2o5570bo5bo176b3o393b3o3b2o166bo5bo2748bo2821b2o17b3o15b$5627b2o3484bobo2858b$5609b3o15bobo543b3o186b3o2749b2o2858b$2b3o5622bo545b3o5787bo10b$bo2bo6169bo5787b3o9b$4bo6169bo5786b2obo9b$o3bo6168b3o164b2o5619b3o10b$o3bo5773b2o393b3o18b2o143bobo5619b3o10b$4bo5773b2o414bobo144bo5619b3o10b$bobo6194bobo5761b2o10b$6195bo5bo5772b$6196bo5777b$11974b$10bo11963b$9b3o6185bobo5774b$9bob2o5769b2o406b2o5782b$10b3o5769b2o174b2o54b2o174b2o5782b$10b3o9b2o5934b2o54b2o199bo5734b2o22b$10b3o5b2o2b2o6192b2o5732b2o2b2o18b$10b2o6b2o6195b2o5737b2o18b$240b2o11732b$240bobo11731b$240bo5512bo6220b$5751b2o6221b$5752b2o144b2o174b2o5898b$5898b2o174b2o5651b2o245b$11726bobo245b$5609b3o750b3o5363bo245b$27b2o6bo5754b2o390b2o5754bo6b2o27b$27b2o5bobo5570bo5bo176b2o390b2o176bo5bo5570bobo5b2o27b$34bo2bo5569bo5bo73b2o671bo5bo5569bo2bo34b$15b3o17b2o5570bo5bo73bobo670bo5bo5570b2o17b3o15b$5687bo6286b$5609b3o750b3o5609b$11974b$6280b2o5692b$6279bobo5692b$6281bo5692b$11974b$11974b$11974b$11974b$6158bo5815b$6158bobo5813b$6158b2o5814b$11974b$5782b2o406b2o5782b$5782b2o36bo137b2o54b2o174b2o5782b$22b2o5794bobo137b2o54b2o5934b2o22b$18b2o2b2o276b2o5517b2o6129b2o2b2o18b$18b2o280bobo11651b2o18b$300bo11673b$11974b$11974b$11667b2o305b$5898b2o174b2o5590bobo305b$5898b2o174b2o5592bo305b$11974b$5609b3o750b3o5609b$27b2o6bo5711b2o41b2o390b2o5754bo6b2o27b$27b2o5bobo5570bo5bo133bobo40b2o390b2o176bo5bo5570bobo5b2o27b$34bo2bo5569bo5bo133bo612bo5bo5569bo2bo34b$15b3o17b2o5570bo5bo746bo5bo5570b2o17b3o15b$11974b$5609b3o608b2o140b3o5609b$6219bobo5752b$6221bo5752b$11974b$11974b$11974b$11974b$11974b$11974b$11974b$11974b$11974b$11974b$5782b2o406b2o5782b$360b2o5420b2o174b2o54b2o174b2o5782b$22b2o336bobo5595b2o54b2o5934b2o22b$18b2o2b2o336bo11589b2o2b2o18b$18b2o11934b2o18b$11969b3o2b$11607b2o360bo2bob$11606bobo360bo4b$11608bo360bo3bo$2803bo3094b2o174b2o5893bo3bo$2803bobo3092b2o174b2o5893bo4b$2803b2o3002b2o6161bobob$5609b3o195bobo552b3o5609b$27b2o6bo5754b2o15bo374b2o5754bo6b2o27b$27b2o5bobo5570bo5bo176b2o390b2o176bo5bo2808bo2761bobo5b2o27b$2b3o29bo2bo5569bo5bo746bo5bo2806bobo2760bo2bo23bo10b$bo2bo10b3o17b2o5570bo5bo546b2o198bo5bo2807b2o2761b2o17b3o3b3o9b$4bo6154bobo5799b2obo9b$o3bo5604b3o549bo200b3o5596b3o10b$o3bo11956b3o10b$4bo11956b3o10b$bobo11958b2o10b$5748b3o6223b$5748bo6225b$5749bo6224b$10bo11963b$9b3o11962b$9bob2o6205b3o5753b$10b3o6207bo5753b$10b3o6206bo5754b$10b3o407b2o11552b$10b2o408bobo5359b2o406b2o5782b$420bo5361b2o174b2o54b2o174b2o5782b$22b2o5934b2o54b2o5934b2o22b$18b2o2b2o11926b2o2b2o18b$18b2o11527b2o405b2o18b$5891bo5654bobo425b$5890b3o5655bo425b$5889b2o2bo6080b$5889b2ob2o186bo5893b$5867b2o23b3o185bo5893b$5867bobo20bob2o186bo5893b$5867bo21bo2bo6081b$5609b3o280bo7b2o170b2o7b3o278b3o5609b$27b2o6bo5754b2o97bobo8b2o170b2o7bobo98b2o5754bo6b2o27b$27b2o5bobo5570bo5bo176b2o98bo185bobo2b3o16b2o80b2o176bo5bo5570bobo5b2o27b$34bo2bo5569bo5bo462b2o21bobo258bo5bo5569bo2bo34b$15b3o17b2o5570bo5bo463bo23bo258bo5bo5570b2o17b3o15b$11974b$5609b3o750b3o5609b$5900bobo6071b$5808b3o90b2o6071b$5808bo92bo6072b$5809bo6164b$5902b2o166b2o5902b$5902b2o166b2o5902b$6098bo59b3o5813b$6098bobo59bo5813b$6098b2o59bo5814b$480b2o5474bo6017b$480bobo5471b2o4bo6013b$480bo5399bo73b3o3bo6013b$5782b2o94bobo17b2o54b2o118b2o114b2o5782b$5782b2o95b2o17b2o55bo118b2o114b2o5782b$22b2o5931b2o3b2o51bobo5471b2o461b2o22b$18b2o2b2o5931b2o4bo50bo2bob2o5467bobo461b2o2b2o18b$18b2o5936b2o4bo49bo2bob2o5469bo465b2o18b$5956bo5bo53b2obo5954b$5956bobo2b2o47bo5b4o5954b$5927b2o26b2obo49b2o5964b$5927bobo25b2obo7b3o39bo6b2o5957b$5927bo80b3obob2o3bo5954b$6014b5o5955b$6015bo5958b$5609b3o428b2o320b3o5609b$27b2o6bo5754b2o98b2o147bobo40b2o98b2o5754bo6b2o27b$27b2o5bobo5570bo5bo176b2o98b2o149bo40b2o98b2o176bo5bo5570bobo5b2o27b$34bo2bo5569bo5bo340b2o62b2o340bo5bo5569bo2bo34b$15b3o17b2o5570bo5bo340b2o62b2o340bo5bo5570b2o17b3o15b$11974b$5609b3o256b3o491b3o5609b$5868bo6105b$5869bo6104b$11974b$11974b$5958b2o54b2o82b3o5873b$5958b2o54b2o84bo5873b$6099bo5874b$540b2o11432b$540bobo11431b$540bo11433b$11974b$11974b$5782b2o114b2o174b2o114b2o5235b2o545b$5782b2o114b2o174b2o114b2o5234bobo540b3o2b$22b2o11404bo521b2o17bo2bob$18b2o2b2o11926b2o2b2o13bo4b$18b2o11934b2o13bo3bo$5966b2o38b2o5961bo3bo$5966b2o38b2o5961bo4b$2743bo9226bobob$2743bobo9228b$2743b2o9229b$11974b$2b3o11958bo10b$bo2bo5604b3o750b3o2870bo2726b3o9b$4bo22b2o6bo5754b2o390b2o3049bobo2702bo6b2o14b2obo9b$o3bo22b2o5bobo5570bo5bo176b2o390b2o176bo5bo2867b2o2701bobo5b2o14b3o10b$o3bo29bo2bo5569bo5bo746bo5bo5569bo2bo21b3o10b$4bo10b3o17b2o5570bo5bo314b3o429bo5bo5570b2o17b3o2b3o10b$bobo5924bo197bobo5833b2o10b$5609b3o317bo197b2o233b3o5609b$6127bo5846b$11974b$10bo5969bo57b3o5933b$9b3o5828bobo137bobo57bo5933b$9bob2o5827b2o116b2o20b2o32b2o23bo5934b$10b3o587b2o5239bo116b2o54b2o5958b$10b3o587bobo11371b$10b3o587bo5397bo5975b$10b2o5984bobo5975b$5997b2o5975b$11367b2o605b$11366bobo605b$5782b2o114b2o174b2o114b2o5176bo605b$5782b2o114b2o174b2o114b2o5782b$22b2o11926b2o22b$18b2o2b2o11926b2o2b2o18b$18b2o11934b2o18b$5966b2o38b2o5966b$5966b2o38b2o5966b$11974b$11974b$11974b$11974b$11974b$5609b3o750b3o5609b$27b2o6bo5754b2o390b2o5754bo6b2o27b$27b2o5bobo5570bo5bo176b2o196b3o191b2o176bo5bo5570bobo5b2o27b$34bo2bo5569bo5bo374bo371bo5bo5569bo2bo34b$15b3o17b2o5570bo5bo375bo370bo5bo5570b2o17b3o15b$11974b$5609b3o750b3o5609b$5978b3o5993b$5980bo5993b$5979bo5994b$660b2o11312b$660bobo5295b2o54b2o5958b$660bo5297b2o54b2o5958b$11974b$11974b$11307b2o665b$11306bobo665b$11308bo665b$11974b$5782b2o114b2o174b2o114b2o5782b$5782b2o114b2o174b2o114b2o5782b$22b2o11926b2o22b$18b2o2b2o11926b2o2b2o18b$18b2o11934b2o18b$11974b$11974b$11974b$11974b$11974b$11974b$11974b$5609b3o436b3o311b3o5609b$27b2o6bo5754b2o256bo133b2o5754bo6b2o27b$27b2o5bobo5570bo5bo176b2o257bo132b2o176bo5bo5570bobo5b2o27b$34bo2bo5569bo5bo746bo5bo5569bo2bo34b$15b3o17b2o5570bo5bo746bo5bo5570b2o17b3o15b$5918b3o6053b$5609b3o308bo441b3o5609b$5919bo6054b$720b2o11252b$720bobo11251b$720bo11253b$5958b2o54b2o5958b$5958b2o54b2o5958b$11247b2o725b$11246bobo725b$11248bo725b$11969b3o2b$11969bo2bob$11969bo4b$5782b2o114b2o174b2o114b2o5777bo3bo$5782b2o114b2o174b2o114b2o5777bo3bo$22b2o11926b2o17bo4b$18b2o2b2o11926b2o2b2o14bobob$18b2o11934b2o18b$2683bo3497b2o5791b$2683bobo3495b2o5791b$2b3o2678b2o3496bo5781bo10b$bo2bo11957b3o9b$4bo11956b2obo9b$o3bo6103b3o3184bo2665b3o10b$o3bo6103bo3184bobo2665b3o10b$4bo5604b3o497bo252b3o2929b2o2665b3o10b$bobo23b2o6bo11902bo6b2o15b2o10b$27b2o5bobo5570bo5bo572b3o171bo5bo5570bobo5b2o27b$34bo2bo5569bo5bo244b3o324bo2bo171bo5bo5569bo2bo34b$15b3o17b2o5570bo5bo246bo324b2o2b2o169bo5bo5570b2o17b3o15b$10bo5848bo325bo5bo5782b$9b3o768b2o4827b3o574b3o173b3o5609b$9bob2o767bobo5006bobo398b2o5782b$10b3o767bo5007bo2bo394b3o2bo5782b$10b3o5774b2o3bo394bo2bo5783b$10b3o5779bo396b2o5783b$10b2o5946b2o54b2o5171b2o785b$5787b3o2bo165b2o54b2o5170bobo785b$5791b2o390bo5004bo785b$5788b3o390b2o5791b$5788b3o391b2o5790b$11974b$11974b$11974b$5898b2o174b2o5898b$5898b2o174b2o5898b$22b2o11926b2o22b$18b2o2b2o5756b2o6168b2o2b2o18b$18b2o5760b2o8b2o390b2o5770b2o18b$5780bo9b2o390b2o5790b$5779bo6194b$5779b2o6193b$5779b3o386b3o5803b$5780b2o386bo5805b$5775bo393bo5804b$11974b$5609b3o750b3o5609b$27b2o6bo5762b3o6137bo6b2o27b$27b2o5bobo5570bo5bo186bo559bo5bo5570bobo5b2o27b$34bo2bo5569bo5bo185bo560bo5bo5569bo2bo34b$15b3o17b2o803b2o4765bo5bo746bo5bo5570b2o17b3o15b$840bobo11131b$840bo4768b3o750b3o5609b$11974b$11974b$11127b2o845b$5782b2o406b2o4934bobo845b$5782b2o174b2o54b2o174b2o4936bo845b$5958b2o54b2o5958b$11974b$11974b$11974b$11974b$11974b$11974b$5898b2o174b2o5898b$5898b2o174b2o5898b$22b2o11926b2o22b$18b2o2b2o11926b2o2b2o18b$18b2o5770b2o390b2o5770b2o18b$5790b2o390b2o5790b$6228b3o5743b$6228bo5745b$6229bo5744b$11974b$11974b$5738b3o6233b$5609b3o128bo621b3o5609b$27b2o6bo5703bo6198bo6b2o27b$27b2o5bobo863b2o4705bo5bo746bo5bo5570bobo5b2o27b$34bo2bo862bobo4704bo5bo746bo5bo5569bo2bo34b$15b3o17b2o863bo4706bo5bo746bo5bo5570b2o17b3o15b$11974b$5609b3o750b3o5609b$11067b2o905b$11066bobo905b$11068bo905b$5782b2o406b2o5782b$5782b2o174b2o54b2o174b2o5782b$5958b2o54b2o5953b3o2b$11969bo2bob$11969bo4b$11969bo3bo$11969bo3bo$11969bo4b$11970bobob$5898b2o174b2o5898b$5898b2o174b2o5898b$22b2o6172bo5753b2o22b$2b3o13b2o2b2o2599bo3572b2o5752b2o2b2o7bo10b$bo2bo13b2o2603bobo3164b2o390b2o11bobo5756b2o6b3o9b$4bo2618b2o3165b2o390b2o5777b2obo9b$o3bo11956b3o10b$o3bo5777bo6178b3o10b$4bo5776b2o3572bo2605b3o10b$bobo5777bobo3569bobo2606b2o10b$9354b2o2618b$11974b$960b2o4647b3o750b3o5609b$10bo16b2o6bo924bobo10975bo6b2o27b$9b3o15b2o5bobo923bo4646bo5bo746bo5bo5570bobo5b2o27b$9bob2o21bo2bo5569bo5bo746bo5bo5569bo2bo34b$10b3o2b3o17b2o5570bo5bo746bo5bo5570b2o17b3o15b$10b3o10994b2o965b$10b3o5596b3o233bo516b3o4641bobo965b$10b2o5834b2o5160bo965b$5845b2o6127b$11974b$5782b2o406b2o5782b$5782b2o174b2o54b2o107bo66b2o5782b$5958b2o54b2o105b2o5851b$6122b2o5850b$11974b$11974b$11974b$11974b$11974b$5898b2o236bo5837b$5898b2o174b5o57b2o5836b$22b2o6049b2o5bo54bobo5812b2o22b$18b2o2b2o6049b2obo3b2o5868b2o2b2o18b$18b2o5770b2o281b2obo105b2o5770b2o18b$5790b2o50bo57bo172bo3bobobo100b2o5790b$5841b2o56b3o172bobob2ob2o5891b$5841bobo59b3o169bo5b2o5bo5885b$5892b2o6bo2bobo174bo10b2o5881b$5887bo5b2o191bo6bo5880b$1020b2o4859b2o4b2o2bobo12b2o176b2o4b2obo5880b$1020bobo4858bo4bo2b4obo11b2o158b2o16b2obo4bo5881b$1020bo4588b3o269bo2b3o4b3o12bobo157bo18b2o275b3o5609b$27b2o6bo5845b7o3b2obo11b3o151b2o3bob2o5869bo6b2o27b$27b2o5bobo5570bo5bo272b2o4b2o12b3o152bobobo3b2o289bo5bo5570bobo5b2o27b$34bo2bo5569bo5bo272b2o5bo11bo157bobo5bo2bo285bo5bo4580b2o987bo2bo34b$15b3o17b2o5570bo5bo290b2o8bobo147bob3ob2o3bo284bo5bo4579bobo988b2o17b3o15b$5915b2o151bo3bobo4873bo1025b$5609b3o303bo154b4o288b3o5609b$6070b3o5901b$11974b$6052bobo5919b$5782b2o114b2o152b2o20b2o114b2o5782b$5782b2o114b2o58b2o54b2o37bo20b2o114b2o5782b$5958b2o54b2o5958b$11974b$11974b$11974b$11974b$6076bo5897b$6076b2o5896b$6075bobo5896b$11974b$22b2o11926b2o22b$18b2o2b2o5878bo108bo5938b2o2b2o18b$18b2o5770b2o98b2o9b2o107b3o69b2o98b2o5770b2o18b$5790b2o98b2o9bobo105b2ob2o68b2o98b2o5790b$6009bo5964b$11974b$1080b2o4929bo5962b$1080bobo4792bo135b2o5961b$1080bo4793bo135bob2o5960b$5874b3o85b2o6010b$5609b3o350b2o398b3o5609b$27b2o6bo5925bo4925b2o1049bo6b2o27b$27b2o5bobo5570bo5bo347b3o50bo88bo256bo5bo4519bobo1048bobo5b2o27b$34bo2bo5569bo5bo348bobo49b2o88bo255bo5bo4521bo1047bo2bo34b$15b3o17b2o5570bo5bo348b2o138b3o255bo5bo5570b2o17b3o15b$5964bo6009b$5609b3o352bo397b3o5609b$5966bo37bobo5967b$6004b2o5963b3o2b$6005bo5963bo2bob$5782b2o114b2o174b2o114b2o5777bo4b$5782b2o114b2o174b2o114b2o5777bo3bo$11969bo3bo$11969bo4b$11970bobob$5966b2o38b2o5966b$5966b2o38b2o5966b$11974b$2b3o11958bo10b$bo2bo11957b3o9b$4bo2558bo9397b2obo9b$o3bo17b2o2539bobo9384b2o9b3o10b$o3bo13b2o2b2o2539b2o9385b2o2b2o5b3o10b$4bo13b2o5770b2o390b2o5770b2o5b3o10b$bobo5786b2o390b2o5778b2o10b$1140b2o8273bo2558b$1140bobo8270bobo2558b$1140bo8273b2o2558b$10bo11963b$9b3o11962b$9bob2o10814b2o1145b$10b3o5596b3o750b3o4461bobo1145b$10b3o14b2o6bo10792bo1109bo6b2o27b$10b3o14b2o5bobo5570bo5bo344b2o54b2o344bo5bo5570bobo5b2o27b$10b2o22bo2bo5569bo5bo344b2o54b2o344bo5bo5569bo2bo34b$15b3o17b2o5570bo5bo746bo5bo5570b2o17b3o15b$11974b$5609b3o750b3o5609b$11974b$11974b$11974b$5782b2o114b2o174b2o114b2o5782b$5782b2o114b2o174b2o114b2o5782b$11974b$11974b$11974b$5966b2o38b2o5966b$5966b2o38b2o5966b$11974b$11974b$11974b$11974b$22b2o11926b2o22b$18b2o2b2o11926b2o2b2o18b$18b2o1180b2o4588b2o390b2o5770b2o18b$1200bobo4587b2o390b2o5790b$1200bo10773b$11974b$11974b$10767b2o1205b$10766bobo1205b$10768bo1205b$5609b3o750b3o5609b$27b2o6bo11902bo6b2o27b$27b2o5bobo5570bo5bo344b2o54b2o344bo5bo5570bobo5b2o27b$34bo2bo5569bo5bo344b2o54b2o344bo5bo5569bo2bo34b$15b3o17b2o5570bo5bo746bo5bo5570b2o17b3o15b$11974b$5609b3o750b3o5609b$11974b$11974b$11974b$5782b2o114b2o174b2o114b2o5782b$5782b2o114b2o174b2o114b2o5782b$11974b$11974b$11974b$11974b$11974b$11974b$11974b$11974b$11974b$22b2o1236b2o10688b2o22b$18b2o2b2o1236bobo10687b2o2b2o18b$18b2o1240bo4529b2o390b2o5770b2o18b$5790b2o390b2o5790b$11974b$5815bo4891b2o1265b$5814bo4891bobo1265b$5814b3o4891bo1265b$11974b$11974b$5609b3o551bo198b3o5609b$27b2o6bo6128bo5773bo6b2o27b$27b2o5bobo5570bo5bo344b2o54b2o146b3o195bo5bo5570bobo5b2o27b$34bo2bo5569bo5bo344b2o54b2o344bo5bo5569bo2bo34b$15b3o17b2o5570bo5bo746bo5bo5570b2o17b3o10b3o2b$11969bo2bob$5609b3o750b3o5604bo4b$11969bo3bo$11969bo3bo$11969bo4b$5782b2o114b2o174b2o114b2o5778bobob$5782b2o114b2o174b2o114b2o5782b$11974b$11974b$2b3o11958bo10b$bo2bo11957b3o9b$4bo11956b2obo9b$o3bo11956b3o10b$o3bo2498bo9457b3o10b$4bo1315b2o1181bobo9455b3o10b$bobo1316bobo1180b2o9457b2o10b$22b2o1296bo10629b2o22b$18b2o2b2o11926b2o2b2o18b$18b2o5770b2o390b2o3291bo2478b2o18b$10bo5779b2o390b2o3289bobo1171b2o1325b$9b3o9462b2o1170bobo1325b$9bob2o10635bo1325b$10b3o11961b$10b3o11961b$10b3o11961b$10b2o11962b$5609b3o750b3o5609b$27b2o6bo11902bo6b2o27b$27b2o5bobo5570bo5bo344b2o54b2o344bo5bo5570bobo5b2o27b$34bo2bo5569bo5bo344b2o54b2o344bo5bo5569bo2bo34b$15b3o17b2o5570bo5bo746bo5bo5570b2o17b3o15b$11974b$5609b3o750b3o5609b$11974b$11974b$11974b$5782b2o114b2o174b2o114b2o5782b$5782b2o114b2o174b2o114b2o5782b$11974b$11974b$11974b$11974b$11974b$1380b2o10592b$1380bobo10591b$1380bo10593b$11974b$22b2o11926b2o22b$18b2o2b2o10563b2o1361b2o2b2o18b$18b2o10566bobo1365b2o18b$10588bo1385b$11974b$11974b$11974b$11974b$6186b2o5786b$6186bob2o5784b$5609b3o576b2o172b3o5609b$27b2o6bo5754bo395b2o5750bo6b2o27b$27b2o5bobo5570bo5bo176bo167b2o54b2o168b2o174bo5bo5570bobo5b2o27b$34bo2bo5569bo5bo175bobo166b2o54b2o344bo5bo5569bo2bo34b$15b3o17b2o5570bo5bo570bobo173bo5bo5570b2o17b3o15b$5788b2o395bo5788b$5609b3o750b3o5609b$5788b2o6184b$11974b$11974b$5898b2o174b2o5898b$5898b2o174b2o5898b$11974b$5780b2o6192b$5780b2o8b2o390b2o5790b$1440b2o4348b2o390b2o5790b$1440bobo10531b$1440bo10533b$11974b$11974b$6188b2o4337b2o1445b$22b2o5754b3o406bobo4336bobo1421b2o22b$18b2o2b2o5754b3o408bo4338bo1421b2o2b2o18b$18b2o5757bob2o6173b2o18b$5778b2obo6192b$5779b2o8b2o6183b$5789bobo6182b$5789bo6184b$11974b$11974b$11974b$5609b3o750b3o5604b3o2b$27b2o6bo5746b2o406b2o5746bo6b2o22bo2bob$27b2o5bobo5570bo5bo168b2o174b2o54b2o174b2o168bo5bo5570bobo5b2o22bo4b$34bo2bo5569bo5bo344b2o54b2o344bo5bo5569bo2bo29bo3bo$15b3o17b2o5570bo5bo746bo5bo5570b2o17b3o10bo3bo$11969bo4b$5609b3o750b3o5605bobob$11974b$11974b$11974b$2b3o5893b2o174b2o5887bo10b$bo2bo5893b2o174b2o5886b3o9b$4bo11956b2obo9b$o3bo1495b2o10459b3o10b$o3bo1495bobo4287b2o390b2o5777b3o10b$4bo1495bo4289b2o390b2o5777b3o10b$bobo2439bo3632bobo5883b2o10b$2443bobo3453bo178bo5895b$2443b2o3453bobo165bobo4b3o2bo49b2o4337b2o1505b$5886bo5bo5bobo165bobo4bo53bobo4336bobo1505b$10bo5877bo2bo3b2o169bo2bo4b4o12bo38bo4338bo1505b$9b3o10b2o5859bo4bo8bo7b2o160b3o6bobo4b2o5bo3444bo2414b2o22b$9bob2o5b2o2b2o5858bo15bobo2b2ob2o159bo9b3o2bobo5bo3442bobo2414b2o2b2o18b$10b3o5b2o5829b2o31bo8b2o10b2obo153bo6b3o6b3o2b2obo3449b2o2418b2o18b$10b3o5836bobo30bo5bo2b2o2b2o8bo154bobo13bo5b5ob3o5883b$10b3o5836bo33bo3bo8bob3ob3o155b2o21bo2bob3o5883b$10b2o5872bo18bo180b3o2b2o5883b$6088b2o2bo5881b$6088b2ob2o5881b$6090b2o5882b$11974b$5609b3o750b3o5609b$27b2o6bo5746b2o114b2o174b2o114b2o5746bo6b2o27b$27b2o5bobo5570bo5bo168b2o114b2o58b2o54b2o58b2o114b2o168bo5bo5570bobo5b2o27b$34bo2bo5569bo5bo344b2o54b2o344bo5bo5569bo2bo34b$15b3o17b2o5570bo5bo746bo5bo5570b2o17b3o15b$11974b$5609b3o750b3o5609b$11974b$11974b$11974b$11974b$1560b2o10412b$1560bobo4319bobo6089b$1560bo4321b2o6090b$5790b2o91bo6b2o190b2o98b2o5790b$5790b2o98b2o190b2o98b2o5790b$6068b2o4337b2o1565b$6067bobo24bobo4309bobo1565b$6069bo25b2o4311bo1565b$6095bo5878b$11974b$22b2o5885b2o6039b2o22b$18b2o2b2o5885bobo6038b2o2b2o18b$18b2o5889bo96b3o5945b2o18b$6005bo3bo5964b$5843bo166bo5963b$5844bo6129b$5842b3o160b2o3bo5963b$6007b3o5964b$11974b$6125bo5848b$5609b3o353b3o156bo237b3o5609b$27b2o6bo5746b2o114b2o65bo2bo105b2o48b3o63b2o5746bo6b2o27b$27b2o5bobo5570bo5bo168b2o114b2o64bo3bo105b2o114b2o168bo5bo5570bobo5b2o27b$34bo2bo5569bo5bo350bobob2o390bo5bo5569bo2bo34b$15b3o17b2o5570bo5bo351b2ob2o390bo5bo5570b2o17b3o15b$5956b2o8b3o47b2o5956b$5609b3o344b2o48b2o8b2o344b3o5609b$6006b2o5966b$11974b$1620b2o10352b$1620bobo4395bo5955b$1620bo4335bo60b3o5954b$5956bobo57b2ob2o5953b$5956b2o57bo5958b$5790b2o98b2o122bo4bob2o59b2o98b2o4163b2o1625b$5790b2o98b2o122bo4bobo60b2o98b2o4162bobo1625b$5954b2o59bo4bo4327bo1625b$5954b2o6018b$11974b$11974b$11974b$22b2o11926b2o22b$18b2o2b2o11926b2o2b2o18b$18b2o11934b2o18b$5958b2o54b2o5958b$5958b2o54b2o5958b$11974b$11969b3o2b$11969bo2bob$11969bo4b$11969bo3bo$5609b3o750b3o5604bo3bo$27b2o6bo5746b2o114b2o174b2o114b2o5746bo6b2o22bo4b$27b2o5bobo5570bo5bo168b2o114b2o174b2o114b2o168bo5bo5570bobo5b2o23bobob$34bo2bo5569bo5bo746bo5bo5569bo2bo34b$15b3o17b2o5570bo5bo746bo5bo5570b2o17b3o15b$11974b$2b3o5604b3o354b2o38b2o354b3o5598bo10b$bo2bo1675b2o4284b2o38b2o5954b3o9b$4bo1675bobo10278b2obo9b$o3bo1675bo10280b3o10b$o3bo11956b3o10b$4bo11956b3o10b$bobo10283b2o1673b2o10b$10286bobo1685b$2383bo3406b2o98b2o190b2o98b2o4104bo1685b$2383bobo3404b2o98b2o190b2o98b2o5790b$10bo2372b2o9589b$9b3o11962b$9bob2o11961b$10b3o9582bo2378b$10b3o9580bobo2378b$10b3o9b2o9570b2o2354b2o22b$10b2o6b2o2b2o11926b2o2b2o18b$18b2o11934b2o18b$5958b2o54b2o5958b$5958b2o54b2o5958b$11974b$11974b$11974b$11974b$11974b$5609b3o750b3o5609b$27b2o6bo5746b2o114b2o174b2o114b2o5746bo6b2o27b$27b2o5bobo5570bo5bo168b2o114b2o174b2o114b2o168bo5bo5570bobo5b2o27b$34bo2bo5569bo5bo746bo5bo5569bo2bo34b$15b3o17b2o5570bo5bo746bo5bo5570b2o17b3o15b$1740b2o10232b$1740bobo3866b3o750b3o5609b$1740bo10233b$11974b$11974b$5822bobo4402b2o1745b$5822b2o4402bobo1745b$5823bo4404bo1745b$11974b$5790b2o390b2o5790b$5790b2o362bobo25b2o5790b$6155b2o5817b$6155bo5818b$11974b$11974b$11974b$22b2o11926b2o22b$18b2o2b2o11926b2o2b2o18b$18b2o11934b2o18b$5958b2o54b2o5958b$5958b2o54b2o5958b$11974b$11974b$11974b$11974b$11974b$5609b3o750b3o5609b$27b2o6bo5746b2o114b2o174b2o114b2o5746bo6b2o27b$27b2o5bobo5570bo5bo168b2o114b2o174b2o114b2o168bo5bo5570bobo5b2o27b$34bo2bo1762b2o3805bo5bo746bo5bo5569bo2bo34b$15b3o17b2o1763bobo3804bo5bo746bo5bo5570b2o17b3o15b$1800bo10173b$5609b3o750b3o5609b$11974b$10167b2o1805b$10166bobo1805b$10168bo1805b$11974b$11974b$11974b$5790b2o390b2o5790b$5790b2o390b2o5790b$11974b$11974b$11974b$11974b$11974b$22b2o11926b2o22b$18b2o2b2o11926b2o2b2o18b$18b2o11934b2o13b3o2b$5958b2o54b2o5953bo2bob$5958b2o54b2o5953bo4b$11969bo3bo$11969bo3bo$11969bo4b$11970bobob$11974b$5609b3o750b3o5609b$27b2o6bo1824b2o3920b2o114b2o174b2o114b2o5746bo6b2o27b$2b3o22b2o5bobo1823bobo3744bo5bo168b2o114b2o174b2o114b2o168bo5bo5570bobo5b2o16bo10b$bo2bo29bo2bo1822bo3746bo5bo746bo5bo5569bo2bo22b3o9b$4bo10b3o17b2o5570bo5bo746bo5bo5570b2o17b3o2b2obo9b$o3bo11956b3o10b$o3bo5604b3o750b3o3742b2o1852b3o10b$4bo10101bobo1852b3o10b$bobo10104bo1853b2o10b$11974b$11974b$11974b$10bo2312bo9650b$9b3o2311bobo9648b$9bob2o2310b2o9649b$10b3o11961b$10b3o11961b$10b3o9642bo2318b$10b2o9641bobo2318b$9654b2o2318b$6186b2o5786b$22b2o6162bob2o5760b2o22b$18b2o2b2o6164b2o5760b2o2b2o18b$18b2o5770bo395b2o5766b2o18b$5790bo167b2o54b2o168b2o5788b$5789bobo166b2o54b2o5958b$6184bobo5787b$5788b2o395bo5788b$11974b$5788b2o6184b$1920b2o10052b$1920bobo3686b3o750b3o5609b$27b2o6bo1884bo3977b2o174b2o5862bo6b2o27b$27b2o5bobo5570bo5bo284b2o174b2o284bo5bo5570bobo5b2o27b$34bo2bo5569bo5bo746bo5bo5569bo2bo34b$15b3o17b2o5570bo5bo166b2o578bo5bo3680b2o1888b2o17b3o15b$5780b2o8b2o390b2o3862bobo1925b$5609b3o178b2o390b2o178b3o3683bo1925b$11974b$11974b$11974b$11974b$6188b2o5784b$5778b3o406bobo5784b$5778b3o408bo5784b$5777bob2o6193b$5778b2obo6192b$5779b2o8b2o6183b$5789bobo6182b$5789bo6184b$11974b$11974b$22b2o11926b2o22b$18b2o2b2o11926b2o2b2o18b$18b2o5762b2o406b2o5762b2o18b$5782b2o174b2o54b2o174b2o5782b$5958b2o54b2o5958b$11974b$11974b$1980b2o9992b$1980bobo9991b$1980bo9993b$11974b$27b2o6bo5862b2o174b2o253b3o5606bo6b2o27b$27b2o5bobo5861b2o174b2o255bo3655b2o1948bobo5b2o27b$34bo2bo6292bo3655bobo1947bo2bo34b$15b3o17b2o9951bo1948b2o17b3o15b$5790b2o390b2o5790b$5647b3o140b2o390b2o5790b$5647bo428bobo5895b$5648bo250bo178bo5895b$5898bobo165bobo4b3o2bo49b2o5844b$5886bo5bo5bobo165bobo4bo53bobo5844b$5888bo2bo3b2o169bo2bo4b4o12bo38bo5844b$5883bo4bo8bo7b2o160b3o6bobo4b2o5bo5883b$5882bo15bobo2b2ob2o159bo9b3o2bobo5bo5883b$5849b2o31bo8b2o10b2obo153bo6b3o6b3o2b2obo5889b$5849bobo30bo5bo2b2o2b2o8bo154bobo13bo5b5ob3o5883b$5849bo33bo3bo8bob3ob3o155b2o21bo2bob3o5883b$5884bo18bo180b3o2b2o5883b$6088b2o2bo5881b$6088b2ob2o5876b3o2b$6090b2o5877bo2bob$22b2o11926b2o17bo4b$18b2o2b2o11926b2o2b2o13bo3bo$18b2o5762b2o114b2o174b2o114b2o5762b2o13bo3bo$5782b2o114b2o58b2o54b2o58b2o114b2o5777bo4b$5958b2o54b2o5954bobob$2040b2o9932b$2040bobo9931b$2040bo9933b$2b3o11958bo10b$bo2bo6264b3o5690b3o9b$4bo6266bo3655b2o2032b2obo9b$o3bo22b2o6bo6234bo3655bobo2009bo6b2o14b3o10b$o3bo22b2o5bobo9891bo2008bobo5b2o14b3o10b$4bo29bo2bo5844bobo6051bo2bo21b3o10b$bobo11b3o17b2o5670b3o172b2o6053b2o17b3o3b2o10b$5707bo82b2o91bo6b2o190b2o98b2o5790b$5708bo81b2o98b2o190b2o98b2o5790b$6068b2o5904b$10bo6056bobo24bobo5877b$9b3o6057bo25b2o5877b$9bob2o2250bo3831bo5878b$10b3o2250bobo9708b$10b3o2250b2o3644b2o6063b$10b3o5896bobo6062b$10b2o5897bo96b3o5965b$6005bo3bo3705bo2258b$5843bo166bo3702bobo2258b$5844bo3869b2o2258b$5842b3o160b2o3bo5963b$6007b3o5964b$11974b$22b2o6101bo5824b2o22b$18b2o2b2o5941b3o156bo5825b2o2b2o18b$18b2o5762b2o114b2o65bo2bo105b2o48b3o63b2o5762b2o18b$2100b2o3680b2o114b2o64bo3bo105b2o114b2o5782b$2100bobo3861bobob2o6004b$2100bo3864b2ob2o6004b$5956b2o8b3o47b2o5956b$5956b2o48b2o8b2o191b3o5762b$6006b2o203bo3655b2o2105b$6210bo3655bobo2105b$9868bo2105b$27b2o6bo5982bo5919bo6b2o27b$27b2o5bobo5730b3o186bo60b3o5917bobo5b2o27b$34bo2bo5729bo188bobo57b2ob2o5915bo2bo34b$15b3o17b2o5731bo187b2o57bo5921b2o17b3o15b$5790b2o98b2o122bo4bob2o59b2o98b2o5790b$5790b2o98b2o122bo4bobo60b2o98b2o5790b$5954b2o59bo4bo5953b$5954b2o6018b$11974b$11974b$11974b$11974b$11974b$11974b$5958b2o54b2o5958b$5958b2o54b2o5958b$11974b$11974b$11974b$11974b$22b2o11926b2o22b$18b2o2b2o2136b2o9788b2o2b2o18b$18b2o2140bobo3619b2o114b2o174b2o114b2o5762b2o18b$2160bo3621b2o114b2o174b2o114b2o5782b$11974b$6149b3o5822b$6151bo3655b2o2165b$5966b2o38b2o142bo3655bobo2165b$5966b2o38b2o3800bo2165b$11974b$5827b3o6144b$27b2o6bo5791bo6110bo6b2o27b$27b2o5bobo5791bo6108bobo5b2o27b$34bo2bo11898bo2bo34b$15b3o17b2o11900b2o17b3o15b$5790b2o98b2o190b2o98b2o5790b$5790b2o98b2o190b2o98b2o5790b$11974b$11974b$11974b$11974b$11974b$11974b$11974b$11974b$5958b2o54b2o5953b3o2b$5958b2o54b2o5953bo2bob$11969bo4b$11969bo3bo$11969bo3bo$2220b2o9747bo4b$22b2o2196bobo9727b2o18bobob$18b2o2b2o2196bo9729b2o2b2o18b$18b2o5762b2o114b2o174b2o114b2o5762b2o18b$5782b2o114b2o174b2o13b3o98b2o5782b$2b3o6086bo3655b2o2214bo10b$bo2bo6085bo3655bobo2213b3o9b$4bo9743bo2212b2obo9b$o3bo11956b3o10b$o3bo5882b3o6071b3o10b$4bo5882bo6073b3o10b$bobo5884bo6073b2o10b$27b2o6bo5786bobo6113bo6b2o27b$27b2o5bobo5785b2o6113bobo5b2o27b$34bo2bo5785bo6112bo2bo34b$10bo4b3o17b2o11900b2o17b3o15b$9b3o5778b2o390b2o5790b$9bob2o5777b2o362bobo25b2o5790b$10b3o6142b2o5817b$10b3o2190bo3951bo5818b$10b3o2190bobo9768b$10b2o2191b2o9769b$11974b$11974b$9775bo2198b$9773bobo2198b$5958b2o54b2o3758b2o2198b$5958b2o54b2o5958b$11974b$2280b2o9692b$2280bobo9691b$2280bo9693b$22b2o11926b2o22b$18b2o2b2o6005b3o5918b2o2b2o18b$18b2o5762b2o114b2o131bo42b2o114b2o3495b2o2265b2o18b$5782b2o114b2o130bo43b2o114b2o3494bobo2285b$9688bo2285b$11974b$5947b3o6024b$5947bo6026b$5948bo6025b$11974b$11974b$27b2o6bo11902bo6b2o27b$27b2o5bobo11900bobo5b2o27b$34bo2bo11898bo2bo34b$15b3o17b2o11900b2o17b3o15b$5790b2o390b2o5790b$5790b2o390b2o5790b$11974b$11974b$11974b$11974b$11974b$11974b$11974b$11974b$5958b2o54b2o5958b$2340b2o3616b2o54b2o5958b$2340bobo9631b$2340bo9633b$11974b$5969b3o6002b$22b2o5947bo3655b2o2321b2o22b$18b2o2b2o5946bo3655bobo2321b2o2b2o18b$18b2o5762b2o114b2o174b2o114b2o3436bo2325b2o18b$5782b2o114b2o174b2o114b2o5782b$6007b3o5964b$6007bo5966b$6008bo5965b$11974b$11974b$11974b$11974b$27b2o6bo11902bo6b2o27b$27b2o5bobo11900bobo5b2o27b$34bo2bo11898bo2bo34b$15b3o17b2o11900b2o17b3o15b$11974b$11974b$11974b$11974b$11974b$11974b$11969b3o2b$11969bo2bob$11969bo4b$2400b2o9567bo3bo$2400bobo3555b2o54b2o5953bo3bo$2400bo3557b2o54b2o5953bo4b$11970bobob$5909b3o6062b$5911bo3655b2o2405b$5910bo3655bobo2405b$2b3o17b2o9544bo2381b2o11bo10b$bo2bo13b2o2b2o11926b2o2b2o6b3o9b$4bo13b2o5762b2o114b2o167b3o4b2o114b2o5762b2o5b2obo9b$o3bo5777b2o114b2o167bo6b2o114b2o5769b3o10b$o3bo6063bo5892b3o10b$4bo11956b3o10b$bobo11958b2o10b$11974b$11974b$11974b$10bo11963b$9b3o15b2o6bo11902bo6b2o27b$9bob2o14b2o5bobo11900bobo5b2o27b$10b3o21bo2bo11898bo2bo34b$10b3o2b3o17b2o11900b2o17b3o15b$10b3o11961b$10b2o2131bo9830b$2143bobo9828b$2143b2o9829b$11974b$11974b$9835bo2138b$2460b2o7371bobo2138b$2460bobo7371b2o2138b$2460bo9513b$5958b2o54b2o5958b$5849b3o106b2o54b2o5958b$5851bo3655b2o2465b$5850bo3655bobo2465b$9508bo2465b$11974b$22b2o6103b3o5820b2o22b$18b2o2b2o6103bo5822b2o2b2o18b$18b2o5878b2o174b2o52bo55b2o5768b2o18b$5789b2o107b2o174b2o107bobo5788b$5789bobo391bo2bo5787b$5780b2o7b3o390b2o2b2o4b2o5780b$5780b2o7b5o390bob2o4b2o5780b$5792b2o6180b$5784bo4bob2o389bo5791b$5782b2o6bo391bo5791b$5783b2o5bo6183b$27b2o6bo6150bo5751bo6b2o27b$27b2o5bobo11900bobo5b2o27b$34bo2bo6145b2o5751bo2bo34b$15b3o17b2o6146bo5753b2o17b3o15b$6182b3o5789b$5778b2o414b2o5778b$5778b2o414b2o5778b$11974b$11974b$2520b2o9452b$2520bobo9451b$2520bo9453b$11974b$5782b2o5b3o398b2o5782b$5782b2o7bo166b2o54b2o174b2o3255b2o2525b$5790bo167b2o54b2o3430bobo2525b$9448bo2525b$11974b$6187b3o5784b$6187bo5786b$22b2o6164bo5761b2o22b$18b2o2b2o11926b2o2b2o18b$18b2o5878b2o174b2o5878b2o18b$5898b2o174b2o5898b$11974b$11974b$5790b2o390b2o5790b$5790b2o390b2o5790b$11974b$11974b$11974b$27b2o6bo11902bo6b2o27b$27b2o5bobo6196bo5703bobo5b2o27b$34bo2bo6196bo5701bo2bo34b$15b3o17b2o6195b3o5702b2o17b3o15b$11974b$11974b$5735bo6233b3o2b$2580b2o3152bo6234bo2bob$2580bobo3151b3o6232bo4b$2580bo3150bo6237bo3bo$5730b2o6237bo3bo$5730bobo6236bo4b$9387b2o2581bobob$5782b2o406b2o3194bobo2585b$5782b2o174b2o54b2o174b2o45bo3150bo2585b$5958b2o54b2o221b2o5735b$2b3o6231bobo5724bo10b$bo2bo11957b3o9b$4bo11956b2obo9b$o3bo11956b3o10b$o3bo17b2o11926b2o9b3o10b$4bo13b2o2b2o11926b2o2b2o5b3o10b$bobo14b2o5878b2o174b2o5878b2o6b2o10b$5898b2o174b2o5898b$11974b$11974b$10bo5779b2o350bo39b2o5790b$9b3o5778b2o348b2o40b2o5790b$9bob2o6128b2o5831b$10b3o11961b$10b3o11961b$10b3o14b2o6bo5800bo6101bo6b2o27b$10b2o15b2o5bobo5800b2o6098bobo5b2o27b$34bo2bo5798b2o6098bo2bo34b$15b3o17b2o2046bo9853b2o17b3o15b$2083bobo9888b$2083b2o555b2o9332b$2640bobo9331b$2640bo3150bo6182b$5790b2o4103bo2078b$5790bobo4100bobo2078b$9327b2o565b2o2078b$9326bobo2645b$6177bo3150bo2645b$5782b2o393b2o11b2o5782b$5782b2o174b2o54b2o160bobo11b2o5782b$5958b2o54b2o5958b$11974b$11974b$11974b$11974b$22b2o11926b2o22b$18b2o2b2o11926b2o2b2o18b$18b2o5878b2o174b2o5878b2o18b$5898b2o174b2o5898b$11974b$11974b$5790b2o390b2o5790b$5790b2o390b2o5790b$11974b$11974b$5898b3o6073b$27b2o6bo5861b2o3bo6035bo6b2o27b$27b2o5bobo5861bobo6036bobo5b2o27b$34bo2bo5847b2o4bo5b2o2b4o6031bo2bo34b$15b3o17b2o2663b2o3182bobo3b3obo2b2o5b2o171b3o5857b2o17b3o15b$2700bobo3181bo3bo4b2o2b2o3bobo172bo2bo5893b$2700bo3150bo32b2o4b5o7b2o172bo4bo5892b$5850b2o38bo2bo185bo5894b$5850bobo35bo6085b$6077b2o3188b2o2705b$6077bobo3186bobo2705b$6077bobo37bo3150bo2705b$6117b2o5855b$6073bo42bobo5855b$5782b2o114b2o175bo114b2o5782b$5782b2o114b2o58b2o54b2o58b2o114b2o5782b$5958b2o54b2o5958b$11974b$6084bo5889b$6085bo5888b$6083b3o5888b$22b2o11926b2o22b$18b2o2b2o11926b2o2b2o18b$18b2o5864bo6069b2o18b$5883bo6090b$5883b3o6088b$11974b$5790b2o98b2o190b2o98b2o5790b$5790b2o98b2o190b2o98b2o5790b$11974b$11974b$11974b$27b2o6bo11902bo6b2o27b$27b2o5bobo2723b2o9175bobo5b2o27b$34bo2bo2722bobo9173bo2bo29b3o2b$15b3o17b2o2723bo3150bo6025b2o17b3o10bo2bob$5910b2o6057bo4b$5910bobo6056bo3bo$9207b2o2760bo3bo$9206bobo2760bo4b$6057bo3150bo2761bobob$6057b2o5915b$6056bobo5915b$11974b$2b3o11958bo10b$bo2bo5777b2o114b2o108b2o64b2o114b2o5770b3o9b$4bo5777b2o114b2o66bo40b3o64b2o114b2o5769b2obo9b$o3bo5960b3o39b3o5951b3o10b$o3bo5960bob2o38bo5953b3o10b$4bo5951b2o52b2o4b2o5943b3o10b$bobo5952b2o49b3obo4b2o5944b2o10b$6007b4o5963b$22b2o5985b2o5939b2o22b$18b2o2b2o11926b2o2b2o18b$10bo7b2o5937bobo125bo5868b2o18b$9b3o5945b2o124bo2bo5887b$9bob2o5945bo123b2o5890b$10b3o6068bo3bo5888b$10b3o5777b2o214bo75bo2bo96b2o5790b$10b3o5777b2o213bobo75b2o97b2o5790b$10b2o5942b2o49bo12b2o5954b$5954b2o50bo11b2o5954b$2820b2o9152b$27b2o6bo2784bobo9115bo6b2o27b$27b2o5bobo1986bo796bo9116bobo5b2o27b$34bo2bo1985bobo9910bo2bo34b$15b3o17b2o1986b2o9912b2o17b3o15b$9147b2o2825b$5958b2o54b2o3130bobo2825b$5958b2o54b2o3132bo806bo2018b$9953bobo2018b$9954b2o2018b$11974b$11974b$11974b$11974b$5782b2o114b2o174b2o114b2o5782b$5782b2o114b2o174b2o114b2o5782b$11974b$11974b$11974b$5966b2o38b2o5966b$5966b2o38b2o5966b$22b2o11926b2o22b$18b2o2b2o11926b2o2b2o18b$18b2o11934b2o18b$11974b$11974b$11974b$5790b2o390b2o5790b$5790b2o390b2o5790b$2880b2o9092b$2880bobo9091b$2880bo9093b$27b2o6bo11902bo6b2o27b$27b2o5bobo11900bobo5b2o27b$34bo2bo9049b2o2847bo2bo34b$15b3o17b2o9049bobo2848b2o17b3o15b$9088bo2885b$5958b2o54b2o5958b$5958b2o54b2o5958b$11974b$11974b$11974b$11974b$11974b$11974b$5782b2o114b2o174b2o114b2o5782b$5782b2o114b2o174b2o114b2o5782b$6144bo5829b$6145bo5828b$6143b3o5828b$11974b$11974b$22b2o5800bo6125b2o22b$18b2o2b2o5799bo6126b2o2b2o18b$18b2o5803b3o6128b2o18b$11974b$11974b$11974b$2940b2o2848b2o390b2o5790b$2940bobo2847b2o390b2o5790b$2940bo9033b$11969b3o2b$11969bo2bob$27b2o6bo8991b2o2909bo6b2o22bo4b$27b2o5bobo8989bobo2908bobo5b2o22bo3bo$34bo2bo8990bo2907bo2bo29bo3bo$15b3o17b2o11900b2o17b3o10bo4b$11970bobob$5958b2o54b2o5958b$5958b2o54b2o5958b$11974b$2b3o11958bo10b$bo2bo11957b3o9b$4bo11956b2obo9b$o3bo11956b3o10b$o3bo11956b3o10b$4bo5777b2o114b2o174b2o114b2o5769b3o10b$bobo5778b2o114b2o174b2o114b2o5770b2o10b$11974b$11974b$11974b$10bo11963b$9b3o11962b$9bob2o9b2o11926b2o22b$10b3o5b2o2b2o11926b2o2b2o18b$10b3o5b2o11934b2o18b$10b3o11961b$10b2o2988b2o8972b$3000bobo8971b$3000bo2789b2o390b2o5790b$5790b2o390b2o5790b$11974b$8967b2o3005b$1963bo7002bobo3005b$27b2o6bo1927bobo7002bo2969bo6b2o27b$27b2o5bobo1926b2o9972bobo5b2o27b$34bo2bo11898bo2bo34b$15b3o17b2o11900b2o17b3o15b$10015bo1958b$5958b2o54b2o3997bobo1958b$5958b2o54b2o3998b2o1958b$11974b$11974b$11974b$11974b$11974b$11974b$5898b2o174b2o114b2o5782b$5784bo113b2o174b2o114b2o5782b$5780b5o4b2o6183b$5782b2o5bobo6182b$6191b2o5781b$5779bo2b2ob4o401bo4b3o5776b$5780b2o3b4o2bo394bo3bobo4b2o5775b$22b2o5762bo398b3o3b2o2bo3bo5750b2o22b$18b2o2b2o6159b2o2bo9b2o5751b2o2b2o18b$18b2o3040b2o3116bo4b3o5768b2o18b$3060bobo2734bo2bo371b3o3bobo5bo13b2o5772b$30b2o3028bo2736bo3bo376bob2ob4o12bo2bo5739b2o30b$29bo2bo5765bobo386bo11bobo5739bo2bo29b$30b2o5745b2o20bo383b2ob2o9bo2b2o5740b2o30b$5768b2o7b2o403b2o2bo8b3o2b2o2705b2o3065b$5770bo6bobo403b3o9bo2710bobo3065b$5770b2obo3bo2bo403bo10bobo2710bo3065b$26b2o5745b2o421b2o10bo5737b2o26b$22b2o2b2o5744b2o2bo432b2o5735b2o2b2o22b$22b2o5752bobo429b2o5740b2o22b$56b2o5706bo12bo6196b$15b3o37b2o5707bo6191b3o15b$57bo5705bo3bo14b2o406b2o15b3o5764b$5764bo2bo14b2o174b2o54b2o174b2o17bo5764b$5766b2o190b2o54b2o192bo5765b$27bo11883b2o33bo27b$26bobo11883b2o31bobo26b$26bobo11882bo33bobo26b$27bo11918bo27b$11974b$11974b$5898b2o174b2o5898b$5898b2o174b2o5898b$11974b$11974b$5790b2o390b2o5790b$5790b2o390b2o5790b$11974b$22b2o3096b2o8828b2o22b$18b2o2b2o3096bobo8827b2o2b2o18b$18b2o3100bo8833b2o18b$11974b$30b2o6133bo5776b2o30b$29bo2bo6132bobo2679b2o3092bo2bo24b3o2b$30b2o6133b2o2679bobo3093b2o25bo2bob$8848bo3120bo4b$5819b3o6147bo3bo$5813bo5bo6149bo3bo$26b2o5783bobo6bo6125b2o21bo4b$22b2o2b2o88b2o5694b2o6132b2o2b2o18bobob$22b2o91b2o11833b2o22b$117bo6029b3o5824b$15b3o6131bo5806b3o15b$2b3o5777b2o364bo41b2o5771bo10b$bo2bo5777b2o174b2o54b2o174b2o5659b2o109b3o9b$4bo5953b2o54b2o5836b2o107b2obo9b$o3bo22bo11823bo94bo14b3o10b$o3bo21bobo11916bobo13b3o10b$4bo21bobo11916bobo13b3o10b$bobo23bo11918bo15b2o10b$11974b$11974b$11974b$10bo5884b3o6076b$9b3o5883b3o6076b$9bob2o5885b2o6074b$10b3o5777b2o103bo4b2o169b3o5bo102b2o5790b$10b3o3167b2o2608b2o102bo184b2o101b2o5790b$10b3o3167bobo2709bo9bo168b3o4b2o3bo5890b$10b2o10b2o3156bo2710bobo3bobo2bo168b3o9bo5866b2o22b$18b2o2b2o5866bo192bo5866b2o2b2o18b$18b2o5870bo6bo6056b2o18b$5897bo2889b2o3185b$30b2o5859bo3bo2890bobo3153b2o30b$29bo2bo5860b2o2893bo3152bo2bo29b$30b2o5847b3o6060b2o30b$5879bo22b2o166b2o5902b$1903bo3976bo21b2o166b2o5902b$176b2o1725bobo10068b$26b2o147b2o1726b2o10041b2o26b$22b2o2b2o149bo5909b3o5856b2o2b2o22b$22b2o6065bo5860b2o22b$6088bo3986bo1898b$15b3o10055bobo1715b2o163b3o15b$5782b2o114b2o174b2o114b2o3882b2o1716b2o180b$5782b2o114b2o58b2o54b2o58b2o114b2o5599bo182b$5958b2o54b2o5958b$27bo5928b3o5987bo27b$26bobo5929bo5986bobo26b$26bobo5924bo5bob2obo5980bobo26b$27bo5924bo6b2o3b2o5980bo27b$5952bobo10b2o48bo5958b$5953bo5bo2b2o46b3obobo5957b$5956b3o5b2o5bo39b4ob2o3b3o5950b$5960bo2bo6b3o43bo2b5o17bo5932b$5960bo11bo2b3o27b2o3b2o3bo3bo20bo5933b$3240b2o2706b2o20b2o26b3o3bo2bobo5bo4b5o15b3o5931b$3240bobo2547b2o98b2o55bob2ob2o6b2o7bo30bo2bo6b3o11bo57b2o98b2o5790b$3240bo2549b2o98b2o54b2o2b2ob2o6b2o35bob2o2b3o3bo10bobo58b2o98b2o5790b$5937bo9bo6bobo8bo2bo29bob2obo3b3o11b2o5bobo5943b$22b2o5914bo9b4ob2ob2o7bobo32bob2o4bo20b2o5919b2o22b$18b2o2b2o5912b3o10bo5b2o48bo23bo2697b2o3221b2o2b2o18b$18b2o5930b2obobo9b2o33b3o2bo2720bobo3225b2o18b$5996bo4bo2726bo3245b$30b2o5906bobo55bo4bo5940b2o30b$29bo2bo5905b2o57bo2bo5940bo2bo29b$30b2o5907bo6002b2o30b$236b2o5720b2o54b2o5958b$235b2o5721b2o54b2o5958b$237bo11736b$26b2o11918b2o26b$22b2o2b2o11918b2o2b2o22b$22b2o11707b2o217b2o22b$11732b2o240b$15b3o11713bo224b3o15b$5782b2o114b2o174b2o114b2o5782b$5782b2o114b2o174b2o114b2o5782b$11974b$27bo11918bo27b$26bobo6085bo5830bobo26b$26bobo5937b2o38b2o107b2o5828bobo26b$27bo5938b2o38b2o106b2o5830bo27b$11974b$5993bo5980b$5854bo137bo5981b$3300b2o2550b2o138b3o5979b$3300bobo2550b2o6119b$3300bo8673b$5790b2o98b2o93bo96b2o98b2o5790b$5790b2o98b2o94bo95b2o98b2o5790b$5984b3o2680b2o3305b$22b2o8642bobo3281b2o22b$18b2o2b2o8644bo3281b2o2b2o13b3o2b$18b2o6085bo5848b2o13bo2bob$6105bobo5861bo4b$30b2o6073b2o5835b2o25bo3bo$29bo2bo263b2o11643bo2bo24bo3bo$30b2o263b2o11645b2o25bo4b$297bo5575bo84b2o54b2o5954bobob$5871bobo84b2o54b2o5958b$5872b2o6100b$26b2o11643b2o273b2o26b$2b3o17b2o2b2o11644b2o272b2o2b2o11bo10b$bo2bo17b2o11647bo278b2o10b3o9b$4bo11956b2obo9b$o3bo10b3o11938b3o2b3o10b$o3bo5777b2o114b2o174b2o114b2o5769b3o10b$4bo5777b2o114b2o174b2o114b2o5769b3o10b$bobo11958b2o10b$27bo11918bo27b$26bobo11916bobo26b$26bobo5937b2o38b2o5937bobo26b$10bo16bo5938b2o38b2o5938bo27b$9b3o11962b$9bob2o3347b2o8612b$10b3o3347bobo8611b$10b3o3347bo8613b$10b3o11961b$10b2o11962b$5790b2o98b2o190b2o98b2o2423b2o3365b$5790b2o98b2o190b2o98b2o2422bobo3365b$8608bo3365b$22b2o11926b2o22b$18b2o2b2o11926b2o2b2o18b$18b2o11934b2o18b$356b2o11616b$30b2o323b2o11585b2o30b$29bo2bo324bo11583bo2bo29b$30b2o1811bo10098b2o30b$1843bobo4112b2o54b2o5958b$1843b2o4113b2o54b2o5595b2o361b$11612b2o360b$26b2o11583bo334b2o26b$22b2o2b2o10107bo1810b2o2b2o22b$22b2o10109bobo1814b2o22b$10134b2o1838b$15b3o11938b3o15b$5782b2o114b2o174b2o114b2o5782b$5782b2o114b2o174b2o114b2o5782b$11974b$27bo11918bo27b$26bobo11916bobo26b$26bobo11916bobo26b$27bo3392b2o8524bo27b$3420bobo8551b$3420bo8553b$11974b$11974b$8547b2o3425b$8546bobo3425b$5790b2o390b2o2364bo3425b$5790b2o390b2o5790b$11974b$22b2o11926b2o22b$18b2o2b2o392b2o11532b2o2b2o18b$18b2o395b2o11537b2o18b$417bo11556b$30b2o11910b2o30b$29bo2bo11908bo2bo29b$30b2o11519b2o389b2o30b$5958b2o54b2o5536b2o420b$5958b2o54b2o5535bo422b$11974b$26b2o11918b2o26b$22b2o2b2o11918b2o2b2o22b$22b2o11926b2o22b$11974b$15b3o11938b3o15b$5782b2o114b2o174b2o114b2o5782b$5782b2o114b2o174b2o114b2o5782b$6174bo5799b$27bo6147b2o5769bo27b$26bobo3451b2o2692b2o5769bobo26b$26bobo3451bobo8462bobo26b$27bo3452bo8465bo27b$5794bo6179b$5792b2o6180b$5793b2o2692b2o3485b$8486bobo3485b$8488bo3485b$11974b$5790b2o390b2o5785b3o2b$5790b2o390b2o5785bo2bob$476b2o11491bo4b$22b2o451b2o11473b2o17bo3bo$18b2o2b2o453bo11472b2o2b2o13bo3bo$18b2o11934b2o13bo4b$11970bobob$30b2o11459b2o449b2o30b$29bo2bo11459b2o447bo2bo29b$30b2o11459bo450b2o30b$2b3o5784b3o166b2o54b2o5947bo10b$bo2bo5785bo167b2o54b2o5946b3o9b$4bo5783b3o6170b2obo9b$o3bo21b2o11918b2o13b3o10b$o3bo17b2o2b2o11918b2o2b2o9b3o10b$4bo17b2o11926b2o9b3o10b$bobo11958b2o10b$15b3o11938b3o15b$5898b2o174b2o107bo5790b$5898b2o174b2o106b3o5789b$10bo3529b2o2639b2obo5789b$9b3o15bo3512bobo2237b2o410b2o5752bo27b$9bob2o13bobo3511bo2239b2o8b2o400b2o5751bobo26b$10b3o13bobo5761b2o6153bobo26b$10b3o14bo11918bo27b$10b3o8414b2o3545b$10b2o6178bobo2233bobo3545b$6191b2o2235bo3545b$5779bo411bo5782b$5778bobo6193b$5777bo3bo6192b$536b2o5239bo3bo6192b$535b2o5244bo412b2o5778b$537bo5240b3o8b2o403b2o5778b$22b2o5764b2o6160b2o22b$18b2o2b2o5766bo6159b2o2b2o18b$18b2o11411b2o521b2o18b$11432b2o540b$30b2o1751bo4394b2o5251bo510b2o30b$29bo2bo1750bobo4393b2o5760bo2bo29b$30b2o1751b2o3997b2o394bo11b2o5750b2o30b$5782b2o174b2o54b2o174b2o5782b$5958b2o54b2o5958b$10195bo1778b$26b2o10165bobo1750b2o26b$22b2o2b2o10166b2o1750b2o2b2o22b$22b2o11926b2o22b$11974b$15b3o11938b3o15b$3600b2o2296b2o174b2o5898b$3600bobo2295b2o174b2o5898b$3600bo8373b$27bo11918bo27b$26bobo5761b2o390b2o5761bobo26b$26bobo5761b2o390b2o2183b2o3576bobo26b$27bo8338bobo3577bo27b$5899bo2468bo3605b$5898bobo6073b$5897bo180bo5895b$5887bo8b2o179b2o5895b$596b2o5298b2o6b4o168b4o5894b$595b2o5285b2o19bo3bo167b2o3b3o5891b$597bo5251b2o30b3o7b2o10bo2b2o168bo5bo5891b$5848b2o32b2o7b2o2b3obo2bo2bo176bo5891b$5850bo32bo11b3obo2b3o171bo4bo5892b$22b2o5875bo2b3o170b2o2bo5291b2o577b2o22b$18b2o2b2o6051b2obo5293b2o576b2o2b2o18b$18b2o6056b2o40b2o5251bo582b2o18b$6119b2o5853b$30b2o6086bo5823b2o30b$29bo2bo11908bo2bo29b$30b2o5750b2o114b2o174b2o114b2o5750b2o30b$5782b2o114b2o58b2o54b2o58b2o114b2o5782b$5958b2o54b2o5958b$11974b$26b2o11918b2o26b$22b2o2b2o11918b2o2b2o22b$22b2o6062bo5863b2o22b$3660b2o2422bobo5887b$15b3o3642bobo2422b2o5869b3o15b$3660bo8313b$11974b$5882bo6091b$27bo5854bobo2422b2o3637bo27b$26bobo5761b2o90b2o6b2o190b2o98b2o2122bobo3636bobo26b$26bobo5761b2o98b2o190b2o98b2o2124bo3636bobo26b$27bo11918bo27b$11974b$11974b$656b2o11311b3o2b$655b2o11312bo2bob$657bo5251b2o223bobo5832bo4b$5908b2o224b2o5833bo3bo$5910bo224bo5833bo3bo$11311b2o656bo4b$11312b2o656bobob$22b2o5818bobo213b2o5251bo638b2o22b$18b2o2b2o5819b2o214b2o5889b2o2b2o18b$18b2o5823bo214bo5895b2o18b$2b3o11958bo10b$bo2bo25b2o5934bo5975b2o18b3o9b$4bo24bo2bo5932b3o5973bo2bo16b2obo9b$o3bo25b2o5750b2o114b2o64b2o2bo40bo64b2o114b2o5750b2o17b3o10b$o3bo5777b2o114b2o64bo3bo40bo64b2o114b2o5769b3o10b$4bo5959bobo42bo5951b3o10b$bobo11958b2o10b$26b2o5928b2o7b2ob2o36bobo7b2o5928b2o26b$22b2o2b2o3692b2o2234b2o9bo37bo2bo2bo4b2o5928b2o2b2o22b$22b2o3696bobo2283bobo3b2o5936b2o22b$10bo3709bo2290b2o5961b$9b3o3b3o11938b3o15b$9bob2o11961b$10b3o5944bo2289b2o3725b$10b3o5942b2o2289bobo3725b$10b3o14bo5928b2o2290bo3697bo27b$10b2o14bobo5761b2o98b2o190b2o98b2o5761bobo26b$26bobo5761b2o98b2o190b2o98b2o5761bobo26b$27bo5926b2o62b2o5926bo27b$716b2o5236b2o62b2o5954b$715b2o11257b$717bo11256b$11974b$11974b$11251b2o721b$11252b2o720b$5958b2o54b2o5235bo722b$5958b2o54b2o5958b$22b2o11926b2o22b$18b2o2b2o11926b2o2b2o18b$18b2o1703bo10230b2o18b$1723bobo10248b$30b2o1691b2o10217b2o30b$29bo2bo11908bo2bo29b$30b2o5750b2o114b2o174b2o114b2o5750b2o30b$5782b2o114b2o174b2o114b2o4063bo1718b$10253bobo1718b$3780b2o6472b2o1718b$26b2o3752bobo8163b2o26b$22b2o2b2o3752bo2185b2o38b2o5938b2o2b2o22b$22b2o5942b2o38b2o5942b2o22b$11974b$15b3o8169b2o3767b3o15b$8186bobo3785b$8188bo3785b$11974b$27bo11918bo27b$26bobo5761b2o98b2o190b2o98b2o5761bobo26b$26bobo747b2o5012b2o98b2o190b2o98b2o5761bobo26b$27bo747b2o11169bo27b$777bo11196b$11974b$11974b$11191b2o781b$11192b2o780b$11191bo782b$11974b$5958b2o54b2o5958b$5958b2o54b2o5958b$22b2o11926b2o22b$18b2o2b2o11926b2o2b2o18b$18b2o11934b2o18b$11974b$30b2o11910b2o30b$29bo2bo11908bo2bo29b$30b2o5750b2o114b2o174b2o114b2o5750b2o30b$3840b2o1940b2o114b2o174b2o114b2o5782b$3840bobo8131b$3840bo8133b$26b2o6118bo5799b2o26b$22b2o2b2o6116bobo5799b2o2b2o22b$22b2o6121b2o1980b2o3821b2o22b$8126bobo3845b$15b3o8110bo3827b3o15b$5822bo6151b$5822bobo6149b$5822b2o6150b$27bo808b2o11108bo27b$26bobo806b2o4953b2o390b2o5761bobo26b$26bobo808bo4952b2o390b2o5761bobo21b3o2b$27bo11918bo22bo2bob$11969bo4b$11131b2o836bo3bo$11132b2o835bo3bo$11131bo837bo4b$11970bobob$11974b$11974b$5958b2o54b2o5958b$2b3o5953b2o54b2o5947bo10b$bo2bo17b2o11926b2o10b3o9b$4bo13b2o2b2o11926b2o2b2o5b2obo9b$o3bo13b2o11934b2o5b3o10b$o3bo11956b3o10b$4bo25b2o11910b2o17b3o10b$bobo25bo2bo3867b2o8039bo2bo17b2o10b$30b2o3868bobo1879b2o114b2o174b2o114b2o5750b2o30b$3900bo1881b2o114b2o174b2o114b2o5782b$11974b$10bo11963b$9b3o14b2o8039b2o3877b2o26b$9bob2o9b2o2b2o8038bobo3877b2o2b2o22b$10b3o9b2o8044bo3881b2o22b$10b3o11961b$10b3o2b3o11938b3o15b$10b2o11962b$896b2o11076b$895b2o11077b$27bo869bo11048bo27b$26bobo5761b2o390b2o5761bobo26b$26bobo5761b2o390b2o5761bobo26b$27bo11043b2o873bo27b$11072b2o900b$11071bo902b$11974b$11974b$11974b$11974b$11974b$5958b2o54b2o5958b$5958b2o54b2o5958b$22b2o1639bo10286b2o22b$18b2o2b2o1639bobo10284b2o2b2o18b$18b2o1643b2o10289b2o18b$3960b2o8012b$30b2o3928bobo7979b2o30b$29bo2bo3927bo1822bo4531bo1625bo2bo29b$30b2o5749b4o113b2o174b2o114b2o4121bobo1626b2o30b$5781bo7bo108b2o174b2o114b2o4122b2o1658b$5780b3o3bo3bo400b3o1813b2o3965b$5779b4o3b5o400bo1814bobo3965b$26b2o5750bo3bo6bo395bob2obo5bo1811bo3937b2o26b$22b2o2b2o5754bobo2b3o394b2o3b2o6bo5748b2o2b2o22b$22b2o5755b2obobobo396b2o10bobo5752b2o22b$5781bo3bo400b2o2bo5bo5777b$15b3o938b2o5220bo5b2o5b3o5762b3o15b$955b2o5220b3o6bo2bo5784b$957bo4840b3o371b3o2bo11bo5784b$5799bo378b2o20b2o5772b$27bo5771bo380bo7b2o6b2ob2obo5743bo27b$26bobo5769b3o386b2o6b2ob2o2b2o4807b2o932bobo26b$26bobo5749b2o401bo2bo8bobo6bo4809b2o931bobo26b$27bo5745bo2bo2bo402bobo7b2ob2ob4o4809bo934bo27b$5773bo3bo415b2o5bo5773b$5774b4o405b2o9bobob2o5774b$5774bo434b3o5762b$5774bo6199b$5775bo432bo5765b$5775b2o431bo5765b$5765bo16b2o406b2o16bo2bo5762b$5765bo16b2o174b2o54b2o174b2o17b2o5763b$5765b2obo189b2o54b2o5958b$22b2o5742b2o6182b2o22b$18b2o2b2o3996b2o7928b2o2b2o18b$18b2o4000bobo7931b2o18b$4020bo7953b$30b2o11910b2o30b$29bo2bo11908bo2bo29b$30b2o5866b2o174b2o1871b2o3993b2o30b$5898b2o174b2o1870bobo4025b$7948bo4025b$11974b$26b2o5762b2o390b2o5762b2o26b$22b2o2b2o5762b2o390b2o5762b2o2b2o22b$22b2o992b2o10932b2o22b$1015b2o10957b$15b3o999bo10938b3o15b$11974b$11969b3o2b$10951b2o1016bo2bob$27bo6136bo4787b2o992bo22bo4b$26bobo5789b2o343bo4787bo993bobo21bo3bo$26bobo5789bobo342b3o5779bobo21bo3bo$27bo5790bo6127bo22bo4b$11970bobob$5814bo6159b$5815bo333b2o5823b$5813b3o332bobo5823b$2b3o6145bo5812bo10b$bo2bo11957b3o9b$4bo5777b2o406b2o5769b2obo9b$o3bo5777b2o174b2o54b2o174b2o5769b3o10b$o3bo4075b2o1876b2o54b2o5945b3o10b$4bo17b2o4056bobo7867b2o9b3o10b$bobo14b2o2b2o4056bo7869b2o2b2o6b2o10b$18b2o11934b2o18b$11974b$30b2o7855b2o4053b2o30b$10bo18bo2bo7853bobo4052bo2bo29b$9b3o18b2o7856bo4053b2o30b$9bob2o5882b2o6077b$10b3o5883bo6077b$10b3o5880bo3bo2b2o177b2o5893b$10b3o13b2o1048b2o4712b2o100b2o2bo3b2o177b3o100b2o5762b2o26b$10b2o10b2o2b2o1047b2o4713b2o98b2o186b2o2bo99b2o5762b2o2b2o22b$22b2o1053bo4812b2ob2o182b3o5870b2o22b$6071b3o4b3o5893b$15b3o5871b2ob2o185bo5876b3o15b$5889b2ob2o4997b2o1081b$5891bo5000b2o1080b$5878b2o5011bo1082b$27bo5850bobo6065bo27b$26bobo5849bo6066bobo26b$26bobo5873b2o166b2o5873bobo26b$27bo5874b2o166b2o5874bo27b$6089b2o5883b$6088bobo5883b$6090bo5883b$11974b$11974b$11974b$4140b2o1640b2o114b2o174b2o114b2o5782b$1603bo2536bobo1639b2o114b2o114b2o58b2o114b2o5782b$1603bobo2534bo1818bo54b2o5958b$22b2o1579b2o4353b5obo5985b2o22b$18b2o2b2o5934bo2bo3bo5984b2o2b2o18b$18b2o5944bo1862b2o4125b2o18b$5958b3o2bo1862bobo2546bo1598b$30b2o5927bo4b2o4b2o43b2o1811bo2544bobo1566b2o30b$29bo2bo5931b2o7bo40bob2o5b2o4349b2o1565bo2bo29b$30b2o5931bo9b3o38bobo2b6o5917b2o30b$5965bo4b2o4bo22b2o7b3o8bobo5952b$1136b2o4831bob3o3bo20b5o2bobo10bob3o5951b$1135b2o4813b2o17bo4bobo20bo4b2obobo7b2o2b2ob2o15bo5934b$26b2o1109bo4652b2o98b2o54bo3bobo16bo2bo24b2obob2obo3b2o9bo4bo13bobo40b2o98b2o5762b2o26b$22b2o2b2o5762b2o98b2o52b2o14bo10bo29bo6b2o9b2ob3o14b2o41b2o98b2o5762b2o2b2o22b$22b2o5926bo3bo44bo9bobo7b2o5929b2o22b$5946b3ob2ob2o2b2o41b3o7bo9b2o8bo4800b2o1141b$15b3o5939b2o42b2o18bo9b2o4799b2o1122b3o15b$5938b2o13bo2b3o71b2o4799bo1142b$5938bo14bo6020b$5938bo15b2o6018b$27bo5908b2o6008bo27b$26bobo5907b2obo6005bobo26b$26bobo5908b2o19b2o54b2o5929bobo26b$27bo5930b2o54b2o5930bo27b$11974b$11974b$11974b$11974b$4200b2o7772b$4200bobo7771b$4200bo1581b2o114b2o174b2o114b2o5782b$5782b2o114b2o174b2o114b2o5782b$11974b$22b2o7743b2o4181b2o22b$18b2o2b2o7742bobo4181b2o2b2o18b$18b2o5946b2o38b2o1760bo4185b2o18b$5966b2o38b2o107bobo5856b$30b2o6084b2o5824b2o30b$29bo2bo6083bo5824bo2bo29b$30b2o1164b2o10744b2o30b$1195b2o4794bo5982b$1197bo4653bobo137bobo5980b$5851b2o138b2o5981b$26b2o5762b2o60bo37b2o190b2o98b2o5762b2o26b$22b2o2b2o5762b2o98b2o190b2o98b2o4587b2o1173b2o2b2o22b$22b2o5963bo4784b2o1176b2o17b3o2b$5985bobo4783bo1197bo2bob$15b3o5968b2o5968b3o10bo4b$11969bo3bo$6104bo5864bo3bo$6103bo5865bo4b$27bo6075b3o5840bo23bobob$26bobo11916bobo26b$26bobo5929b2o54b2o5929bobo26b$27bo5846bo83b2o54b2o5930bo27b$2b3o5870bo6087bo10b$bo2bo5868b3o6086b3o9b$4bo4255b2o7699b2obo9b$o3bo4255bobo7698b3o10b$o3bo4255bo7700b3o10b$4bo11956b3o10b$bobo5778b2o114b2o174b2o114b2o5770b2o10b$5782b2o114b2o174b2o114b2o1515b2o4265b$7706bobo4265b$22b2o7684bo4241b2o22b$10bo7b2o2b2o11926b2o2b2o18b$9b3o6b2o5946b2o38b2o5946b2o18b$9bob2o5953b2o38b2o5966b$10b3o17b2o1224b2o10684b2o30b$10b3o16bo2bo1222b2o10684bo2bo29b$10b3o17b2o1225bo10684b2o30b$10b2o11962b$11974b$10711b2o1261b$26b2o5762b2o98b2o190b2o98b2o4528b2o1232b2o26b$22b2o2b2o5762b2o98b2o190b2o98b2o4527bo1234b2o2b2o22b$22b2o11926b2o22b$11974b$15b3o11938b3o15b$11974b$11974b$11974b$27bo11918bo27b$26bobo11916bobo26b$26bobo5929b2o54b2o5929bobo26b$27bo5930b2o54b2o5930bo27b$4320b2o7652b$4320bobo7651b$4320bo7653b$11974b$11974b$1543bo6103b2o4325b$1543bobo4236b2o114b2o174b2o114b2o1454bobo4325b$1543b2o4237b2o114b2o174b2o114b2o1456bo4325b$11974b$22b2o11926b2o22b$18b2o2b2o10411bo1514b2o2b2o18b$18b2o1296b2o9115bobo1518b2o18b$1315b2o9117b2o1538b$30b2o1285bo10624b2o30b$29bo2bo11908bo2bo29b$30b2o11910b2o30b$10651b2o1321b$10652b2o1320b$10651bo1322b$26b2o5762b2o390b2o5762b2o26b$22b2o2b2o5762b2o390b2o5762b2o2b2o22b$22b2o11926b2o22b$11974b$15b3o11938b3o15b$11974b$11974b$11974b$27bo11918bo27b$26bobo11916bobo26b$26bobo4351b2o1576b2o54b2o5929bobo26b$27bo4352bobo1575b2o54b2o5930bo27b$4380bo7593b$11974b$11974b$7587b2o4385b$7586bobo4385b$7588bo4385b$5782b2o114b2o174b2o114b2o5782b$5782b2o114b2o174b2o114b2o5782b$11974b$22b2o1352b2o10572b2o22b$18b2o2b2o1351b2o4798bobo5772b2o2b2o18b$18b2o1357bo4798b2o5776b2o18b$6176bo5797b$30b2o11910b2o30b$29bo2bo10558b2o1348bo2bo29b$30b2o5759bobo4798b2o1348b2o30b$5791b2o4798bo1382b$5792bo6176b3o2b$11969bo2bob$26b2o5762b2o390b2o5762b2o21bo4b$22b2o2b2o5762b2o390b2o5762b2o2b2o17bo3bo$22b2o11926b2o17bo3bo$11969bo4b$15b3o11938b3o11bobob$11974b$11974b$11974b$2b3o22bo4412b2o7504bo16bo10b$bo2bo21bobo4411bobo7502bobo14b3o9b$4bo21bobo4411bo1517b2o54b2o5929bobo13b2obo9b$o3bo22bo5930b2o54b2o5930bo14b3o10b$o3bo11956b3o10b$4bo7522b2o4432b3o10b$bobo7522bobo4433b2o10b$7528bo4445b$11974b$11974b$10bo5771b2o114b2o174b2o114b2o5782b$9b3o1424b2o4344b2o114b2o174b2o114b2o5782b$9bob2o1422b2o10537b$10b3o9b2o1413bo10512b2o22b$10b3o5b2o2b2o11926b2o2b2o18b$10b3o5b2o11934b2o18b$10b2o10519b2o1441b$30b2o10500b2o1408b2o30b$29bo2bo10498bo1409bo2bo29b$30b2o11910b2o30b$11974b$11974b$11974b$26b2o11918b2o26b$22b2o2b2o11918b2o2b2o22b$22b2o11926b2o22b$11974b$15b3o11938b3o15b$11974b$4500b2o7472b$4500bobo7471b$27bo4472bo7445bo27b$26bobo11916bobo26b$26bobo5929b2o54b2o5929bobo26b$27bo5930b2o54b2o1451b2o4477bo27b$7466bobo4505b$7468bo4505b$11974b$1483bo10490b$1483bobo10488b$1483b2o11b2o10476b$1495b2o4285b2o114b2o174b2o114b2o5782b$1497bo4284b2o114b2o174b2o114b2o5782b$10495bo1478b$22b2o10469bobo1454b2o22b$18b2o2b2o10447b2o21b2o1454b2o2b2o18b$18b2o10452b2o1480b2o18b$10471bo1502b$30b2o11910b2o30b$29bo2bo11908bo2bo29b$30b2o11910b2o30b$11974b$11974b$11974b$26b2o11918b2o26b$22b2o2b2o11918b2o2b2o22b$22b2o11926b2o22b$11974b$15b3o4542b2o7394b3o15b$4560bobo7411b$4560bo7413b$11974b$27bo11918bo27b$26bobo7378b2o4536bobo26b$26bobo5929b2o54b2o1390bobo4536bobo26b$27bo5930b2o54b2o1392bo4537bo27b$11974b$11974b$11974b$1556b2o10416b$1555b2o10417b$1557bo10416b$5782b2o114b2o174b2o114b2o5782b$5782b2o114b2o174b2o114b2o5782b$10411b2o1561b$22b2o10388b2o1536b2o22b$18b2o2b2o10387bo1538b2o2b2o18b$18b2o11934b2o18b$11974b$30b2o11910b2o25b3o2b$29bo2bo11908bo2bo24bo2bob$30b2o11910b2o25bo4b$11969bo3bo$11969bo3bo$11969bo4b$26b2o11918b2o22bobob$22b2o2b2o11918b2o2b2o22b$22b2o4596b2o7328b2o22b$4620bobo7351b$2b3o10b3o4602bo7335b3o4bo10b$bo2bo11957b3o9b$4bo11956b2obo9b$o3bo7342b2o4612b3o10b$o3bo22bo7318bobo4597bo14b3o10b$4bo21bobo7319bo4596bobo13b3o10b$bobo22bobo5929b2o54b2o5929bobo14b2o10b$27bo5930b2o54b2o5930bo27b$11974b$1616b2o10356b$10bo1604b2o10357b$9b3o1605bo10356b$9bob2o11961b$10b3o11961b$10b3o5769b2o114b2o174b2o114b2o4159b2o1621b$10b3o5769b2o114b2o174b2o114b2o4160b2o1620b$10b2o10339bo1622b$22b2o11926b2o22b$18b2o2b2o11926b2o2b2o18b$18b2o11934b2o18b$11974b$30b2o11910b2o30b$29bo2bo11908bo2bo29b$30b2o11910b2o30b$11974b$11974b$11974b$26b2o4652b2o7264b2o26b$22b2o2b2o4652bobo7263b2o2b2o22b$22b2o4656bo7269b2o22b$11974b$15b3o11938b3o15b$7287b2o4685b$7286bobo4685b$7288bo4685b$27bo11918bo27b$26bobo11916bobo26b$26bobo5929b2o54b2o5929bobo26b$27bo1648b2o4280b2o54b2o5930bo27b$1675b2o10297b$1423bo253bo10296b$1423bobo10548b$1423b2o10549b$10291b2o1681b$10292b2o1680b$5782b2o114b2o174b2o114b2o4099bo263bo1418b$5782b2o114b2o174b2o114b2o4361bobo1418b$10554b2o1418b$22b2o11926b2o22b$18b2o2b2o11926b2o2b2o18b$18b2o11934b2o18b$11974b$30b2o11910b2o30b$29bo2bo11908bo2bo29b$30b2o11910b2o30b$11974b$4740b2o7232b$4740bobo7231b$26b2o4712bo7205b2o26b$22b2o2b2o11918b2o2b2o22b$22b2o11926b2o22b$7227b2o4745b$15b3o7208bobo4727b3o15b$7228bo4745b$11974b$11974b$27bo11918bo27b$26bobo1707b2o10207bobo26b$26bobo1706b2o4221b2o54b2o5929bobo26b$27bo1709bo4220b2o54b2o5930bo27b$11974b$11974b$10231b2o1741b$10232b2o1740b$10231bo1742b$11974b$5782b2o114b2o174b2o114b2o5782b$5782b2o114b2o174b2o114b2o5782b$11974b$22b2o11926b2o17b3o2b$18b2o2b2o11926b2o2b2o13bo2bob$18b2o11934b2o13bo4b$11969bo3bo$30b2o11910b2o25bo3bo$29bo2bo11908bo2bo24bo4b$30b2o4768b2o7140b2o26bobob$4800bobo7171b$4800bo7173b$11974b$2b3o21b2o11918b2o15bo10b$bo2bo17b2o2b2o7139b2o4777b2o2b2o10b3o9b$4bo17b2o7142bobo4781b2o9b2obo9b$o3bo7163bo4792b3o10b$o3bo10b3o11938b3o2b3o10b$4bo11956b3o10b$bobo11958b2o10b$1796b2o10176b$27bo1767b2o10149bo27b$26bobo1768bo10147bobo26b$10bo15bobo5929b2o54b2o5929bobo26b$9b3o15bo5930b2o54b2o5930bo27b$9bob2o10158b2o1801b$10b3o10159b2o1800b$10b3o10158bo1802b$10b3o11961b$10b2o11962b$11974b$5782b2o114b2o174b2o114b2o5782b$5782b2o114b2o174b2o114b2o5782b$11974b$22b2o11926b2o22b$18b2o2b2o11926b2o2b2o18b$18b2o11934b2o18b$11974b$30b2o4828b2o7080b2o30b$29bo2bo4827bobo7078bo2bo29b$30b2o4828bo7081b2o30b$11974b$11974b$7107b2o4865b$26b2o7078bobo4837b2o26b$22b2o2b2o7080bo4837b2o2b2o22b$22b2o11926b2o22b$11974b$15b3o11938b3o15b$1856b2o10116b$1855b2o10117b$1857bo10116b$27bo11918bo27b$26bobo11916bobo26b$26bobo5929b2o54b2o4095b2o1832bobo26b$27bo1335bo4594b2o54b2o4096b2o1832bo27b$1363bobo8745bo1862b$1363b2o10609b$11974b$11974b$10615bo1358b$10613bobo1358b$5782b2o114b2o174b2o114b2o4422b2o1358b$5782b2o114b2o174b2o114b2o5782b$11974b$22b2o11926b2o22b$18b2o2b2o11926b2o2b2o18b$18b2o4900b2o7032b2o18b$4920bobo7051b$30b2o4888bo7021b2o30b$29bo2bo11908bo2bo29b$30b2o11910b2o30b$7047b2o4925b$7046bobo4925b$7048bo4925b$26b2o11918b2o26b$22b2o2b2o11918b2o2b2o22b$22b2o11926b2o22b$1916b2o10056b$15b3o1897b2o10039b3o15b$1917bo10056b$11974b$11974b$27bo10023b2o1893bo27b$26bobo10023b2o1891bobo26b$26bobo5929b2o54b2o4035bo1893bobo26b$27bo5930b2o54b2o5930bo27b$11974b$11974b$11974b$11974b$11974b$11969b3o2b$5782b2o114b2o174b2o114b2o5777bo2bob$5782b2o114b2o174b2o114b2o5777bo4b$11969bo3bo$22b2o4956b2o6968b2o17bo3bo$18b2o2b2o4956bobo6967b2o2b2o13bo4b$18b2o4960bo6973b2o14bobob$11974b$30b2o11910b2o30b$29bo2bo6954b2o4952bo2bo29b$2b3o25b2o6954bobo4953b2o19bo10b$bo2bo6983bo4973b3o9b$4bo11956b2obo9b$o3bo11956b3o10b$o3bo21b2o11918b2o13b3o10b$4bo17b2o2b2o1948b2o9968b2o2b2o9b3o10b$bobo18b2o1951b2o9973b2o10b2o10b$1977bo9996b$15b3o11938b3o15b$11974b$10bo9980b2o1981b$9b3o9980b2o1980b$9bob2o14bo9963bo1954bo27b$10b3o13bobo11916bobo26b$10b3o13bobo5929b2o54b2o5929bobo26b$10b3o14bo5930b2o54b2o5930bo27b$10b2o11962b$11974b$11974b$11974b$11974b$6183bobo5788b$5789b3o106b2o174b2o110bo5787b$5040b2o747bo2bo105b2o174b2o106bo2bo5788b$5040bobo746bob2o390bob2o5787b$22b2o5016bo739b2o401bob3o4b2o5756b2o22b$18b2o2b2o5756b2o401bo3bo4b2o5756b2o2b2o18b$18b2o6163bo3bo5766b2o18b$6186bo740b2o5045b$30b2o6894bobo5013b2o30b$29bo2bo5748bo1146bo5012bo2bo29b$30b2o5749bobo6158b2o30b$5781b2o6191b$11974b$2036b2o4144bo5791b$26b2o2007b2o4144bo5764b2o26b$22b2o2b2o2009bo3740b2o401bo12b2o5750b2o2b2o22b$22b2o5754b2o414b2o5754b2o22b$11974b$15b3o9913b2o2023b3o15b$9932b2o2040b$9931bo2042b$11974b$27bo11918bo27b$26bobo1274bo4478b2o406b2o5753bobo26b$26bobo1274bobo4476b2o174b2o54b2o174b2o5753bobo26b$27bo1275b2o4653b2o54b2o5930bo27b$11974b$11974b$10675bo1298b$10673bobo1298b$10674b2o1298b$5100b2o6872b$5100bobo795b2o174b2o5898b$5100bo797b2o174b2o5898b$11974b$22b2o11926b2o22b$18b2o2b2o5766b2o390b2o683b2o5081b2o2b2o18b$18b2o5770b2o390b2o682bobo5085b2o18b$6868bo5105b$30b2o11910b2o30b$29bo2bo11908bo2bo29b$30b2o11910b2o30b$2096b2o9876b$2095b2o9877b$2097bo4136bo5739b$26b2o6207b2o5709b2o26b$22b2o2b2o6206b2o5710b2o2b2o22b$22b2o9847b2o2077b2o22b$9872b2o2100b$15b3o5711bobo4139bo2084b3o15b$5728bo2bo6242b$5729bobo6242b$11974b$27bo11918bo27b$26bobo5753b2o406b2o46b2o5705bobo26b$26bobo5753b2o174b2o54b2o174b2o47b2o5704bobo26b$27bo5930b2o54b2o222bo5707bo27b$11974b$11969b3o2b$11969bo2bob$5160b2o6807bo4b$5160bobo6806bo3bo$5160bo6808bo3bo$5898b2o174b2o5893bo4b$5898b2o174b2o5894bobob$6807b2o5165b$22b2o6782bobo5141b2o22b$18b2o2b2o5766b2o390b2o624bo5141b2o2b2o18b$2b3o13b2o5770b2o390b2o5770b2o7bo10b$bo2bo6134bo5822b3o9b$4bo25b2o6107bobo5800b2o17b2obo9b$o3bo24bo2bo2123b2o3981b2o5800bo2bo16b3o10b$o3bo25b2o2123b2o9785b2o17b3o10b$4bo2152bo9803b3o10b$bobo5835bo6122b2o10b$5837bobo6134b$26b2o5810b2o3971b2o2133b2o26b$22b2o2b2o5702bo512bo3568b2o2132b2o2b2o22b$10bo11b2o5706bo58b2o452bo3567bo2138b2o22b$9b3o5718bo57b2o453bo5730b$9bob2o2b3o5772bo6165b3o15b$10b3o5713b3o3b3o504b3o3b3o5726b$10b3o11961b$10b3o5717bo447b2o63bo5730b$10b2o15bo5702bo448b2o62bo5702bo27b$26bobo5701bo51b2o394bo11b2o51bo5701bobo26b$26bobo5753b2o174b2o54b2o174b2o5753bobo26b$27bo5930b2o54b2o5930bo27b$11974b$5220b2o6752b$5220bobo6751b$5220bo6753b$11974b$11974b$5898b2o174b2o671b2o5225b$5898b2o174b2o670bobo5225b$6748bo5225b$22b2o11926b2o22b$18b2o2b2o5766b2o390b2o5766b2o2b2o18b$18b2o5770b2o390b2o5770b2o18b$2216b2o9756b$30b2o2183b2o3682bo6042b2o30b$29bo2bo2184bo3680bobo6040bo2bo29b$30b2o5865bo180bo5863b2o30b$5887bo8b2o179b2o5895b$5896b2o6b4o168b4o3671b2o2221b$5882b2o19bo3bo167b2o3b3o3669b2o2220b$26b2o5821b2o30b3o7b2o10bo2b2o168bo5bo3668bo2194b2o26b$22b2o2b2o5702bo117b2o32b2o7b2o2b3obo2bo2bo176bo160bo5702b2o2b2o22b$22b2o5706bo119bo32bo11b3obo2b3o171bo4bo161bo5706b2o22b$5730bo168bo2b3o170b2o2bo163bo5730b$15b3o6057b2obo5877b3o15b$5726b3o3b3o341b2o40b2o119b3o3b3o5726b$6119b2o5853b$1243bo4486bo387bo124bo5730b$27bo1215bobo4484bo512bo5702bo27b$26bobo1214b2o4485bo51b2o114b2o174b2o114b2o51bo5701bobo26b$26bobo5753b2o114b2o58b2o54b2o58b2o114b2o5753bobo26b$27bo5252b2o676b2o54b2o5930bo27b$5280bobo5452bo1238b$5280bo5452bobo1238b$10734b2o1238b$6086bo5887b$6084bobo600b2o5285b$6085b2o599bobo5285b$6688bo5285b$11974b$5882bo6091b$22b2o5858bobo6065b2o22b$18b2o2b2o2252b2o3512b2o90b2o6b2o190b2o98b2o5766b2o2b2o18b$18b2o2255b2o3513b2o98b2o190b2o98b2o5770b2o18b$2277bo9696b$30b2o11910b2o30b$29bo2bo11908bo2bo29b$30b2o9659b2o2249b2o30b$9692b2o2280b$5909b2o3780bo2282b$5908b2o6064b$26b2o5882bo6035b2o26b$22b2o2b2o5702bo512bo5702b2o2b2o22b$22b2o5706bo512bo5706b2o22b$5730bo327b2o183bo5730b$15b3o6041b2o5895b3o15b$5726b3o3b3o323bo180b3o3b3o5726b$11974b$5730bo235bo276bo5730b$27bo5702bo234b3o275bo5702bo27b$26bobo5311b2o388bo51b2o114b2o64b2o2bo40bo64b2o114b2o51bo5701bobo21b3o2b$26bobo5311bobo439b2o114b2o64bo3bo40bo64b2o114b2o5753bobo21bo2bob$27bo5312bo623bobo42bo5936bo22bo4b$11969bo3bo$5956b2o7b2ob2o36bobo7b2o5951bo3bo$5956b2o9bo37bo2bo2bo4b2o609b2o5340bo4b$6006bobo3b2o612bobo5341bobob$6011b2o70bo544bo5345b$6082b3o5889b$6081b2ob2o5888b$2b3o5952bo128bo5876bo10b$bo2bo2331b2o3617b2o122b2obo4bo5874b3o9b$4bo17b2o2311b2o3619b2o122bobo4bo5862b2o9b2obo9b$o3bo13b2o2b2o2313bo3452b2o289bo4bo95b2o5766b2o2b2o5b3o10b$o3bo13b2o5770b2o390b2o5770b2o5b3o10b$4bo5949b2o62b2o5941b3o10b$bobo26b2o5922b2o62b2o3611b2o2309b2o18b2o10b$29bo2bo9599b2o2307bo2bo29b$30b2o9599bo2310b2o30b$11974b$10bo11963b$9b3o11962b$9bob2o13b2o11918b2o26b$10b3o9b2o2b2o5702bo227b2o54b2o227bo5702b2o2b2o22b$10b3o9b2o5706bo227b2o54b2o227bo5706b2o22b$10b3o5717bo512bo5730b$10b2o3b3o11938b3o15b$5726b3o3b3o504b3o3b3o5726b$11974b$5400b2o328bo512bo5730b$27bo5372bobo327bo512bo5702bo27b$26bobo5371bo329bo51b2o114b2o174b2o114b2o51bo5701bobo26b$26bobo5753b2o114b2o174b2o114b2o5753bobo26b$27bo11918bo27b$6567b2o5405b$6566bobo5405b$5966b2o38b2o560bo5405b$5966b2o38b2o5966b$11974b$11974b$2396b2o9576b$2395b2o9577b$2397bo9576b$22b2o11926b2o22b$18b2o2b2o5766b2o390b2o5766b2o2b2o18b$18b2o5770b2o390b2o3387b2o2381b2o18b$9572b2o2400b$30b2o9539bo2370b2o30b$29bo2bo11908bo2bo29b$30b2o11910b2o30b$11974b$11974b$11974b$26b2o11918b2o26b$22b2o2b2o5702bo227b2o54b2o227bo5702b2o2b2o22b$22b2o5706bo227b2o54b2o227bo5706b2o22b$5730bo512bo5730b$15b3o11938b3o15b$1183bo4276b2o264b3o3b3o504b3o3b3o5726b$1183bobo4274bobo6511b$1183b2o4275bo269bo512bo5730b$27bo5702bo512bo5702bo27b$26bobo5701bo51b2o114b2o174b2o114b2o51bo5701bobo26b$26bobo5753b2o114b2o174b2o114b2o315b2o4286bo1149bobo26b$27bo6478bobo4284bobo1150bo27b$6508bo4285b2o1178b$6146bo5827b$6144bobo5827b$6145b2o5827b$2456b2o9516b$2455b2o9517b$2457bo3364bo6151b$5822bobo6149b$5822b2o6150b$22b2o9487b2o2437b2o22b$18b2o2b2o5766b2o390b2o3328b2o2436b2o2b2o18b$18b2o5770b2o390b2o3327bo2442b2o18b$11974b$30b2o11910b2o30b$29bo2bo11908bo2bo29b$30b2o11910b2o30b$11974b$11974b$11974b$26b2o11918b2o26b$22b2o2b2o5702bo227b2o54b2o227bo5702b2o2b2o22b$22b2o5706bo227b2o54b2o227bo5706b2o22b$5520b2o208bo512bo5730b$15b3o5502bobo6433b3o15b$5520bo205b3o3b3o504b3o3b3o5721b3o2b$11969bo2bob$5730bo512bo5725bo4b$27bo5702bo512bo203b2o5497bo22bo3bo$26bobo5701bo51b2o114b2o174b2o114b2o51bo202bobo5496bobo21bo3bo$26bobo5753b2o114b2o174b2o114b2o256bo5496bobo21bo4b$27bo11918bo23bobob$11974b$11974b$2516b2o9456b$2b3o2510b2o9446bo10b$bo2bo2512bo9444b3o9b$4bo11956b2obo9b$o3bo11956b3o10b$o3bo9446b2o2508b3o10b$4bo9447b2o2507b3o10b$bobo18b2o9427bo2498b2o10b2o10b$18b2o2b2o5766b2o390b2o5766b2o2b2o18b$18b2o5770b2o390b2o5770b2o18b$11974b$10bo19b2o11910b2o30b$9b3o17bo2bo11908bo2bo29b$9bob2o17b2o11910b2o30b$10b3o11961b$10b3o11961b$10b3o11961b$10b2o14b2o11918b2o26b$22b2o2b2o5552b2o148bo227b2o54b2o227bo5702b2o2b2o22b$22b2o5556bobo147bo227b2o54b2o227bo5706b2o22b$5580bo149bo512bo5730b$15b3o11938b3o15b$5726b3o3b3o504b3o3b3o5726b$6387b2o5585b$5730bo512bo142bobo5585b$27bo5702bo52bo459bo144bo5557bo27b$26bobo5701bo50b4o113b2o174b2o114b2o51bo5701bobo26b$26bobo5752bo7bo108b2o174b2o114b2o5753bobo26b$27bo5752b3o3bo3bo400b3o5752bo27b$2576b2o3201b4o3b5o400bo5782b$2575b2o3201bo3bo6bo395bob2obo5bo5777b$2577bo3204bobo2b3o394b2o3b2o6bo5776b$5779b2obobobo396b2o10bobo5776b$5781bo3bo400b2o2bo5bo5777b$6178bo5b2o5b3o3197b2o2581b$6177b3o6bo2bo3202b2o2580b$5798b3o371b3o2bo11bo3201bo2582b$5799bo378b2o20b2o5772b$22b2o5775bo380bo7b2o6b2ob2obo5747b2o22b$18b2o2b2o6b3o5765b3o386b2o6b2ob2o2b2o5746b2o2b2o18b$18b2o5758b2o401bo2bo8bobo6bo5751b2o18b$29bobobo5739bo2bo2bo402bobo7b2ob2ob4o5772b$28b2o2b2o5739bo3bo415b2o5bo5741b2o30b$31bo2b2o5738b4o405b2o9bobob2o5741bo2bo29b$27bo6bo2bo5736bo6165b4o30b$28bo3bo2bobo5736bo434bobo5727b3o32b$32b3o2bo5737bo434b2o5728b2o32b$29bo3b3o5604b2o133b2o433bo5728bo34b$29bo3bo5606bobo139b2o406b2o5754b2o26b$22b2o6bo2bo5606bo89bo51b2o174b2o54b2o174b2o51bo5702b2o2b2o22b$22b2o7b2o5697bo26bobo198b2o54b2o227bo5706b2o22b$1123bo4606bo26b2o484bo5730b$15b3o1105bobo4632bo568b2o5627b3o15b$1123b2o4601b3o3b3o504b3o3b3o78bobo5645b$6328bo5645b$5730bo512bo5730b$27bo5702bo512bo4611bo1090bo27b$26bobo5701bo167b2o174b2o167bo4609bobo1089bobo26b$26bobo2607b2o3260b2o174b2o4778b2o1089bobo26b$27bo2607b2o9309bo27b$2637bo9336b$5790b2o390b2o5790b$5790b2o390b2o5790b$9331b2o2641b$9332b2o2640b$9331bo2642b$11974b$11974b$11974b$22b2o64b2o6074bo5785b2o22b$18b2o2b2o63b2o6074bo5786b2o2b2o18b$18b2o69bo6073b3o5788b2o18b$11974b$11974b$33b2o5779bo6064b2o58b2o33b$32bo2bo5779bo6064b2o56bo2bo32b$33b2o5665b2o111b3o6063bo59b2o33b$5700bobo6271b$5700bo6273b$5782b2o406b2o5782b$22b2o5b2o5699bo51b2o174b2o54b2o174b2o51bo5699b2o5b2o17b3o2b$22b2o5b2o5699bo227b2o54b2o227bo23b2o5674b2o5b2o17bo2bob$5730bo512bo22bobo5700bo4b$15b3o7b2o6241bo5678b2o7b3o10bo3bo$24bo2bo5698b3o3b3o504b3o3b3o5698bo2bo19bo3bo$24bobo11920bobo19bo4b$25bo5704bo512bo5704bo21bobob$2696b2o3032bo512bo5730b$2695b2o3033bo167b2o174b2o167bo5730b$2697bo3200b2o174b2o5898b$2b3o11958bo10b$bo2bo11957b3o9b$4bo5785b2o390b2o3087b2o2688b2obo9b$o3bo5785b2o390b2o3088b2o2687b3o10b$o3bo9266bo2689b3o10b$4bo11956b3o10b$bobo11958b2o10b$11974b$148b2o11824b$147b2o11825b$10bo11b2o125bo11800b2o22b$9b3o6b2o2b2o11926b2o2b2o18b$9bob2o5b2o11934b2o18b$10b3o11806b2o153b$10b3o11807b2o152b$10b3o20b2o11784bo119b2o33b$10b2o20bo2bo11902bo2bo32b$33b2o11904b2o33b$5763b2o6209b$5763bobo6208b$5763bo18b2o406b2o5782b$22b2o5b2o5751b2o174b2o54b2o174b2o5751b2o5b2o22b$22b2o5b2o5927b2o54b2o5927b2o5b2o22b$6204b2o5768b$15b3o7b2o6176bobo5741b2o7b3o15b$24bo2bo6177bo5740bo2bo24b$24bobo2729b2o9189bobo24b$25bo2729b2o9191bo25b$2757bo9216b$5898b2o174b2o5898b$5898b2o174b2o5898b$9211b2o2761b$9212b2o2760b$5790b2o390b2o3027bo2762b$5790b2o390b2o5790b$11974b$11974b$208b2o11764b$207b2o11765b$209bo11764b$11974b$22b2o11926b2o22b$18b2o2b2o11735b2o189b2o2b2o18b$18b2o11740b2o192b2o18b$11759bo214b$11974b$33b2o11904b2o33b$32bo2bo5787b2o6113bo2bo32b$33b2o5788bobo6113b2o33b$5823bo6150b$11974b$5782b2o406b2o5782b$22b2o5b2o1032bo4718b2o174b2o54b2o128b2o44b2o5751b2o5b2o22b$22b2o5b2o1032bobo4892b2o54b2o127bobo5797b2o5b2o22b$1063b2o5080bo5828b$15b3o7b2o2789b2o9129b2o7b3o15b$24bo2bo2787b2o9129bo2bo24b$24bobo2790bo8097bo1031bobo24b$25bo6047bo4839bobo1032bo25b$6072b3o4839b2o1058b$6071bo3b2o3074b2o2821b$6072b5o3075b2o2820b$6077bo3073bo2822b$5893b2o176b2o3bo5897b$5790b2o100b3o176b2o2b2o105b2o5790b$5790b2o99bo2b2o177b2o107b2o5790b$268b2o5624b3o186bo5890b$267b2o5624b3o4b3o180bo5890b$269bo5624bo188bo5890b$11974b$6104bo5869b$6103bo5595b2o273b$22b2o6079b3o5594b2o248b2o22b$18b2o2b2o11675bo250b2o2b2o18b$18b2o5882b2o166b2o5882b2o18b$5874bo27b2o166b2o5902b$5875bo7b2o6089b$33b2o5838b3o7bobo6053b2o33b$32bo2bo5847bo6054bo2bo32b$33b2o11904b2o28b3o2b$11969bo2bob$6084b2o5883bo4b$5782b2o114b2o174b2o7bobo104b2o5777bo3bo$22b2o5b2o5751b2o114b2o58b2o54b2o58b2o9bo104b2o5751b2o5b2o17bo3bo$22b2o5b2o2845b2o3080b2o54b2o5927b2o5b2o17bo4b$2875b2o9093bobob$15b3o7b2o2850bo9069b2o7b3o15b$24bo2bo11918bo2bo24b$24bobo11920bobo24b$2b3o20bo5931b2o85bo3046b2o2855bo14bo10b$bo2bo5944b2o5b2obo84bobo3045b2o2868b3o9b$4bo5944b6o2bobo54bo29b2o3045bo2869b2obo9b$o3bo5947bobo8b3o7b2o39bo8bo5937b3o10b$o3bo5946b3obo10bobo2b5o35b3obo5b2obo5936b3o10b$4bo5929bo15b2ob2o2b2o7bobob2o4bo33bo2b2o6b5o5935b3o10b$bobo324b2o5460b2o98b2o40bobo13bo4bo9b2o3bob2obob2o23b3o6b5obo5b2o2b2o55b2o98b2o5778b2o10b$327b2o5461b2o98b2o41b2o14b3ob2o9b2o6bo29bo4b3o13bo2bo55b2o98b2o5790b$329bo5623b2o7bobo9bo27bo4b2o14bobo5948b$5943bo8b2o9bo7b3o24bob2o22bo5949b$10bo5930b2o9bo18b2o24b2o11b3o3bo5957b$9b3o5930b2o71bo5623b2o333b$9bob2o6003bo5623b2o332b$10b3o11626bo334b$10b3o9b2o11926b2o22b$10b3o5b2o2b2o11926b2o2b2o18b$10b2o6b2o5938b2o54b2o5938b2o18b$5958b2o54b2o5958b$11974b$33b2o11904b2o33b$32bo2bo11902bo2bo32b$33b2o11904b2o33b$11974b$11974b$2936b2o2844b2o114b2o174b2o114b2o5782b$22b2o5b2o2904b2o2845b2o114b2o174b2o34bobo77b2o5751b2o5b2o22b$22b2o5b2o2906bo3173b2o5830b2o5b2o22b$6111bo5862b$15b3o7b2o11920b2o7b3o15b$24bo2bo5938b2o28bo9b2o3023b2o2913bo2bo24b$24bobo5829bobo107b2o28bobo7b2o3024b2o2913bobo24b$25bo5830b2o138b2o3033bo2916bo25b$5857bo6116b$11974b$5982bo5991b$388b2o5590bobo5991b$387b2o5592b2o5991b$389bo5400b2o390b2o5790b$5790b2o390b2o5790b$11974b$11579b2o393b$11580b2o392b$11579bo394b$11974b$11974b$22b2o11926b2o22b$18b2o2b2o11926b2o2b2o18b$18b2o5938b2o54b2o5938b2o18b$5958b2o54b2o5958b$11974b$33b2o11904b2o33b$32bo2bo11902bo2bo32b$33b2o11904b2o33b$2996b2o8976b$1003bo1991b2o8977b$1003bobo1991bo2784b2o114b2o174b2o114b2o5782b$22b2o5b2o972b2o4777b2o114b2o174b2o114b2o5751b2o5b2o22b$22b2o5b2o11912b2o5b2o22b$8971b2o3001b$15b3o7b2o8945b2o2001bo971b2o7b3o15b$24bo2bo5938b2o38b2o2963bo2001bobo970bo2bo24b$24bobo5939b2o38b2o4966b2o971bobo24b$25bo11922bo25b$11974b$448b2o11524b$447b2o11525b$449bo11524b$11974b$5790b2o390b2o5790b$5790b2o390b2o5335b2o453b$11520b2o452b$11519bo454b$11974b$11974b$11974b$11974b$22b2o11926b2o22b$18b2o2b2o11926b2o2b2o18b$18b2o5938b2o54b2o5938b2o18b$5958b2o54b2o5953b3o2b$11969bo2bob$33b2o11904b2o28bo4b$32bo2bo3020b2o8880bo2bo27bo3bo$33b2o3020b2o8882b2o28bo3bo$3057bo8911bo4b$11970bobob$5782b2o114b2o174b2o114b2o5782b$22b2o5b2o5751b2o114b2o174b2o114b2o2719b2o3030b2o5b2o22b$22b2o5b2o8881b2o3029b2o5b2o22b$2b3o8906bo3051bo10b$bo2bo10b3o7b2o11920b2o7b3o3b3o9b$4bo19bo2bo11918bo2bo11b2obo9b$o3bo19bobo11920bobo11b3o10b$o3bo20bo482b2o11438bo12b3o10b$4bo502b2o11452b3o10b$bobo505bo11452b2o10b$11974b$11974b$11459b2o513b$10bo5779b2o390b2o5276b2o512b$9b3o5778b2o390b2o5275bo514b$9bob2o11961b$10b3o11961b$10b3o11961b$10b3o11961b$10b2o11962b$11974b$22b2o11926b2o22b$18b2o2b2o11926b2o2b2o18b$18b2o5938b2o54b2o5938b2o18b$5958b2o54b2o5958b$3116b2o8856b$33b2o3080b2o8822b2o33b$32bo2bo3081bo8820bo2bo32b$33b2o11904b2o33b$11974b$6170bobo2678b2o3121b$5782b2o114b2o174b2o95b2o17b2o2660b2o3120b$22b2o5b2o5751b2o114b2o174b2o95bo18b2o2659bo3091b2o5b2o22b$22b2o5b2o11912b2o5b2o22b$11974b$15b3o7b2o5769bobo6148b2o7b3o15b$24bo2bo540b2o5226b2o6148bo2bo24b$24bobo540b2o5228bo6149bobo24b$25bo543bo11378bo25b$11974b$11974b$11399b2o573b$11400b2o572b$11399bo574b$5790b2o390b2o5790b$5790b2o390b2o5790b$11974b$11974b$11974b$11974b$11974b$11974b$22b2o11926b2o22b$18b2o2b2o11926b2o2b2o18b$18b2o3156b2o2780b2o54b2o5938b2o18b$3175b2o2781b2o54b2o5958b$3177bo8796b$33b2o11904b2o33b$32bo2bo11902bo2bo32b$33b2o908bo4846bo3000b2o3146b2o33b$943bobo4843b3o3000b2o3180b$943b2o4843b2o2bo392bo2605bo3182b$5788bo3bo105b2o174b2o109bo5788b$22b2o5b2o5757bobo107b2o174b2o109bo5757b2o5b2o22b$22b2o5b2o11004bo907b2o5b2o22b$628b2o5150b2o7b2ob2o388bobo7b2o4839bobo938b$15b3o7b2o600b2o5151b2o9bo389bo2bo2bo4b2o4840b2o911b2o7b3o15b$24bo2bo601bo5552bobo3b2o5756bo2bo24b$24bobo6160b2o5758bobo24b$25bo11922bo25b$11339b2o633b$5781bo5558b2o632b$5779b2o5558bo634b$5780b2o6192b$11974b$11974b$5778b2o414b2o5778b$5778b2o414b2o5778b$11974b$11974b$5793bo6180b$5792b2o6180b$5792bobo6174b3o2b$22b2o3212b2o8712b2o17bo2bob$18b2o2b2o3211b2o2545b2o406b2o5758b2o2b2o13bo4b$18b2o3217bo2544b2o174b2o54b2o159bo14b2o5762b2o13bo3bo$5958b2o54b2o159b2o5792bo3bo$6174bobo5792bo4b$33b2o8696b2o3206b2o29bobob$32bo2bo8696b2o3204bo2bo32b$33b2o8696bo3207b2o33b$11974b$2b3o11958bo10b$bo2bo5893b2o174b2o5886b3o9b$4bo17b2o5b2o657b2o5208b2o174b2o5867b2o5b2o9b2obo9b$o3bo17b2o5b2o656b2o11254b2o5b2o9b3o10b$o3bo684bo11271b3o10b$4bo10b3o7b2o5763b2o390b2o5763b2o7b3o2b3o10b$bobo20bo2bo5762b2o390b2o5762bo2bo12b2o10b$24bobo11252b2o666bobo24b$25bo11254b2o666bo25b$11279bo694b$10bo5885b3o6075b$9b3o5882b2o3bo6074b$9bob2o5876b2o3b2ob4o6073b$10b3o5875bo2bo3b3o2b2o6072b$10b3o5875bo2bo6bobo6073b$10b3o5875b2ob2o5b2o6074b$10b2o5878b2o186bo5895b$5853bo223b3o5894b$5852b2o222b2o2bo5893b$5852bobo222b2obo5893b$3296b2o2776b2ob2o5895b$3295b2o2778bo5bo5892b$22b2o3273bo2777bo4bo34bo5834b2o22b$18b2o2b2o5758b2o114b2o176bo2bo35b2o73b2o5758b2o2b2o18b$18b2o5762b2o114b2o58b2o54b2o61bo36bobo73b2o5762b2o18b$5958b2o54b2o66bo2588b2o3301b$6083bo2588b2o3300b$33b2o6046b3o2587bo3267b2o33b$32bo2bo11902bo2bo32b$33b2o11904b2o33b$5886bo6087b$748b2o5135bo6088b$747b2o5136b3o6086b$22b2o5b2o718bo11193b2o5b2o22b$22b2o5b2o11912b2o5b2o22b$11974b$15b3o7b2o5763b2o98b2o190b2o98b2o5035b2o726b2o7b3o15b$24bo2bo5762b2o98b2o190b2o98b2o5036b2o724bo2bo24b$24bobo11192bo727bobo24b$25bo6113bo5808bo25b$6137b2o5835b$6138b2o5834b$11974b$11974b$5839bo6134b$5840b2o6132b$5839b2o72bo6060b$5912b2o6060b$5912bobo6059b$3356b2o8616b$3355b2o8617b$3357bo2697bo5918b$6055b2o5917b$22b2o6030bobo5893b2o22b$18b2o2b2o5758b2o114b2o174b2o114b2o2419b2o3337b2o2b2o18b$18b2o5762b2o114b2o109bo64b2o114b2o2420b2o3340b2o18b$5965b2o41b2o2601bo3362b$5966b3o38bo5966b$33b2o848bo5072b2o9b2o39b2o6b2o5921b2o33b$32bo2bo847bobo5070b2o10b2o38b2ob2o3b2o5920bo2bo32b$33b2o773b2o73b2o5080b2obo39b4o5927b2o33b$807b2o5150bobo3b3o38b2ob3o5962b$809bo5149b2o5bo39b2ob2o5963b$5960bo44bo3b3o5083bo878b$22b2o5b2o5976b3obo5081bobo847b2o5b2o22b$22b2o5b2o5978bo5084b2o63b2o782b2o5b2o22b$6006bo2bo5150b2o812b$15b3o7b2o5763b2o98b2o190b2o98b2o4975bo787b2o7b3o15b$24bo2bo5762b2o98b2o114b3o73b2o98b2o5762bo2bo24b$24bobo5927b2o62b2o5927bobo24b$25bo5928b2o62b2o5928bo25b$11974b$11974b$11974b$11974b$11974b$11974b$5958b2o54b2o5958b$3416b2o2540b2o54b2o5958b$3415b2o8552b3o2b$3417bo8551bo2bob$11969bo4b$11969bo3bo$8551b2o3416bo3bo$22b2o8528b2o3396b2o17bo4b$18b2o2b2o5758b2o114b2o174b2o114b2o2359bo3398b2o2b2o14bobob$18b2o5762b2o114b2o174b2o114b2o5762b2o18b$11974b$11974b$2b3o28b2o833b2o11069b2o22bo10b$bo2bo27bo2bo831b2o5097b2o38b2o5930bo2bo20b3o9b$4bo28b2o834bo5096b2o38b2o5931b2o20b2obo9b$o3bo11956b3o10b$o3bo11956b3o10b$4bo11094b2o860b3o10b$bobo18b2o5b2o11069b2o841b2o5b2o10b2o10b$22b2o5b2o11068bo843b2o5b2o22b$11974b$15b3o7b2o5763b2o98b2o190b2o98b2o5763b2o7b3o15b$10bo13bo2bo5762b2o98b2o190b2o98b2o5762bo2bo24b$9b3o12bobo11920bobo24b$9bob2o12bo11922bo25b$10b3o11961b$10b3o11961b$10b3o11961b$10b2o11962b$11974b$3476b2o8496b$3475b2o2481b2o54b2o5958b$3477bo2480b2o54b2o5958b$11974b$11974b$8491b2o3481b$8492b2o3480b$8491bo3482b$22b2o11926b2o22b$18b2o2b2o5758b2o114b2o174b2o66bo47b2o5758b2o2b2o18b$18b2o5762b2o114b2o174b2o67bo46b2o5762b2o18b$928b2o5211b3o5830b$927b2o11045b$33b2o894bo11009b2o33b$32bo2bo5790bo256bo5854bo2bo32b$33b2o5790bo257b2o5854b2o33b$5825b3o255b3o4953b2o933b$6084b2o4954b2o932b$6079bo4959bo934b$22b2o5b2o11912b2o5b2o22b$22b2o5b2o11912b2o5b2o22b$11974b$15b3o7b2o5763b2o390b2o5763b2o7b3o15b$24bo2bo5762b2o390b2o5762bo2bo24b$24bobo11920bobo24b$25bo11922bo25b$11974b$11974b$11974b$3536b2o8436b$3535b2o8437b$3537bo8436b$5958b2o54b2o5958b$5958b2o54b2o5958b$8431b2o3541b$8432b2o3540b$8431bo3542b$11974b$11974b$22b2o11926b2o22b$18b2o2b2o964b2o4792b2o114b2o174b2o114b2o5758b2o2b2o18b$18b2o967b2o4793b2o114b2o174b2o114b2o5762b2o18b$823bo165bo10984b$823bobo11148b$33b2o788b2o11114b2o33b$32bo2bo10943b2o957bo2bo32b$33b2o10945b2o957b2o33b$10979bo175bo818b$11153bobo818b$11154b2o818b$22b2o5b2o11912b2o5b2o22b$22b2o5b2o11912b2o5b2o22b$11974b$15b3o7b2o5763b2o390b2o5763b2o7b3o15b$24bo2bo5762b2o390b2o5762bo2bo24b$24bobo11920bobo24b$25bo11922bo25b$11974b$3596b2o8376b$3595b2o8377b$3597bo8376b$11969b3o2b$11969bo2bob$5958b2o54b2o2355b2o3596bo4b$5958b2o54b2o2356b2o3595bo3bo$8371bo3597bo3bo$11969bo4b$11970bobob$11974b$1048b2o10924b$22b2o1023b2o10901b2o22b$2b3o13b2o2b2o1025bo4848b2o174b2o114b2o5758b2o2b2o7bo10b$bo2bo13b2o5763bo114b2o174b2o114b2o5762b2o6b3o9b$4bo5777b5obo6172b2obo9b$o3bo5777bo2bo3bo5129b2o1040b3o10b$o3bo28b2o5753bo5131b2o1017b2o20b3o10b$4bo27bo2bo5746b3o2bo5131bo1018bo2bo19b3o10b$bobo29b2o5748bo4b2o4b2o395b2o5746b2o21b2o10b$5788b2o7bo392bob2o5b2o5773b$5787bo9b3o390bobo2b6o5773b$5789bo4b2o4bo374b2o7b3o8bobo5776b$10bo11b2o5b2o5762bob3o3bo372b5o2bobo10bob3o5744b2o5b2o22b$9b3o10b2o5b2o5743b2o17bo4bobo372bo4b2obobo7b2o2b2ob2o5743b2o5b2o22b$9bob2o5757bo3bobo16bo2bo376b2obob2obo3b2o9bo4bo5772b$10b3o2b3o7b2o5741b2o14bo10bo381bo6b2o9b2ob3o5746b2o7b3o15b$10b3o11bo2bo5746bo3bo396bo9bobo7b2o5749bo2bo24b$10b3o11bobo5743b3ob2ob2o2b2o393b3o7bo9b2o8bo5740bobo24b$10b2o13bo3630b2o2123b2o394b2o18bo9b2o5739bo25b$3655b2o2106b2o12bo2b3o423b2o5766b$3657bo2104bob2o11bo6196b$5764b2o12b2o6194b$5762bo3bo6207b$5762b3obo2544b2o3661b$5762bo3bo15b2o406b2o2120b2o3660b$5782b2o174b2o54b2o174b2o2119bo3662b$5958b2o54b2o189b3o5766b$6207bo5766b$6206bo5767b$1108b2o10864b$1107b2o10865b$1109bo10864b$22b2o11926b2o22b$18b2o2b2o5874b2o174b2o5874b2o2b2o18b$18b2o5878b2o174b2o4783b2o1093b2o18b$10860b2o1112b$10859bo1114b$33b2o5755b2o390b2o5755b2o33b$32bo2bo5754b2o390b2o5754bo2bo32b$33b2o11904b2o33b$11974b$11974b$6167bo5806b$22b2o5b2o6136bobo5773b2o5b2o22b$22b2o5b2o6136b2o5774b2o5b2o22b$11974b$15b3o7b2o11920b2o7b3o15b$24bo2bo3688b2o2093bo6134bo2bo24b$24bobo3688b2o2092bobo6135bobo24b$25bo3691bo2092b2o6136bo25b$5821b3o6150b$5821bo6152b$5822bo2428b2o3721b$8252b2o3720b$8251bo3722b$5782b2o361b3o42b2o5782b$5782b2o174b2o54b2o131bo42b2o5782b$5958b2o54b2o130bo5827b$1168b2o10804b$1167b2o10805b$1169bo10804b$6071b3o5900b$6071bobo2bo5897b$22b2o6050bob2o4721b2o1149b2o22b$18b2o2b2o739bo5306bobo4b2o4721b2o1148b2o2b2o18b$18b2o743bobo5303b2ob3o2b2o4720bo1154b2o18b$763b2o5304b3o3bo2b2o5894b$6070bo2b2obob2o5894b$33b2o5755b2o104bo174bo5bo104b2o5755b2o33b$32bo2bo5754b2o102b2ob2o175b2o106b2o5031bo722bo2bo32b$33b2o5859b2ob2o173b3o8bo5129bobo723b2o33b$5893bobob2ob3o169b3o8bo5130b2o758b$5892b2obo187bo5890b$5892bo2b2o6077b$22b2o5b2o5862b3o6047b2o5b2o22b$22b2o5b2o11912b2o5b2o22b$3776b2o8196b$15b3o7b2o3748b2o8170b2o7b3o15b$24bo2bo3749bo2124b2o166b2o5874bo2bo24b$24bobo5854b3o18b2o166b2o5875bobo24b$25bo5855bo6066bo25b$5882bo2308b2o3776b3o2b$8192b2o3775bo2bob$8191bo3777bo4b$6085b3o5881bo3bo$6087bo5881bo3bo$5782b2o114b2o174b2o10bo103b2o5777bo4b$1228b2o4552b2o114b2o58b2o54b2o58b2o114b2o5778bobob$1227b2o4729b2o54b2o5958b$1229bo10744b$11974b$2b3o5952b2o6004bo10b$bo2bo5952bobo4779b2o1221b3o9b$4bo5947b3o2b3o4780b2o1219b2obo9b$o3bo17b2o5927b2ob2o7b2o47bo30bo4695bo1210b2o9b3o10b$o3bo13b2o2b2o5927bo10b2o47b2o29bo5907b2o2b2o5b3o10b$4bo13b2o5944bobo4bo38bobo3b2o3b2o19b3o5909b2o5b3o10b$bobo5944b2o16b3o2bo3b3o23b2o7b2o3bo3b2o2bo5938b2o10b$5948b2o13bo2b3o2bo28bo2b2o7b3o4b2ob2o5950b$33b2o5755b2o98b2o43bo27b2o34bo5bo13b2o5bobo53b2o98b2o5755b2o33b$32bo2bo5754b2o98b2o44bo12b4o10b3o32bo2b2o2bo6b2o7bobo3b2o53b2o98b2o5754bo2bo32b$10bo22b2o5899b3o12b3obo11b2o30b2ob2ob3o5b2o10bo3bo5911b2o33b$9b3o5937bo3bo10b2o31bo2bo10b2o5961b$9bob2o5938b3o43bob2o11bo5961b$10b3o5927bobo55b2o11bo5962b$10b3o9b2o5b2o3805b2o2102b2o6001b2o5b2o22b$10b3o9b2o5b2o3804b2o2104bo6001b2o5b2o22b$10b2o3825bo8136b$15b3o7b2o11920b2o7b3o15b$24bo2bo5930b2o54b2o5930bo2bo24b$24bobo5931b2o54b2o2115b2o3814bobo24b$25bo8106b2o3814bo25b$8131bo3842b$11974b$11974b$11974b$1288b2o10684b$1287b2o4493b2o114b2o174b2o114b2o5782b$1289bo4492b2o114b2o174b2o114b2o5782b$6112bo5861b$6113b2o5859b$6112b2o4565b2o1293b$5966b2o38b2o4672b2o1292b$5966b2o27bo10b2o4671bo1294b$5856bo137bo5979b$22b2o5830b2o138b3o5953b2o22b$18b2o2b2o5831b2o6093b2o2b2o18b$18b2o11934b2o18b$5983bo5990b$5984bo5989b$33b2o5755b2o98b2o90b3o97b2o98b2o5755b2o33b$32bo2bo5754b2o98b2o190b2o98b2o5754bo2bo32b$33b2o11904b2o33b$6107bo5866b$3896b2o2209bobo5864b$3895b2o2210b2o5865b$22b2o5b2o3866bo8045b2o5b2o22b$22b2o5b2o11912b2o5b2o22b$5871bo6102b$15b3o7b2o5842bobo2199b2o3874b2o7b3o15b$24bo2bo5842b2o86b2o54b2o2056b2o3872bo2bo24b$24bobo5931b2o54b2o2055bo3875bobo24b$25bo11922bo25b$11974b$11974b$1348b2o10624b$1347b2o10625b$1349bo10624b$5782b2o114b2o174b2o114b2o5782b$5782b2o114b2o174b2o114b2o5782b$10619b2o1353b$10620b2o1352b$10619bo1354b$5966b2o38b2o5966b$5966b2o38b2o5966b$703bo11270b$22b2o679bobo11244b2o22b$18b2o2b2o679b2o11245b2o2b2o18b$18b2o11934b2o18b$11974b$11275bo698b$33b2o5755b2o98b2o190b2o98b2o5089bobo663b2o33b$32bo2bo5754b2o98b2o190b2o98b2o5090b2o662bo2bo32b$33b2o3921b2o7981b2o33b$3955b2o8017b$3957bo8016b$11974b$22b2o5b2o11912b2o5b2o22b$22b2o5b2o7980b2o3930b2o5b2o22b$8012b2o3960b$15b3o7b2o7984bo3935b2o7b3o10b3o2b$24bo2bo5930b2o54b2o5930bo2bo19bo2bob$24bobo5931b2o54b2o5931bobo19bo4b$25bo11922bo20bo3bo$1408b2o10559bo3bo$1407b2o10560bo4b$1409bo10560bobob$11974b$11974b$5782b2o114b2o174b2o114b2o4367b2o1413b$2b3o5777b2o114b2o174b2o114b2o4368b2o1401bo10b$bo2bo10554bo1402b3o9b$4bo11956b2obo9b$o3bo11956b3o10b$o3bo11956b3o10b$4bo11956b3o10b$bobo11958b2o10b$22b2o11926b2o22b$18b2o2b2o11926b2o2b2o18b$18b2o11934b2o18b$10bo11963b$9b3o11962b$9bob2o20b2o3981b2o1772b2o390b2o5755b2o33b$10b3o19bo2bo3979b2o1773b2o390b2o5754bo2bo32b$10b3o20b2o3982bo7921b2o33b$10b3o11961b$10b2o11962b$7951b2o4021b$22b2o5b2o7921b2o3989b2o5b2o22b$22b2o5b2o7920bo3991b2o5b2o22b$11974b$15b3o7b2o11920b2o7b3o15b$24bo2bo5930b2o54b2o5930bo2bo24b$24bobo1441b2o4488b2o54b2o5931bobo24b$25bo1441b2o10479bo25b$1469bo10504b$11974b$11974b$10499b2o1473b$10500b2o1472b$5782b2o114b2o174b2o96bo17b2o4307bo1474b$5782b2o114b2o174b2o97b2o15b2o5782b$6172b2o5800b$11974b$11974b$5796bo6177b$5794b2o6178b$5795b2o6177b$22b2o11926b2o22b$18b2o2b2o11926b2o2b2o18b$18b2o11934b2o18b$4076b2o7896b$4075b2o7897b$33b2o4042bo1712b2o390b2o5755b2o33b$32bo2bo5754b2o390b2o5754bo2bo32b$33b2o11904b2o33b$7891b2o4081b$7892b2o4080b$7891bo4082b$22b2o5b2o11912b2o5b2o22b$22b2o5b2o11912b2o5b2o22b$11974b$15b3o7b2o1501b2o10417b2o7b3o15b$24bo2bo1499b2o4429b2o54b2o5930bo2bo24b$24bobo1502bo4428b2o54b2o5931bobo24b$25bo5764bo6157bo25b$5789b3o6182b$5788bo2bo4647b2o1533b$5788b2o4650b2o1532b$5789bo4649bo1534b$5791b2o6181b$5789b4o105b2o174b2o5898b$5788bo2bo106b2o174b2o107b2o5789b$5790bo390b3o5790b$5780b2o399b2o9b2o5780b$5780b2o7bobo388b2o10b2o5780b$643bo5146b2o389bob2o5789b$643bobo5536b3o3bobo5783b$643b2o5538bo5b2o5783b$22b2o6165bo5760b2o22b$18b2o2b2o4112b2o7812b2o2b2o18b$18b2o4115b2o1642bo5555bo618b2o18b$4137bo1640bobo5552bobo638b$5778bobo5553b2o638b$33b2o5744b2o6158b2o33b$32bo2bo5742b3o413b2o1635b2o4105bo2bo32b$33b2o6159b2o1636b2o4105b2o33b$7831bo4142b$5791b2o6181b$5790b2o6177b3o2b$22b2o5b2o5761bo6150b2o5b2o17bo2bob$22b2o5b2o1557b2o10353b2o5b2o17bo4b$1587b2o10380bo3bo$15b3o7b2o1562bo4192b2o392b2o12b2o5755b2o7b3o10bo3bo$24bo2bo5754b2o174b2o54b2o161b2o11b2o5754bo2bo19bo4b$24bobo5931b2o54b2o160bo5770bobo20bobob$25bo10353b2o1567bo25b$10380b2o1592b$10379bo1594b$2b3o11958bo10b$bo2bo11957b3o9b$4bo11956b2obo9b$o3bo5893b2o174b2o5885b3o10b$o3bo5893b2o174b2o5885b3o10b$4bo11956b3o10b$bobo11958b2o10b$5790b2o390b2o5790b$5790b2o390b2o5790b$11974b$10bo4185b2o7776b$9b3o10b2o4171b2o1702bo6050b2o22b$9bob2o5b2o2b2o4173bo1700bob2o6048b2o2b2o18b$10b3o5b2o5869b2o6b2o2b2o6051b2o18b$10b3o5874bo3bo4bobo4bo6070b$10b3o5872b2o4bo3b3o5b2o173bo1692b2o4201b$10b2o21b2o5850bo5bob2ob2o4b2o173bobo1692b2o4165b2o33b$32bo2bo5849bo2b2o3b2o7bo173b2ob2o1690bo4166bo2bo32b$33b2o5816b2o33bob2o5bobo178b2obo5859b2o33b$5850b2o224b3o2b2o5891b$5852bo224bo5896b$1648b2o4428bo5895b$22b2o5b2o1616b2o4429b2o5863b2o5b2o22b$22b2o5b2o1618bo4423b2o41b2o5825b2o5b2o22b$6073b2o42b2o5855b$15b3o7b2o5755b2o114b2o174b2o40bo73b2o5755b2o7b3o15b$24bo2bo5754b2o114b2o58b2o54b2o59bo114b2o4127b2o1625bo2bo24b$24bobo5931b2o54b2o4304b2o1625bobo24b$25bo10293bo1628bo25b$6084bo5889b$6082bobo5889b$6083b2o5889b$11974b$11974b$5884bo6089b$5884bobo6087b$5884b2o6088b$11974b$5790b2o98b2o190b2o98b2o5790b$4256b2o1532b2o98b2o190b2o98b2o5790b$4255b2o7717b$4257bo7716b$22b2o11926b2o22b$18b2o2b2o6112bobo5811b2o2b2o18b$18b2o6116b2o1573b2o4241b2o18b$6137bo1574b2o4260b$7711bo4262b$33b2o5876b2o6026b2o33b$32bo2bo5804bobo67b2o6026bo2bo32b$33b2o5806b2o69bo6026b2o33b$1708b2o4131bo6132b$1707b2o10265b$1709bo4346b2o5916b$22b2o5b2o6026b2o5884b2o5b2o22b$22b2o5b2o6025bo5886b2o5b2o22b$10259b2o1713b$15b3o7b2o5755b2o114b2o108b3o63b2o114b2o4068b2o1685b2o7b3o15b$24bo2bo5754b2o114b2o174b2o114b2o4067bo1686bo2bo24b$24bobo5938b2o41bo5938bobo24b$25bo5938bob2o39b4o5937bo25b$5956b2o7bo40b5o5b2o5956b$5956b2o6b3o39b2o3bo4b2o5956b$5964b3o41b3o5963b$5964b2ob2o6005b$5959bo6014b$5957b2o6015b$5958b2o6014b$11974b$583bo3732b2o7656b$583bobo3729b2o1473b2o98b2o190b2o98b2o5790b$583b2o3732bo1472b2o98b2o113b2o75b2o98b2o5790b$5954b2o50bobo9b2o5954b$5954b2o51bo10b2o5954b$22b2o7627b2o3742bo554b2o22b$18b2o2b2o7628b2o3739bobo554b2o2b2o18b$18b2o7631bo3742b2o558b2o18b$11974b$11974b$33b2o11904b2o33b$32bo2bo1732b2o4188b2o54b2o5922bo2bo27b3o2b$33b2o1732b2o4189b2o54b2o5923b2o28bo2bob$1769bo10199bo4b$11969bo3bo$11969bo3bo$22b2o5b2o10168b2o1742b2o5b2o17bo4b$22b2o5b2o10169b2o1741b2o5b2o18bobob$10199bo1774b$15b3o7b2o5755b2o114b2o174b2o114b2o5755b2o7b3o15b$24bo2bo5754b2o114b2o174b2o114b2o5754bo2bo24b$2b3o19bobo11920bobo13bo10b$bo2bo20bo11922bo13b3o9b$4bo11956b2obo9b$o3bo5961b2o38b2o5953b3o10b$o3bo5961b2o38b2o5953b3o10b$4bo11956b3o10b$bobo11958b2o10b$11915b2o57b$4376b2o7538b2o56b$4375b2o7538bo58b$10bo4366bo7596b$9b3o5778b2o98b2o190b2o98b2o5790b$9bob2o49b2o5726b2o98b2o190b2o98b2o5790b$10b3o48b2o7528b2o4381b$10b3o50bo7528b2o4380b$10b3o7578bo4382b$10b2o11962b$11974b$18b2o11934b2o18b$18b2o1808b2o10124b2o18b$1827b2o10145b$1829bo4128b2o54b2o5958b$5958b2o54b2o5958b$11974b$10139b2o1833b$10140b2o1832b$10139bo1834b$11974b$11974b$5782b2o114b2o174b2o114b2o5782b$5782b2o114b2o174b2o114b2o5782b$6144bo5829b$6142bobo5829b$6143b2o5829b$11974b$11974b$5824bo6030b2o117b$4436b2o1386bobo6029b2o116b$4435b2o1387b2o6029bo118b$4437bo7536b$11974b$122b2o11850b$121b2o5667b2o390b2o1347b2o4441b$123bo5666b2o390b2o1348b2o4440b$7531bo4442b$11974b$11974b$11974b$1888b2o10084b$18b2o1867b2o10065b2o18b$18b2o1869bo10064b2o18b$11974b$5958b2o54b2o5958b$5958b2o54b2o4063b2o1893b$10080b2o1892b$10079bo1894b$11974b$11974b$11974b$11974b$5782b2o114b2o174b2o114b2o5782b$5782b2o114b2o174b2o114b2o5782b$11974b$11974b$11974b$11795b2o177b$4496b2o7298b2o176b$4495b2o7298bo178b$4497bo7476b$11974b$182b2o339bo11450b$181b2o340bobo6945b2o4501b$183bo339b2o6947b2o4500b$5790b2o390b2o1287bo4502b$5790b2o390b2o5790b$11455bo518b$11453bobo518b$1948b2o9504b2o518b$1947b2o10025b$1949bo10019b3o2b$18b2o11934b2o13bo2bob$18b2o11934b2o13bo4b$10019b2o1948bo3bo$5958b2o54b2o4004b2o1947bo3bo$5958b2o54b2o4003bo1949bo4b$11970bobob$11974b$11974b$11974b$2b3o11969b$bo2bo5780bo6188b$4bo5779bo113b2o174b2o114b2o5782b$o3bo5776bo6bo109b2o174b2o114b2o5782b$o3bo5775bo2b3o3bo6184b$4bo5775bo9bo5944b2o237b$bobo4552b2o1221b2ob4o4bo400b2o5543b2o236b$4555b2o1223bob4o5bo398bobo5542bo238b$4557bo1223bo2bo5bo399b3o2b3o5776b$5786b4o395b2o7b2ob2o5775b$242b2o5543b2o397b2o10bo5775b$241b2o5555b2o378bo4bobo1225b2o4561b$243bo5553bo374b3o3bo2b3o16b2o1210b2o4560b$5772b4o22b3o377bo2b3o2bo13b2o1209bo4562b$5770b8o21bo385b2o5787b$5768b4ob5o406b3o10b4o5773b$5768bo2bob2o2b2o404b2o11bob3o5773b$2008b2o3759b3o412b2o10bo3bo5773b$2007b2o3762bo6b2o416b3o5775b$2009bo3762b3o3bo428bobo5764b$5763bobo10b2o430b2o5764b$5767bo9bo430bo5765b$18b2o5742bob2o2bo9bo4180b2o1993b2o18b$18b2o9940b2o1992b2o18b$5764b2o2bo13b2o406b2o15b2o3750bo2014b$5765b3o14b2o174b2o54b2o174b2o14bobo5765b$5958b2o54b2o192bo5765b$11974b$11974b$11974b$11974b$11974b$11974b$5898b2o174b2o5898b$5898b2o174b2o5599b2o297b$4616b2o7058b2o296b$4615b2o7058bo298b$4617bo1172b2o390b2o5790b$5790b2o390b2o5790b$302b2o11670b$301b2o7048b2o4621b$303bo7048b2o4620b$7351bo4622b$6166bo5807b$6165bo5808b$6165b3o5806b$2068b2o9904b$2067b2o9905b$2069bo3742bo7b2o6152b$5813bo6bobo6151b$5811b3o6bo6153b$9899b2o2073b$9900b2o2072b$18b2o6127b2o3750bo2054b2o18b$18b2o6126bobo5805b2o18b$5782b2o364bo41b2o5782b$5782b2o174b2o54b2o174b2o5782b$5958b2o54b2o5958b$11974b$11974b$11974b$11974b$11974b$11615b2o357b$4676b2o6938b2o356b$4675b2o6938bo358b$4677bo1217b3o179bo5896b$5894bo2bo173b3o5900b$362b2o5426b2o104b2o179bobo102b2o5790b$361b2o5427b2o104bo2b3o168bo3bo3b2o102b2o1107b2o4681b$363bo5528bo3bobo3bo168bobo4bo4bo1208b2o4680b$5892bo3bo5bo169bo10bo1207bo4682b$463bo5428bo3bobob2o181bo5890b$463bobo5425bo2b2obo6076b$463b2o5426bo2bo6079b$2128b2o3762bo2bo6078b$2127b2o3764b2o6079b$2129bo3750b2o5633bo458b$5880bobo19b2o166b2o5441bobo458b$5880bo21b2o166b2o5442b2o453b3o2b$9839b2o2128bo2bob$9840b2o2127bo4b$6087b2o3750bo2129bo3bo$6086bobo5880bo3bo$18b2o6068bo5865b2o13bo4b$18b2o11934b2o14bobob$5782b2o114b2o174b2o114b2o5782b$5782b2o114b2o58b2o54b2o58b2o114b2o5782b$5958b2o54b2o5958b$2b3o11969b$bo2bo11969b$4bo5949b5o6015b$o3bo5947b2o3bobob4o5590b2o417b$o3bo4731b2o1214b2o5bo5bo46bo5543b2o416b$4bo4730b2o1217bob4o2b2o2b2o42b2o2b2o5539bo418b$bobo4733bo1219bo3bo2bob2o3bo43b2o5957b$5949bo12b2o3b2o2bo40bo3bo3b2ob2o16bo5932b$422b2o5525b3o10bob2ob2o2bo3b3o34b4o4bo2bo17bobo5930b$421b2o5525bob3o8bo2b7o27b3o4b2o3bo9bob2o17b2o1188b2o4741b$423bo5366b2o98b2o53b2o5b2o7bob7o34b2ob2obo12bo58b2o98b2o1048b2o4740b$5790b2o98b2o56bo2b2obo6bo3bo33bo8bobo2bo7b2o5bo53b2o98b2o1047bo4742b$5937bo10b3o4bo9bo33bobobo4bo4bo7bo7b2o5943b$5935bobo10b3o4b2o9b2o30bo8bo20b2o5944b$5936b2o14b4o10bo31bo4b3o5968b$2188b2o3762b3o9bobo30bo4bobo5969b$2187b2o3751bo11b2o11bo31bo3bo5972b$2189bo3748b2o57b4o5973b$5939b2o6033b$11974b$5958b2o54b2o3763b2o2193b$5958b2o54b2o3764b2o2192b$9779bo2194b$11974b$11974b$11974b$18b2o11934b2o18b$18b2o11934b2o18b$5782b2o114b2o174b2o114b2o5782b$5782b2o114b2o174b2o114b2o5782b$11974b$11974b$6113bobo5379b2o477b$4796b2o1168b2o38b2o106b2o5380b2o476b$4795b2o1169b2o38b2o106bo5380bo478b$4797bo7176b$5993bo5980b$482b2o5369bobo137bobo5978b$481b2o5370b2o138b2o1176b2o4801b$483bo5370bo1317b2o4800b$7171bo4802b$5790b2o98b2o93bo96b2o98b2o5790b$5790b2o98b2o91bobo96b2o98b2o5790b$5984b2o5988b$2248b2o9724b$2247b2o3857bo5867b$2249bo3855bo5868b$6105b3o5866b$11974b$9719b2o2253b$5872bo3847b2o2252b$5873bo84b2o54b2o3703bo2254b$5871b3o84b2o54b2o5958b$11974b$11974b$11974b$11974b$18b2o11934b2o18b$18b2o11934b2o18b$5782b2o114b2o174b2o114b2o5782b$5782b2o114b2o174b2o114b2o5782b$11435b2o537b$4856b2o6578b2o536b$4855b2o6578bo538b$4857bo1108b2o38b2o5966b$5966b2o38b2o5966b$542b2o11430b$541b2o6568b2o4861b$543bo6568b2o4860b$7111bo4862b$11974b$11974b$5790b2o98b2o190b2o98b2o5790b$2308b2o3480b2o98b2o190b2o98b2o5790b$403bo1903b2o9665b$403bobo1903bo9664b$403b2o11569b$11974b$9659b2o2313b$9660b2o1913bo393b3o2b$9659bo1913bobo393bo2bob$11574b2o393bo4b$5958b2o54b2o5953bo3bo$5958b2o54b2o5953bo3bo$11969bo4b$11970bobob$11974b$11974b$18b2o11934b2o18b$2b3o13b2o11934b2o18b$bo2bo5777b2o114b2o174b2o114b2o5183b2o597b$4bo4911b2o864b2o114b2o174b2o114b2o5184b2o596b$o3bo4910b2o6458bo598b$o3bo4912bo7056b$4bo11969b$bobo598b2o11370b$601b2o6448b2o4921b$603bo6448b2o4920b$7051bo4922b$11974b$11974b$11974b$2368b2o9604b$2367b2o3421b2o390b2o5790b$2369bo3420b2o390b2o5790b$11974b$11974b$9599b2o2373b$9600b2o2372b$9599bo2374b$11974b$11974b$11974b$5958b2o54b2o5958b$5958b2o54b2o5958b$11974b$11974b$11974b$11974b$18b2o11295b2o637b2o18b$18b2o4956b2o6338b2o636b2o18b$4975b2o805b2o114b2o174b2o114b2o5123bo658b$4977bo804b2o114b2o174b2o114b2o5782b$6173bobo5798b$662b2o5510b2o5798b$661b2o5511bo816b2o4981b$663bo6328b2o4980b$6991bo4982b$5793bobo6178b$5793b2o6179b$5794bo6179b$2428b2o9544b$2427b2o9545b$2429bo9544b$5790b2o390b2o5790b$5790b2o390b2o5790b$9539b2o2433b$9540b2o2432b$9539bo2434b$11974b$11974b$11974b$11974b$11974b$5789b3o166b2o54b2o5958b$5958b2o54b2o5958b$5789bobo6182b$5788bo6185b$5788bo3bo5462b2o717b$5036b2o6218b2o716b$18b2o5015b2o751b2o2bo5462bo698b2o18b$18b2o5017bo6916b2o18b$5898b2o174b2o5898b$722b2o5174b2o174b2o107b2o5789b$721b2o5459b2obo745b2o5041b$723bo5056b2o402bo7b2o738b2o5040b$5780b2o8b2o391b3o6b2o737bo5042b$5790b2o391b3o5788b$6181b2ob2o5788b$6190bo5783b$2488b2o3701b2o5781b$2487b2o3701b2o5782b$2489bo3291bo6192b$5779bo2bo6191b$5778b2o6194b$343bo5433bo3bo3697b2o2493b$343bobo5432bo2bo412b2o3284b2o2492b$343b2o5434b2o413b2o3283bo2494b$11969b3o2b$11969bo2bob$11635bo333bo4b$11633bobo333bo3bo$11634b2o333bo3bo$11969bo4b$5782b2o406b2o5778bobob$5782b2o174b2o54b2o174b2o5782b$5958b2o54b2o5958b$11195b2o777b$2b3o5091b2o6098b2o776b$bo2bo5090b2o6098bo778b$4bo5092bo6876b$o3bo13b2o11934b2o18b$o3bo13b2o762b2o11170b2o18b$4bo776b2o5115b2o174b2o795b2o5101b$bobo779bo5114b2o174b2o796b2o5100b$6871bo5102b$11974b$5790b2o390b2o5790b$5790b2o390b2o5790b$2548b2o9424b$2547b2o9425b$2549bo9424b$11974b$11974b$9419b2o2553b$9420b2o2552b$9419bo2554b$11974b$5729b3o6242b$6239bo5734b$5727bo5bo506b2o5732b$5727bo5bo504bob5o5729b$5727bo5bo505bobo2bo5729b$6243bo5730b$5729b3o6242b$5782b2o406b2o5782b$5782b2o174b2o54b2o174b2o4943b2o837b$5156b2o800b2o54b2o5120b2o836b$5155b2o5978bo838b$5157bo6816b$11974b$842b2o11130b$18b2o821b2o5968b2o5141b2o18b$18b2o823bo5968b2o5140b2o18b$5898b2o174b2o735bo5162b$5898b2o174b2o5898b$11974b$11974b$2608b2o3180b2o390b2o5790b$2607b2o3181b2o390b2o5790b$2609bo9364b$11974b$11974b$9359b2o2613b$6136bo3223b2o2612b$5784b3o347b2o3223bo2614b$5784bo350b2o5837b$5785bo6188b$11974b$5729b3o110bo399b3o5729b$5843b2o337b3o5789b$5727bo5bo108b2o340bo55bo5bo5727b$5727bo5bo449bo56bo5bo5727b$5727bo5bo506bo5bo5727b$11974b$5729b3o510b3o4830b2o897b$5216b2o564b2o406b2o4884b2o896b$5215b2o565b2o174b2o54b2o174b2o4883bo898b$5217bo740b2o54b2o5958b$11974b$902b2o11070b$901b2o5848b2o5221b$903bo5848b2o5220b$18b2o6731bo5202b2o18b$18b2o11934b2o18b$5898b2o174b2o5898b$5898b2o174b2o5898b$2668b2o9304b$2667b2o9305b$2669bo3120b2o390b2o5790b$5790b2o390b2o5790b$5896bo6077b$5896b2o177bo3223b2o2673b$5895bo2bo6b2o167bo3225b2o2672b$5844b3o51bob2o4bo166b2o3224bo2674b$5844bo51bo3bo7bo159bo12b2o4bo5886b$283bo5561bo36b3o4bo5bobobobo3bo2bo159bo7b2ob2o2bob2ob2o5884b$283bobo5596b2o5b2o4bo6bob2o6bo154bo7bo2bo4b2o4b2o5878b3o2b$283b2o5598b2o5b2o4b3o6bobo5bo154b2o3b3o5b4o2bo3bo5877bo2bob$5882bobo3bobo5b2o7bo5b3o154b2ob2o3b3o2b2o2b2ob3o31b3o5844bo4b$5729b3o148b4o4b2o180bo12bo5bo34bo117b3o5724bo3bo$5880b2o2bo3bo234bo5571bo273bo3bo$5727bo5bo147b2obo355bo5bo5446bobo273bo4b$5727bo5bo148b3o355bo5bo5447b2o274bobob$5727bo5bo506bo5bo4768b2o957b$5276b2o5738b2o956b$5275b2o452b3o510b3o4770bo958b$2b3o5272bo504b2o114b2o174b2o114b2o5782b$bo2bo5777b2o114b2o58b2o54b2o58b2o114b2o5782b$4bo957b2o4994b2o54b2o5958b$o3bo956b2o5728b2o5281b$o3bo958bo5728b2o5280b$4bo6686bo5282b$bobo11970b$18b2o11934b2o18b$18b2o11934b2o18b$2728b2o9244b$2727b2o3360bo5884b$2729bo3360b2o5882b$6089b2o5883b$5790b2o98b2o190b2o98b2o5790b$5790b2o98b2o190b2o98b2o3055b2o2733b$5879bo3360b2o2732b$5877b2o25b3o3332bo2734b$5878b2o24bo6069b$5905bo6068b$11974b$11974b$6062b3o5909b$5966bo97bo5909b$5965bobo95bo5910b$5729b3o232bo3bo273b3o5729b$5964bo2bo6006b$5727bo5bo230bo2bo272bo5bo4708b2o1017b$5336b2o389bo5bo230bobo273bo5bo4709b2o1016b$5335b2o390bo5bo506bo5bo4708bo1018b$5337bo6636b$5729b3o510b3o5729b$1022b2o4758b2o114b2o106b3o65b2o114b2o5782b$1021b2o4759b2o114b2o106bo2bo64b2o114b2o439b2o5341b$1023bo4981bo3bo622b2o5340b$6005b4o622bo5342b$5956b2o48bo9b2o5956b$5956b2o8b2o48b2o5956b$5966b2o6006b$18b2o2768b2o9164b2o18b$18b2o2767b2o9165b2o18b$2789bo3226bo5957b$5955bo61bo5956b$5954b3o58b3o5956b$5953bo2b2o3221b2o2793b$5790b2o160b3o2b2o223b2o2996b2o2792b$5790b2o161bo3b3o222b2o2995bo2794b$6018b2o5954b$5955bo62b2o5954b$11974b$11974b$11974b$11974b$11974b$11974b$5958b2o54b2o5958b$5729b3o226b2o54b2o226b3o4650b2o1077b$5396b2o5498b2o1076b$5395b2o330bo5bo506bo5bo4648bo1078b$5397bo329bo5bo506bo5bo5727b$5727bo5bo506bo5bo5727b$1082b2o10890b$1081b2o4646b3o510b3o326b2o5401b$1083bo4698b2o114b2o174b2o114b2o380b2o5400b$5782b2o114b2o174b2o114b2o379bo5402b$11974b$11974b$11974b$2848b2o3116b2o38b2o5966b$2847b2o3117b2o38b2o5966b$18b2o2829bo9104b2o18b$18b2o11934b2o18b$11974b$9119b2o2853b$9120b2o2852b$9119bo2854b$5790b2o390b2o5790b$5790b2o390b2o5790b$11974b$11974b$11969b3o2b$223bo11745bo2bob$223bobo11743bo4b$223b2o11744bo3bo$11969bo3bo$10835b2o1132bo4b$5456b2o500b2o54b2o4820b2o917bo214bobob$5455b2o272b3o226b2o54b2o226b3o4590bo917bobo218b$5457bo6296b2o218b$5727bo5bo506bo5bo5727b$2b3o1137b2o4583bo5bo506bo5bo5727b$bo2bo1136b2o4584bo5bo506bo5bo264b2o5461b$4bo1138bo5368b2o5460b$o3bo5724b3o510b3o266bo5462b$o3bo5777b2o114b2o174b2o114b2o5782b$4bo5777b2o114b2o174b2o114b2o5782b$bobo11970b$2908b2o9064b$2907b2o9065b$2909bo9064b$11974b$18b2o11934b2o18b$18b2o6129bo2909b2o2893b2o18b$6150b2o2908b2o2912b$6149b2o2908bo2914b$11974b$11974b$5790b2o27bo362b2o5790b$5790b2o25b2o363b2o5790b$5818b2o6154b$11974b$11974b$11974b$11974b$10775b2o1197b$5516b2o5258b2o1196b$5515b2o5258bo1198b$5517bo440b2o54b2o5958b$5729b3o226b2o54b2o226b3o5729b$1202b2o10770b$1201b2o4524bo5bo506bo5bo204b2o5521b$1203bo4523bo5bo506bo5bo205b2o5520b$5727bo5bo506bo5bo204bo5522b$11974b$5729b3o510b3o5729b$5782b2o114b2o174b2o114b2o5782b$2968b2o2812b2o114b2o174b2o114b2o5782b$2967b2o9005b$2969bo9004b$11974b$11974b$8999b2o2973b$18b2o8980b2o2952b2o18b$18b2o8979bo2954b2o18b$11974b$11974b$11974b$11974b$5790b2o390b2o5790b$5790b2o390b2o5790b$11974b$11974b$11974b$10715b2o1257b$5576b2o5138b2o1256b$5575b2o5138bo1258b$5577bo6396b$11974b$1262b2o4694b2o54b2o5958b$1261b2o4466b3o226b2o54b2o226b3o146b2o5581b$1263bo5128b2o5580b$5727bo5bo506bo5bo144bo5582b$5727bo5bo506bo5bo5727b$5727bo5bo506bo5bo5727b$11974b$3028b2o2699b3o50bo459b3o5729b$3027b2o2752b2o115b2o174b2o115bo5782b$3029bo2751bobo114b2o174b2o113b2obo5781b$5779bobobo399b3o2bo3bo5781b$5777bob2ob2o402bo5bo5781b$5776bo410bobob2o2746b2o3033b$5777b2o405bo4bobobo2746b2o3032b$5791bo393b3obobobo2745bo3034b$18b2o5771bo395b2o3bo5761b2o18b$18b2o5771bo6162b2o18b$6174bo5799b$6173b3o5798b$6172bobobo5797b$6172bobobo5797b$6173b3o19b2o5772b3o2b$5778b2o394bo19bo3bo5770bo2bob$5778b2o414bo5bo5768bo4b$163bo6031b2obobo4454b2o1312bo3bo$163bobo5470b2o558bo4bo4454b2o1311bo3bo$163b2o5470b2o559bo4bo4453bo1313bo4b$5637bo558bo4bo5768bobob$6197b3o5774b$1322b2o10491bo158b$1321b2o4459b2o406b2o139b2o5480bobo158b$2b3o1318bo4458b2o174b2o54b2o174b2o23bo116b2o5480b2o158b$bo2bo5724b3o226b2o54b2o197bobo26b3o86bo5642b$4bo6209b2o5758b$o3bo5722bo5bo506bo5bo5727b$o3bo5722bo5bo506bo5bo5727b$4bo3083b2o2637bo5bo19bo486bo5bo5727b$bobo3083b2o2664bobo6218b$3089bo2639b3o21b2o487b3o5729b$5898b2o174b2o5898b$5898b2o174b2o5898b$8879b2o3093b$8880b2o3092b$5790b2o390b2o2695bo3094b$5790b2o390b2o5790b$11974b$18b2o11934b2o18b$18b2o11934b2o18b$11974b$11974b$11974b$11974b$11974b$10595b2o1377b$5696b2o4898b2o1376b$5695b2o4898bo1378b$5697bo461bobo5812b$6159b2o5813b$1382b2o4776bo5813b$1381b2o4888b2o5701b$1383bo4888b2o5700b$5782b2o33bobo370b2o79bo5702b$5782b2o34b2o138b2o54b2o174b2o5782b$5729b3o86bo139b2o54b2o226b3o5729b$11974b$3148b2o2577bo5bo506bo5bo5727b$3147b2o2578bo5bo506bo5bo5727b$3149bo2577bo5bo506bo5bo5727b$11974b$5729b3o510b3o5729b$5898b2o174b2o2743b2o3153b$5898b2o174b2o2744b2o3152b$8819bo3154b$11974b$5790b2o390b2o5790b$5790b2o390b2o5790b$11974b$18b2o11934b2o18b$18b2o11934b2o18b$11974b$11974b$11974b$10535b2o1437b$10536b2o1436b$10535bo1438b$11974b$5759b2o6213b$1442b2o4314b2o6214b$1441b2o4317bo6213b$1443bo10530b$11974b$6208b2o5764b$5782b2o406b2o17b2o5763b$5782b2o174b2o54b2o174b2o16bo5765b$3208b2o2748b2o54b2o5958b$3207b2o8765b$3209bo8764b$11974b$11974b$8759b2o3213b$8760b2o3212b$5898b2o174b2o2683bo3214b$5898b2o174b2o5898b$11974b$11974b$5790b2o390b2o5790b$5790b2o390b2o5790b$11974b$18b2o11934b2o18b$18b2o11934b2o18b$11969b3o2b$10475b2o1492bo2bob$10476b2o1491bo4b$10475bo1493bo3bo$11969bo3bo$103bo5715b2o6148bo4b$103bobo1396b2o4314b2o6150bobob$103b2o1396b2o4317bo6153b$1503bo10470b$11974b$2b3o6143b2o5725bo98b$bo2bo6144b2o5722bobo98b$4bo6143bo5725b2o98b$o3bo3263b2o2512b2o406b2o5782b$o3bo3262b2o2513b2o174b2o54b2o174b2o5782b$4bo3264bo2688b2o54b2o5958b$bobo11970b$11974b$8699b2o3273b$8700b2o3272b$8699bo3274b$11974b$11974b$5894b2o6078b$5894b2ob3o6074b$5895b6o6073b$5790b2o107b3o177b2o101b2o5790b$5790b2o100bo185bo2b2o99b2o5790b$5891b3o178bo5b2obo5892b$18b2o5870bo2bo178bo6bo3b2o5869b2o18b$18b2o5870b3o179bo4342b2o1537b2o18b$5891bo4524b2o1556b$10415bo1558b$11974b$5879b2o6093b$1562b2o4314b2o6094b$1561b2o4317bo21b2o166b2o5902b$1563bo4338b2o166b2o27bobo5872b$6099b2o5873b$6088b2o10bo5873b$6089b2o5883b$6088bo5885b$3328b2o2547bobo6094b$3327b2o2549b2o6094b$3329bo2452b2o94bo19b2o174b2o114b2o5782b$5782b2o114b2o114b2o58b2o114b2o5782b$6014b2o5958b$5959bo2679b2o3333b$5959b2o3bo2675b2o3332b$5959bob2ob2o2673bo3334b$5960b2o2b4o6006b$5960b2obob3o47b2o5957b$5960b4o2b2o3bo37bobo2bobo5957b$5956b2ob2obob2o4bob2o40b2o6b3o5949b$5958b3o3bo4b2ob2o2bo31bo11bo3bo5949b$5949bo9b3o7b2ob2o2bo21bobo4bo5bobobo2b2obo19bo5932b$5947b3o2b2o5b3o7bo2bo3bo21bo4b3o2b2ob2ob2o3bo2bob2o13b2o5933b$5790b2o98b2o54b5o5bo2b2o9b2o26b3ob3o5bo13b2o14b2o40b2o98b2o5790b$5790b2o98b2o53b2o3bo6bo2b2o40b2o6b2o8bo2bo58b2o98b2o5790b$5949bobo6bo2bo38bo2bo6bo9b3o7bo4324b2o1617b$18b2o5917bo9b4o2b2o3bo41b2o7bo21bo4324b2o1596b2o18b$18b2o5918b2o8bo4bo3b2o40bo29b3o4323bo1598b2o18b$5937b2o15b3o44b3o5970b$5938bo15b3o45b2o5970b$1622b2o4314bo6035b$1621b2o4314bo6036b$1623bo4313b3o6034b$5958b2o54b2o5958b$5958b2o54b2o5958b$11974b$11974b$3388b2o8584b$3387b2o8585b$3389bo8584b$11974b$5782b2o114b2o174b2o114b2o5782b$5782b2o114b2o174b2o114b2o2387b2o3393b$8580b2o3392b$8579bo3394b$11974b$5966b2o38b2o108bo5857b$5966b2o38b2o106bobo5857b$6115b2o5857b$11974b$5993bo5980b$5852bo138b2o5981b$5852bobo137b2o5980b$5852b2o6120b$5790b2o390b2o4111b2o1677b$5790b2o193bo196b2o4112b2o1671b3o2b$5986b2o4307bo1673bo2bob$18b2o5965b2o5967b2o13bo4b$18b2o11934b2o13bo3bo$1682b2o10285bo3bo$1681b2o10286bo4b$1683bo10286bobob$43bo11930b$43bobo11928b$43b2o5913b2o54b2o5958b$2b3o5953b2o54b2o5958b$bo2bo3443b2o8524b$4bo3442b2o8486bo38b$o3bo3444bo8483bobo38b$o3bo11929b2o38b$4bo11969b$bobo8515b2o3453b$5782b2o114b2o174b2o114b2o2328b2o3452b$5782b2o114b2o174b2o114b2o2327bo3454b$11974b$11974b$11974b$5966b2o38b2o5966b$5966b2o38b2o5966b$11974b$11974b$11974b$11974b$10235b2o1737b$10236b2o1736b$5790b2o390b2o4051bo1738b$5790b2o390b2o5790b$11974b$18b2o1722b2o10210b2o18b$18b2o1721b2o10211b2o18b$1743bo10230b$11974b$11974b$11974b$11974b$3508b2o2448b2o54b2o5958b$3507b2o2449b2o54b2o5958b$3509bo8464b$11974b$11974b$8459b2o3513b$8460b2o3512b$8459bo3514b$5782b2o114b2o174b2o114b2o5782b$5782b2o114b2o174b2o114b2o5782b$11974b$11974b$11974b$11974b$11974b$11974b$11974b$10175b2o1797b$10176b2o1796b$10175bo1798b$11974b$5790b2o390b2o5790b$1802b2o3986b2o390b2o5790b$1801b2o10171b$1803bo10170b$11974b$11974b$11974b$11974b$3568b2o8404b$3567b2o8405b$3569bo2388b2o54b2o5958b$5958b2o54b2o5958b$11974b$8399b2o3573b$8400b2o3572b$8399bo3574b$11974b$11974b$5782b2o114b2o174b2o114b2o5782b$5782b2o114b2o174b2o114b2o5782b$11974b$6176bo5797b$6174bobo5797b$6175b2o5797b$11974b$10115b2o1857b$5792bo4323b2o1856b$5792bobo4320bo1858b$5792b2o6175b3o2b$11969bo2bob$1862b2o10105bo4b$1861b2o3927b2o390b2o5785bo3bo$1863bo3926b2o390b2o5785bo3bo$11969bo4b$11970bobob$11974b$11974b$3628b2o8344b$2b3o3622b2o8345b$bo2bo3624bo2160bo6183b$4bo5784bobo6182b$o3bo5783bo3bo165b2o54b2o5958b$o3bo5783bo2bo166b2o54b2o2323b2o3633b$4bo5783bo2bo2548b2o3632b$bobo5784bobo2548bo3634b$11974b$11974b$11974b$6182b3o5789b$5898b2o174b2o106bo2bo5788b$5898b2o174b2o105bo3bo5788b$6181b4o5789b$5780b2o400bo9b2o5780b$5780b2o8b2o400b2o5780b$5790b2o4263b2o1917b$10056b2o1916b$10055bo1918b$6192bo5781b$5779bo413bo5780b$1922b2o3854b3o410b3o5780b$1921b2o3854bo2b2o6192b$1923bo3852b3o2b2o6191b$5777bo3b3o6190b$5788b2o404b2o5778b$5779bo8bobo403b2o5778b$5788bo6185b$3688b2o8284b$3687b2o8285b$3689bo2489b2o5793b$6178bobo5793b$6180bo5793b$5782b2o406b2o2087b2o3693b$5782b2o174b2o54b2o174b2o2088b2o3692b$5958b2o54b2o2263bo3694b$11974b$11974b$11974b$11974b$11974b$11974b$5898b2o174b2o5898b$5898b2o174b2o5898b$11974b$9995b2o1977b$5790b2o390b2o3812b2o1976b$5790b2o390b2o3811bo1978b$11974b$5898b2o6074b$1982b2o3914b2o6074b$1981b2o4093b2obo5894b$1983bo4091bo3bo5894b$5896b3o4bo3b2o165bo5899b$5848b2o31b3o12b2o7b2obo165bo3b2o2b2o5890b$5848bobo29b2ob2o6b2o2bo2bo3bo3b3o165b3o6b2o5889b$5848bo31b2o2bo6b2o2bob2obo6bo174b2o5890b$3748b2o2132b2o11bo9b2o175bo5891b$3747b2o2147b2o6076b$3749bo2147b5ob2o171b2o41b2o5853b$6075bo42bobo5853b$6076b2o42bo5853b$8219b2o3753b$8220b2o3752b$5782b2o114b2o174b2o114b2o2027bo3754b$5782b2o114b2o58b2o54b2o58b2o114b2o5782b$5958b2o54b2o5958b$11974b$11974b$11974b$11974b$6085bobo5886b$6086b2o5886b$6086bo5887b$9935b2o2037b$9936b2o2036b$5881bobo4051bo2038b$5790b2o89b2o7b2o190b2o98b2o5790b$5790b2o90bo7b2o190b2o98b2o5790b$2042b2o9925b3o2b$2041b2o9926bo2bob$2043bo9925bo4b$11969bo3bo$5908b2o6059bo3bo$5908bobo223bo5834bo4b$5908bo224bo5836bobob$3808b2o2323b3o5838b$3807b2o8165b$3809bo2249b2o5913b$2b3o5839bo213bobo5913b$bo2bo5840bo214bo5913b$4bo5838b3o2313b2o3813b$o3bo5960b3o2192b2o3812b$o3bo5960bo2bo2190bo3814b$4bo5959bo6009b$bobo5778b2o114b2o67b2o105b2o114b2o5782b$5782b2o114b2o63bo3b2o39b3o63b2o114b2o5782b$5963bo6010b$5965bo41b2o5965b$5956b2o7b3o38bobo7b2o5956b$5956b2o8b2o37bo3bo6b2o5956b$5967bo38bobo4bo5960b$6007bo3bobo5960b$6012b2o3861b2o2097b$9876b2o2096b$9875bo2098b$5955bo6018b$5955bobo6016b$2102b2o3686b2o98b2o63b2o125b2o98b2o5790b$2101b2o3687b2o98b2o63bo126b2o98b2o5790b$2103bo3850b2o62b2o5954b$5954b2o62b2o5954b$11974b$11974b$11974b$3868b2o8104b$3867b2o8105b$3869bo8104b$5958b2o54b2o5958b$5958b2o54b2o5958b$8099b2o3873b$8100b2o3872b$8099bo3874b$11974b$11974b$11974b$5782b2o114b2o174b2o114b2o5782b$5782b2o114b2o174b2o114b2o5782b$11974b$11974b$11974b$5966b2o38b2o5966b$5966b2o38b2o3807b2o2157b$9816b2o2156b$9815bo2158b$11974b$11974b$2162b2o9810b$2161b2o9811b$2163bo3626b2o98b2o190b2o98b2o5790b$5790b2o98b2o190b2o98b2o5790b$11974b$11974b$11974b$3928b2o8044b$3927b2o8045b$3929bo8044b$11974b$11974b$5958b2o54b2o2023b2o3933b$5958b2o54b2o2024b2o3932b$8039bo3934b$11974b$11974b$11974b$11974b$11974b$5782b2o114b2o174b2o114b2o5782b$5782b2o114b2o174b2o114b2o5782b$11974b$11974b$9755b2o2217b$6145bobo3608b2o2216b$6146b2o3607bo2218b$6146bo5827b$11974b$2222b2o9750b$2221b2o3598bobo6150b$2223bo3597b2o6146b3o2b$5822bo6146bo2bob$5790b2o390b2o5785bo4b$5790b2o390b2o5785bo3bo$11969bo3bo$3988b2o7979bo4b$3987b2o7981bobob$3989bo7984b$11974b$11974b$2b3o7974b2o3993b$bo2bo7975b2o3992b$4bo5953b2o54b2o1963bo3994b$o3bo5953b2o54b2o5958b$o3bo11969b$4bo11969b$bobo11970b$11974b$11974b$11974b$5782b2o114b2o174b2o114b2o5782b$5782b2o114b2o174b2o114b2o5782b$9695b2o2277b$9696b2o2276b$9695bo2278b$11974b$11974b$2282b2o9690b$2281b2o9691b$2283bo9690b$11974b$11974b$11974b$5790b2o390b2o5790b$4048b2o1740b2o390b2o5790b$4047b2o7925b$4049bo7924b$11974b$11974b$7919b2o4053b$7920b2o4052b$7919bo4054b$11974b$5958b2o54b2o5958b$5958b2o54b2o5958b$11974b$11974b$11974b$11974b$5783bo6190b$5782bobo6189b$5782bobo113b2o174b2o3559b2o2337b$5783bo114b2o174b2o3560b2o2336b$5785b2o403bo3444bo2338b$5778bo2b2ob3o398bo3b2o5783b$5781b3obo398b2ob2obo5783b$2342b2o3441bo396b4o2b2o5784b$2341b2o3436bo2b3o3bo393b3obob2o5784b$2343bo3435b8o391bo3b2o2b4o5784b$5786bo12bo376b2obo4b2obob2ob2o5780b$5798bobo372bo2b2ob2o4bo3b3o5782b$6173bo2b2ob2o7b3o9bo5773b$6173bo3bo2bo7b3o5b2o2b3o5771b$4108b2o2068b2o9b2o2bo5b5o5770b$4107b2o2079b2o2bo6bo3b2o5769b$4109bo1668b2o18bobo387bo2bo6bobo5773b$5779bo19bo391bo3b2o2b4o5771b$5778bo412b2o3bo4bo5772b$6193b3o1663b2o4113b$6193b3o13b3o1648b2o4112b$6209bo1649bo4114b$6210bo5763b$6207b4o5763b$5782b2o406b2o15bo2bo5763b$5782b2o174b2o54b2o174b2o17b2o5763b$5764bobo191b2o54b2o5958b$5765b2o6207b$5765b2o6207b$11974b$11974b$9575b2o2397b$9576b2o2396b$5898b2o174b2o3499bo2398b$5898b2o174b2o5898b$11974b$2402b2o9570b$2401b2o3387b2o390b2o5790b$2403bo3386b2o390b2o5790b$11974b$11969b3o2b$11969bo2bob$11969bo4b$4168b2o7799bo3bo$4167b2o7800bo3bo$4169bo1648bo6150bo4b$5817b2o345bo5805bobob$5817bobo342b2o5810b$6163b2o1634b2o4173b$7800b2o4172b$2b3o6145bo1648bo4174b$bo2bo5809bo335b2o5822b$4bo5810b2o332bobo5822b$o3bo5809b2o6158b$o3bo11969b$4bo5777b2o406b2o5782b$bobo5778b2o174b2o54b2o174b2o5782b$5958b2o54b2o5958b$11974b$11974b$9515b2o2457b$9516b2o2456b$9515bo2458b$11974b$11974b$2462b2o9510b$2461b2o3430bo6080b$2463bo3428b2obo4b2o179bo5892b$5790b2o98b6o4b2o179bo100b2o5790b$5790b2o97bo2bo184bo104b2o5790b$5889bobo180bo3b3o5895b$5894bo177bo3bo3bo5893b$4228b2o1658bobob3o177bo5bobo5893b$4227b2o1659bo5bo183b3o5893b$4229bo1648bo11b3o6081b$5877b2o11b3o6081b$5877bobo6094b$7739b2o4233b$5902b2o166b2o1668b2o4232b$5902b2o166b2o18bo1648bo4234b$6090b2o5882b$6089bobo5882b$11974b$11974b$11974b$11974b$5782b2o114b2o174b2o114b2o5782b$5782b2o114b2o59b3o52b2o58b2o114b2o5782b$5957b5o52b2o5958b$5963b3o3489b2o2517b$5956bo7b2o3490b2o2516b$5956bo3b2o3bo3489bo2518b$5957bo2b2obob2o48b3o5956b$5958b6o51b3o2bo5953b$2522b2o3435bo3bo2bo48bob3obo5952b$2521b2o3442bo10bo31b3o8bobo5952b$2523bo3445bo4bo2bo25b2o5bo11bo5951b$5968bo6bobo19b2o3b4obo14b2o5950b$5950b2o23b2o19b2o4bob2o4bo10bo2bo5949b$5790b2o98b2o57bo2bo15b3o25b2o12bo10bo2bo13bobo41b2o98b2o5790b$5790b2o98b2o52b3ob2ob3o43b3o10bo10bo3bo12b2o42b2o98b2o5790b$4288b2o1654b2o3bo2b3o43b3o3bo2bo2bo10bo2bo14bo5934b$4287b2o1657b2obob2o2bo46b2o4b2o10b2obo5950b$4289bo1648bo9b12o60b2o10bo5941b$5937b2o13bo5bo71bobo5941b$5937bobo13b2o76b2o5941b$5954bo2bo1721b2o4293b$5955bo1724b2o4292b$7679bo4294b$5936b2o20b2o54b2o5958b$5958b2o54b2o5958b$11974b$11974b$11974b$11974b$11974b$11974b$5782b2o114b2o174b2o114b2o5782b$5782b2o114b2o174b2o114b2o3203b2o2577b$9396b2o2576b$9395bo2578b$11974b$5966b2o38b2o5966b$2582b2o3382b2o38b2o109bo5856b$2581b2o3535bo5855b$2583bo3532b3o5855b$11974b$11974b$5851bo138bobo5981b$5850bo139b2o5977b3o2b$4348b2o1440b2o58b3o37b2o99bo90b2o98b2o5785bo2bob$4347b2o1441b2o98b2o190b2o98b2o5785bo4b$4349bo7619bo3bo$5986bobo5980bo3bo$5987b2o5980bo4b$5987bo1631b2o4349bobob$7620b2o4352b$6104bo1514bo4354b$6102b2o5870b$2b3o6098b2o5869b$bo2bo5953b2o54b2o5958b$4bo5953b2o54b2o5958b$o3bo5869bo6099b$o3bo5870b2o6097b$4bo5869b2o6098b$bobo11970b$11974b$9335b2o2637b$5782b2o114b2o174b2o114b2o3144b2o2636b$5782b2o114b2o174b2o114b2o3143bo2638b$11974b$11974b$2642b2o9330b$2641b2o3323b2o38b2o5966b$2643bo3322b2o38b2o5966b$11974b$11974b$11974b$11974b$4408b2o7564b$4407b2o7565b$4409bo1380b2o98b2o190b2o98b2o5790b$5790b2o98b2o190b2o98b2o5790b$11974b$7559b2o4413b$7560b2o4412b$7559bo4414b$11974b$11974b$11974b$11974b$5958b2o54b2o5958b$5958b2o54b2o5958b$11974b$11974b$11974b$9275b2o2697b$9276b2o2696b$9275bo2698b$5782b2o114b2o174b2o114b2o5782b$5782b2o114b2o174b2o114b2o5782b$2702b2o9270b$2701b2o9271b$2703bo9270b$11974b$11974b$11974b$11974b$4468b2o7504b$4467b2o7505b$4469bo7504b$11974b$5790b2o390b2o5790b$5790b2o390b2o1315b2o4473b$7500b2o4472b$7499bo4474b$11974b$11974b$11974b$11974b$11974b$11974b$5958b2o54b2o5958b$5958b2o54b2o5958b$11974b$9215b2o2757b$9216b2o2756b$9215bo2758b$11974b$11974b$2762b2o3018b2o114b2o174b2o114b2o5782b$2761b2o3019b2o114b2o174b2o114b2o5782b$2763bo9210b$11974b$6177bo5796b$6178bo5795b$6176b3o5795b$4528b2o7444b$4527b2o7440b3o2b$4529bo1261bo6177bo2bob$5790bobo6176bo4b$5790b2o6177bo3bo$5791bo1647b2o4528bo3bo$5791bo390b2o1256b2o4527bo4b$5791bo390b2o1255bo4530bobob$11974b$11974b$11974b$2b3o11969b$bo2bo5784b2o6183b$4bo5784b3o6182b$o3bo5783bo2bo6182b$o3bo5782b2ob2o6182b$4bo5782b2ob2o166b2o54b2o5958b$bobo5784b2ob2o165b2o54b2o3139b2o2817b$5791bo3364b2o2816b$5788b3o3364bo2818b$5789bo392b3o5789b$6181bo2bo5789b$2822b2o3361bo5788b$2821b2o3358b2o5791b$2823bo3074b2o174b2o105b2o3bo5787b$5898b2o174b2o110bo5787b$6184bo5789b$5780b2o400b3o7b2o5780b$5780b2o8b2o390b2o8b2o5780b$4588b2o1200b2o390bo5791b$4587b2o1190bo6194b$4589bo1188bobo6193b$5781bo6192b$5776bo3bo6193b$5775bo4bo413bo1184b2o4593b$5774bo417bobo1185b2o4592b$6193b2o1184bo4594b$5779bo6b3o405bo5779b$5776bo9bo407b2o5778b$5787bo406b2o5778b$11974b$11974b$6180b3o5791b$6182bo5791b$6181bo5792b$11974b$5782b2o406b2o2903b2o2877b$5782b2o174b2o54b2o174b2o2904b2o2876b$5958b2o54b2o3079bo2878b$11974b$11974b$2882b2o9090b$2881b2o9091b$2883bo9090b$11974b$5898b2o174b2o5898b$5898b2o174b2o5898b$11974b$4648b2o7324b$4647b2o1141b2o390b2o5790b$4649bo1140b2o390b2o5790b$11974b$11974b$6075bo1243b2o4653b$5896bob2o6b2o166bo3bo1241b2o4652b$5895b2o2bo5bo3bo164b2o1243bo4654b$5846b3o36bo7bo5bo4bo5bo160b3o2bo2bo3b3o5888b$5846bo38b2o8b3o7bo4bo160bo2b3o4bo3b2o5887b$5847bo38b2o3bo3b2o10bo2bo160bo6bo2bobo2b2o5886b$5886bo4bobo13bobo162b2o2b2o2bo5bo5887b$5881b3obo9bo12bo165b2o5bo2b2o5888b$5881b3o11bo185bo38b3o5851b$5895bo3b2o221bo5851b$6121bo5852b$11974b$9035b2o2937b$9036b2o2936b$5782b2o114b2o174b2o114b2o2843bo2938b$5782b2o114b2o58b2o54b2o58b2o114b2o5782b$5958b2o54b2o5958b$2942b2o9030b$2941b2o9031b$2943bo9030b$11974b$11974b$6087bo5886b$6088b2o5884b$4708b2o1377b2o5885b$4707b2o7265b$4709bo7264b$5790b2o89bo8b2o190b2o98b2o5785b3o2b$5790b2o87b2o9b2o190b2o98b2o5785bo2bob$5880b2o1377b2o4708bo4b$7260b2o4707bo3bo$7259bo4709bo3bo$5906b3o6060bo4b$5906bo6063bobob$5907bo6066b$11974b$6132bo5841b$2b3o6055b3o69bobo5839b$bo2bo6057bo69b2o5840b$4bo5961bo94bo5912b$o3bo5959b2ob2o6005b$o3bo5841bo117b2ob2o3006b2o2997b$4bo5839bobo116b3obo3008b2o2996b$bobo5841b2o119b3o3006bo2998b$11974b$5782b2o114b2o174b2o114b2o5782b$3002b2o2778b2o114b2o174b2o114b2o5782b$3001b2o3004b2o5965b$3003bo3002bo2bo5964b$5956b2o51bo6b2o5956b$5956b2o8b2o36bo3bo7b2o5956b$5966b2o40bo5965b$6004b4o6bo5959b$4768b2o1237b2o6bo5958b$4767b2o1244b3o5958b$4769bo7204b$5955b2o6017b$5957bo6016b$5790b2o98b2o63bo2bo123b2o98b2o1015b2o4773b$5790b2o98b2o63bobo124b2o98b2o1016b2o4772b$5955b2o61b2o1179bo4774b$5955b2o61b2o5954b$11974b$11974b$11974b$11974b$11974b$11974b$5958b2o54b2o5958b$5958b2o54b2o5958b$8915b2o3057b$8916b2o3056b$8915bo3058b$11974b$11974b$3062b2o8910b$3061b2o2719b2o114b2o174b2o114b2o5782b$3063bo2718b2o114b2o174b2o114b2o5782b$11974b$11974b$11974b$5966b2o38b2o5966b$4828b2o1136b2o38b2o5966b$4827b2o7145b$4829bo7144b$11974b$11974b$7139b2o4833b$7140b2o4832b$5790b2o98b2o190b2o98b2o955bo4834b$5790b2o98b2o190b2o98b2o5790b$11974b$11974b$11974b$11974b$11974b$11974b$11974b$11974b$5958b2o54b2o2839b2o3117b$5958b2o54b2o2840b2o3116b$8855bo3118b$11974b$11974b$3122b2o8850b$3121b2o8851b$3123bo8850b$5782b2o114b2o174b2o114b2o5782b$5782b2o114b2o174b2o114b2o5782b$11974b$11974b$4888b2o7084b$4887b2o7085b$4889bo1257bo5826b$6148b2o5824b$6147b2o5825b$7079b2o4888b3o2b$7080b2o4887bo2bob$5821bo1257bo4889bo4b$5819b2o6148bo3bo$5790b2o28b2o360b2o5785bo3bo$5790b2o390b2o5785bo4b$11970bobob$11974b$11974b$11974b$2b3o11969b$bo2bo11969b$4bo8790b2o3177b$o3bo8791b2o3176b$o3bo5953b2o54b2o2779bo3178b$4bo5953b2o54b2o5958b$bobo11970b$3182b2o8790b$3181b2o8791b$3183bo8790b$11974b$11974b$5782b2o114b2o174b2o114b2o5782b$5782b2o114b2o174b2o114b2o5782b$4948b2o7024b$4947b2o7025b$4949bo7024b$11974b$11974b$7019b2o4953b$7020b2o4952b$7019bo4954b$11974b$11974b$11974b$5790b2o390b2o5790b$5790b2o390b2o5790b$11974b$11974b$11974b$11974b$8735b2o3237b$8736b2o3236b$8735bo3238b$11974b$5958b2o54b2o5958b$3242b2o2714b2o54b2o5958b$3241b2o8731b$3243bo8730b$11974b$11974b$11974b$11974b$5008b2o888b2o174b2o114b2o5782b$5007b2o773b2obo112b2o174b2o114b2o5782b$5009bo772bo2b2o6187b$5782bo2b5o6184b$5782bobo3bo6185b$5782b3o2bobo1169b2o5013b$5782b3o2bobo401b3o766b2o5012b$5787bobo6b2o392bo2bo2b2o2bo758bo5014b$5789bo6b4o385bo6b4obo2bo5773b$5794b2o3b2o373bo9b2o8bo5779b$5793bob3ob3o372bo3b3o2bobo8bo4bo5774b$5774b2o16b2obo377bo7bo2bo13b2o5774b$5769bo4bo19bo378b2o4bo2bo2b2o5787b$5769bo5bo398b5o5bo14b2o5773b$5769b3ob3ob2o399bo5b2o12b2o5774b$5771bob3ob2o2b2o393bobo7bo8bobo9bo5766b$5771bo4b3o4bo392bobo17b2o10bo5765b$5780bobo423b3o2466b2o3297b$5777bob3o2894b2o3296b$5778bo2896bo3298b$5761bo6212b$5760bo6213b$3302b2o2456b3o19b2o406b2o5782b$3301b2o2479b2o174b2o54b2o174b2o5782b$3303bo2654b2o54b2o5958b$11974b$11974b$11974b$11974b$5068b2o6904b$5067b2o6905b$5069bo828b2o174b2o5898b$5898b2o174b2o5898b$11974b$6899b2o5073b$5790b2o390b2o716b2o5072b$5790b2o390b2o715bo5069b3o2b$11969bo2bob$11969bo4b$11969bo3bo$6168bo5800bo3bo$6166b2o5801bo4b$6167b2o5801bobob$11974b$11974b$5810bo6163b$2b3o5806b2o2802b2o3357b$bo2bo5805b2o2804b2o3356b$4bo8610bo3358b$o3bo11969b$o3bo11969b$4bo3357b2o8610b$bobo3357b2o8611b$3363bo2418b2o406b2o5782b$5782b2o174b2o54b2o174b2o5782b$5958b2o54b2o5958b$11974b$11974b$5128b2o6844b$5127b2o6845b$5129bo6844b$11974b$5898b2o174b2o5898b$5898b2o174b2o763b2o5133b$6840b2o5132b$6839bo5134b$5790b2o390b2o5790b$5790b2o390b2o5790b$11974b$11974b$11974b$11974b$11974b$11974b$11974b$8555b2o3417b$5756b3o2797b2o3416b$5729b3o24bo485b3o2310bo3418b$5757bo6216b$5727bo5bo506bo5bo5727b$3422b2o2303bo5bo506bo5bo5727b$3421b2o2304bo5bo476b3o27bo5bo5727b$3423bo2788bo5761b$5729b3o479bo30b3o5729b$5782b2o406b2o5782b$5782b2o174b2o54b2o174b2o5782b$5958b2o54b2o5958b$5188b2o6784b$5187b2o6785b$5189bo6784b$11974b$11974b$6779b2o5193b$5898b2o174b2o704b2o5192b$5898b2o174b2o703bo5194b$11974b$11974b$5790b2o390b2o5790b$5790b2o390b2o5790b$11974b$11974b$11974b$11974b$11974b$8495b2o3477b$5816b3o2677b2o3476b$5816bo2678bo3478b$5817bo6156b$5729b3o510b3o5729b$3482b2o8490b$3481b2o2244bo5bo416b3o87bo5bo5727b$3483bo2243bo5bo418bo87bo5bo5727b$5727bo5bo417bo88bo5bo5727b$11974b$5729b3o510b3o5729b$5782b2o406b2o5782b$5248b2o532b2o174b2o54b2o174b2o5782b$5247b2o709b2o54b2o5958b$5249bo6724b$11974b$11974b$6719b2o5253b$6720b2o5252b$6719bo5254b$11974b$5893b2o6074b3o2b$5892b2o6075bo2bob$5893bobo4b2o6067bo4b$5790b2o102b2o4b2o175bo104b2o5785bo3bo$5790b2o102bo180b2ob2o102b2o5785bo3bo$5889bo2b2o181b2ob2o5889bo4b$5890bob2obo175b3ob2obobo27bo5861bobob$5889bob2o3bo181bob2o24b2o5866b$5891b2o2bo181b2o2bo25b2o2326b2o3537b$5876b3o199b3o2355b2o3536b$2b3o5871bo12bo3bo2541bo3538b$bo2bo5865bo6bo12b3o6081b$4bo5866b2o6101b$o3bo3537b2o2326b2o30b2o166b2o5902b$o3bo3536b2o2186b3o170b2o166b2o18b3o149b3o5729b$4bo3538bo2548bo5881b$bobo5723bo5bo357bo148bo5bo5727b$5727bo5bo506bo5bo5727b$5727bo5bo506bo5bo5727b$11974b$5308b2o419b3o510b3o5729b$5307b2o473b2o114b2o61bo112b2o114b2o5782b$5309bo472b2o114b2o60bo53b2o58b2o114b2o5782b$5957bo6bo49b2o5958b$5956bo2b3o3bo6008b$5956bo9bo692b2o5313b$5955b2ob4o4bo48b2o643b2o5312b$5956bob4o5bo46bobo642bo5314b$5957bo2bo5bo47b3o2b3o5952b$5962b4o43b2o7b2ob2o5951b$5963b2o45b2o10bo5951b$5974b2o26bo4bobo5964b$5973bo22b3o3bo2b3o16b2o5948b$5948b4o22b3o25bo2b3o2bo13b2o5948b$5790b2o98b2o54b8o21bo33b2o27bo43b2o98b2o5790b$5790b2o98b2o52b4ob5o54b3o10b4o12bo44b2o98b2o5790b$5944bo2bob2o2b2o52b2o11bob3o12b3o5934b$5945b3o60b2o10bo3bo2350b2o3597b$5936b3o8bo6b2o64b3o2353b2o3596b$5936bo11b3o3bo76bobo2341bo3598b$5937bo14b2o78b2o5940b$5953bo78bo5941b$3602b2o2350bo6019b$3601b2o8371b$3603bo2354b2o54b2o5958b$5729b3o226b2o54b2o226b3o5729b$11974b$5727bo5bo506bo5bo5727b$5727bo5bo506bo5bo5727b$5368b2o357bo5bo506bo5bo5727b$5367b2o6605b$5369bo359b3o510b3o5729b$5782b2o114b2o174b2o114b2o5782b$5782b2o114b2o174b2o114b2o5782b$6599b2o5373b$6600b2o5372b$6599bo5374b$5966b2o38b2o5966b$5966b2o38b2o5966b$6117bo5856b$6118b2o5854b$6117b2o5855b$11974b$5990bo5983b$5851bo137bo5984b$5790b2o57b2o138b3o190b2o5790b$5790b2o58b2o330b2o2131b2o3657b$8316b2o3656b$5988bo2326bo3658b$5989bo5984b$5987b3o5984b$3662b2o8310b$3661b2o8311b$3663bo8310b$11974b$5958b2o54b2o5958b$5729b3o226b2o54b2o226b3o5729b$11974b$5428b2o297bo5bo506bo5bo5727b$5427b2o298bo5bo506bo5bo5727b$5429bo297bo5bo506bo5bo5727b$11974b$5729b3o510b3o5729b$5782b2o114b2o174b2o114b2o347b2o5433b$5782b2o114b2o174b2o114b2o348b2o5432b$6539bo5434b$11974b$11974b$5966b2o38b2o5966b$5966b2o38b2o5961b3o2b$11969bo2bob$11969bo4b$11969bo3bo$11969bo3bo$11969bo4b$8255b2o3713bobob$5790b2o390b2o2072b2o3716b$5790b2o390b2o2071bo3718b$11974b$2b3o11969b$bo2bo3717b2o8250b$4bo3716b2o8251b$o3bo3718bo8250b$o3bo11969b$4bo11969b$bobo11970b$5958b2o54b2o5958b$5488b2o239b3o226b2o54b2o226b3o5729b$5487b2o6485b$5489bo237bo5bo506bo5bo5727b$5727bo5bo506bo5bo5727b$5727bo5bo506bo5bo5727b$6479b2o5493b$5729b3o510b3o235b2o5492b$5782b2o114b2o174b2o114b2o287bo5494b$5782b2o114b2o174b2o114b2o5782b$11974b$11974b$11974b$11974b$11974b$11974b$11974b$11974b$8195b2o3777b$8196b2o3776b$8195bo3778b$5790b2o390b2o5790b$5790b2o390b2o5790b$3782b2o8190b$3781b2o8191b$3783bo8190b$11974b$11974b$11974b$11974b$5548b2o6424b$5547b2o409b2o54b2o5958b$5549bo179b3o226b2o54b2o226b3o5729b$11974b$5727bo5bo506bo5bo5727b$5727bo5bo506bo5bo172b2o5553b$5727bo5bo506bo5bo173b2o5552b$6419bo5554b$5729b3o510b3o5729b$5782b2o114b2o174b2o114b2o5782b$5782b2o114b2o174b2o114b2o5782b$11974b$11974b$11974b$6177bo5796b$6178b2o5794b$6177b2o5795b$8135b2o3837b$5791bo2344b2o3836b$5790bob2o2341bo3838b$5792b2o6180b$5793bo6180b$3842b2o1947b2o389b2o5790b$3841b2o1948bo390b2o5790b$3843bo8130b$11974b$11974b$11974b$5788bobo6183b$5608b2o177bo4bo6181b$5607b2o178bo4bo6181b$5609bo177b2o6185b$5958b2o54b2o5958b$5729b3o55b2o2b2o165b2o54b2o226b3o5729b$5787b2o2b2o390bo175b2o5613b$5727bo5bo53b3obo390b3o55bo5bo113b2o5612b$5727bo5bo54bo393bo2bo54bo5bo112bo5614b$5727bo5bo55bo394b2o54bo5bo5727b$6184bo5789b$5729b3o449b2o59b3o5729b$5898b2o174b2o105b4o5789b$5898b2o174b2o106bo2bo5788b$6183bo5785b3o2b$5780bo411b2o5775bo2bob$5779bo10b2o390bobo7b2o5775bo4b$5778b2o10b2o390b2o5785bo3bo$5778b2obo2293b2o3892bo3bo$8076b2o3891bo4b$5780bo2294bo3894bobob$11974b$6194bo5779b$3902b2o2289bobo5778b$2b3o3896b2o2290bobo5778b$bo2bo3898bo2289b2o5779b$4bo6188b3o5778b$o3bo11969b$o3bo11969b$4bo11969b$bobo5664b2o6304b$5667b2o6305b$5669bo6304b$11974b$5782b2o406b2o5782b$5782b2o174b2o54b2o174b2o107b2o5673b$5729b3o226b2o54b2o226b3o55b2o5672b$6299bo5674b$5727bo5bo506bo5bo5727b$5727bo5bo506bo5bo5727b$5727bo5bo506bo5bo5727b$11974b$5729b3o510b3o5729b$5898b2o174b2o5898b$5898b2o174b2o5898b$11974b$11974b$5790b2o390b2o1831b2o3957b$5790b2o390b2o1832b2o3956b$8015bo3958b$11974b$11974b$3962b2o8010b$3961b2o8011b$3963bo8010b$11974b$11974b$11974b$11974b$5728b2o6244b$5727b2o6245b$5729bo6244b$11974b$11974b$6240b2ob2o5729b$5782b2o406b2o49bobo5730b$5728b3o51b2o174b2o54b2o174b2o49bo5732b$5732b2ob2o221b2o54b2o220b2o4b2o5730b$5732bobob2o501bo5734b$5725bo12bo498b4o5bo5727b$5724b2o5bo5b3o498b3o5bo5727b$5725b3o6bo2b2o507bo5727b$5728b4o5bo6236b$5732bo2b2o505b3o5729b$5732b4o162b2o174b2o5898b$5734bo163b2o174b2o5898b$7955b2o4017b$7956b2o4016b$5790b2o390b2o1771bo4018b$5790b2o390b2o5790b$11974b$4022b2o7950b$4021b2o7951b$4023bo7950b$11974b$11974b$11974b$11974b$6131bobo5840b$6131b2o5841b$6132bo5841b$5791b2o6181b$5790b2o6182b$5792bo52bobo6126b$5846b2o6126b$5846bo6127b$5782b2o392b2o12b2o5782b$5782b2o174b2o54b2o161b2o11b2o5782b$5958b2o54b2o160bo5797b$11974b$11974b$11974b$11974b$11969b3o2b$11969bo2bob$5898b2o174b2o1819b2o4072bo4b$5898b2o174b2o1820b2o4071bo3bo$7895bo4073bo3bo$11969bo4b$5790b2o390b2o5786bobob$4082b2o1706b2o390b2o5790b$4081b2o7891b$4083bo7890b$2b3o5894bo6074b$bo2bo5893bob2o6072b$4bo5884b2o6b2o2b2o6071b$o3bo5882bo3bo4bobo4bo6070b$o3bo5880b2o4bo3b3o5b2o173bo5895b$4bo5880bo5bob2ob2o4b2o173bobo5894b$bobo5881bo2b2o3b2o7bo173b2ob2o5893b$5851b2o33bob2o5bobo178b2obo5894b$5850b2o224b3o2b2o5891b$5852bo224bo5896b$6078bo5895b$6078b2o5894b$6073b2o41b2o5856b$6073b2o42b2o5855b$5782b2o114b2o174b2o40bo73b2o5782b$5782b2o114b2o58b2o54b2o59bo114b2o5782b$5958b2o54b2o5958b$11974b$6084bo5889b$6082bobo5889b$6083b2o5889b$7835b2o4137b$7836b2o4136b$5884bo1950bo4138b$5884bobo6087b$5884b2o6088b$4142b2o7830b$4141b2o1647b2o98b2o190b2o98b2o5790b$4143bo1646b2o98b2o190b2o98b2o5790b$11974b$11974b$11974b$11974b$11974b$11974b$11974b$5911b2o6061b$5910b2o6062b$5912bo6061b$11974b$11974b$6056b2o5916b$6057b2o5915b$6056bo5917b$11974b$5782b2o114b2o108b3o63b2o114b2o5782b$5782b2o114b2o174b2o114b2o5782b$5965b2o41bo5965b$5964bob2o39b4o5963b$5956b2o7bo40b5o5b2o5956b$5956b2o6b3o39b2o3bo4b2o1757b2o4197b$5964b3o41b3o1765b2o4196b$5964b2ob2o1806bo4198b$5959bo6014b$5957b2o6015b$4202b2o1754b2o6014b$4201b2o7771b$4203bo7770b$5790b2o390b2o5790b$5790b2o213b2o175b2o5790b$5954b2o50bobo9b2o5954b$5954b2o51bo10b2o5954b$11974b$11974b$11974b$11974b$11974b$11974b$5958b2o54b2o5958b$5958b2o54b2o5958b$11974b$11974b$11974b$11974b$11974b$11974b$5782b2o114b2o174b2o114b2o5782b$5782b2o114b2o174b2o114b2o5782b$11974b$7715b2o4252b3o2b$7716b2o4251bo2bob$5966b2o38b2o1707bo4253bo4b$5966b2o38b2o5961bo3bo$11969bo3bo$4262b2o7705bo4b$4261b2o7707bobob$4263bo7710b$11974b$11974b$2b3o5785b2o390b2o5790b$bo2bo5785b2o390b2o5790b$4bo11969b$o3bo11969b$o3bo11969b$4bo11969b$bobo11970b$11974b$11974b$11974b$5958b2o54b2o5958b$5958b2o54b2o5958b$11974b$11974b$11974b$11974b$11974b$11974b$5782b2o114b2o174b2o114b2o5782b$5782b2o114b2o174b2o114b2o1463b2o4317b$6144bo1511b2o4316b$6142bobo1510bo4318b$6143b2o5829b$11974b$4322b2o7650b$4321b2o1501bo6149b$4323bo1500bobo6147b$5824b2o6148b$11974b$11974b$11974b$5790b2o390b2o5790b$5790b2o390b2o5790b$11974b$11974b$11974b$11974b$11974b$11974b$11974b$11974b$5958b2o54b2o5958b$5958b2o54b2o5958b$11974b$11974b$11974b$11974b$11974b$7595b2o4377b$5782b2o114b2o174b2o114b2o1404b2o4376b$5782b2o114b2o174b2o114b2o1403bo4378b$11974b$11974b$4382b2o7590b$4381b2o7591b$4383bo7590b$11974b$11974b$11974b$11974b$11974b$11974b$5790b2o390b2o5790b$5790b2o390b2o5790b$11974b$11945b2o27b$11946b2o26b$11945bo28b$23bo11950b$22bobo11949b$22bo9b2o11940b$26bo4b2o11941b$12bo9bo10bo5924b2o54b2o5945bo12b$11bobo7bo5936b2o54b2o5944bobo11b$11bobo12bo11933bobo11b$12bo11bobo11934bo12b$15bobo11956b$15bob2o7516b2o4437b$15bo7520b2o4436b$7535bo4384b2o47b3o2b$16b3o5763b2o114b2o174b2o114b2o5729b2o46bo2bob$5782b2o114b2o174b2o114b2o5728bo48bo4b$4442b2o7525bo3bo$4441b2o7526bo3bo$57b2o4384bo7525bo4b$20b2o34b2o11894b2o16bobob$19bo38bo11895bo19b$22bo11928bo22b$20b2o11930b2o20b$2b3o11969b$bo2bo11969b$4bo11969b$o3bo11969b$o3bo11969b$4bo11880b2o87b$bobo11882b2o86b$11885bo88b$11974b$11974b$92b2o11880b$91b2o11881b$93bo11880b$11974b$12bo5945b2o54b2o5945bo12b$11bobo5944b2o54b2o5944bobo11b$11bobo11946bobo11b$12bo7462b2o4484bo12b$7476b2o4496b$7475bo4384b2o112b$11861b2o111b$11860bo113b$4502b2o1278b2o114b2o174b2o114b2o5782b$4501b2o1279b2o114b2o174b2o114b2o5782b$117b2o4384bo7470b$116b2o11856b$118bo11855b$20b2o11930b2o20b$19bo11934bo19b$22bo11928bo22b$20b2o11930b2o20b$11974b$11974b$11974b$11825b2o147b$11826b2o146b$11825bo148b$11974b$11974b$152b2o11820b$151b2o11821b$153bo11820b$11974b$11974b$11974b$12bo5945b2o54b2o5945bo12b$11bobo5944b2o54b2o1399b2o4543bobo11b$11bobo7402b2o4542bobo11b$12bo7402bo4384b2o159bo12b$11801b2o171b$11800bo173b$4562b2o7410b$4561b2o7411b$177b2o4384bo1218b2o114b2o174b2o114b2o5782b$176b2o5604b2o114b2o174b2o114b2o5782b$178bo11795b$11974b$11974b$20b2o11930b2o20b$19bo11934bo19b$22bo6167b2o5759bo22b$20b2o6168b2o5760b2o20b$5783b2o405bo5783b$5782bobobo402bo9bo5565b2o207b$5781bo2b4o3bo381b3o12b2o8b3o5565b2o206b$5781bo9b2o380b4o10b5o5bo3bo5563bo208b$5781bobo6bob2o378b2o2b2o5b3obobobo4b3ob2o5772b$5782b2o6bobo380b2obo6b5obo7b3o5774b$212b2o5576b2o381b3o10b2o4bo3bobo5775b$211b2o5961bo12bo4bo4bo5776b$213bo5974bo4bo5780b$5783b2o407bo5781b$6191bo5782b$11974b$11974b$5782b2o406b2o1163b2o4617b$12bo5769b2o174b2o54b2o174b2o1164b2o4603bo12b$11bobo5944b2o54b2o1339bo4384b2o218bobo11b$11bobo11727b2o217bobo11b$12bo11727bo220bo7b3o2b$4622b2o7345bo2bob$4621b2o7346bo4b$237b2o4384bo1170bo6174bo3bo$236b2o5557b2o6172bo3bo$238bo5555b2o102b2o174b2o5893bo4b$5898b2o174b2o5894bobob$11974b$6174bo5799b$5790b2o380b2o8b2o5790b$2b3o15b2o5768b2o381b2o7b2o5768b2o20b$bo2bo14bo11934bo19b$4bo17bo11928bo22b$o3bo15b2o11683b2o245b2o20b$o3bo6072b2o5627b2o266b$4bo6071bo5628bo268b$bobo6071bo3b3o5892b$6075bo2b5o5891b$272b2o5801b2o5b2o5890b$271b2o5808b2o5891b$273bo5801b2o5897b$11974b$6078bo5895b$5894b3o178b3o5896b$5893bo2bo6077b$5893b2o2bo1397b2o4677b$5896b2o1398b2o4676b$5782b2o290b2o114b2o1103bo4384b2o292b$12bo5769b2o109bo64b2o54b2o58b2o114b2o5489b2o278bo12b$11bobo5877b2o65b2o54b2o5664bo279bobo11b$11bobo4668b2o1208b2o6066bobo11b$12bo4668b2o7278bo12b$297b2o4384bo7290b$296b2o5787bo5888b$298bo5787b2o5886b$6085b2o5887b$11974b$11974b$11974b$11974b$5790b2o98b2o190b2o98b2o5790b$20b2o5768b2o98b2o190b2o98b2o5768b2o20b$19bo11625b2o307bo19b$22bo11623b2o303bo22b$20b2o11623bo306b2o20b$11974b$11974b$332b2o11640b$331b2o11641b$333bo11640b$11974b$11974b$11974b$11974b$7235b2o4737b$7236b2o4736b$7235bo4384b2o352b$11621b2o351b$5782b2o114b2o174b2o114b2o5428bo353b$12bo4729b2o1038b2o114b2o108b3o63b2o114b2o5769bo12b$11bobo4727b2o1218b2o5997bobo11b$11bobo343b2o4384bo1216b3o5997bobo11b$12bo343b2o5598b2o2b2o2b2o40b2o8b2o5943bo12b$358bo5597b2o6b3o39b3o3bo3b2o5956b$5963bo3bo38b2o2bobo5961b$5965b3o43b2o5961b$5963bo4bo6005b$5964b2ob2o6005b$5964bo3bo6005b$5717bo247b3o6006b$5716bo6257b$5716b3o71b2o98b2o190b2o98b2o5401b2o387b$20b2o5768b2o98b2o190b2o98b2o5402b2o364b2o20b$19bo5934b2o62b2o5565bo368bo19b$22bo5931b2o62b2o241bo5689bo22b$20b2o6240bo5689b2o20b$392b2o5866b3o5711b$391b2o11581b$393bo11580b$11974b$11974b$5958b2o54b2o5958b$5958b2o54b2o5958b$7175b2o4797b$7176b2o4796b$7175bo4384b2o412b$11561b2o411b$11560bo413b$4802b2o7170b$4801b2o979b2o114b2o174b2o114b2o5777b3o2b$12bo404b2o4384bo978b2o114b2o174b2o114b2o5769bo7bo2bob$11bobo402b2o11542bobo6bo4b$11bobo404bo11541bobo6bo3bo$12bo11948bo7bo3bo$5854bo111b2o38b2o5961bo4b$5855b2o109b2o38b2o5962bobob$5854b2o6118b$11974b$11974b$2b3o6109bo5859b$bo2bo6107b2o5411b2o447b$4bo6108b2o5411b2o446b$o3bo5785b2o98b2o190b2o98b2o5341bo448b$o3bo15b2o5768b2o98b2o190b2o98b2o5768b2o20b$4bo14bo11934bo19b$bobo18bo429b2o11497bo22b$20b2o429b2o11499b2o20b$453bo11520b$11974b$11974b$11974b$11974b$5958b2o54b2o1099b2o4857b$5958b2o54b2o1100b2o4856b$7115bo4384b2o472b$11501b2o471b$11500bo473b$4862b2o7110b$4861b2o7111b$477b2o4384bo969bo6140b$476b2o5304b2o47b2o65b2o174b2o114b2o5782b$12bo465bo5303b2o48b2o64b2o174b2o114b2o5769bo12b$11bobo11946bobo11b$11bobo11946bobo11b$12bo6132bo5815bo12b$6146b2o5826b$6145b2o5827b$11974b$11974b$11465b2o507b$11466b2o506b$11465bo508b$11974b$5790b2o98b2o190b2o98b2o5790b$20b2o490b2o5276b2o98b2o190b2o98b2o5768b2o20b$19bo491b2o11441bo19b$22bo490bo11437bo22b$20b2o11930b2o20b$11974b$11974b$11974b$7055b2o4917b$7056b2o4916b$5958b2o54b2o1039bo4384b2o532b$5958b2o54b2o5425b2o531b$11440bo533b$4922b2o7050b$4921b2o7051b$537b2o4384bo7050b$536b2o11436b$538bo11435b$5782b2o114b2o174b2o114b2o5782b$12bo5769b2o114b2o174b2o114b2o5769bo12b$11bobo11946bobo11b$11bobo11946bobo11b$12bo11948bo12b$11974b$11974b$11405b2o567b$11406b2o566b$5657bo5747bo568b$5656bo6317b$5656b3o6315b$572b2o11400b$571b2o5217b2o390b2o5790b$20b2o551bo5216b2o390b2o137bo5630b2o20b$19bo6302bo5631bo19b$22bo6297b3o5628bo22b$20b2o11930b2o20b$11974b$6995b2o4977b$6996b2o4976b$6995bo4384b2o592b$11381b2o591b$5958b2o54b2o5364bo593b$4982b2o974b2o54b2o5958b$4981b2o6991b$597b2o4384bo6990b$596b2o11371b3o2b$598bo11370bo2bob$11969bo4b$11969bo3bo$5782b2o114b2o174b2o114b2o5777bo3bo$12bo5769b2o114b2o174b2o114b2o5769bo7bo4b$11bobo11946bobo7bobob$11bobo11946bobo11b$12bo11948bo12b$11345b2o627b$2b3o11341b2o626b$bo2bo11340bo628b$4bo11969b$o3bo11969b$o3bo627b2o11340b$4bo626b2o11341b$bobo629bo11340b$11974b$20b2o11930b2o20b$19bo11934bo19b$22bo11928bo22b$20b2o6913b2o5015b2o20b$6936b2o5036b$6935bo4384b2o652b$11321b2o651b$11320bo653b$5042b2o6930b$5041b2o915b2o54b2o5958b$657b2o4384bo914b2o54b2o5958b$656b2o11316b$658bo11315b$11974b$11974b$11974b$6184b2o5788b$5785bo112b2o174b2o107b3o5788b$12bo5773bo111b2o174b2o107b3o5775bo12b$11bobo5768bobob2o395bo5776bobo11b$11bobo5767bobobo400b2o4b2o5091b2o673bobo11b$12bo5767bo402b3obo4b2o5092b2o673bo12b$5781bo401b4o5098bo688b$5788b3o394b2o5787b$5788bo2bo6182b$692b2o5095b3o6182b$691b2o11281b$693bo11280b$5786bo6187b$6182bo5791b$6181bobo5790b$20b2o5756b2o401bo12b2o5756b2o20b$19bo5758b2o402bo11b2o679b2o5077bo19b$22bo6853b2o5073bo22b$20b2o6853bo4384b2o690b2o20b$11261b2o711b$11260bo713b$5102b2o6870b$5101b2o6871b$717b2o4384bo678b2o406b2o5782b$716b2o5064b2o174b2o54b2o174b2o5782b$718bo5239b2o54b2o5958b$11974b$11974b$11974b$11974b$11974b$11974b$5898b2o174b2o5898b$12bo5885b2o174b2o5149b2o734bo12b$11bobo11212b2o732bobo11b$11bobo11211bo734bobo11b$12bo5777b2o390b2o5777bo12b$5790b2o390b2o5790b$752b2o11220b$751b2o4844bo145bo6230b$753bo4842bo146bobo6228b$5596b3o144b2o333bo5895b$6077b2o5895b$6076b4o5894b$6075b2o3b3o152bo145bo5592b$6076bo5bo150bobo146bo432b2o5157b$20b2o6060bo151b2o144b3o433b2o5134b2o20b$19bo6056bo4bo733bo4384b2o752bo19b$22bo6052b2o2bo5121b2o748bo22b$20b2o6053b2obo5121bo751b2o20b$5162b2o731bo180b2o5896b$5161b2o731b3o6077b$777b2o4384bo729b2o2bo6076b$776b2o5119bo6076b$778bo5003b2o112bo177b2o114b2o5782b$5782b2o108bo65b2o54b2o58b2o114b2o5777b3o2b$5892bobo63b2o54b2o5953bo2bob$5892b2o6075bo4b$11969bo3bo$11969bo3bo$6086bo5882bo4b$6084bobo5883bobob$6085b2o5078b2o807b$11166b2o806b$12bo5814bobo5335bo795bo12b$2b3o6bobo5814b2o6130bobo11b$bo2bo6bobo5814bo6131bobo11b$4bo7bo799b2o4976b2o98b2o190b2o98b2o5777bo12b$o3bo806b2o4977b2o98b2o190b2o98b2o5790b$o3bo808bo5325bobo5832b$4bo6134b2o5833b$bobo6136bo5833b$11974b$11974b$6755b2o5217b$6756b2o5216b$6755bo4384b2o832b$20b2o11119b2o809b2o20b$19bo11120bo813bo19b$22bo5199b2o6727bo22b$20b2o5199b2o6729b2o20b$837b2o4384bo6750b$836b2o11136b$838bo11135b$11974b$5782b2o114b2o109bo64b2o114b2o5782b$5782b2o114b2o109bo64b2o114b2o5782b$5961b2o46bo5964b$5961bo6012b$5956b2o2bo3bo40bo2bo7b2o5956b$5956b2o3bo2b2o40b2o2bobo3b2o5956b$5966b2o39bo3b2o5092b2o867b$5963b2ob2o43bo5094b2o866b$11105bo868b$5964b2ob2o6005b$12bo5951b2ob2o5992bo12b$11bobo858b2o5092bo5993bobo11b$11bobo857b2o11087bobo11b$12bo860bo4916b2o98b2o190b2o98b2o5777bo12b$5790b2o98b2o190b2o98b2o5790b$5954b2o62b2o5954b$5954b2o62b2o5954b$11974b$6695b2o5277b$6696b2o5276b$6695bo4384b2o892b$11081b2o891b$11080bo893b$20b2o5260b2o674b2o54b2o5936b2o20b$19bo5261b2o675b2o54b2o5938bo19b$22bo874b2o4384bo6667bo22b$20b2o874b2o11054b2o20b$898bo11075b$11974b$11974b$11974b$5782b2o114b2o174b2o114b2o5782b$5782b2o114b2o174b2o114b2o5782b$11974b$11974b$11045b2o927b$5966b2o38b2o5038b2o926b$5966b2o38b2o5037bo928b$11974b$11974b$932b2o11040b$12bo918b2o11028bo12b$11bobo919bo11026bobo11b$11bobo11946bobo11b$12bo5777b2o98b2o190b2o98b2o5777bo12b$5537bo145bo106b2o98b2o190b2o98b2o5790b$5536bo146bobo6288b$5536b3o144b2o950b2o5337b$6636b2o5336b$6635bo4384b2o952b$6295bo145bo4579b2o951b$6293bobo146bo4577bo953b$5342b2o950b2o144b3o5531b$5341b2o6631b$20b2o935b2o4384bo614b2o54b2o5936b2o20b$19bo936b2o5000b2o54b2o5938bo19b$22bo935bo10992bo22b$20b2o11930b2o20b$11974b$11969b3o2b$11969bo2bob$5832bo6136bo4b$5782b2o48bobo63b2o174b2o114b2o5777bo3bo$5782b2o48b2o64b2o174b2o114b2o5777bo3bo$10985b2o982bo4b$10986b2o982bobob$6146bo4838bo988b$6144bobo5827b$6145b2o5827b$2b3o987b2o10980b$bo2bo986b2o4894bobo192b3o5889b$4bo988bo4894b2o192bo2bo5888b$o3bo7bo5875bo191bo5bo5874bo12b$o3bo6bobo6066bobo4bo5872bobo11b$4bo6bobo6066b3o2bobo5872bobo11b$bobo8bo5777b2o98b2o194bo95b2o5777bo12b$5790b2o98b2o290b2o391b2o5397b$6576b2o5396b$6575bo4384b2o1012b$10961b2o1011b$10960bo1013b$5402b2o6570b$5401b2o6571b$1017b2o4384bo6570b$1016b2o10956b$20b2o996bo4939b2o54b2o5936b2o20b$19bo5938b2o54b2o5938bo19b$22bo11928bo22b$20b2o11930b2o20b$11974b$11974b$11974b$11974b$5782b2o114b2o174b2o114b2o4733b2o1047b$5782b2o114b2o174b2o114b2o4734b2o1046b$10925bo1048b$11974b$11974b$1052b2o10920b$1051b2o10921b$1053bo10920b$11974b$11974b$12bo11948bo12b$11bobo11946bobo11b$11bobo6501b2o5443bobo11b$12bo5777b2o390b2o332b2o5443bo12b$5790b2o390b2o331bo4384b2o1072b$10901b2o1071b$10900bo1073b$5462b2o6510b$5461b2o6511b$1077b2o4384bo6510b$1076b2o10896b$1078bo10895b$11974b$20b2o5936b2o54b2o5936b2o20b$19bo5938b2o54b2o5938bo19b$22bo11928bo22b$20b2o11930b2o20b$11974b$11974b$10865b2o1107b$10866b2o1106b$5782b2o114b2o174b2o114b2o4673bo1108b$5782b2o114b2o174b2o114b2o5782b$11974b$1112b2o10860b$1111b2o10861b$1113bo10860b$11974b$11974b$11974b$11974b$12bo6442b2o5504bo12b$11bobo6442b2o5502bobo11b$11bobo5463bo145bo831bo4384b2o1118bobo11b$12bo5463bo146bobo5215b2o1118bo12b$5476b3o144b2o5215bo1133b$5522b2o6450b$5521b2o6451b$1137b2o4384bo831bo145bo5472b$1136b2o5215bobo146bo5471b$1138bo5215b2o144b3o5471b$11974b$11974b$11974b$20b2o5936b2o54b2o5936b2o20b$19bo5938b2o54b2o5938bo14b3o2b$22bo11928bo17bo2bob$20b2o11930b2o15bo4b$10805b2o1162bo3bo$10806b2o1161bo3bo$10805bo1163bo4b$11970bobob$5782b2o114b2o174b2o114b2o5782b$1172b2o4608b2o114b2o174b2o114b2o5782b$1171b2o10801b$2b3o1168bo10800b$bo2bo11969b$4bo11969b$o3bo11969b$o3bo11969b$4bo6390b2o5577b$bobo6392b2o5576b$12bo6382bo4384b2o1179bo12b$11bobo10767b2o1177bobo11b$11bobo10766bo1179bobo11b$12bo5569b2o6377bo12b$5581b2o6391b$1197b2o4384bo6390b$1196b2o10776b$1198bo10775b$11974b$11974b$11974b$11974b$11974b$20b2o5936b2o54b2o5936b2o20b$19bo5938b2o54b2o5938bo19b$22bo10722b2o1204bo22b$20b2o10724b2o1204b2o20b$10745bo1228b$11974b$11974b$1232b2o10740b$1231b2o4665b2o174b2o277b2o5619b$1233bo4664b2o174b2o112bo163bobo5619b$5780bo406b3o164bo5619b$5609b3o168bo5bo403bo171b3o5609b$5779b3o5bo399b4obo5781b$5607bo5bo10b2o159bobo399b2ob4o166bo5bo5607b$5607bo5bo10bobo152b3o4b2o399b2o2b2obo165bo5bo5607b$5607bo5bo10bo155bo9b3o390b3ob2o2bo2bo165bo5bo5607b$6183b3o2bo4bo4526b2o1252b$5609b3o571b7o172b3o4356b2o1251b$12bo6170b4obo4531bo1240bo12b$11bobo6170bo2bo5772bobo11b$11bobo6171b2o5773bobo11b$12bo1244b2o10702bo12b$1256b2o4520b2o414b2o5778b$1258bo4519b2o414b2o5778b$11974b$11974b$11974b$11974b$11974b$11974b$5782b2o406b2o5782b$20b2o5760b2o174b2o54b2o174b2o4493b2o1265b2o20b$19bo5938b2o54b2o4670b2o1266bo19b$22bo10662bo1265bo22b$20b2o11930b2o20b$11974b$1292b2o10680b$1291b2o5000b2o5679b$1293bo4998bobo5679b$5898b2o174b2o218bo5679b$5750bo147b2o174b2o5898b$5748b2o6224b$5609b3o72b2o63b2o611b3o5609b$5684bobo103b2o390b2o5790b$5607bo5bo70bo105b2o390b2o176bo5bo5607b$5607bo5bo614bo131bo5bo4293b2o1312b$5607bo5bo615b2o129bo5bo4294b2o1311b$6228b2o4430bo1313b$5609b3o750b3o5609b$12bo5404bo6543bo12b$11bobo1303b2o4097bo6543bobo11b$11bobo1302b2o4098b3o6541bobo11b$12bo1305bo10642bo12b$11974b$6561bo5412b$6562bo5411b$6560b3o5411b$11974b$11974b$11969b3o2b$10625b2o1342bo2bob$5782b2o406b2o4434b2o1341bo4b$20b2o5760b2o174b2o54b2o174b2o4433bo1326b2o15bo3bo$19bo5938b2o54b2o5938bo14bo3bo$22bo11928bo17bo4b$20b2o1330b2o4469bo6128b2o16bobob$1351b2o4468bobo409b2o5739b$1353bo4468b2o408bobo5739b$6234bo5739b$2b3o11969b$bo2bo5893b2o174b2o69bo5828b$4bo5739b2o152b2o174b2o69bobo5826b$o3bo5739bobo398b2o5827b$o3bo5604b3o132bo617b3o5609b$4bo5785b2o390b2o4416b2o1372b$bobo5603bo5bo176b2o390b2o176bo5bo4234b2o1371b$5607bo5bo746bo5bo4233bo1373b$5607bo5bo746bo5bo5607b$11974b$1377b2o4230b3o750b3o5609b$12bo1363b2o10583bo12b$11bobo1364bo10581bobo11b$11bobo11946bobo11b$12bo11948bo12b$11974b$11974b$11974b$11974b$11974b$10565b2o1407b$10566b2o1406b$10565bo1408b$5782b2o406b2o5782b$20b2o5760b2o174b2o54b2o174b2o5760b2o20b$19bo1392b2o4544b2o54b2o5938bo19b$22bo1388b2o4760b2o5776bo22b$20b2o1391bo4758bobo5777b2o20b$6174bo5799b$11974b$11974b$5804b2o6168b$5804bobo91b2o174b2o5898b$5804bo93b2o174b2o5898b$10540b2o1432b$5609b3o750b3o4176b2o1431b$5790b2o390b2o4356bo1433b$5607bo5bo176b2o390b2o47b3o126bo5bo5607b$5607bo5bo619bo126bo5bo5607b$1437b2o4168bo5bo618bo127bo5bo5607b$1436b2o10536b$1438bo4170b3o750b3o5609b$12bo5732b3o6213bo12b$11bobo5731bo6214bobo11b$11bobo5732bo6213bobo11b$12bo11948bo12b$11974b$11974b$11974b$10505b2o1467b$10506b2o1466b$6077b3o4425bo1468b$6076bo2bo5894b$6076bo2bo5894b$1472b2o4308b2o293b4o109b2o5782b$20b2o1449b2o4309b2o106b3o65b2o54b2o63b2o32b2o75b2o5760b2o20b$19bo1453bo4417bo66b2o54b2o65bo30bobo5839bo19b$22bo5868b3o186bo33bo5836bo22b$20b2o6058bo5871b2o20b$11974b$5864b2o6108b$5864bobo6107b$5864bo6109b$10480b2o1492b$10481b2o1491b$10480bo1493b$5609b3o288b2o269b3o188b3o5609b$5790b2o98b2o8b2o180b2o89bo8b2o5790b$1497b2o4108bo5bo176b2o98b2o190b2o88bo9b2o176bo5bo5607b$1496b2o4109bo5bo746bo5bo5607b$1498bo4108bo5bo746bo5bo5607b$5357bo447b3o6166b$5356bo252b3o193bo556b3o5609b$12bo5343b3o447bo95bo6058bo12b$11bobo5887bobo6056bobo11b$11bobo5886bo3bo6055bobo11b$12bo5887bo3bo716bo5339bo12b$5900bo721bo5351b$5901b3o716b3o3822b2o1527b$10446b2o1521b3o2b$10445bo1523bo2bob$11969bo4b$11969bo3bo$1532b2o10435bo3bo$1531b2o4520b2o5914bo4b$1533bo4248b2o114b2o152bobo19b2o114b2o5778bobob$20b2o5760b2o114b2o154bo19b2o114b2o5760b2o20b$19bo5863bo127b2o5941bo19b$22bo5858bobo127b3o5937bo22b$2b3o15b2o5860b2o40b2o37bobo42b2o2b2o2b2o5934b2o20b$bo2bo5919bobo38bo41b3o6b2o5956b$4bo5919bo36bo3bo40bo3bo5963b$o3bo5951bo4bo44b3o76bo4334b2o1552b$o3bo5951bo4bo2bo40bo4bo74bobo4333b2o1551b$4bo5951bo5b3o40b2ob2o75b2o4333bo1553b$bobo6001bo3bo101b3o5860b$6006b3o104bo5860b$1557b2o4050b3o500bo249b3o5609b$1556b2o4232b2o98b2o190b2o98b2o5790b$1558bo4048bo5bo176b2o98b2o190b2o98b2o176bo5bo5607b$5607bo5bo251b3o86b2o62b2o340bo5bo5607b$5607bo5bo251bo88b2o62b2o340bo5bo5607b$5866bo6107b$5609b3o750b3o5609b$12bo11948bo12b$11bobo11946bobo11b$11bobo11946bobo11b$12bo10372b2o1574bo12b$5958b2o54b2o4370b2o1586b$5958b2o54b2o4369bo1588b$11974b$11974b$1592b2o10380b$1591b2o10381b$1593bo10380b$11974b$5782b2o114b2o174b2o114b2o5782b$20b2o5760b2o114b2o174b2o114b2o5760b2o20b$19bo11934bo19b$22bo11928bo22b$20b2o11930b2o20b$5966b2o38b2o4352b2o1612b$5966b2o38b2o4353b2o1611b$10360bo1613b$6051b3o5920b$6053bo5920b$1617b2o4433bo5921b$1616b2o10356b$1618bo3990b3o750b3o5609b$5790b2o133b3o254b2o5790b$5607bo5bo176b2o133bo256b2o176bo5bo5607b$5607bo5bo312bo433bo5bo5607b$5607bo5bo746bo5bo5607b$11974b$5609b3o750b3o5609b$12bo11948bo12b$11bobo10311b2o1633bobo11b$11bobo10312b2o1632bobo11b$12bo10312bo1635bo12b$5958b2o54b2o5958b$5958b2o54b2o5958b$1652b2o4183bobo6134b$1651b2o4184b2o6135b$1653bo4184bo6135b$11974b$6001bo5972b$5999bobo137bobo5832b$5782b2o114b2o100b2o72b2o64b2o48b2o5782b$20b2o5760b2o114b2o174b2o64bo49b2o5760b2o20b$19bo11934bo19b$22bo10277b2o1649bo22b$20b2o10279b2o1649b2o20b$6006b2o4292bo1673b$5991b3o12b2o5966b$5993bo5980b$1677b2o4313bo5981b$1676b2o10296b$1678bo10295b$5985b3o5986b$5609b3o373bo376b3o5609b$5790b2o194bo195b2o5790b$5607bo5bo176b2o390b2o176bo5bo5607b$5297bo309bo5bo746bo5bo5607b$5296bo310bo5bo746bo5bo5607b$5296b3o6675b$5609b3o750b3o3900b2o1707b$12bo10253b2o1693bo12b$11bobo6667bo3583bo1694bobo11b$11bobo6668bo5277bobo6b3o2b$12bo6667b3o5278bo7bo2bob$1712b2o4244b2o54b2o5953bo4b$1711b2o4245b2o54b2o5953bo3bo$1713bo10255bo3bo$11969bo4b$11970bobob$11974b$11974b$11974b$2b3o5777b2o114b2o174b2o114b2o5782b$bo2bo15b2o5760b2o114b2o174b2o114b2o4048b2o1710b2o20b$4bo14bo10221b2o1711bo19b$o3bo17bo10217bo1710bo22b$o3bo15b2o5909b3o6018b2o20b$4bo5928bo6040b$bobo1733b2o4193bo6041b$1736b2o10236b$1738bo10235b$6045b3o5926b$6045bo5928b$6046bo5927b$5609b3o750b3o5609b$5790b2o390b2o5790b$5607bo5bo176b2o390b2o176bo5bo5607b$5607bo5bo746bo5bo5607b$5607bo5bo746bo5bo3838b2o1767b$10206b2o1766b$5609b3o750b3o3840bo1768b$12bo11948bo12b$11bobo11946bobo11b$11bobo1758b2o10186bobo11b$12bo1758b2o10188bo12b$1773bo4184b2o54b2o5958b$5958b2o54b2o5958b$11974b$11974b$11974b$11974b$11974b$10180b2o1792b$5782b2o114b2o174b2o114b2o3989b2o1791b$20b2o5760b2o114b2o174b2o114b2o3988bo1771b2o20b$19bo5851b3o6080bo19b$22bo5850bo6077bo22b$20b2o1775b2o4073bo6079b2o20b$1796b2o10176b$1798bo10175b$5782bo322b3o5866b$5782b2o321bo5868b$5783b3o320bo80b2o5785b$5775b2o6bo405bo5784b$5774b4o6b2o398b3o3bo5783b$5609b3o161bo4bo19bobo382b5o2bo171b3o5609b$5774b2ob3o5bo3b2o6bo2bo381b2o5b2o5783b$5607bo5bo161b2o2bo4bobo2b2o6bo2bo382b2o175bo5bo3778b2o1827b$5607bo5bo162bo3b3obobo11b2o389b2o169bo5bo3779b2o1826b$5607bo5bo163bobo3bobo574bo5bo3778bo1828b$5778bo408bo5786b$5609b3o576b3o171b3o5609b$12bo1819b2o10127bo12b$11bobo1817b2o10127bobo11b$11bobo1819bo10126bobo11b$12bo5769b2o406b2o5769bo12b$5782b2o174b2o54b2o174b2o5782b$5958b2o54b2o5958b$11974b$11974b$11974b$6180bo3939b2o1852b$6178b2o3941b2o1851b$6179b2o3939bo1853b$5811b3o84b2o174b2o5898b$20b2o5791bo84b2o174b2o5876b2o20b$19bo1837b2o3939bo13bo6141bo19b$22bo1833b2o3941b2o6150bo22b$20b2o1836bo3931b2o6b2o382b2o5768b2o20b$5790b2o373b3o14b2o5790b$6165bo5808b$6166bo5807b$11974b$11974b$11974b$11974b$5609b3o750b3o3720b2o1887b$5237bo4848b2o1886b$5236bo370bo5bo746bo5bo3718bo1888b$5236b3o368bo5bo746bo5bo5607b$5607bo5bo746bo5bo5607b$1892b2o10075b3o2b$1891b2o3716b3o750b3o376bo5227bo2bob$12bo1880bo4848bo5218bo7bo4b$11bobo6726b3o5217bobo6bo3bo$11bobo11946bobo6bo3bo$12bo5769b2o406b2o5769bo7bo4b$5782b2o174b2o54b2o174b2o5778bobob$5958b2o54b2o5958b$11974b$10060b2o1912b$2b3o10056b2o1911b$bo2bo10055bo1913b$4bo5746b3o6220b$o3bo5748bo6220b$o3bo1912b2o3833bo145b2o174b2o5898b$4bo15b2o1894b2o3980b2o174b2o5876b2o20b$bobo15bo1898bo10035bo19b$22bo6202b3o5723bo22b$20b2o5768b2o390b2o41bo5726b2o20b$5790b2o390b2o42bo5747b$11974b$11974b$11974b$11974b$10025b2o1947b$10026b2o1946b$5609b3o750b3o3660bo1948b$11974b$5607bo5bo746bo5bo5607b$1952b2o3653bo5bo746bo5bo5607b$1951b2o3654bo5bo746bo5bo5607b$1953bo10020b$5609b3o750b3o5609b$12bo11948bo12b$11bobo11946bobo11b$11bobo11946bobo11b$12bo5769b2o406b2o5769bo12b$5782b2o174b2o54b2o174b2o5782b$5958b2o54b2o3984b2o1972b$5769bo4231b2o1971b$5768b2o4230bo1973b$5768bobo6203b$11974b$1977b2o9995b$1976b2o4221bo5774b$1978bo3919b2o174b2o123b2o5773b$20b2o5876b2o174b2o122bobo5751b2o20b$19bo11934bo19b$22bo11928bo22b$20b2o5768b2o390b2o5768b2o20b$5790b2o390b2o5790b$11974b$11974b$9965b2o2007b$9966b2o2006b$9965bo2008b$11974b$5609b3o750b3o5609b$2012b2o9960b$2011b2o3594bo5bo746bo5bo5607b$2013bo3593bo5bo746bo5bo5607b$5607bo5bo746bo5bo5607b$11974b$5609b3o750b3o5609b$12bo11948bo12b$11bobo11946bobo11b$11bobo11946bobo11b$12bo5769b2o406b2o3748b2o2019bo12b$5782b2o45bo128b2o54b2o174b2o3749b2o2031b$5828b2o128b2o54b2o3924bo2033b$5828bobo6143b$6120bo5853b$2037b2o4079b2o5854b$2036b2o4081b2o18bo5834b$2038bo4100b2o5833b$5899b3o173bo62bobo5833b$5858bo39bo2bo171b4o5897b$20b2o5837b2o36b2ob2o171bo7bo5870b2o20b$19bo5838b2o37bo174b3o3bo3bo5871bo19b$22bo5874b2ob2o2bo166b4o3b5o5868bo22b$20b2o5768b2o106b4obo166bo3bo6bo100b2o5768b2o20b$5790b2o282bobo2b3o100b2o5790b$6071b2obobobo3826b2o2067b$5889b3o181bo3bo3828b2o2066b$9905bo2068b$11974b$6090b3o5881b$2072b2o3103bo913bo5882b$2071b2o3103bo432b3o479bo270b3o5609b$2073bo3102b3o911b3o5876b3o2b$5607bo5bo288b2o166b2o288bo5bo5602bo2bob$5607bo5bo288b2o161bo2bo2bo288bo5bo5602bo4b$5607bo5bo451bo3bo290bo5bo434bo5167bo3bo$6066b4o732bo5166bo3bo$5609b3o454bo295b3o435b3o5166bo4b$12bo6053bo5894bo8bobob$11bobo6053bo3812b2o2078bobo11b$11bobo5875bo177b2o3812b2o2077bobo11b$12bo5769b2o104b2o8b2o174b2o114b2o3688bo2080bo12b$2b3o5777b2o104bobo7b2o58b2o54b2o58b2o114b2o5782b$bo2bo5953b2o54b2o33bobo5922b$4bo2092b2o3950b2o5923b$o3bo2091b2o3952bo28bo5894b$o3bo2093bo3980b2o5893b$4bo6073bobo5893b$bobo5923bobo6044b$5928b2o29bo6014b$5928bo31bo52bo5960b$20b2o5928bo7bo52b4o5937b2o20b$19bo5929bobo6bo2bo48bo5bo5937bo19b$22bo5925bo2b2o6b2ob2o41b2o6bo3bo5933bo22b$20b2o5768b2o98b2o56bo3bo9b2o8b2o30bo2bo2b2o5bo64b2o98b2o3661b2o2105b2o20b$5790b2o98b2o56b2o8b2o5b2o4b2o30b2o2bo4bobob2o64b2o98b2o3662b2o2126b$5948b3o14b2o5b2o30b2o2bo5b2o3829bo2128b$5962bo10b3o29b4o5965b$5956b2o4bo12bo5998b$2132b2o3824bo3bo12bo5998b$2131b2o3823b2o6016b$2133bo9840b$5609b3o750b3o5609b$11974b$5607bo5bo344b2o54b2o344bo5bo5607b$5607bo5bo344b2o54b2o344bo5bo5607b$5607bo5bo746bo5bo5607b$6106bo5867b$5609b3o495bo254b3o3455b2o2152b$12bo6092b3o3713b2o2138bo12b$11bobo9806bo2139bobo11b$11bobo11946bobo11b$12bo5769b2o78bo35b2o101bobo70b2o114b2o5769bo12b$2157b2o3623b2o77bo36b2o101b2o71b2o114b2o5782b$2156b2o3703b3o138bo5971b$2158bo9815b$11974b$5966b2o7bobo28b2o5966b$5966b2o8b2o28b2o5966b$5976bo5997b$11974b$11974b$20b2o11930b2o20b$19bo9765b2o2167bo19b$22bo9763b2o2163bo22b$20b2o5768b2o390b2o3601bo2166b2o20b$5790b2o390b2o5790b$11974b$2192b2o9780b$2191b2o9781b$2193bo9780b$11974b$11974b$5609b3o750b3o5609b$11974b$5607bo5bo344b2o54b2o344bo5bo5607b$5607bo5bo344b2o54b2o344bo5bo5607b$5607bo5bo746bo5bo3393b2o2212b$9761b2o2211b$5609b3o750b3o3395bo2213b$12bo11948bo12b$11bobo11946bobo11b$11bobo2203b2o9741bobo11b$12bo2203b2o3564b2o114b2o174b2o114b2o5769bo12b$2218bo3563b2o114b2o174b2o114b2o5782b$11974b$11974b$11974b$5966b2o38b2o5966b$5966b2o38b2o5966b$11974b$11974b$9725b2o2247b$20b2o9704b2o2224b2o20b$19bo9705bo2228bo19b$22bo11928bo22b$20b2o5768b2o390b2o5768b2o20b$2252b2o3536b2o390b2o5790b$2251b2o9721b$2253bo9720b$11974b$5117bo6851b3o2b$5116bo6852bo2bob$5116b3o6850bo4b$5609b3o750b3o5604bo3bo$11969bo3bo$5607bo5bo344b2o54b2o344bo5bo494bo2838b2o2267bo4b$5607bo5bo344b2o54b2o344bo5bo495bo2838b2o2267bobob$5607bo5bo746bo5bo493b3o2837bo2273b$11974b$5609b3o750b3o5609b$2b3o7bo2264b2o9682bo12b$bo2bo6bobo2262b2o9682bobo11b$4bo6bobo2264bo9681bobo11b$o3bo7bo5769b2o114b2o174b2o114b2o5769bo12b$o3bo5777b2o114b2o174b2o114b2o5782b$4bo11969b$bobo11970b$11974b$11974b$11974b$9665b2o2307b$9666b2o2306b$9665bo2308b$20b2o11930b2o20b$19bo11934bo19b$22bo2289b2o9637bo22b$20b2o2289b2o3477b2o390b2o5768b2o20b$2313bo3476b2o390b2o5790b$11974b$11974b$11974b$11974b$11974b$11974b$5609b3o750b3o3275b2o2332b$9641b2o2331b$5607bo5bo344b2o54b2o344bo5bo3273bo2333b$5607bo5bo344b2o54b2o150bo193bo5bo5607b$5607bo5bo553bo192bo5bo5607b$2337b2o3826b3o5806b$2336b2o3271b3o750b3o5609b$12bo2325bo9622bo12b$11bobo5788bo6157bobo11b$11bobo5787bo6158bobo11b$12bo5769b2o17b3o94b2o174b2o114b2o5769bo12b$5782b2o114b2o174b2o114b2o5782b$11974b$11974b$11974b$9605b2o2367b$9606b2o2366b$9605bo2368b$11974b$11974b$20b2o2350b2o9578b2o20b$19bo2351b2o9581bo19b$22bo2350bo9577bo22b$20b2o5768b2o390b2o5768b2o20b$5790b2o390b2o5790b$11974b$11974b$11974b$11974b$9580b2o2392b$9581b2o2391b$5609b3o750b3o3215bo2393b$11974b$5607bo5bo344b2o54b2o344bo5bo5607b$2397b2o3208bo5bo344b2o54b2o344bo5bo5607b$2396b2o3209bo5bo746bo5bo5607b$2398bo9575b$5609b3o750b3o5609b$12bo11948bo12b$11bobo11946bobo11b$11bobo11946bobo11b$12bo5769b2o114b2o174b2o114b2o5769bo12b$5782b2o114b2o174b2o114b2o5782b$11974b$9545b2o2427b$9546b2o2426b$9545bo2428b$11974b$11974b$2432b2o9540b$2431b2o3349bo6191b$20b2o2411bo3346bob2o8bo6159b2o20b$19bo5759b3o2bo7b3o6159bo19b$22bo5755b2ob5o2bo2bo3bo6155bo22b$20b2o5757bob2o5b3o4bo391bo5764b2o20b$5780b6o2b3obob2o390b3o5780b3o2b$5781b4o3b2o3bo391bo2bo5780bo2bob$5057bo1126b3o2b2o5778bo4b$5056bo1128bo2b3o3329b2o2447bo3bo$5056b3o1127b2o2b2o3329b2o2446bo3bo$6189b3o3328bo2448bo4b$6186b4obo5778bobob$5609b3o574b2o2b2o170b3o556bo5052b$2457b2o3323b2o405b2o731bo5051b$2456b2o3149bo5bo168b2o174b2o54b2o344bo5bo553b3o5051b$2b3o2453bo3148bo5bo344b2o54b2o344bo5bo5607b$bo2bo5602bo5bo568bo177bo5bo5607b$4bo6176bo5792b$o3bo5604b3o569b3o178b3o5609b$o3bo7bo11948bo12b$4bo6bobo11946bobo11b$bobo7bobo5782bo6163bobo11b$12bo5784bo100b2o174b2o5885bo12b$5795b3o100b2o174b2o3409b2o2487b$5776b2o3708b2o2486b$5776bobo3706bo2488b$5776bo13b2o390b2o5790b$5790b2o390b2o5790b$2492b2o9480b$2491b2o3698b2o5781b$2493bo3696bobo5781b$6192bo5781b$20b2o11930b2o20b$19bo11934bo19b$22bo11928bo22b$20b2o11930b2o20b$11974b$9460b2o2512b$9461b2o2511b$9460bo2513b$11974b$11974b$2517b2o9455b$2516b2o3091b3o750b3o5609b$2518bo3263b2o406b2o5782b$5607bo5bo168b2o174b2o54b2o174b2o168bo5bo5607b$5607bo5bo344b2o54b2o344bo5bo5607b$5607bo5bo746bo5bo5607b$11974b$5609b3o750b3o5609b$12bo11948bo12b$11bobo11946bobo11b$11bobo9411b2o2533bobo11b$12bo5823b2o58b3o175b2o3350b2o2533bo12b$5836bobo57b5o173b2o3349bo2548b$5836bo55b3o6079b$5892b2o7bo6072b$2552b2o3236b2o100bo3b2o3bo280b2o5790b$2551b2o3237b2o99b2obob2o2bo171b3o56b2o49b2o5790b$2553bo3340b6o169bo2b3o55bobo5841b$5891bo2bo3bo169bob3obo57bo5841b$5881bo10bo175bobo8b3o5892b$5880bo2bo4bo178bo11bo5b2o5887b$20b2o5858bobo6bo176b2o14bob4o3b2o5859b2o20b$19bo5861b2o23b2o157bo2bo10bo4b2obo4b2o5860bo19b$22bo5864b3o15bo2bo156bo2bo10bo12b2o5857bo22b$20b2o5882b3ob2ob3o150bo3bo10bo10b3o3307b2o2550b2o20b$5903b3o2bo3b2o151bo2bo10bo2bo2bo3b3o3309b2o2571b$5902bo2b2obob2o154bob2o10b2o4b2o3312bo2573b$5898b12o147bo10b2o5904b$5899bo5bo151bobo5914b$2577b2o3324b2o152b2o5915b$2576b2o3322bo2bo6070b$2578bo3323bo6071b$5609b3o309bo440b3o5609b$5782b2o114b2o19bobo152b2o114b2o5782b$5607bo5bo168b2o114b2o20b2o36b2o54b2o58b2o114b2o168bo5bo5607b$5607bo5bo344b2o54b2o344bo5bo5607b$5607bo5bo746bo5bo5607b$11974b$5609b3o750b3o5609b$12bo9352b2o2594bo12b$11bobo5882b2o3468b2o2592bobo11b$11bobo5882bobo3466bo2594bobo11b$12bo5883bo6064bo12b$11974b$2612b2o9360b$2611b2o3348b3o107b2o5901b$2613bo3176b2o98b2o68bo3bo105bobo9b2o98b2o5790b$5790b2o98b2o68b2o2bo107bo9b2o98b2o5790b$5963b2o6009b$11974b$5961b2o6011b$5960bo2bo6010b$5960b2o135bobo5869b3o2b$19b3o5988b2o86b2o3240b2o2610b3o14bo2bob$6010bobo85bo3242b2o2626bo4b$6012bo3327bo2628bo3bo$4997bo960b2o50bobo5956bo3bo$4996bo872bobo86b2o49bo5959bo4b$2637b2o2357b3o870b2o138bobo5958bobob$2636b2o3232bo138bo5964b$58bo2579bo3369bo5965b$57b2o5910bo1011bo4992b$2b3o52bobo5907bobo1012bo4991b$bo2bo5604b3o356b2o392b3o615b3o4991b$4bo5777b2o114b2o174b2o114b2o5782b$o3bo5602bo5bo168b2o114b2o174b2o46bo67b2o168bo5bo5543bo63b$o3bo5602bo5bo507bo238bo5bo5543b2o62b$4bo5602bo5bo507b3o236bo5bo5542bobo62b$bobo9301b2o2667b$5609b3o354b2o38b2o354b3o2941b2o2666b$12bo5843bo109b2o38b2o3297bo2655bo12b$11bobo5843bo6102bobo11b$11bobo5841b3o6102bobo11b$12bo2659b2o9287bo12b$2671b2o9301b$2673bo9300b$11974b$5790b2o98b2o190b2o98b2o5790b$5790b2o98b2o190b2o98b2o5790b$11974b$11974b$11974b$9280b2o2692b$9281b2o2691b$19b3o9258bo2671b3o19b$11974b$11974b$2697b2o3259b2o54b2o5958b$2696b2o3260b2o54b2o5958b$118bo2579bo9275b$117b2o11855b$117bobo11854b$11974b$11974b$5609b3o750b3o5485bo123b$5782b2o114b2o174b2o114b2o5658b2o122b$5607bo5bo168b2o114b2o174b2o114b2o168bo5bo5482bobo122b$5607bo5bo746bo5bo2878b2o2727b$5607bo5bo746bo5bo2879b2o2726b$9245bo2728b$5609b3o354b2o38b2o354b3o5609b$12bo5953b2o38b2o5953bo12b$11bobo2718b2o9226bobo11b$11bobo2717b2o9227bobo11b$12bo2720bo9227bo12b$11974b$11974b$11974b$5790b2o98b2o190b2o98b2o5790b$5790b2o98b2o190b2o98b2o5790b$11974b$9220b2o2752b$9221b2o2751b$9220bo2753b$11974b$19b3o11930b3o19b$2757b2o9215b$2756b2o9216b$178bo2579bo3199b2o54b2o5958b$177b2o5779b2o54b2o5958b$177bobo11794b$11974b$11974b$11790bo183b$11790b2o182b$5609b3o750b3o5424bobo182b$5782b2o114b2o174b2o114b2o2993b2o2787b$5607bo5bo168b2o114b2o174b2o114b2o168bo5bo2819b2o2786b$5607bo5bo746bo5bo2818bo2788b$5607bo5bo746bo5bo5607b$11974b$2792b2o2815b3o750b3o5609b$12bo2778b2o9168bo12b$11bobo2779bo9166bobo11b$11bobo11946bobo11b$12bo11948bo12b$11974b$11974b$11974b$5790b2o390b2o5790b$5790b2o390b2o2976b2o2812b$9161b2o2806b3o2b$9160bo2808bo2bob$6157bobo5809bo4b$6158b2o5809bo3bo$2817b2o3339bo5810bo3bo$19b3o2794b2o9134b3o14bo4b$238bo2579bo2118bo7032bobob$237b2o4697bo872bobo6162b$237bobo4696b3o870b2o147b2o54b2o5958b$5810bo147b2o54b2o5958b$2b3o11969b$bo2bo7036bo4688bo243b$4bo7037bo4687b2o242b$o3bo7035b3o4686bobo242b$o3bo9120b2o2847b$4bo5604b3o750b3o2761b2o2846b$bobo5778b2o114b2o174b2o114b2o2933bo2848b$5607bo5bo168b2o114b2o174b2o114b2o168bo5bo5607b$5607bo5bo746bo5bo5607b$2852b2o2753bo5bo746bo5bo5607b$2851b2o9121b$2853bo2755b3o750b3o5609b$12bo11948bo12b$11bobo11946bobo11b$11bobo11946bobo11b$12bo11948bo12b$11974b$11974b$9100b2o2872b$5790b2o390b2o2917b2o2871b$5790b2o390b2o2916bo2873b$11974b$11974b$2877b2o9095b$2876b2o9096b$298bo2579bo9095b$19b3o275b2o11653b3o19b$297bobo11674b$11974b$5958b2o54b2o5958b$5958b2o54b2o5654bo303b$11670b2o302b$11669bobo302b$9065b2o2907b$9066b2o2906b$9065bo2908b$5609b3o750b3o5609b$5782b2o114b2o174b2o114b2o5782b$2912b2o2693bo5bo168b2o114b2o174b2o114b2o168bo5bo5607b$2911b2o2694bo5bo746bo5bo5607b$2913bo2693bo5bo746bo5bo5607b$11974b$5609b3o750b3o5609b$12bo5769bo6178bo12b$11bobo5767bobob3o402b2o5768bobo11b$11bobo5760b3o3b2ob4o404bo5768bobo11b$12bo5761b5o2bo6179bo12b$5778bo3bo3b2o3b2o397bo5bo2bo2840b2o2932b$5773b5o4bo5bobo2bo3b3o389bo6bo2bo2841b2o2931b$5773bo11b3o6bo2bo376bo13b2o4bo5bo2839bo2933b$5774bobo10bo3b3o2b2obo372b2ob2o6b2o3bo5bobob2o5774b$5767bobo5b2o11b3o3bob2obo373bo2bo6b2o2bob2obobo4bo5774b$2937b2o2828b2o20bo4b2obo376b2o11bobob8o5775b$2936b2o2830bo23bo395b9o5777b$358bo2579bo2853bo2b3o397bo5778b$357b2o5437bo4bo6172b$357bobo5436bo4bo6172b$19b3o5775bo2bo6151b3o19b$11974b$5782b2o406b2o5418bo363b$5782b2o174b2o54b2o174b2o5418b2o362b$5958b2o54b2o5593bobo362b$5768b2o3235b2o2967b$5768bobo3235b2o2966b$5768bo3236bo2968b$11974b$11974b$2972b2o2635b3o587b2o161b3o5609b$2971b2o2925b2o174b2o122bobo5773b$2973bo2633bo5bo284b2o174b2o124bo159bo5bo5607b$5607bo5bo560bo185bo5bo5607b$5607bo5bo559bo186bo5bo5607b$5790b2o381b3o6b2o5790b$5609b3o178b2o390b2o178b3o5609b$12bo11948bo12b$11bobo5790bo6155bobo11b$11bobo5791bo3174b2o2978bobo11b$12bo5790b3o3175b2o2978bo12b$8980bo2993b$11969b3o2b$11969bo2bob$2997b2o8970bo4b$2996b2o8971bo3bo$418bo2579bo2627b3o6340bo3bo$417b2o5207bo6342bo4b$417bobo5207bo6342bobob$11974b$4877bo7096b$19b3o4854bo1463b3o5207bo401b3o19b$2b3o4871b3o1463bo5207b2o422b$bo2bo5777b2o406b2o149bo5207bobo422b$4bo5777b2o44b2o128b2o54b2o174b2o2753b2o3027b$o3bo5823bobo127b2o54b2o1085bo1844b2o3026b$o3bo5823bo1273bo1842bo3028b$4bo7095b3o4871b$bobo11970b$3032b2o3105b2o5833b$3031b2o2867bo237bobo5833b$3033bo2865b3o173b2o63bo5833b$5897b2o3bo170bob2o5897b$5897b5o6072b$5896bo174bo6bo3bo5891b$5897bo3b2o168bo3bo2b3obo5891b$5790b2o105b2o2b2o168b2obo3bo103b2o5790b$5790b2o107b2o170bo2bo2bob3o100b2o5790b$12bo5877bo181bobobob3o2839b2o3039bo12b$11bobo5876bo181b2o3bo2843b2o3037bobo11b$11bobo5876bo3029bo3039bobo11b$12bo6078bo5869bo12b$6090b3o5881b$3057b2o8915b$3056b2o8916b$478bo2579bo2627b3o401b3o5881b$477b2o5207bo215b2o166b2o19bo5882b$477bobo5207bo214b2o165bobo5902b$6065bo3b2o5903b$6065b5o5904b$6065b2obo211b3o5207bo483b$6066b2o214bo5207b2o482b$19b3o6044b3o212bo5207bobo460b3o19b$5888b2o177b2o2816b2o3087b$5782b2o104bobo7b2o174b2o114b2o2694b2o3086b$5782b2o104bo9b2o58b2o54b2o58b2o114b2o2693bo3088b$5958b2o54b2o33bo5924b$6049bobo5922b$3092b2o2955b2o28b2o5893b$3091b2o2985bobo5893b$3093bo2986bo5893b$5929bo6044b$5927bobo6044b$5928b2o29bo53b2o5959b$5950bo8bo51b4o5959b$5949bob2o5bob3o48bo2bo5959b$5948b5o6b2o2bo41b2o3b2o4b2o5956b$5790b2o98b2o55b2o2b2o5bob5o6b3o29b2o2bo3b3o3b2o63b2o98b2o2676b2o3112b$5790b2o98b2o55bo2bo13b3o4bo31bo2b3o2bob2ob2o64b2o98b2o2677b2o3111b$12bo5935bobo14b2o4bo31bo4bo4b4o2843bo3100bo12b$11bobo5935bo22b2obo28b5o5951bobo11b$11bobo5943bo3b3o11b2o29b2o5952bobo11b$12bo3104b2o2839bo6002bo12b$3116b2o2839bo6016b$538bo2579bo2627b3o6225b$537b2o5207bo6227b$537bobo5207bo6226b$5958b2o54b2o5958b$5958b2o54b2o5958b$6220b3o5207bo543b$6222bo5207b2o542b$6105bobo113bo5207bobo542b$6106b2o2717b2o3147b$19b3o6084bo2719b2o3124b3o19b$8825bo3148b$5782b2o114b2o101bo72b2o114b2o5782b$5782b2o77bobo34b2o101bobo70b2o114b2o5782b$3152b2o2707b2o138b2o5971b$3151b2o2709bo6111b$3153bo8820b$5966b2o9bo28b2o5966b$5966b2o7bobo28b2o5966b$5976b2o5996b$7096b2o4876b$6114bo982b2o4875b$6113bo982bo4877b$6113b3o2684b2o3172b$8801b2o3171b$4881b2o907b2o98b2o190b2o98b2o2616bo3173b$4880b2o908b2o72bo25b2o190b2o98b2o5790b$12bo4869bo982bo6095bo12b$11bobo3163b2o2684b3o6094bobo6b3o2b$11bobo3162b2o8782bobo6bo2bob$12bo585bo2579bo2627b3o6152bo7bo4b$597b2o5207bo6162bo3bo$597bobo5207bo6161bo3bo$11969bo4b$11970bobob$5958b2o54b2o144b3o5207bo603b$5958b2o54b2o146bo5207b2o602b$4861bo1299bo5207bobo602b$2b3o4857b2o3901b2o3207b$bo2bo4856b2o3903b2o3206b$4bo8760bo3208b$o3bo14b3o11930b3o19b$o3bo7102bo4866b$4bo3207b2o2568b2o114b2o174b2o114b2o913b2o4867b$bobo3207b2o2569b2o114b2o174b2o114b2o914b2o4866b$3213bo8760b$11974b$11974b$5966b2o38b2o5966b$5966b2o38b2o1028b2o4936b$7037b2o4935b$7036bo4937b$8740b2o3232b$8741b2o3231b$4941b2o3797bo3233b$4940b2o7032b$4942bo847b2o98b2o190b2o98b2o5790b$3237b2o2551b2o98b2o190b2o98b2o5790b$12bo3223b2o8723bo12b$11bobo644bo2579bo2627b3o6091bobo11b$11bobo643b2o5207bo6093bobo11b$12bo644bobo5207bo6093bo12b$11974b$11974b$6100b3o5207bo663b$6102bo5207b2o662b$5958b2o54b2o85bo5207bobo662b$5958b2o54b2o2689b2o3267b$8706b2o3266b$8705bo3268b$11974b$11974b$19b3o3250b2o8678b3o19b$3271b2o8701b$3273bo2508b2o114b2o174b2o114b2o5782b$5782b2o114b2o174b2o114b2o5782b$11974b$11974b$6976b2o4996b$6977b2o4995b$6976bo4997b$8680b2o3292b$8681b2o3291b$5001b2o3677bo3293b$5000b2o6972b$5002bo6971b$3297b2o8675b$3296b2o2492b2o390b2o5790b$718bo2579bo2491b2o134b3o253b2o5790b$12bo704b2o5207bo6034bo12b$11bobo703bobo5207bo6032bobo11b$11bobo11946bobo11b$12bo11948bo12b$6040b3o5207bo723b$6042bo5207b2o722b$6041bo5207bobo722b$8645b2o3327b$5958b2o54b2o2630b2o3326b$5958b2o54b2o2629bo3328b$6165bobo5806b$6166b2o5806b$3332b2o2832bo5807b$3331b2o8641b$19b3o3311bo8618b3o19b$5801bobo6170b$5782b2o17b2o95b2o174b2o114b2o5782b$5782b2o18bo95b2o174b2o114b2o5782b$6916b2o5056b$6917b2o5055b$6916bo5057b$8620b2o3352b$8621b2o3351b$5061b2o3557bo3353b$5060b2o6912b$5062bo6911b$3357b2o8615b$3356b2o8616b$778bo2579bo2627b3o5980b3o2b$777b2o5011b2o194bo195b2o5785bo2bob$777bobo5010b2o195bo194b2o5785bo4b$12bo11948bo7bo3bo$11bobo11946bobo6bo3bo$11bobo5966b3o5207bo769bobo6bo4b$12bo5969bo5207b2o769bo8bobob$5981bo5207bobo782b$8585b2o3387b$8586b2o3386b$2b3o8580bo3388b$bo2bo4916bo1036b2o54b2o5958b$4bo4917b2o1034b2o54b2o5958b$o3bo3387b2o1527b2o7051b$o3bo3386b2o8581b$4bo3388bo8580b$bobo7043bo4926b$19b3o7023b2o4905b3o19b$7046b2o4926b$5782b2o114b2o174b2o114b2o664b2o5116b$5782b2o114b2o174b2o114b2o665b2o5115b$6856bo5117b$8560b2o3412b$8561b2o3411b$5121b2o3437bo3413b$5120b2o6852b$5122bo6851b$3417b2o8555b$3416b2o8556b$838bo2579bo2627b3o5925b$837b2o5207bo5927b$837bobo5207bo5926b$11974b$11974b$12bo5907b3o5207bo830bo12b$11bobo5908bo5207b2o828bobo11b$11bobo5907bo5207bobo828bobo11b$12bo8512b2o3434bo12b$8526b2o3446b$8525bo3448b$11974b$11974b$3452b2o2504b2o54b2o5958b$3451b2o2505b2o54b2o5958b$3453bo8520b$11974b$11974b$11974b$19b3o6774b2o5154b3o19b$6797b2o5175b$5782b2o114b2o174b2o114b2o604bo5177b$5782b2o114b2o174b2o114b2o2308b2o3472b$8501b2o3471b$5181b2o3317bo3473b$5180b2o6792b$5182bo6791b$3477b2o8495b$3476b2o8496b$898bo2579bo2627b3o5865b$897b2o5207bo5867b$897bobo5207bo79bo5786b$6186b3o5785b$6185bo3bo5784b$5860b3o321b2o2b2o4880bo903b$5862bo322b2o4883b2o902b$12bo5848bo324b2o4881bobo889bo12b$11bobo6173b2o2276b2o3493bobo11b$11bobo6175bo2276b2o3492bobo11b$12bo6175b2o2275bo3495bo12b$5786b2o6186b$5785bobo6186b$3512b2o2270b2o6188b$3511b2o2273bo403b2o5782b$3513bo2272bobo169b2o54b2o174b2o5782b$5788b2o168b2o54b2o5958b$5787b3o6184b$11974b$6181bo554b2o5236b$6179b2o556b2o5235b$19b3o6158b2o554bo5215b3o19b$8440b2o3532b$5898b2o174b2o2365b2o3531b$5241b2o655b2o174b2o2364bo3533b$5240b2o6732b$5242bo6731b$3537b2o2251b2o390b2o5790b$3536b2o2252b2o390b2o5790b$958bo2579bo2627b3o5805b$957b2o5207bo5807b$957bobo5207bo5801b3o2b$11969bo2bob$11969bo4b$5800b3o5207bo958bo3bo$5802bo5207b2o957bo3bo$5801bo5207bobo957bo4b$8405b2o3563bobob$12bo8393b2o3553bo12b$11bobo8391bo3554bobo11b$11bobo11946bobo11b$2b3o7bo11948bo12b$bo2bo3567b2o8400b$4bo3566b2o8401b$o3bo3568bo1407bo6992b$o3bo4977b2o798b2o406b2o5782b$4bo4976b2o799b2o174b2o54b2o174b2o5782b$bobo5954b2o54b2o5958b$6676b2o5296b$6677b2o308bo4986b$6676bo308b2o4987b$6986b2o1392b2o3592b$19b3o8359b2o3569b3o19b$5301b2o3077bo3593b$5300b2o596b2o174b2o5898b$5302bo595b2o174b2o5898b$3597b2o8375b$3596b2o8376b$1018bo2579bo2191b2o390b2o42b3o5745b$1017b2o4771b2o390b2o42bo5747b$1017bobo5207bo5746b$11974b$11974b$5740b3o5207bo1023b$5742bo5207b2o1022b$5741bo5207bobo1022b$8345b2o3627b$8346b2o3626b$8345bo3628b$12bo11948bo12b$11bobo11946bobo11b$11bobo3618b2o8326bobo11b$12bo3618b2o8328bo12b$3633bo8340b$11974b$11974b$5782b2o406b2o5782b$5782b2o174b2o54b2o174b2o424b2o5356b$5958b2o54b2o601b2o5355b$6616bo5357b$8320b2o3652b$8321b2o3651b$5361b2o2957bo3653b$19b3o5338b2o6590b3o19b$5362bo6611b$3657b2o2239b2o174b2o122bo5775b$3656b2o2240b2o174b2o122b2o5774b$1078bo2579bo2538bobo5774b$1077b2o10895b$1077bobo4710b2o390b2o5790b$5780bo9b2o390b2o5790b$5779b2o6193b$5779bobo5108bo1083b$10890b2o1082b$10889bobo1082b$8285b2o3687b$8286b2o3686b$8285bo3688b$11974b$11974b$12bo3679b2o8267bo12b$11bobo3677b2o8267bobo11b$11bobo3679bo8266bobo11b$12bo11948bo12b$11974b$5847bo6126b$5848b2o706b2o5416b$5782b2o63b2o341b2o365b2o5415b$5782b2o174b2o54b2o174b2o364bo5417b$5958b2o54b2o2244b2o3712b$6121bo2139b2o3711b$5421b2o696b2o2139bo3713b$5420b2o698b2o5852b$5422bo6551b$19b3o3695b2o2419bo5813b3o19b$3716b2o2420b2o5834b$1138bo2579bo2179b2o237bobo5834b$1137b2o4759b2o173b3o5898b$1137bobo4933b2ob2o3b2o5891b$5840bo234b2o2bob2o5891b$5790b2o47b2o58bo4bo168bo2bob4o100b2o5785b3o2b$5790b2o47bobo52bo3bobo2bo2bo165bobobobob2o100b2o4646bo1138bo2bob$5892b2obo2bob2obo3bo164bobobob2o4750b2o1137bo4b$5892b2ob2o2b2o3bo2bo165bo3bo4751bobo1137bo3bo$5891bo3bo2329b2o3742bo3bo$5886b4ob5o2330b2o3741bo4b$5880b3o3bo3b2o16b2o180b3o2132bo3744bobob$5887b2o2bobobo10b2o2bo178bo3bo5880b$5890bo5bo8bo3b3o177bo3bo5880b$3752b2o2135b2ob2o2bo7b2o4bo158b2o19b3o5881b$2b3o3746b2o2136b2o4bo6b2obob3o152bo5bo2bo5902b$bo2bo7bo3740bo2136bo2bo8b2ob2o154bo3bob3obo5889bo12b$4bo6bobo5877b3o8b2ob2o158b3ob2o5889bobo11b$o3bo6bobo5878bo11b2o156bo5897bobo11b$o3bo7bo5903bobo145b5o5892bo12b$4bo5036bo875b2o146b5o426b2o5476b$bobo5038b2o873bo579b2o5475b$5041b2o1453bo5477b$5782b2o114b2o174b2o114b2o2008b2o3772b$5782b2o114b2o58b2o54b2o34bobo21b2o114b2o2009b2o3771b$5481b2o475b2o54b2o34b2o875bo1272bo3773b$5480b2o569bo873b2o5047b$5482bo1443b2o5046b$3777b2o2299bo5895b$3776b2o2300b2o5894b$19b3o1176bo2579bo2298bobo5872b3o19b$1197b2o10775b$1197bobo10774b$5900bo109bob2o5960b$5899b2o109bo3bo5959b$5899bobo113bo4754bo1203b$5790b2o98b2o114b2o2b2o3bo66b2o98b2o4586b2o1202b$5790b2o98b2o113b2o6b3o66b2o98b2o4585bobo1202b$6006b2o2157b2o3807b$6007bo2158b2o3806b$8165bo3808b$5961b3o48b2o5960b$5960bo2bo50bo5959b$3812b2o2059bo86bo3bo47b2o5960b$3811b2o2059bo86bo2b3o6009b$3813bo2058b3o85b4o6010b$6014b2o5958b$12bo6001b2o5945bo12b$11bobo5950bobo138bo5854bobo11b$11bobo5951b2o139bo329b2o5522bobo11b$12bo5952bo138b3o330b2o5522bo12b$6436bo5537b$8140b2o3832b$6002bobo2136b2o3831b$5541b2o239b2o114b2o102b2o70b2o114b2o1948bo3833b$5540b2o240b2o114b2o103bo70b2o114b2o5782b$5542bo6431b$3837b2o8135b$3836b2o8136b$1258bo2579bo2127b2o38b2o5966b$1257b2o4707b2o38b2o5966b$19b3o1235bobo10692b3o19b$11974b$11974b$10710bo1263b$10710b2o1262b$10709bobo1262b$5790b2o390b2o1921b2o3867b$5790b2o390b2o1922b2o3866b$8105bo3868b$11974b$11974b$3872b2o8100b$3871b2o8101b$3873bo8100b$11974b$11974b$5958b2o54b2o5958b$12bo5945b2o54b2o360b2o5583bo12b$11bobo6363b2o5581bobo11b$11bobo6362bo5583bobo11b$12bo8067b2o3879bo12b$8081b2o3891b$5601b2o2477bo3893b$5600b2o6372b$5602bo179b2o114b2o174b2o114b2o5782b$3897b2o1883b2o114b2o174b2o114b2o5782b$3896b2o8076b$1318bo2579bo8075b$1317b2o10655b$1317bobo4646b2o38b2o5966b$5966b2o38b2o5966b$19b3o11930b3o19b$10650bo1323b$10650b2o1317b3o2b$10649bobo1317bo2bob$8045b2o3922bo4b$8046b2o3921bo3bo$5790b2o390b2o1861bo3923bo3bo$5790b2o390b2o5785bo4b$11970bobob$3932b2o8040b$3931b2o8041b$3933bo8040b$2b3o11969b$bo2bo11969b$4bo11969b$o3bo6311b2o5656b$o3bo5953b2o54b2o301b2o5655b$4bo7bo5945b2o54b2o300bo5644bo12b$bobo7bobo8006b2o3938bobo11b$11bobo5087bo2919b2o3937bobo11b$12bo5089b2o557b2o2357bo3940bo12b$5101b2o557b2o6312b$5662bo6311b$3957b2o8015b$3956b2o1824b2o114b2o174b2o114b2o675bo5106b$1378bo2579bo1823b2o114b2o174b2o114b2o673b2o5107b$1377b2o5487b2o5106b$1377bobo10594b$11974b$11974b$10590bo1383b$19b3o10568b2o1360b3o19b$10589bobo1382b$7985b2o3987b$7986b2o3986b$7985bo3988b$11974b$5790b2o390b2o5790b$3992b2o1796b2o390b2o5790b$3991b2o7981b$3993bo7980b$11974b$5813bo6160b$5812bo6161b$5812b3o441b2o5716b$6257b2o5715b$6256bo5717b$5958b2o54b2o149bo1794b2o4012b$12bo5945b2o54b2o150bo1794b2o3998bo12b$11bobo5707b2o441b3o1793bo3999bobo11b$11bobo5706b2o6238bobo11b$12bo5709bo6238bo12b$4017b2o7955b$4016b2o7956b$1438bo2579bo7955b$1437b2o4343b2o114b2o174b2o114b2o5782b$1437bobo4342b2o114b2o174b2o114b2o5782b$11974b$11974b$10530bo1443b$10530b2o1442b$10529bobo1442b$19b3o7903b2o4025b3o19b$7926b2o4046b$7925bo4048b$11974b$11974b$4052b2o7920b$4051b2o1737b2o390b2o5790b$4053bo1736b2o390b2o5790b$11974b$11974b$11974b$6196b2o5776b$6197b2o5775b$6196bo5777b$7900b2o4072b$7901b2o4071b$5781b2o175b2o54b2o1884bo4073b$12bo5767b2o176b2o54b2o5945bo12b$11bobo5768bo6177bobo11b$11bobo4063b2o7881bobo11b$12bo4063b2o7883bo12b$1498bo2579bo7895b$1497b2o10475b$1497bobo10474b$5782b2o114b2o174b2o114b2o5782b$5782b2o114b2o174b2o114b2o5782b$10470bo1503b$10470b2o1502b$10469bobo1502b$7865b2o4102b3o2b$7866b2o4101bo2bob$19b3o7843bo4086b3o14bo4b$11969bo3bo$11969bo3bo$4112b2o7855bo4b$4111b2o7857bobob$4113bo7860b$11974b$11974b$2b3o11969b$bo2bo6131b2o5836b$4bo6132b2o5835b$o3bo6131bo5837b$o3bo7835b2o4132b$4bo7836b2o4131b$bobo5837b2o1997bo4133b$5840b2o6132b$5842bo115b2o54b2o5958b$12bo4124b2o1022bo796b2o54b2o5945bo12b$11bobo4122b2o1024b2o6796bobo11b$11bobo1544bo2579bo1022b2o6797bobo11b$12bo1544b2o10402bo12b$1557bobo10414b$6807bo5166b$6805b2o5167b$5782b2o114b2o174b2o114b2o614b2o3602bo1563b$5782b2o114b2o174b2o114b2o4218b2o1562b$10409bobo1562b$7805b2o4167b$7806b2o4166b$7805bo4168b$11974b$19b3o11930b3o19b$4172b2o7800b$4171b2o7801b$4173bo7800b$11974b$11974b$11974b$6076b2o5896b$6077b2o5895b$6076bo5897b$7780b2o4192b$7781b2o4191b$5901b2o1877bo4193b$5900b2o6072b$5902bo6071b$4197b2o7775b$4196b2o1760b2o54b2o5958b$12bo1605bo2579bo1759b2o54b2o5945bo12b$11bobo1603b2o10341bobo11b$11bobo1603bobo10340bobo11b$12bo11948bo12b$11974b$10350bo1623b$10350b2o1622b$5782b2o114b2o174b2o114b2o4157bobo1622b$5782b2o114b2o174b2o114b2o1553b2o4227b$7746b2o4226b$7745bo4228b$11974b$11974b$4232b2o7740b$19b3o4209b2o7719b3o19b$4233bo7740b$11974b$11974b$11974b$6016b2o5956b$6017b2o5955b$6016bo5957b$7720b2o4252b$7721b2o4251b$5961b2o1757bo4253b$5960b2o6012b$5962bo6011b$4257b2o7715b$4256b2o7716b$1678bo2579bo7715b$1677b2o4279b2o54b2o5958b$12bo1664bobo4278b2o54b2o5945bo12b$11bobo11946bobo11b$11bobo11946bobo11b$12bo10277bo1670bo12b$10290b2o1682b$10289bobo1682b$7685b2o4287b$5782b2o114b2o174b2o114b2o1494b2o4286b$5782b2o114b2o174b2o114b2o1493bo4283b3o2b$11969bo2bob$11969bo4b$4292b2o7675bo3bo$4291b2o7676bo3bo$4293bo7675bo4b$19b3o11930b3o15bobob$11974b$11974b$5956b2o6016b$2b3o5952b2o6015b$bo2bo5951bo6017b$4bo7655b2o4312b$o3bo7656b2o4311b$o3bo6016b2o1637bo4313b$4bo6015b2o5952b$bobo6018bo5951b$4317b2o7655b$4316b2o7656b$1738bo2579bo7655b$1737b2o10235b$1737bobo3481bo6752b$5222b2o734b2o54b2o5958b$12bo5208b2o735b2o54b2o5945bo12b$11bobo10216bo1729bobo11b$11bobo10216b2o1728bobo11b$12bo6734bo3481bobo1729bo12b$6745b2o878b2o4347b$6746b2o878b2o4346b$7625bo4348b$5782b2o114b2o174b2o114b2o5782b$5782b2o114b2o174b2o114b2o5782b$4352b2o7620b$4351b2o7621b$4353bo7620b$11974b$11974b$19b3o11930b3o19b$5896b2o6076b$5897b2o6075b$5896bo6077b$7600b2o4372b$7601b2o4371b$6081b2o1517bo4373b$6080b2o5892b$6082bo5891b$4377b2o7595b$4376b2o7596b$1798bo2579bo7595b$1797b2o10175b$1797bobo10174b$11974b$11974b$5958b2o54b2o4154bo1803b$12bo5945b2o54b2o4154b2o1789bo12b$11bobo10155bobo1788bobo11b$11bobo7551b2o4393bobo11b$12bo7553b2o4393bo12b$7565bo4408b$11974b$6191b2o5781b$4412b2o1484b2o174b2o114bobo5781b$4411b2o1485b2o174b2o114bobo5781b$4413bo1775b2obob2o5778b$6190b6o5778b$5787b2o405bo2bo5776b$5786bo2b2o405bo5777b$5780bo5b2obo46b2o6136b$19b3o5758bo6bo3b2o44b2o342b3o5768b3o19b$5780bo55bo6137b$7540b2o4432b$7541b2o4431b$6141b2o1397bo4433b$6140b2o5832b$6142bo5831b$4437b2o1339b2o414b2o5778b$4436b2o1340b2o414b2o5778b$1858bo2579bo7535b$1857b2o10115b$1857bobo10114b$11974b$11974b$10110bo1863b$5782b2o406b2o3918b2o1862b$5782b2o174b2o54b2o174b2o3917bobo1862b$12bo5945b2o54b2o1489b2o4454bo12b$11bobo7492b2o4452bobo11b$11bobo7491bo4454bobo11b$12bo11948bo12b$6219bo5749b3o2b$4472b2o1746b2o5747bo2bob$4471b2o1746b2o5748bo4b$4473bo1424b2o174b2o5893bo3bo$5898b2o174b2o5893bo3bo$5749bo6219bo4b$5747b2o6221bobob$5748b2o26b2o12b2o390b2o5790b$5777b2o11b2o390b2o5790b$5776bo6197b$2b3o14b3o7458b2o4470b3o19b$bo2bo7476b2o4491b$4bo6196b2o1277bo4493b$o3bo6195b2o5772b$o3bo6197bo5771b$4bo4492b2o7475b$bobo4492b2o7476b$1918bo2579bo7475b$1917b2o10055b$1917bobo10054b$11974b$11974b$10050bo1923b$5281bo4768b2o1922b$5282b2o4765bobo1922b$5281b2o499b2o370bo35b2o1253b2o4527b$5782b2o174b2o54b2o138bobo33b2o1254b2o4526b$12bo5945b2o54b2o138b2o1289bo4515bo12b$11bobo6673bo5272bobo11b$11bobo6671b2o5273bobo11b$12bo4519b2o1290bo861b2o5273bo12b$4531b2o1289bobo6149b$4533bo1289b2o6149b$11974b$5898b2o174b2o5898b$5743b3o152b2o174b2o5898b$5743bo6230b$5744bo6229b$5790b2o390b2o5790b$5790b2o390b2o1236b2o4552b$6223b3o1195b2o4551b$19b3o6203bo1194bo4531b3o19b$6224bo5749b$11974b$4557b2o7415b$4556b2o7416b$1978bo2579bo7415b$1977b2o9995b$1977bobo9994b$11974b$11974b$9990bo1983b$9990b2o1982b$9989bobo1982b$7385b2o4587b$7386b2o4586b$5782b2o406b2o1193bo4588b$5782b2o174b2o54b2o174b2o5782b$12bo5945b2o54b2o5945bo12b$11bobo4578b2o7366bobo11b$11bobo4577b2o7367bobo11b$12bo4580bo7367bo12b$11974b$11974b$5803b3o6168b$5803bo94b2o174b2o5898b$5804bo93b2o174b2o5898b$11974b$7360b2o4612b$5790b2o371b3o16b2o1177b2o4611b$5790b2o373bo16b2o1176bo4613b$6164bo5809b$19b3o11930b3o19b$4617b2o7355b$4616b2o7356b$2038bo2579bo7355b$2037b2o9935b$2037bobo9934b$11974b$11974b$9930bo2043b$9930b2o2042b$9929bobo2042b$7325b2o4647b$7326b2o4646b$7325bo4648b$11974b$5782b2o106b3o297b2o5782b$4652b2o1128b2o106b3o65b2o54b2o174b2o5782b$12bo4638b2o1237bo2bo64b2o54b2o5945bo7b3o2b$11bobo4639bo1237b3o6066bobo6bo2bob$11bobo5877b2o6067bobo6bo4b$12bo11948bo7bo3bo$5863b3o6103bo3bo$5863bo6105bo4b$5864bo217bo5887bobob$6081b3o5890b$6080b2o2bo1215b2o4672b$6082b3o18b3o1195b2o4671b$2b3o5895b2o170b2o31bo1194bo4673b$bo2bo5785b2o98b2o8b2o170b2o30bo77b2o5790b$4bo5785b2o98b2o290b2o5790b$o3bo4672b2o7295b$o3bo14b3o4654b2o7274b3o19b$4bo2093bo2579bo1395bo5899b$bobo2093b2o3973b2o5900b$2097bobo3801b3o169b2o5899b$5900bo3bo6069b$5899bo3b2o6069b$5899bo4bo3965bo2103b$5899bo3bo166b2o3798b2o2102b$6070b2o3797bobo2102b$5901b2o1362b2o4707b$7266b2o4706b$5341bo1923bo4708b$5342b2o6630b$5341b2o751bo5879b$4712b2o1301bobo76bobo5877b$4711b2o1069b2o114b2o113b2o2b2o55b2o18b2o94b2o5782b$4713bo1068b2o114b2o112bo3bob2o54b2o114b2o435bo5346b$12bo5998bo3b2ob2o605b2o5334bo12b$11bobo5870bo126bo614b2o5332bobo11b$11bobo5868bobo38b3o39bo46b2o2bo2bo5940bobo11b$12bo5870b2o38bo41bo46b2o5bo5941bo12b$5924bo36bo53b3o5956b$5956bo3b3o52b3o5956b$5956bo3bo3bo40b3o1232b2o4732b$5956bo5bobo78b3o1195b2o4731b$5962b3o80bo1194bo4733b$6044bo5929b$11974b$4737b2o1051b2o98b2o190b2o98b2o5790b$4736b2o1052b2o98b2o190b2o98b2o5790b$2158bo2579bo1215b2o62b2o5954b$19b3o2135b2o3795b2o62b2o5932b3o19b$2157bobo9814b$11974b$11974b$9810bo2163b$9810b2o2162b$9809bobo2162b$5958b2o54b2o1189b2o4767b$5958b2o54b2o1190b2o4766b$7205bo4768b$11974b$11974b$4772b2o7200b$4771b2o7201b$4773bo7200b$5782b2o114b2o174b2o114b2o5782b$5782b2o114b2o174b2o114b2o5782b$12bo11948bo12b$11bobo11946bobo11b$11bobo11946bobo11b$12bo5953b2o38b2o5953bo12b$5966b2o38b2o1172b2o4792b$7181b2o4791b$7180bo4793b$11974b$11974b$4797b2o7175b$4796b2o7176b$2218bo2579bo991b2o390b2o5790b$2217b2o3571b2o390b2o5790b$2217bobo9754b$19b3o11930b3o19b$11974b$9750bo2223b$9750b2o2222b$6130bo3618bobo2222b$6131b2o1012b2o4827b$6130b2o1014b2o4826b$5958b2o54b2o1129bo4828b$5958b2o17bo36b2o5958b$5838bo137bo5997b$4832b2o1002b2o138b3o5995b$4831b2o1004b2o6135b$4833bo7140b$6001bo5967b3o2b$6002bo5966bo2bob$5782b2o114b2o100b3o71b2o114b2o5777bo4b$5782b2o114b2o174b2o114b2o5777bo3bo$12bo11948bo7bo3bo$11bobo11946bobo6bo4b$11bobo7106b2o4838bobo7bobob$12bo5953b2o38b2o1113b2o4838bo12b$5966b2o38b2o1112bo4853b$11974b$2b3o11969b$bo2bo4852b2o7115b$4bo4851b2o7116b$o3bo2273bo2579bo7115b$o3bo2272b2o9695b$4bo2272bobo3510b2o390b2o5790b$bobo5786b2o390b2o5790b$11974b$19b3o9668bo2261b3o19b$9690b2o2282b$9689bobo2282b$7085b2o4887b$7086b2o4886b$7085bo4888b$11974b$5958b2o54b2o5958b$4892b2o1064b2o54b2o5958b$4891b2o508bo6572b$4893bo508b2o6570b$5401b2o6571b$11974b$11974b$6567bo5406b$5782b2o114b2o174b2o114b2o373b2o5407b$5782b2o114b2o174b2o114b2o374b2o5406b$12bo7047b2o4899bo12b$11bobo7047b2o4897bobo11b$11bobo7046bo4899bobo11b$12bo11948bo12b$11974b$4917b2o7055b$4916b2o7056b$2338bo2579bo7055b$2337b2o9635b$2337bobo9634b$11974b$5790b2o390b2o5790b$5790b2o390b2o3446bo2343b$9630b2o2342b$19b3o9607bobo2320b3o19b$7025b2o4947b$7026b2o4946b$7025bo4948b$11974b$11974b$4952b2o7020b$4951b2o1005b2o54b2o5958b$4953bo1004b2o54b2o5958b$11974b$11974b$11974b$11974b$11974b$11974b$5782b2o114b2o174b2o114b2o808b2o4972b$5782b2o114b2o174b2o114b2o809b2o4971b$12bo6987bo4960bo12b$11bobo11946bobo11b$11bobo11946bobo11b$12bo4964b2o6982bo12b$4976b2o6996b$2398bo2579bo6995b$2397b2o9575b$2397bobo9574b$11974b$11974b$9570bo2403b$9570b2o2402b$9569bobo2402b$6965b2o5007b$19b3o6944b2o4984b3o19b$6965bo5008b$11974b$11974b$5012b2o6960b$5011b2o6961b$5013bo6960b$5958b2o54b2o5958b$5958b2o54b2o5958b$11969b3o2b$11969bo2bob$11969bo4b$11969bo3bo$6940b2o5027bo3bo$6941b2o5026bo4b$5782b2o114b2o174b2o114b2o748bo5029bobob$5782b2o114b2o174b2o114b2o5782b$12bo11948bo12b$11bobo5023b2o6921bobo11b$2b3o6bobo5022b2o6922bobo11b$bo2bo7bo2445bo2579bo6922bo12b$4bo2452b2o9515b$o3bo2452bobo9514b$o3bo11969b$4bo11969b$bobo9506bo2463b$9510b2o2462b$9509bobo2462b$6905b2o5067b$6906b2o5066b$6905bo5068b$19b3o11930b3o19b$11974b$5072b2o6900b$5071b2o6901b$5073bo6900b$11974b$11974b$5461bo496b2o54b2o5958b$5462b2o494b2o54b2o5958b$5461b2o6511b$11974b$6880b2o5092b$6507bo373b2o5091b$6505b2o373bo5093b$6506b2o5466b$5782b2o114b2o174b2o114b2o5782b$5097b2o683b2o114b2o174b2o114b2o5782b$12bo5083b2o6863bo12b$11bobo2504bo2579bo6861bobo11b$11bobo2503b2o9441bobo11b$12bo2504bobo9441bo12b$11974b$11974b$9450bo2523b$9450b2o2522b$9449bobo2522b$6845b2o5127b$6846b2o5126b$6845bo5128b$11974b$11974b$19b3o5110b2o6818b3o19b$5131b2o6841b$5133bo6840b$11974b$11974b$11974b$11974b$5958b2o54b2o5958b$5958b2o54b2o5958b$6820b2o5152b$6821b2o5151b$6820bo5153b$11974b$11974b$5157b2o6815b$5156b2o624b2o114b2o174b2o114b2o5782b$2578bo2579bo623b2o114b2o174b2o114b2o5782b$12bo2564b2o9382bo12b$11bobo2563bobo9380bobo11b$11bobo11946bobo11b$12bo11948bo12b$9390bo2583b$9390b2o2582b$9389bobo2582b$6785b2o5187b$6786b2o5186b$6785bo5188b$11974b$11974b$5192b2o6780b$5191b2o6781b$19b3o5171bo6758b3o19b$11974b$11974b$11974b$11974b$11969b3o2b$11969bo2bob$5958b2o54b2o744b2o5207bo4b$5958b2o54b2o745b2o5206bo3bo$6760bo5208bo3bo$11969bo4b$11970bobob$5217b2o973b3o5779b$5216b2o971bo2bobo5779b$2638bo2579bo563b2o404b2obo5782b$2b3o2632b2o3145bo113b2o174b2o111b2o4bobo5778b$bo2bo2632bobo3144bo113b2o174b2o111b2o2b3ob2o5777b$4bo7bo6173b2o2bo3b3o5764bo12b$o3bo6bobo5766b2ob2o401b2obob2o2bo5764bobo11b$o3bo6bobo5765b2ob2o404bo5bo3135bo2629bobo11b$4bo7bo5766bo2bo3bo403b2o3138b2o2629bo12b$bobo5775bob3o2b2o394bo8b3o3135bobo2642b$5778b2o4bo2b2o393bo8b3o531b2o5247b$5779b3obob3o394bo543b2o5246b$5780b2ob4o938bo5248b$5782b2o6190b$11974b$5252b2o6720b$5251b2o6721b$5253bo524b2o414b2o5778b$5778b2o414b2o5778b$19b3o11930b3o19b$11974b$11974b$11974b$11974b$5521bo1178b2o5272b$5522b2o258b2o406b2o509b2o5271b$5521b2o259b2o174b2o54b2o174b2o508bo5273b$5958b2o54b2o5958b$5756bo6217b$5277b2o476bo691bo5526b$5276b2o477b3o687b2o5527b$2698bo2579bo1167b2o5526b$2697b2o9275b$2697bobo3522bo5751b$5898b2o174b2o147bo5750b$5898b2o174b2o145b3o5750b$12bo9257bo2690bo12b$11bobo9256b2o2688bobo11b$11bobo5776b2o390b2o3085bobo2688bobo11b$12bo5777b2o390b2o481b2o5294bo12b$6666b2o5306b$6665bo5308b$11974b$11974b$5312b2o6660b$5311b2o6661b$5313bo6660b$11974b$11974b$11974b$19b3o11930b3o19b$11974b$11974b$5815bo824b2o5332b$5816b2o823b2o5331b$5815b2o823bo5333b$5782b2o406b2o5782b$5782b2o174b2o54b2o174b2o5782b$5337b2o619b2o54b2o137bo5820b$5336b2o813b2o5821b$2758bo2579bo742b3o68b2o5820b$2757b2o3321bo2bo5890b$2757bobo3320b2o5892b$11974b$6082bo2bo5888b$5892bo190b2o3125bo2763b$5891bo188b2o3128b2o2762b$12bo5877bo2bo186b3o3126bobo2749bo12b$11bobo5875b2o9b2o170b2o7bo523b2o5353bobo11b$11bobo5776b2o97bo10b2o170b2o7bo2bo97b2o422b2o5352bobo11b$12bo5777b2o97bo3bo3bo184b2o98b2o421bo5355bo12b$5890b3o5bo6075b$5896b3o6075b$5372b2o6600b$5371b2o6601b$5373bo697bo5902b$6070bobo5901b$6070b2o5902b$6071bo5902b$5902b2o167bo5902b$5902b2o167bo5902b$19b3o11930b3o19b$6580b2o5387b3o2b$6581b2o5386bo2bob$6018bo561bo5388bo4b$6019bo5949bo3bo$6017bo2bo5948bo3bo$5397b2o383b2o114b2o174b2o114b2o5777bo4b$5396b2o384b2o114b2o174b2o114b2o5778bobob$2818bo2579bo558bobo52b2o5bo5954b$2817b2o3136b2obob2o49b3o5960b$2817bobo3134bo3bo52b2o3bo5957b$2b3o5949bo3bo51b2o5b2o5955b$bo2bo5949bo2bo6bo46b2o4bo5956b$4bo5950bo2bo5b2o40bo7b2o3134bo2823b$o3bo5952b3o3bo2bo39bo10b2o3131b2o2822b$o3bo5950bo4bo3b2o40bo3142bobo2822b$4bo5950b2o3bo3bo580b2o5427b$bobo8bo5943bob2o586b2o5413bo12b$11bobo6531bo5414bobo11b$11bobo5776b2o98b2o190b2o98b2o5776bobo11b$12bo5777b2o98b2o190b2o98b2o5777bo12b$5432b2o520b2o62b2o5954b$5431b2o521b2o62b2o5954b$5433bo6540b$11974b$11974b$11974b$11974b$11974b$5958b2o54b2o5958b$5958b2o54b2o504b2o5452b$19b3o6499b2o5429b3o19b$6520bo5453b$11974b$5581bo6392b$5457b2o123b2o6390b$5456b2o123b2o6391b$2878bo2579bo323b2o114b2o174b2o114b2o5782b$2877b2o2817bo85b2o114b2o174b2o114b2o5782b$2877bobo2815bo691bo5586b$5695b3o687b2o5587b$6386b2o5586b$5966b2o38b2o3082bo2883b$5966b2o38b2o274bo2807b2o2882b$6283bo2805bobo2882b$6281b3o201b2o5487b$6486b2o5486b$6485bo5488b$12bo11948bo12b$11bobo11946bobo11b$11bobo5478b2o296b2o98b2o190b2o98b2o5776bobo11b$12bo5478b2o297b2o98b2o190b2o98b2o5777bo12b$5493bo6480b$11974b$5845bo6128b$5844bo6129b$5844b3o6127b$11974b$5992bo5981b$5993b2o138bo326b2o5512b$5958b2o32b2o20b2o118bo326b2o5511b$5958b2o54b2o116b3o325bo5513b$19b3o11930b3o19b$5875bo100bo5997b$5517b2o357b2o96b2o5998b$5516b2o357b2o98b2o5997b$2938bo2579bo6455b$2937b2o9035b$2937bobo2842b2o114b2o174b2o17bo96b2o5782b$5782b2o114b2o174b2o15b2o97b2o5782b$6092b2o5880b$9030bo2943b$9030b2o2942b$5966b2o38b2o3021bobo2942b$5966b2o38b2o417b2o5547b$6426b2o5546b$6425bo5548b$11974b$11974b$12bo5539b2o6407bo12b$11bobo5537b2o6407bobo11b$11bobo5539bo236b2o98b2o190b2o98b2o5776bobo11b$12bo5777b2o98b2o190b2o98b2o5777bo12b$11974b$11974b$11974b$11974b$11974b$6400b2o5572b$6401b2o5571b$6400bo5568b3o2b$5958b2o54b2o5953bo2bob$5958b2o54b2o5953bo4b$19b3o5555b2o6373b3o14bo3bo$5576b2o6391bo3bo$2998bo2579bo6390bo4b$2997b2o8971bobob$2997bobo8974b$11974b$5782b2o114b2o174b2o114b2o5782b$2b3o5777b2o114b2o174b2o114b2o2778bo3003b$bo2bo8965b2o3002b$4bo8964bobo3002b$o3bo6360b2o5607b$o3bo6361b2o5606b$4bo6360bo5608b$bobo11970b$11974b$5612b2o6360b$5611b2o6361b$12bo5600bo6347bo12b$11bobo11946bobo11b$11bobo5776b2o390b2o5776bobo11b$12bo5777b2o390b2o5777bo12b$11974b$11974b$11974b$6340b2o5632b$6341b2o5631b$6340bo5633b$11974b$11974b$5637b2o319b2o54b2o5958b$5636b2o320b2o54b2o5958b$19b3o3036bo2579bo6313b3o19b$3057b2o8915b$3057bobo8914b$11974b$11974b$8910bo3063b$5782b2o114b2o174b2o114b2o2718b2o3062b$5782b2o114b2o174b2o114b2o2717bobo3062b$6305b2o5667b$6306b2o5666b$6305bo5668b$11974b$5792b2o6180b$5672b2o6300b$5671b2o6301b$5673bo6300b$11974b$12bo11948bo12b$11bobo11946bobo11b$11bobo11946bobo11b$12bo11948bo12b$11974b$11974b$11974b$11974b$11974b$11974b$11974b$11974b$3118bo2839b2o54b2o5958b$3117b2o2839b2o54b2o5958b$19b3o3095bobo8832b3o19b$11974b$11974b$8850bo3123b$8850b2o3122b$8849bobo3122b$5782b2o114b2o174b2o114b2o53b2o5727b$5782b2o114b2o174b2o114b2o54b2o5726b$6245bo5728b$11974b$11974b$5732b2o6240b$5731b2o6241b$5733bo6240b$11974b$11974b$11974b$12bo11948bo12b$11bobo11946bobo11b$11bobo11946bobo11b$12bo11948bo12b$11974b$11974b$11974b$11969b3o2b$11969bo2bob$11969bo4b$3178bo8790bo3bo$3177b2o8790bo3bo$3177bobo2778b2o54b2o5953bo4b$5958b2o54b2o5954bobob$19b3o11930b3o19b$8790bo3183b$8790b2o3182b$2b3o8784bobo3182b$bo2bo6180b2o5787b$4bo6181b2o5786b$o3bo5777b2o114b2o174b2o109bo4b2o5782b$o3bo5777b2o114b2o174b2o114b2o5782b$4bo11969b$bobo5788b2o6180b$5791b2o6181b$5793bo6180b$11974b$11974b$11974b$11974b$11974b$12bo11948bo12b$11bobo11946bobo11b$11bobo11946bobo11b$12bo11948bo12b$11974b$11974b$11974b$11974b$3238bo8735b$3237b2o8735b$3237bobo8734b$11974b$5958b2o54b2o5958b$5958b2o54b2o2714bo3243b$19b3o8708b2o3220b3o19b$8729bobo3242b$6125b2o5847b$6126b2o5846b$6125bo5848b$11974b$5782b2o114b2o174b2o114b2o5782b$5782b2o68b2o44b2o174b2o114b2o5782b$5851b2o6121b$5853bo6120b$11974b$11974b$11974b$11974b$11974b$11974b$11974b$12bo11948bo12b$11bobo11946bobo11b$11bobo11946bobo11b$12bo11948bo12b$11974b$11974b$3298bo8675b$3297b2o8675b$3297bobo8674b$11974b$11974b$8670bo3303b$5958b2o54b2o2654b2o3302b$5958b2o54b2o2653bobo3302b$19b3o6043b2o5885b3o19b$6066b2o5906b$6065bo5908b$11974b$11974b$5912b2o6060b$5782b2o114b2o11b2o161b2o114b2o5782b$5782b2o114b2o13bo160b2o114b2o5782b$11974b$11974b$11974b$11974b$11974b$11974b$11974b$11974b$11974b$12bo11948bo12b$11bobo11946bobo11b$11bobo11946bobo11b$12bo11948bo7b3o2b$3358bo8610bo2bob$3357b2o8610bo4b$3357bobo8609bo3bo$11969bo3bo$11969bo4b$8610bo3359bobob$8610b2o3362b$8609bobo3362b$5958b2o45b2o7b2o5958b$2b3o5953b2o46b2o6b2o5958b$bo2bo14b3o5983bo5946b3o19b$4bo11969b$o3bo11969b$o3bo5967b2o6000b$4bo5966b2o6001b$bobo5969bo6000b$5782b2o114b2o174b2o114b2o5782b$5782b2o114b2o174b2o114b2o5782b$11974b$11974b$11974b$11974b$11974b$11974b$11974b$11974b$11974b$12bo11948bo12b$11bobo11946bobo11b$11bobo3404bo8541bobo11b$12bo3404b2o8542bo12b$3417bobo8554b$11974b$11974b$8550bo3423b$8550b2o3422b$8549bobo3422b$5945b2o6027b$5946b2o6026b$5945bo12b2o54b2o5958b$5958b2o54b2o5958b$19b3o11930b3o19b$6032b2o5940b$6031b2o5941b$6033bo5940b$11974b$11974b$5782b2o114b2o174b2o114b2o5782b$5782b2o114b2o174b2o114b2o5782b$11974b$11974b$11974b$11974b$11974b$11974b$11974b$11974b$11974b$12bo3465bo8482bo12b$11bobo3463b2o8481bobo11b$11bobo3463bobo8480bobo11b$12bo11948bo12b$11974b$8490bo3483b$8490b2o3482b$8489bobo3482b$5885b2o6087b$5886b2o6086b$5885bo6088b$11974b$5958b2o54b2o5958b$5958b2o54b2o76b2o5880b$19b3o6069b2o5859b3o19b$6093bo5880b$11940bo33b$11940b2o32b$11939bobo32b$11974b$5898b2o174b2o114b2o5782b$38bo5745bo113b2o174b2o114b2o5782b$37b2o5741b5o4b2o6183b$37bobo5742b2o5bobo6182b$6191b2o5781b$5779bo2b2ob4o401bo4b3o5776b$5780b2o3b4o2bo394bo3bobo4b2o5775b$5786bo398b3o3b2o2bo3bo5774b$6183b2o2bo9b2o5775b$3538bo2639bo4b3o5788b$16b2o3519b2o2258bo2bo371b3o3bobo5bo13b2o5754b2o11b3o2b$15bo2bo3518bobo2257bo3bo376bob2ob4o12bo2bo5752bo2bo10bo2bob$11b2o2bo2bo5779bobo386bo11bobo5753bo2bo2b2o6bo4b$11b2o3b2o5759b2o20bo383b2ob2o9bo2b2o5754b2o3b2o6bo3bo$5768b2o7b2o403b2o2bo8b3o2b2o2228bo3538bo3bo$5770bo6bobo403b3o9bo2234b2o3537bo4b$5770b2obo3bo2bo403bo10bobo2231bobo3538bobob$5773b2o50b2o369b2o10bo5765b$5772b2o2bo49b2o381b2o5763b$5776bobo46bo382b2o5764b$2b3o5772bo6196b$bo2bo11969b$4bo5755bo21b2o368b2o36b2o5782b$o3bo5753b2o22b2o174b2o54b2o135b2o37b2o5782b$o3bo5754b2o197b2o54b2o137bo5820b$4bo14b3o11858bo71b3o19b$bobo11876b2o92b$11879bobo92b$11974b$11974b$98bo11875b$97b2o5799b2o174b2o5898b$97bobo5798b2o174b2o5898b$11974b$11974b$5790b2o390b2o5790b$5790b2o390b2o5790b$11974b$3598bo8375b$3597b2o8375b$3597bobo8374b$16b2o11938b2o16b$15bo2bo6146bo5789bo2bo15b$11b2o2bo2bo6146bobo2202bo3584bo2bo2b2o11b$11b2o3b2o6147b2o2203b2o3584b2o3b2o11b$8369bobo3602b$5765b2o6207b$5766b2o45bo6160b$5765bo45bobo6160b$5812b2o6160b$11974b$6212b2o5760b$6211b2o5761b$5782b2o406b2o21bo5760b$5782b2o174b2o54b2o174b2o5628bo153b$5958b2o54b2o5804b2o152b$19b3o11797bobo130b3o19b$11974b$11974b$158bo11815b$157b2o11815b$157bobo11814b$5898b2o174b2o5898b$5898b2o174b2o5898b$11974b$11974b$5790b2o390b2o5790b$3658bo2131b2o390b2o5790b$3657b2o8315b$3657bobo8314b$11974b$11974b$16b2o8292bo3645b2o16b$15bo2bo8291b2o3643bo2bo15b$11b2o2bo2bo5735b3o2552bobo3643bo2bo2b2o11b$11b2o3b2o5736bo6201b2o3b2o11b$5755bo6218b$11974b$11974b$6212b3o5759b$6214bo5759b$6213bo5760b$11974b$11760bo213b$5782b2o406b2o5568b2o212b$5782b2o174b2o54b2o174b2o5567bobo212b$5958b2o54b2o5958b$19b3o11930b3o19b$218bo11755b$217b2o11755b$217bobo11754b$11974b$11974b$5898b2o174b2o5898b$5898b2o174b2o5898b$11974b$3718bo8255b$3717b2o2071b2o390b2o5790b$3717bobo2070b2o390b2o5790b$11969b3o2b$11969bo2bob$8250bo3718bo4b$8250b2o3717bo3bo$16b2o5796b3o2432bobo3704b2o11bo3bo$15bo2bo5795bo6140bo2bo10bo4b$11b2o2bo2bo5796bo6139bo2bo2b2o7bobob$11b2o3b2o11938b2o3b2o11b$11974b$6152b3o5819b$2b3o6149bo5819b$bo2bo6148bo5820b$4bo11969b$o3bo11695bo273b$o3bo11695b2o272b$4bo11694bobo272b$bobo5778b2o406b2o5782b$5782b2o174b2o54b2o174b2o5782b$278bo5679b2o54b2o5958b$19b3o255b2o11673b3o19b$277bobo11694b$11974b$11974b$11974b$5892b3o6079b$11974b$3778bo2113bo183b3o5895b$3777b2o2112b4o181b3o5895b$3777bobo2110b5o5b2o172b2o5898b$5790b2o98b2o3bo4b2o170b2o4bo103b2o5790b$5790b2o100b3o184bo102b2o5790b$6071bo9bo2108bo3783b$6071bo2bobo3bobo2107b2o3782b$5874b3o206bo2105bobo3782b$5874bo201bo6bo21bo5868b$16b2o5857bo200bo28bobo5848b2o16b$15bo2bo6059bo3bo22b2o5848bo2bo15b$11b2o2bo2bo6060b2o5874bo2bo2b2o11b$11b2o3b2o5871b2o201b3o5861b2o3b2o11b$5873bo16bobo9b2o166b2o22bo5879b$5871bobo17bo10b2o166b2o21bo5880b$5872b2o6100b$11640bo333b$11640b2o332b$11639bobo332b$11974b$11974b$338bo5443b2o114b2o59bo114b2o114b2o5782b$337b2o5443b2o114b2o57b4o53b2o58b2o114b2o5782b$337bobo5617bo7bo48b2o5958b$19b3o5934b3o3bo3bo48b3o5934b3o19b$5955b4o3b5o48bo5958b$5954bo3bo6bo43bob2obo5bo5953b$5958bobo2b3o42b2o3b2o6bo5952b$5955b2obobobo44b2o10bobo5952b$3838bo2118bo3bo48b2o2bo5bo5953b$3837b2o2163bo5b2o5b3o5956b$3837bobo2161b3o6bo2bo5960b$5974b3o19b3o2bo11bo5960b$5975bo26b2o20b2o5948b$5790b2o98b2o83bo28bo7b2o6b2ob2obo55b2o98b2o1946bo3843b$5790b2o98b2o82b3o34b2o6b2ob2o2b2o54b2o98b2o1946b2o3842b$5934b3o17b2o49bo2bo8bobo6bo9bo2092bobo3842b$5934bo14bo2bo2bo50bobo7b2ob2ob4o9bo5938b$5935bo13bo3bo63b2o5bo10b3o5936b$5950b4o53b2o9bobob2o5950b$16b2o5932bo6005b2o16b$15bo2bo5931bo82bobo5919bo2bo15b$11b2o2bo2bo5932bo82b2o5919bo2bo2b2o11b$11b2o3b2o5933b2o81bo5921b2o3b2o11b$5958b2o54b2o5958b$5958b2o54b2o5564bo393b$11580b2o392b$11579bobo392b$11974b$11974b$398bo11575b$397b2o11575b$397bobo5382b2o114b2o174b2o114b2o5782b$5782b2o114b2o174b2o114b2o5782b$11974b$19b3o11930b3o19b$11974b$5966b2o38b2o5966b$3898bo2067b2o38b2o5966b$3897b2o8075b$3897bobo8074b$6119bo5854b$6120b2o5852b$6119b2o1949bo3898b3o2b$8070b2o3897bo2bob$5790b2o196bo193b2o1885bobo3897bo4b$5790b2o57bo137bo194b2o5785bo3bo$5847b2o138b3o5979bo3bo$5848b2o6119bo4b$11970bobob$5990bo5983b$16b2o5973bo5964b2o16b$15bo2bo5970b3o5963bo2bo15b$2b3o6b2o2bo2bo11936bo2bo2b2o11b$bo2bo6b2o3b2o11502bo435b2o3b2o11b$4bo5953b2o54b2o5504b2o452b$o3bo5953b2o54b2o5503bobo452b$o3bo11969b$4bo11969b$bobo454bo11515b$457b2o11515b$457bobo11514b$11974b$5782b2o114b2o174b2o114b2o5782b$5782b2o114b2o174b2o114b2o5782b$11974b$19b3o11930b3o19b$3958bo8015b$3957b2o2007b2o38b2o5966b$3957bobo2006b2o38b2o5966b$11974b$11974b$8010bo3963b$8010b2o3962b$8009bobo3962b$11974b$5790b2o390b2o5790b$5790b2o390b2o5790b$11974b$11974b$11974b$11974b$16b2o11938b2o16b$15bo2bo11441bo494bo2bo15b$11b2o2bo2bo11441b2o493bo2bo2b2o11b$11b2o3b2o11441bobo494b2o3b2o11b$5958b2o54b2o5958b$5958b2o54b2o5958b$518bo11455b$517b2o11455b$517bobo11454b$11974b$11974b$11974b$5782b2o114b2o174b2o114b2o5782b$5782b2o114b2o174b2o114b2o5782b$4018bo7955b$19b3o3995b2o7933b3o19b$4017bobo7954b$11974b$11974b$7950bo4023b$7950b2o4022b$7949bobo4022b$11974b$11974b$11974b$5790b2o390b2o5790b$5790b2o390b2o5790b$11974b$11974b$11974b$11400bo573b$16b2o11382b2o554b2o16b$15bo2bo11380bobo553bo2bo15b$11b2o2bo2bo11936bo2bo2b2o11b$11b2o3b2o11938b2o3b2o11b$578bo5379b2o54b2o5958b$577b2o5379b2o54b2o5958b$577bobo11394b$11974b$11974b$11974b$11974b$11974b$4078bo1703b2o114b2o174b2o114b2o5782b$4077b2o1703b2o114b2o174b2o114b2o5782b$4077bobo7894b$19b3o11930b3o19b$11974b$7890bo4083b$7890b2o4082b$6179bo1709bobo4077b3o2b$6180b2o5787bo2bob$5790b3o386b2o5788bo4b$5789bo3bo6175bo3bo$5789b2o3bo6174bo3bo$5789bo4bo6174bo4b$5790bo3bo387b2o5786bobob$6182b2o5790b$5791b2o6181b$11340bo633b$2b3o11335b2o632b$bo2bo11334bobo632b$4bo11b2o5767b3o6168b2o16b$o3bo10bo2bo5765bo2bo6167bo2bo15b$o3bo6b2o2bo2bo619bo5145bo2bo6167bo2bo2b2o11b$4bo6b2o3b2o619b2o5146b4o6167b2o3b2o11b$bobo633bobo5147b2o169b2o54b2o166b3o5789b$5789bo168b2o54b2o167bo5790b$5788bo394b3o5788b$5788bo6185b$11974b$11974b$4138bo7835b$4137b2o7835b$4137bobo1758b2o174b2o5898b$5898b2o174b2o5898b$11974b$19b3o6170b2o1636bo4121b3o19b$5790b2o390b2o8b2o1636b2o4142b$5790b2o390b2o1645bobo4142b$11974b$11974b$11974b$11974b$5784b2o408bo5779b$5783b2o408bobo5778b$5785bo406bo3bo5777b$6192bo3bo5777b$6192bo5087bo693b$6183b2o8b3o5084b2o692b$6184b2o5093bobo692b$6183bo5790b$11974b$16b2o680bo11257b2o16b$15bo2bo678b2o11256bo2bo15b$11b2o2bo2bo678bobo11255bo2bo2b2o11b$11b2o3b2o5764b2o406b2o5764b2o3b2o11b$5782b2o174b2o54b2o174b2o5782b$5958b2o54b2o5958b$11974b$11974b$4198bo7775b$4197b2o7775b$4197bobo7774b$11974b$5898b2o174b2o5898b$5898b2o174b2o1694bo4203b$7770b2o4202b$19b3o7747bobo4180b3o19b$5790b2o390b2o5790b$5790b2o390b2o5790b$5896bo6077b$5894b2o2b2o174bo5899b$5844b2o53b2o172bobo5898b$5843b2o51bo3bo3b2ob2o167bo5897b$5845bo50b4o4bo2bo168b2o8bo5887b$5882b3o4b2o3bo9bob2o158b4o6b2o5896b$5888b2ob2obo12bo158bo3bo19b2o5128bo753b$5883bo8bobo2bo7b2o5bo153b2o2bo10b2o7b3o30b2o5095b2o752b$5883bobobo4bo4bo7bo7b2o153bo2bo2bob3o2b2o7b2o32b2o5093bobo752b$5882bo8bo20b2o155b3o2bob3o11bo32bo5850b$5882bo4b3o179b3o2bo5899b$758bo5122bo4bobo6085b$757b2o5122bo3bo6088b$16b2o739bobo5121b4o6071b2o16b$15bo2bo11936bo2bo15b$11b2o2bo2bo11936bo2bo2b2o11b$11b2o3b2o5764b2o114b2o174b2o114b2o5764b2o3b2o11b$5782b2o114b2o58b2o54b2o58b2o114b2o5782b$5958b2o54b2o5958b$4258bo7715b$4257b2o7715b$4257bobo7714b$11974b$11974b$7710bo4263b$7710b2o4262b$7709bobo4262b$6091bo5882b$19b3o6067bobo5860b3o14b3o2b$5790b2o98b2o190b2o6b2o90b2o5785bo2bob$5790b2o98b2o190b2o98b2o5785bo4b$5904b2o6063bo3bo$5877bo25b2o6064bo3bo$5877bobo25bo6063bo4b$5877b2o6091bobob$11160bo813b$6063b2o5095b2o812b$5966bo97b2o5093bobo812b$2b3o5960b3o95bo5910b$bo2bo5959b4o6006b$4bo813bo11155b$o3bo812b2o5310bobo5842b$o3bo812bobo5144b4o161b2o5843b$4bo5959b4o162bo5843b$bobo12b2o5947bo5990b2o16b$15bo2bo5988bo5947bo2bo15b$11b2o2bo2bo5828bobo156b3o5946bo2bo2b2o11b$11b2o3b2o5764b2o64b2o48b2o105bo2b2o64b2o114b2o5764b2o3b2o11b$4318bo1463b2o64bo49b2o105bo3bo64b2o114b2o5782b$4317b2o1688bobo5964b$4317bobo7654b$5956b2o46b2ob2o7b2o5956b$5956b2o8b2o38bo9b2o5956b$5966b2o1682bo4323b$7650b2o4322b$7649bobo4322b$5954b3o6017b$5953bo3bo58bo5957b$5953b2ob2o59b2o5955b$19b3o5930bob2ob2o57b2o5934b3o19b$5790b2o98b2o59b2o5b2o122b2o98b2o5790b$5790b2o98b2o59b2obo3b2o122b2o98b2o5790b$5953bo64b2o5954b$6018b2o5954b$11100bo873b$11100b2o872b$11099bobo872b$11974b$11974b$878bo11095b$877b2o5079b2o54b2o5958b$877bobo5078b2o54b2o5958b$11974b$11974b$11974b$16b2o11938b2o16b$15bo2bo11936bo2bo15b$11b2o2bo2bo4359bo7576bo2bo2b2o11b$11b2o3b2o4359b2o1403b2o114b2o174b2o114b2o5764b2o3b2o11b$4377bobo1402b2o114b2o174b2o114b2o5782b$11974b$11974b$7590bo4383b$5966b2o38b2o1582b2o4382b$5966b2o38b2o1581bobo4382b$11974b$11974b$11974b$11974b$11974b$19b3o11930b3o19b$5790b2o98b2o190b2o98b2o5790b$5790b2o98b2o190b2o98b2o5790b$11040bo933b$11040b2o932b$11039bobo932b$11974b$11974b$938bo11035b$937b2o11035b$937bobo11034b$5958b2o54b2o5958b$5958b2o54b2o5958b$11974b$11974b$11974b$16b2o4420bo7517b2o16b$15bo2bo4418b2o7516bo2bo15b$11b2o2bo2bo4418bobo7515bo2bo2b2o11b$11b2o3b2o5764b2o114b2o174b2o114b2o5764b2o3b2o11b$5782b2o114b2o174b2o114b2o5782b$7530bo4443b$7530b2o4442b$7529bobo4442b$11974b$11974b$11974b$11969b3o2b$6151bo5817bo2bob$6149bobo5817bo4b$6150b2o5817bo3bo$19b3o11930b3o14bo3bo$5790b2o390b2o4796bo988bo4b$5790b2o25bo364b2o4796b2o988bobob$5817bobo5159bobo992b$5817b2o6155b$11974b$2b3o993bo10975b$bo2bo992b2o10975b$4bo992bobo10974b$o3bo11969b$o3bo11969b$4bo5953b2o54b2o5958b$bobo5954b2o54b2o5958b$11974b$4498bo7475b$4497b2o7475b$16b2o4479bobo7456b2o16b$15bo2bo11936bo2bo15b$11b2o2bo2bo11936bo2bo2b2o11b$11b2o3b2o5764b2o114b2o174b2o114b2o1278bo4485b2o3b2o11b$5782b2o114b2o174b2o114b2o1278b2o4502b$7469bobo4502b$11974b$11974b$11974b$11974b$11974b$11974b$11974b$11974b$10920bo1053b$19b3o10898b2o1030b3o19b$5790b2o390b2o4735bobo1052b$5790b2o390b2o5790b$11974b$1058bo10915b$1057b2o10915b$1057bobo10914b$11974b$11974b$11974b$11974b$5958b2o54b2o5958b$4558bo1399b2o54b2o5958b$4557b2o7415b$4557bobo7414b$11974b$16b2o11938b2o16b$15bo2bo7391bo4544bo2bo15b$11b2o2bo2bo5761b3o407bo1219b2o4543bo2bo2b2o11b$11b2o3b2o5762bo2bo114b2o174b2o113b4o1216bobo4544b2o3b2o11b$5780b2ob2o113b2o174b2o108bo7bo5781b$5784bo398bo3bo3b3o5780b$5777bo2b2ob2o398b5o3b4o5779b$5778bob4o400bo6bo3bo5778b$6184b3o2bobo5782b$6187bobobob2o5779b$5790b3o395bo3bo5781b$11974b$10860bo1113b$6173b3o4684b2o1112b$6174bo4684bobo1112b$19b3o6152bo5777b3o19b$6173b3o5798b$1118bo4659b2o414b2o5778b$1117b2o4659b2o414bo2bo2bo5773b$1117bobo5076bo3bo5773b$6196b4o5774b$6199bo5774b$6199bo5774b$6198bo5775b$6197b2o5775b$4618bo1163b2o406b2o16bo5765b$4617b2o1163b2o174b2o54b2o174b2o16bo5765b$4617bobo1338b2o54b2o189bob2o5765b$6206b2o5766b$11974b$7350bo4623b$16b2o7332b2o4604b2o16b$15bo2bo7330bobo4603bo2bo15b$11b2o2bo2bo11936bo2bo2b2o11b$11b2o3b2o5880b2o174b2o5880b2o3b2o11b$5898b2o174b2o5898b$11974b$11974b$5790b2o390b2o5785b3o2b$5790b2o390b2o5785bo2bob$11969bo4b$10800bo1168bo3bo$5813b2o4985b2o1167bo3bo$5813bobo4983bobo1167bo4b$5813bo6156bobob$11974b$19b3o1156bo10773b3o19b$1177b2o4975b2o5818b$2b3o1172bobo4973bobo5818b$bo2bo6150bo5818b$4bo11969b$o3bo6154bo5814b$o3bo6153bo5815b$4bo6153b3o5813b$bobo4674bo7295b$4677b2o7295b$4677bobo1102b2o35bo370b2o5782b$5782b2o36bo137b2o54b2o174b2o5782b$5818b3o137b2o54b2o5958b$7290bo4683b$7290b2o4682b$7289bobo4682b$16b2o11938b2o16b$15bo2bo11936bo2bo15b$11b2o2bo2bo5874bo6061bo2bo2b2o11b$11b2o3b2o5875bo6062b2o3b2o11b$5893bo183b2o5895b$6077bo5896b$5889bo2bo7b2o170b2o2bo3bo5893b$5790b2o98b2o2bobo3b2o170b2o3bo2b2o100b2o5790b$5790b2o99bo3b2o185b2o98b2o4556bo1233b$5873b2o20bo183b2ob2o4656b2o1232b$5873bobo4863bobo1232b$5873bo206b2ob2o5889b$6080b2ob2o5889b$1238bo4843bo5891b$1237b2o4855b2o5878b$19b3o1215bobo4853bobo5856b3o19b$6095bo5878b$5902b2o166b2o5902b$5902b2o166b2o5902b$11974b$11974b$4738bo7235b$4737b2o7235b$4737bobo7234b$5959bo6014b$5782b2o114b2o58bo115b2o114b2o5782b$5782b2o114b2o59bo114b2o114b2o1038bo4743b$5958b3o53bo1215b2o4742b$5958b2o49bob5o1213bobo4742b$5956b2ob2o47bo3bo2bo5958b$5956bo52bo5964b$16b2o5937bo2bo3bo47bo2b3o5940b2o16b$15bo2bo5936bob2o2bobo38b2o4b2o4bo5940bo2bo15b$11b2o2bo2bo5935b2o3bo4bo35bo7b2o5945bo2bo2b2o11b$11b2o3b2o5938b2o3bobo34b3o9bo5945b2o3b2o11b$5957bob2obo34bo4b2o4bo5965b$5958bo37bo3b3obo5969b$5997bobo4bo17b2o4656bo1293b$5790b2o98b2o41b2o66bo2bo16bobo3bo54b2o98b2o4496b2o1292b$5790b2o98b2o41bobo66bo10bo14b2o52b2o98b2o4495bobo1292b$5933bo20b2o63bo3bo5950b$5954b2o59b2o2b2ob2ob3o5946b$1298bo4716b2o5957b$1297b2o4716b3o2bo13b2o5938b$1297bobo4720bo14bo5938b$6018b2o15bo5938b$19b3o6014b2o5914b3o19b$6034bob2o5936b$5958b2o54b2o19b2o5937b$5958b2o54b2o5958b$4798bo7175b$4797b2o7175b$4797bobo7174b$11974b$11974b$7170bo4803b$5782b2o114b2o174b2o114b2o978b2o4802b$5782b2o114b2o174b2o114b2o977bobo4802b$11974b$11974b$11974b$5966b2o38b2o5966b$16b2o5948b2o38b2o5948b2o16b$15bo2bo11936bo2bo15b$11b2o2bo2bo11936bo2bo2b2o11b$11b2o3b2o11938b2o3b2o6b3o2b$10620bo1348bo2bob$6120bobo4497b2o1347bo4b$6121b2o4496bobo1347bo3bo$5790b2o98b2o190b2o37bo60b2o5785bo3bo$5790b2o98b2o190b2o98b2o5785bo4b$1358bo4627bo5983bobob$1357b2o4487bobo137bobo5985b$1357bobo4486b2o138b2o5986b$5847bo6126b$2b3o11969b$bo2bo5987bo5981b$4bo14b3o5968bobo5959b3o19b$o3bo5986b2o5981b$o3bo4853bo1099b2o54b2o5958b$4bo4852b2o1099b2o54b2o83bo5874b$bobo4853bobo1238bo5875b$6098b3o5873b$11974b$7110bo4863b$5879bo1230b2o4862b$5880bo1228bobo4862b$5782b2o94b3o17b2o174b2o114b2o5782b$5782b2o114b2o174b2o114b2o5782b$11974b$11974b$11974b$5966b2o38b2o5966b$16b2o5948b2o38b2o5948b2o16b$15bo2bo11936bo2bo15b$11b2o2bo2bo10541bo1394bo2bo2b2o11b$11b2o3b2o10542b2o1394b2o3b2o11b$10559bobo1412b$11974b$11974b$1418bo4371b2o98b2o190b2o98b2o5790b$1417b2o4371b2o98b2o190b2o98b2o5790b$1417bobo10554b$11974b$11974b$11974b$11974b$11974b$19b3o4896bo7033b3o19b$4917b2o7055b$4917bobo1038b2o54b2o5958b$5958b2o54b2o5958b$11974b$7050bo4923b$7050b2o4922b$7049bobo4922b$11974b$11974b$5782b2o114b2o174b2o114b2o5782b$5782b2o114b2o174b2o114b2o5782b$11974b$11974b$11974b$11974b$16b2o10482bo1455b2o16b$15bo2bo10481b2o1453bo2bo15b$11b2o2bo2bo10480bobo1453bo2bo2b2o11b$11b2o3b2o11938b2o3b2o11b$11974b$1478bo10495b$1477b2o10495b$1477bobo4310b2o390b2o5790b$5790b2o390b2o5790b$11974b$11974b$11974b$11974b$4978bo6995b$4977b2o6995b$19b3o4955bobo6972b3o19b$11974b$5958b2o54b2o5958b$5958b2o54b2o974bo4983b$6990b2o4982b$6989bobo4982b$11974b$11974b$11974b$11974b$5782b2o114b2o174b2o114b2o5782b$5782b2o114b2o174b2o114b2o5782b$11974b$11974b$10440bo1533b$10440b2o1527b3o2b$16b2o5772b3o4646bobo1514b2o11bo2bob$15bo2bo5771b3o6162bo2bo10bo4b$11b2o2bo2bo5770b4o6162bo2bo2b2o6bo3bo$11b2o3b2o1520bo4248b2obo389bobo5773b2o3b2o6bo3bo$1537b2o4248b2ob2o389b2o5786bo4b$1537bobo4247b5o2b2o385bo5788bobob$5788b3o6183b$5788bo393b2o5790b$6182b2o5790b$2b3o11969b$bo2bo11969b$4bo5033bo6935b$o3bo5032b2o6935b$o3bo5032bobo6934b$4bo11969b$bobo15b3o11930b3o19b$6930bo5043b$5958b2o54b2o914b2o5042b$5958b2o54b2o913bobo5042b$11974b$11974b$11974b$11974b$11974b$5787b3o6184b$5898b2o174b2o5898b$5789bo108b2o174b2o111b3o5784b$5787b4o396b3o4190bo1593b$5780b2o5b5o398b2o4188b2o1592b$5780b2o4bo3b2o395bo4b2o4185bobo1592b$5787b3o396bo5787b$16b2o6166bo9bo5761b2o16b$15bo2bo1579bo4584bobo3bobo2bo5760bo2bo15b$11b2o2bo2bo1578b2o4583bo5772bo2bo2b2o11b$11b2o3b2o1579bobo4582bo6bo5766b2o3b2o11b$6189bo5784b$6183bo3bo5786b$6185b2o5787b$5791b2o6181b$5778b2o9bobo402b2o5778b$5098bo679b2o10bo403b2o5778b$5097b2o6875b$5097bobo6874b$11974b$11974b$6870bo5103b$19b3o6848b2o5080b3o19b$5782b2o406b2o677bobo5102b$5782b2o174b2o54b2o174b2o5782b$5958b2o54b2o5958b$11974b$11974b$11974b$11974b$11974b$11974b$5898b2o174b2o4244bo1653b$5898b2o174b2o4244b2o1652b$10319bobo1652b$11974b$5790b2o390b2o5790b$1658bo4131b2o390b2o5790b$16b2o1639b2o4570bo5726b2o16b$15bo2bo1638bobo4570bo5724bo2bo15b$11b2o2bo2bo6209b3o5724bo2bo2b2o11b$11b2o3b2o11938b2o3b2o11b$5894b3o6077b$5739bo154b3o6077b$5738bo153b2o3bo6076b$5158bo579b3o151bo3b2o6076b$5157b2o733bo3bo6077b$5157bobo733bo2bo6077b$5894b3o6077b$5895bobo6076b$5896b2o912bo5163b$6078b2o730b2o5162b$6076b2obo729bobo5162b$19b3o6054b2o5874b3o19b$5782b2o114b2o178b2o110b2o5782b$5782b2o114b2o58b2o54b2o64b2o108b2o5782b$5958b2o54b2o5958b$6079bobo5892b$6080bo5893b$5888bo6085b$5887bo6086b$5887b3o4370bo1713b$10260b2o1712b$6146bo4112bobo1712b$6144b2o5823b3o2b$6145b2o5822bo2bob$1718bo10250bo4b$1717b2o4071b2o98b2o190b2o98b2o5785bo3bo$1717bobo4070b2o40bo57b2o190b2o98b2o5785bo3bo$16b2o5815b2o6121b2o11bo4b$15bo2bo5813b2o6121bo2bo11bobob$11b2o2bo2bo11936bo2bo2b2o11b$11b2o3b2o11938b2o3b2o11b$11974b$2b3o5213bo6755b$bo2bo5212b2o6755b$4bo5212bobo6754b$o3bo11969b$o3bo11969b$4bo6745bo5223b$bobo6746b2o5222b$6749bobo5222b$11974b$11974b$19b3o11930b3o19b$5782b2o114b2o174b2o114b2o5782b$5782b2o114b2o63b3o108b2o114b2o5782b$5964b2o44b3obo5959b$5962bo3b2o48bo5957b$5956b2o4bobob2o42b2o5bo5956b$5956b2o3b2o3b2o44b2o3bo4182bo1773b$5962b2o43b3o6bo4183b2o1772b$6007bobo4189bobo1772b$6006bo2bo5964b$6006bobo5965b$1778bo4227b3o5965b$1777b2o10195b$1777bobo10194b$5790b2o98b2o190b2o98b2o5790b$5790b2o98b2o75b2o113b2o98b2o5790b$16b2o5936b2o62b2o5936b2o16b$15bo2bo5935b2o62b2o5935bo2bo15b$11b2o2bo2bo11936bo2bo2b2o11b$11b2o3b2o5260bo6677b2o3b2o11b$5277b2o6695b$5277bobo6694b$11974b$11974b$5958b2o54b2o674bo5283b$5958b2o54b2o674b2o5282b$6689bobo5282b$11974b$11974b$11974b$11974b$19b3o11930b3o19b$5782b2o114b2o174b2o114b2o5782b$5782b2o114b2o174b2o114b2o5782b$11974b$10140bo1833b$10140b2o1832b$5966b2o38b2o4131bobo1832b$5966b2o38b2o5966b$11974b$1838bo10135b$1837b2o10135b$1837bobo10134b$11974b$11974b$5790b2o98b2o190b2o98b2o105bo5684b$5790b2o98b2o190b2o98b2o106bo5683b$16b2o6270b3o5665b2o16b$15bo2bo5319bo6616bo2bo15b$11b2o2bo2bo5318b2o6616bo2bo2b2o11b$11b2o3b2o5319bobo339bo6276b2o3b2o11b$5678bo6295b$5678b3o6293b$6630bo5343b$6630b2o5342b$5958b2o54b2o613bobo5342b$5958b2o54b2o5958b$11974b$11974b$11974b$11974b$6140bo5833b$19b3o6119bo5810b3o19b$5782b2o114b2o174b2o63b3o48b2o5782b$5782b2o114b2o174b2o114b2o3888bo1893b$10080b2o1892b$5828bo140bo4109bobo1892b$5827bo6146b$5827b3o136b2o6006b$1898bo10070b3o2b$1897b2o4187bo5882bo2bob$1897bobo4184b2o5883bo4b$5889b3o193b2o5882bo3bo$5888bo3bo6076bo3bo$5887bo3b2o6076bo4b$5887bo4bo6077bobob$5790b2o95bo3bo190b2o98b2o5790b$5398bo391b2o290b2o98b2o5790b$16b2o5379b2o490b2o6065b2o16b$2b3o10bo2bo5378bobo6555bo2bo15b$bo2bo6b2o2bo2bo11936bo2bo2b2o11b$4bo6b2o3b2o11938b2o3b2o11b$o3bo6565bo5403b$o3bo6565b2o5402b$4bo6564bobo5402b$bobo11970b$5958b2o54b2o5958b$5958b2o54b2o5958b$11974b$11974b$11974b$11974b$11974b$19b3o9998bo1931b3o19b$5782b2o114b2o174b2o114b2o3828b2o1952b$5782b2o114b2o174b2o114b2o3827bobo1952b$11974b$11974b$1958bo10015b$1957b2o10015b$1957bobo10014b$11974b$11974b$11974b$11974b$11974b$5458bo6515b$5457b2o331b2o390b2o5790b$5457bobo330b2o390b2o5790b$16b2o11938b2o16b$15bo2bo11936bo2bo15b$11b2o2bo2bo6491bo5444bo2bo2b2o11b$11b2o3b2o6492b2o5444b2o3b2o11b$6509bobo5462b$11974b$11974b$11974b$5958b2o54b2o5958b$5958b2o54b2o5958b$11974b$11974b$11974b$9960bo2013b$9960b2o2012b$19b3o9937bobo1990b3o19b$5782b2o114b2o174b2o114b2o5782b$5782b2o114b2o174b2o114b2o5782b$2018bo9955b$2017b2o9955b$2017bobo9954b$11974b$11974b$11974b$11974b$11974b$5518bo6455b$5517b2o830bo5624b$5517bobo830bo5623b$6348b3o5623b$11974b$16b2o6432bo5505b2o16b$15bo2bo5600bo830b2o5503bo2bo15b$11b2o2bo2bo5599bo830bobo5503bo2bo2b2o11b$11b2o3b2o5600b3o6335b2o3b2o11b$11974b$11974b$11974b$11974b$5958b2o54b2o5958b$5958b2o54b2o5958b$11974b$9900bo2073b$9900b2o2072b$9899bobo2072b$11974b$19b3o11930b3o19b$2078bo3703b2o114b2o174b2o114b2o5782b$2077b2o3703b2o114b2o174b2o114b2o5782b$2077bobo9889b3o2b$11969bo2bob$11969bo4b$11969bo3bo$11969bo3bo$11969bo4b$5578bo6391bobob$5577b2o6395b$5577bobo6394b$11974b$2b3o11969b$bo2bo6385bo5583b$4bo6385b2o5582b$o3bo11b2o6371bobo5564b2o16b$o3bo10bo2bo11936bo2bo15b$4bo6b2o2bo2bo11936bo2bo2b2o11b$bobo7b2o3b2o11938b2o3b2o11b$11974b$11974b$11974b$11974b$5958b2o54b2o5958b$5958b2o54b2o3824bo2133b$9840b2o2132b$9839bobo2132b$11974b$6194b2o5778b$2138bo9835b$19b3o2115b2o9813b3o19b$2137bobo3758b2o174b2o5898b$5619b3o276b2o174b2o111bobo5784b$5619bo165b2o6187b$5609b3o8bo163b2obo401bo3bo168b3o5609b$5785bobo398bo5b3o5779b$5607bo5bo166b2o4b3o397b3o3b3o165bo5bo5607b$5607bo5bo165bob2o3b3o403b3o152b3o10bo5bo5607b$5607bo5bo165b5obobobo391b3o165bo10bo5bo5607b$5783b3obobo558bo5625b$5609b3o177b2o571b3o5609b$5787b3o6184b$5787b2o6185b$5787bo6186b$11974b$5778b2o414b2o5778b$16b2o5760b2o414b2o5760b2o16b$15bo2bo11936bo2bo15b$11b2o2bo2bo11936bo2bo2b2o11b$11b2o3b2o11938b2o3b2o11b$11974b$11974b$11974b$5782b2o406b2o3588bo2193b$5782b2o174b2o54b2o174b2o3588b2o2192b$5958b2o54b2o3763bobo2192b$11974b$11974b$2198bo9775b$2197b2o9775b$2197bobo9774b$19b3o5657b3o6270b3o19b$5679bo218b2o174b2o5898b$5680bo217b2o174b2o146bobo5749b$6223b2o5749b$5609b3o611bo138b3o5609b$5790b2o390b2o103b3o5684b$5607bo5bo176b2o390b2o105bo70bo5bo5607b$5607bo5bo130bobo541bo71bo5bo5607b$5607bo5bo130b2o614bo5bo5607b$5745bo6228b$5609b3o750b3o5609b$11974b$11974b$11974b$11974b$11974b$16b2o11938b2o16b$15bo2bo11936bo2bo15b$11b2o2bo2bo11936bo2bo2b2o11b$11b2o3b2o11938b2o3b2o11b$11974b$9720bo2253b$9720b2o2252b$5782b2o406b2o3527bobo2252b$5782b2o174b2o54b2o174b2o5782b$5958b2o54b2o5958b$2258bo3892bo5822b$2257b2o3891bo5823b$2257bobo3890b3o5821b$5739b3o6232b$5739bo6229b3o2b$19b3o5718bo86bo6124b3o14bo2bob$5828bo69b2o174b2o5893bo4b$5826b3o69b2o174b2o5893bo3bo$6227b3o5739bo3bo$5609b3o617bo132b3o5604bo4b$5790b2o390b2o44bo5741bobob$5607bo5bo176b2o390b2o176bo5bo5607b$5607bo5bo746bo5bo5607b$5607bo5bo746bo5bo5607b$2b3o11969b$bo2bo5604b3o750b3o5609b$4bo11969b$o3bo11969b$o3bo11969b$4bo11969b$bobo11970b$16b2o11938b2o16b$15bo2bo11936bo2bo15b$11b2o2bo2bo11936bo2bo2b2o11b$11b2o3b2o9642bo2295b2o3b2o11b$9660b2o2312b$9659bobo2312b$11974b$5782b2o406b2o5782b$2318bo3463b2o174b2o54b2o174b2o5782b$2317b2o3639b2o54b2o5958b$2317bobo9654b$5799b3o6172b$5799bo6174b$5800bo6173b$11974b$19b3o11930b3o19b$5898b2o174b2o91b3o5804b$5898b2o174b2o93bo5804b$6168bo5805b$5609b3o750b3o5609b$5790b2o390b2o5790b$5607bo5bo127b2o47b2o390b2o176bo5bo5607b$5607bo5bo127bobo616bo5bo5607b$5607bo5bo127bo618bo5bo5607b$11974b$5609b3o750b3o5609b$6226b2o5746b$6225bobo5746b$6227bo5746b$11974b$11974b$16b2o11938b2o16b$15bo2bo9581bo2354bo2bo15b$11b2o2bo2bo9581b2o2353bo2bo2b2o11b$11b2o3b2o9581bobo2354b2o3b2o11b$5894b2o6078b$5894bobo6077b$2378bo3517b2o6076b$2377b2o3403b2o111bo294b2o5782b$2377bobo3402b2o109bobo62b2o54b2o65b3o106b2o5782b$5859b3o30b2o64b2o54b2o5958b$5859bo32b3o186bobo5890b$5860bo219bo5893b$6080bo3bo5889b$11974b$6080b2o2bo22b3o5864b$19b3o6087bo5842b3o19b$6108bo5865b$11974b$11974b$5609b3o189b2o269b2o288b3o5609b$5790b2o9bobo86b2o180b2o8b2o98b2o5790b$5607bo5bo176b2o9bo88b2o190b2o98b2o176bo5bo5607b$5607bo5bo746bo5bo5607b$5607bo5bo746bo5bo5607b$6166b2o5806b$5609b3o553bobo194b3o5609b$6073bo93bo5806b$6071bo2bo5899b$6070b2o5902b$6069bo3bo5900b$6070bo2bo3466bo2433b$16b2o6053b2o3467b2o2414b2o16b$15bo2bo9520bobo2413bo2bo15b$11b2o2bo2bo11936bo2bo2b2o11b$11b2o3b2o11938b2o3b2o11b$2438bo9535b$2437b2o9535b$2437bobo9534b$5782b2o114b2o19b3o152b2o114b2o5782b$5782b2o114b2o19bo42bo111b2o15bo98b2o5782b$5920bo41bo127bo5883b$5961bo128b3o5876b3o2b$5956b2o3b2o46bo5959bo2bob$5956b2o3b5o41b4o36b3o5919bo4b$5887bo76bobo44bo37bo5919bo3bo$5888bo74b2ob2o40bo3bo4bo30bo5920bo3bo$19b3o5864b3o75bo2bo41bobo5bo5934b3o14bo4b$5964b2ob2o41bo6bo5952bobob$5861b2o102bobo6006b$5861bobo102bo6007b$5609b3o249bo500b3o5609b$2b3o5785b2o98b2o190b2o98b2o5790b$bo2bo5602bo5bo176b2o98b2o190b2o98b2o176bo5bo5607b$4bo5602bo5bo340b2o62b2o86b2o252bo5bo5607b$o3bo5602bo5bo340b2o62b2o85bobo252bo5bo5607b$o3bo6102bo5866b$4bo5604b3o750b3o5609b$bobo11970b$11974b$9480bo2493b$9480b2o2492b$5958b2o54b2o3463bobo2492b$16b2o5940b2o54b2o5940b2o16b$15bo2bo11936bo2bo15b$11b2o2bo2bo2479bo9456bo2bo2b2o11b$11b2o3b2o2479b2o9457b2o3b2o11b$2497bobo9474b$11974b$11974b$5782b2o114b2o174b2o114b2o5782b$5782b2o114b2o174b2o114b2o5782b$11974b$11974b$11974b$5966b2o38b2o5966b$5966b2o38b2o5966b$11974b$19b3o5899b2o6029b3o19b$5921bobo6050b$5921bo6052b$11974b$5609b3o750b3o5609b$5790b2o254b2o134b2o5790b$5607bo5bo176b2o253bobo134b2o176bo5bo5607b$5607bo5bo433bo312bo5bo5607b$5607bo5bo746bo5bo5607b$11974b$5609b3o750b3o5609b$9420bo2553b$9420b2o2552b$9419bobo2552b$11974b$5958b2o54b2o5958b$16b2o2540bo3399b2o54b2o118bo5821b2o16b$15bo2bo2538b2o3576b2o5818bo2bo15b$11b2o2bo2bo2538bobo3574b2o5819bo2bo2b2o11b$11b2o3b2o11938b2o3b2o11b$5973bo6000b$5834bo137bo6001b$5832b2o138b3o5999b$5782b2o49b2o63b2o174b2o114b2o5782b$5782b2o114b2o174b2o114b2o5782b$11974b$11974b$11974b$5966b2o6006b$5966b2o13b2o5991b$5981bobo5990b$19b3o5959bo5970b3o19b$11974b$11974b$5986b2o5986b$5609b3o373bobo374b3o5609b$5790b2o195bo194b2o5790b$5607bo5bo176b2o390b2o176bo5bo5607b$5607bo5bo746bo5bo5607b$5607bo5bo746bo5bo5607b$9360bo2613b$5609b3o750b3o2995b2o2612b$9359bobo2612b$11974b$11974b$2618bo9355b$2617b2o3339b2o54b2o5958b$16b2o2599bobo3338b2o54b2o5940b2o16b$15bo2bo11936bo2bo15b$11b2o2bo2bo11936bo2bo2b2o11b$11b2o3b2o11938b2o3b2o11b$11974b$11974b$11969b3o2b$5782b2o114b2o174b2o114b2o5777bo2bob$5782b2o114b2o174b2o114b2o5777bo4b$11969bo3bo$11969bo3bo$6041b2o5926bo4b$6041bobo5926bobob$6041bo5932b$11974b$19b3o11930b3o19b$2b3o5921b2o6046b$bo2bo5920bobo6046b$4bo5922bo6046b$o3bo5604b3o750b3o5609b$o3bo5785b2o390b2o5790b$4bo5602bo5bo176b2o390b2o176bo5bo5607b$bobo5603bo5bo746bo5bo2933bo2673b$5607bo5bo746bo5bo2933b2o2672b$9299bobo2672b$5609b3o750b3o5609b$11974b$2678bo9295b$2677b2o9295b$2677bobo9294b$5958b2o54b2o5958b$16b2o5940b2o54b2o5940b2o16b$15bo2bo11936bo2bo15b$11b2o2bo2bo11936bo2bo2b2o11b$11b2o3b2o11938b2o3b2o11b$11974b$11974b$11974b$5782b2o114b2o174b2o114b2o5782b$5782b2o114b2o174b2o114b2o5782b$6101b2o5871b$6101bobo5870b$6101bo5872b$11974b$11974b$5866b2o323bo5782b$19b3o5843bobo322bobo5759b3o19b$5786bo80bo310bo5bo5bobo5781b$5785bobo392bo2bo3b2o5785b$5784bo390bo4bo8bo7b2o5775b$5609b3o172bo2b3o384bo15bobo2b2ob2o162b3o5609b$5784b2o3b2o383bo8b2o10b2obo3041bo2733b$5607bo5bo171b2ob2o384bo5bo2b2o2b2o8bo162bo5bo2873b2o2732b$5607bo5bo170b2ob2o386bo3bo8bob3ob3o163bo5bo2872bobo2732b$5607bo5bo170bo2bo388bo18bo164bo5bo5607b$5784bo2bo6186b$2738bo2870b3o172b2o576b3o5609b$2737b2o9235b$2737bobo9234b$11974b$5782b2o406b2o5782b$5782b2o174b2o54b2o174b2o5782b$16b2o5940b2o54b2o5940b2o16b$15bo2bo11936bo2bo15b$11b2o2bo2bo11936bo2bo2b2o11b$11b2o3b2o11938b2o3b2o11b$5792bobo6179b$5793b2o6179b$5793bo6180b$5898b2o174b2o85b2o5811b$5898b2o174b2o85bobo5810b$6161bo12bobo5797b$6174b2o5798b$5790b2o383bo6b2o5790b$5790b2o14b2o374b2o5790b$5805bobo6166b$5807bo6166b$19b3o11930b3o19b$11974b$11974b$9180bo2793b$5609b3o750b3o2815b2o2792b$9179bobo2792b$5607bo5bo746bo5bo5607b$5607bo5bo746bo5bo5607b$2798bo2808bo5bo746bo5bo5607b$2797b2o9175b$2797bobo2809b3o750b3o5609b$11974b$11974b$11974b$5782b2o406b2o5782b$5782b2o174b2o54b2o174b2o5782b$16b2o5940b2o54b2o5940b2o16b$15bo2bo11936bo2bo15b$11b2o2bo2bo11936bo2bo2b2o6b3o2b$11b2o3b2o11938b2o3b2o6bo2bob$11969bo4b$6221b2o5746bo3bo$6221bobo5745bo3bo$5898b2o174b2o145bo5747bo4b$5898b2o174b2o5894bobob$11974b$5746b2o6226b$5745bobo42b2o390b2o5790b$2b3o5742bo42b2o390b2o5790b$bo2bo11969b$4bo11969b$o3bo14b3o11930b3o19b$o3bo9115bo2853b$4bo9115b2o2852b$bobo9115bobo2852b$5609b3o750b3o5609b$11974b$2858bo2748bo5bo746bo5bo5607b$2857b2o2748bo5bo746bo5bo5607b$2857bobo2747bo5bo746bo5bo5607b$11974b$5609b3o750b3o5609b$11974b$11974b$11974b$5782b2o406b2o5782b$5782b2o174b2o54b2o174b2o5782b$16b2o5940b2o54b2o5940b2o16b$15bo2bo11936bo2bo15b$11b2o2bo2bo6184b2o5750bo2bo2b2o11b$11b2o3b2o6186b2o5750b2o3b2o11b$6203bo5770b$11974b$11974b$5774b2o122b2o174b2o5898b$5773b2o123b2o174b2o5898b$5775bo6198b$11974b$5790b2o390b2o5790b$5790b2o390b2o5790b$11974b$9060bo2913b$19b3o9038b2o2890b3o19b$9059bobo2912b$11974b$11974b$2918bo2690b3o750b3o5609b$2917b2o9055b$2917bobo2687bo5bo746bo5bo5607b$5607bo5bo746bo5bo5607b$5607bo5bo746bo5bo5607b$11974b$5609b3o750b3o5609b$11974b$11974b$11974b$5782b2o406b2o5782b$5782b2o174b2o54b2o174b2o5782b$16b2o5940b2o54b2o127b2o5811b2o16b$15bo2bo6125b2o5809bo2bo15b$11b2o2bo2bo5833bobo288bo5811bo2bo2b2o11b$11b2o3b2o5835b2o6101b2o3b2o11b$5853bo6120b$5834b2o6138b$5833b2o238b2o5899b$5835bo62b2o173bobo38bobo5857b$5892bo4b2obo172bobo38b2o5858b$5892b2o3bo2b2o168b2obob2o38bo5858b$5892b5o3b2o168b6o5898b$5790b2o104bo2bobo166bo2bo110b2o5790b$5790b2o101bobobobobo167bo112b2o2816bo2973b$5893b3obobobo3098b2o2972b$5895b2o3bo181b3o2914bobo2972b$19b3o11930b3o19b$5881b3o6090b$2978bo8995b$2977b2o2901bo3bo6089b$2977bobo2629b3o268bo3bo477b3o5609b$5903bo6070b$5607bo5bo267b3o18bo167b2o288bo5bo5607b$5607bo5bo288bo2bo164b2o288bo5bo5607b$5607bo5bo289b3ob3o450bo5bo5607b$5904bo3b2o6064b$5609b3o291b3o2b3o451b3o5609b$5904bobobo6065b$5905b2o6067b$5906bo6067b$5782b2o114b2o174b2o7b2o105b2o5777b3o2b$5782b2o114b2o22bo35b2o54b2o58b2o8b2o104b2o5777bo2bob$16b2o5905b2o33b2o54b2o67bo5872b2o11bo4b$15bo2bo5903b2o6031bo2bo10bo3bo$11b2o2bo2bo11936bo2bo2b2o6bo3bo$11b2o3b2o5876b2o6060b2o3b2o6bo4b$5893b2o151bo5923bobob$5895bo148b2o5928b$6014b2o29b2o5927b$6014b2o5958b$2b3o5954b2o53bo5959b$bo2bo5953bobobo50bo9bo5950b$4bo5952bo2b4o3bo29b3o12b2o8b3o2915bo3033b$o3bo5785b2o98b2o65bo9b2o28b4o10b5o5bo3bo56b2o98b2o2756b2o3032b$o3bo5785b2o98b2o65bobo6bob2o26b2o2b2o5b3obobobo4b3ob2o56b2o98b2o2755bobo3032b$4bo5953b2o6bobo28b2obo6b5obo7b3o5950b$bobo5962b2o29b3o10b2o4bo3bobo5951b$19b3o3016bo2959bo12bo4bo4bo5930b3o19b$3037b2o2973bo4bo5956b$3037bobo2919b2o55bo5957b$6015bo5958b$5609b3o750b3o5609b$11974b$5607bo5bo344b2o54b2o344bo5bo5607b$5607bo5bo344b2o54b2o344bo5bo5607b$5607bo5bo746bo5bo5607b$5867bo6106b$5609b3o255bobo492b3o5609b$5867b2o6105b$11974b$5970bo6003b$5782b2o114b2o71b2o101b2o35bo78b2o5782b$5782b2o114b2o70b2o102b2o33bobo78b2o5782b$16b2o6092b2o5844b2o16b$15bo2bo11936bo2bo15b$11b2o2bo2bo5979bo5956bo2bo2b2o11b$11b2o3b2o5948b2o28b2o8b2o5948b2o3b2o11b$5966b2o29b2o7b2o5966b$11974b$11974b$11974b$8880bo3093b$8880b2o3092b$8879bobo3092b$5790b2o390b2o5790b$5790b2o390b2o5790b$3098bo8875b$3097b2o8875b$19b3o3075bobo8852b3o19b$11974b$11974b$11974b$5609b3o750b3o5609b$11974b$5607bo5bo344b2o54b2o344bo5bo5607b$5607bo5bo344b2o54b2o344bo5bo5607b$5607bo5bo746bo5bo5607b$11974b$5609b3o750b3o5609b$11974b$11974b$11974b$5782b2o114b2o174b2o114b2o5782b$5782b2o114b2o174b2o114b2o5782b$16b2o11938b2o16b$15bo2bo11936bo2bo15b$11b2o2bo2bo11936bo2bo2b2o11b$11b2o3b2o5948b2o38b2o5948b2o3b2o11b$5966b2o38b2o5966b$11974b$8820bo3153b$8820b2o3152b$8819bobo3152b$11974b$11974b$3158bo2631b2o390b2o5790b$3157b2o2631b2o390b2o5790b$3157bobo8814b$11974b$19b3o11930b3o19b$11974b$11974b$11974b$5609b3o750b3o5609b$11974b$5607bo5bo344b2o54b2o344bo5bo5607b$5607bo5bo344b2o54b2o344bo5bo5607b$5607bo5bo746bo5bo5607b$11974b$5609b3o750b3o5604b3o2b$11969bo2bob$11969bo4b$11969bo3bo$5782b2o114b2o174b2o114b2o5777bo3bo$5782b2o114b2o174b2o114b2o5777bo4b$16b2o11938b2o12bobob$15bo2bo11936bo2bo15b$11b2o2bo2bo11936bo2bo2b2o11b$11b2o3b2o11938b2o3b2o11b$2b3o8755bo3213b$bo2bo8755b2o3212b$4bo8754bobo3212b$o3bo11969b$o3bo11969b$4bo3213bo8755b$bobo3213b2o8755b$3217bobo2570b2o390b2o5790b$5790b2o390b2o5790b$11974b$11974b$19b3o11930b3o19b$11974b$11974b$11974b$5609b3o750b3o5609b$11974b$5607bo5bo344b2o54b2o344bo5bo5607b$5607bo5bo193bo150b2o54b2o344bo5bo5607b$5607bo5bo193bobo550bo5bo5607b$5807b2o6165b$5609b3o750b3o5609b$11974b$6171bo5802b$6169bobo5802b$5782b2o114b2o174b2o94b2o18b2o5782b$5782b2o114b2o174b2o114b2o5782b$16b2o11938b2o16b$15bo2bo11936bo2bo15b$11b2o2bo2bo8681bo3254bo2bo2b2o11b$11b2o3b2o8682b2o3254b2o3b2o11b$8699bobo3272b$11974b$11974b$3278bo8695b$3277b2o8695b$3277bobo8694b$11974b$5790b2o390b2o5790b$5790b2o390b2o5790b$11974b$11974b$19b3o11930b3o19b$11974b$11974b$11974b$5609b3o750b3o5609b$11974b$5607bo5bo344b2o54b2o344bo5bo5607b$5607bo5bo344b2o54b2o344bo5bo5607b$5607bo5bo746bo5bo5607b$11974b$5609b3o750b3o5609b$11974b$11974b$11974b$5782b2o114b2o174b2o114b2o5782b$5782b2o114b2o174b2o114b2o5782b$16b2o8622bo3315b2o16b$15bo2bo8621b2o3313bo2bo15b$11b2o2bo2bo8620bobo3313bo2bo2b2o11b$11b2o3b2o11938b2o3b2o11b$11974b$3338bo8635b$3337b2o2850b2o5783b$3337bobo2847b4o5783b$6187bo2bo5783b$6181b2o3b2o4b2o5780b$6179b2o2bo3b3o3b2o5779b$6179bo2b3o2bob2ob2o5780b$5786bo392bo4bo4b4o5781b$5785b3o392b5o5789b$5784bo2b2o393b2o5790b$19b3o5761b2o6167b3o19b$5782b2ob3o6186b$5782b2o2bo6187b$5785b3o6186b$5609b3o171b2o577b3o5609b$5783b2o405b2o5782b$5607bo5bo344b2o54b2o174b2o168bo5bo5602b3o2b$5607bo5bo344b2o54b2o344bo5bo5602bo2bob$5607bo5bo177bo568bo5bo5602bo4b$5789bobo6177bo3bo$5609b3o178b2o570b3o5604bo3bo$11969bo4b$11970bobob$6177bo5796b$5898b2o174b2o101bobo2400bo3393b$5898b2o174b2o101b2o2401b2o3392b$2b3o11b2o8561bobo3374b2o16b$bo2bo10bo2bo6176b3o5757bo2bo15b$4bo6b2o2bo2bo5771b2o390b2o13bo5757bo2bo2b2o11b$o3bo6b2o3b2o3380bo2391b2o390b2o12bo5759b2o3b2o11b$o3bo3392b2o8575b$4bo3392bobo8574b$bobo5777b3o6190b$5781bo6192b$5782bo6191b$11974b$11974b$11974b$11974b$11974b$11974b$19b3o11930b3o19b$11974b$11974b$11974b$5609b3o750b3o5609b$5782b2o406b2o5782b$5607bo5bo168b2o174b2o54b2o174b2o168bo5bo5607b$5607bo5bo344b2o54b2o344bo5bo5607b$5607bo5bo746bo5bo5607b$11974b$5609b3o750b3o5609b$11974b$8520bo3453b$8520b2o3452b$5898b2o2619bobo3452b$5898b2o174b2obo57b3o5836b$16b2o6056bo2b2o58bo5818b2o16b$15bo2bo3439bo2615bo2b5o54bo5818bo2bo15b$11b2o2bo2bo3438b2o2331b2o282bobo3bo101b2o5771bo2bo2b2o11b$11b2o3b2o3439bobo2330b2o282b3o2bobo100b2o5772b2o3b2o11b$5841b3o55b3o172b3o2bobo5892b$5841bo56bo2bo2b2o2bo170bobo6b2o5884b$5842bo50bo6b4obo2bo172bo6b4o5882b$5882bo9b2o8bo183b2o3b2o5881b$5882bo3b3o2bobo8bo4bo177bob3ob3o5880b$5881bo7bo2bo13b2o158b2o16b2obo5886b$5881b2o4bo2bo2b2o166bo4bo19bo5887b$5882b5o5bo14b2o152bo5bo5906b$5886bo5b2o12b2o153b3ob3ob2o5903b$5884bobo7bo8bobo9bo147bob3ob2o2b2o5899b$5884bobo17b2o10bo146bo4b3o4bo5898b$19b3o5892b3o155bobo5877b3o19b$6069bob3o5900b$6070bo5903b$6053bo5920b$5609b3o440bo309b3o5609b$5782b2o114b2o152b3o19b2o114b2o5782b$5607bo5bo168b2o114b2o58b2o54b2o58b2o114b2o168bo5bo5607b$5607bo5bo344b2o54b2o344bo5bo5607b$5607bo5bo746bo5bo5607b$11974b$5609b3o750b3o2095bo3513b$8460b2o3512b$8459bobo3512b$6075b3o5896b$6077bo5896b$3518bo2557bo5897b$16b2o3499b2o8437b2o16b$15bo2bo3498bobo8435bo2bo15b$11b2o2bo2bo5771b2o98b2o9b3o106b3o69b2o98b2o5771bo2bo2b2o11b$11b2o3b2o5772b2o98b2o9bo107bo2bo69b2o98b2o5772b2o3b2o11b$5902bo105bo4bo5960b$6010bo5963b$11974b$5876bo134b2o5961b$5874b2o134bobo5961b$5875b2o86bo46bobo5961b$5962b2o6010b$5961bo54bo5957b$5962b2o50bo87bo5871b$5962bobo49b2o87b2o5869b$5963bo138b2o5870b$19b3o5941bobo5986b3o19b$5967bo37bo5968b$5965bobo36bo5964b3o2b$6004b3o5962bo2bob$5609b3o750b3o5604bo4b$5782b2o114b2o174b2o114b2o5777bo3bo$5607bo5bo168b2o67bo46b2o174b2o114b2o168bo5bo5602bo3bo$5607bo5bo235bobo508bo5bo5602bo4b$5607bo5bo236b2o508bo5bo2033bo3569bobob$8400b2o3572b$5609b3o354b2o38b2o354b3o2034bobo3572b$5955bo10b2o38b2o109bo5856b$2b3o6112bobo5854b$bo2bo3573bo2538b2o5855b$4bo3572b2o8395b$o3bo3572bobo8394b$o3bo11b2o11938b2o16b$4bo10bo2bo11936bo2bo15b$bobo7b2o2bo2bo5771b2o98b2o190b2o98b2o5771bo2bo2b2o11b$11b2o3b2o5772b2o98b2o190b2o98b2o5772b2o3b2o11b$11974b$11974b$11974b$11974b$11974b$11974b$11974b$11974b$5958b2o54b2o5958b$5958b2o54b2o5958b$11974b$19b3o11930b3o19b$11974b$11974b$11974b$5609b3o750b3o5609b$5782b2o114b2o174b2o114b2o5782b$5607bo5bo168b2o114b2o174b2o114b2o168bo5bo1973bo3633b$5607bo5bo746bo5bo1973b2o3632b$5607bo5bo746bo5bo1972bobo3632b$11974b$5609b3o354b2o38b2o354b3o5609b$3638bo2327b2o38b2o5966b$3637b2o8335b$3637bobo8334b$11974b$11974b$16b2o11938b2o16b$15bo2bo11936bo2bo15b$11b2o2bo2bo5771b2o98b2o190b2o98b2o5771bo2bo2b2o11b$11b2o3b2o5772b2o98b2o190b2o98b2o5772b2o3b2o11b$11974b$11974b$11974b$11974b$11974b$11974b$11974b$11974b$5958b2o54b2o5958b$5958b2o54b2o5958b$11974b$19b3o11930b3o19b$11974b$11974b$11974b$5609b3o750b3o1915bo3693b$5782b2o114b2o174b2o114b2o2088b2o3692b$5607bo5bo168b2o114b2o174b2o114b2o168bo5bo1912bobo3692b$5607bo5bo746bo5bo5607b$5607bo5bo746bo5bo5607b$3698bo8275b$3697b2o1910b3o750b3o5609b$3697bobo8274b$11974b$11974b$11974b$11974b$16b2o11938b2o16b$15bo2bo11936bo2bo15b$11b2o2bo2bo5771b2o390b2o5771bo2bo2b2o11b$11b2o3b2o5772b2o390b2o5772b2o3b2o11b$11974b$5816bo6157b$5814b2o6158b$5815b2o6157b$11974b$11974b$6162bo5811b$6163b2o5809b$5958b2o54b2o146b2o5810b$5958b2o54b2o5953b3o2b$11969bo2bob$19b3o11930b3o14bo4b$11969bo3bo$8220bo3748bo3bo$8220b2o3747bo4b$5609b3o750b3o1854bobo3748bobob$5782b2o114b2o174b2o114b2o5782b$5607bo5bo168b2o114b2o174b2o114b2o168bo5bo5607b$3758bo1848bo5bo746bo5bo5607b$2b3o3752b2o1848bo5bo746bo5bo5607b$bo2bo3752bobo8214b$4bo5604b3o750b3o5609b$o3bo11969b$o3bo11969b$4bo11969b$bobo11970b$11974b$16b2o11938b2o16b$15bo2bo11936bo2bo15b$11b2o2bo2bo5771b2o390b2o5771bo2bo2b2o11b$11b2o3b2o5772b2o390b2o5772b2o3b2o11b$11974b$11974b$11974b$11974b$11974b$11974b$11974b$11974b$5958b2o54b2o5958b$5958b2o54b2o5958b$11974b$19b3o8138bo3791b3o19b$8160b2o3812b$8159bobo3812b$11974b$5609b3o750b3o5609b$3818bo1963b2o114b2o174b2o114b2o5782b$3817b2o1788bo5bo168b2o114b2o174b2o114b2o168bo5bo5607b$3817bobo1787bo5bo746bo5bo5607b$5607bo5bo746bo5bo5607b$11974b$5609b3o750b3o5609b$11974b$11974b$6189b2o5783b$6187b4o5783b$6187bo2bo5783b$16b2o6163b2o3b2o4b2o5762b2o16b$15bo2bo6160b2o2bo3b3o3b2o5760bo2bo15b$11b2o2bo2bo6160bo2b3o2bob2ob2o5761bo2bo2b2o11b$11b2o3b2o5768bo392bo4bo4b4o5763b2o3b2o11b$5785b3o392b5o5789b$5784bo2b2o393b2o5790b$5783b2o6189b$5782b2ob3o6186b$5782b2o2bo6187b$5785b3o6186b$5783b2o6189b$5783b2o405b2o5782b$5958b2o54b2o174b2o5782b$5958b2o54b2o2084bo3873b$5791bo2308b2o3872b$19b3o5767bobo2307bobo3850b3o19b$5790b2o6182b$11974b$3878bo8095b$3877b2o1730b3o565bo184b3o5609b$3877bobo2018b2o174b2o101bobo5794b$5607bo5bo284b2o174b2o101b2o181bo5bo5607b$5607bo5bo746bo5bo5607b$5607bo5bo581b3o162bo5bo5607b$5790b2o390b2o13bo5776b$5609b3o178b2o390b2o12bo165b3o5609b$11974b$11974b$5781b3o6190b$5781bo6192b$5782bo6191b$16b2o11938b2o16b$15bo2bo11936bo2bo15b$11b2o2bo2bo11936bo2bo2b2o11b$11b2o3b2o11938b2o3b2o11b$11974b$11974b$11974b$11974b$11974b$11969b3o2b$11969bo2bob$5782b2o406b2o1848bo3928bo4b$5782b2o174b2o54b2o174b2o145b2o1701b2o3927bo3bo$5958b2o54b2o320bobo1700bobo3927bo3bo$6338bo5630bo4b$19b3o11930b3o15bobob$3938bo8035b$3937b2o1701b2o6332b$3937bobo1700bobo6331b$2b3o5635bo6333b$bo2bo5893b2o6074b$4bo5893b2o174b2obo57b3o5836b$o3bo6069bo2b2o58bo5836b$o3bo6069bo2b5o54bo5837b$4bo5785b2o282bobo3bo101b2o5790b$bobo5786b2o282b3o2bobo100b2o5790b$5841b3o55b3o172b3o2bobo5892b$5841bo56bo2bo2b2o2bo170bobo6b2o5884b$5842bo50bo6b4obo2bo172bo6b4o5882b$5882bo9b2o8bo183b2o3b2o5881b$5882bo3b3o2bobo8bo4bo177bob3ob3o5880b$16b2o5863bo7bo2bo13b2o158b2o16b2obo5868b2o16b$15bo2bo5862b2o4bo2bo2b2o166bo4bo19bo5868bo2bo15b$11b2o2bo2bo5863b5o5bo14b2o152bo5bo5887bo2bo2b2o11b$11b2o3b2o5868bo5b2o12b2o153b3ob3ob2o5885b2o3b2o11b$5884bobo7bo8bobo9bo147bob3ob2o2b2o5899b$5884bobo17b2o10bo146bo4b3o4bo5898b$5914b3o155bobo5899b$6069bob3o5900b$6070bo5903b$6053bo1926bo3993b$6052bo224b2o1701b2o3992b$5782b2o114b2o152b3o19b2o114b2o84bobo1700bobo3992b$5782b2o114b2o58b2o54b2o58b2o114b2o86bo5695b$5958b2o54b2o5958b$3998bo7975b$19b3o3975b2o1701b2o6250b3o19b$3997bobo1700bobo6271b$5700bo6273b$11974b$6075b3o5896b$6077bo5896b$6076bo5897b$11974b$11974b$5790b2o98b2o9b3o106b3o69b2o98b2o5790b$5790b2o98b2o9bo107bo2bo69b2o98b2o5790b$5902bo105bo4bo5960b$6010bo5963b$11974b$5876bo134b2o5961b$5874b2o134bobo5961b$16b2o5857b2o86bo46bobo5943b2o16b$15bo2bo5943b2o5991bo2bo15b$11b2o2bo2bo5942bo54bo5938bo2bo2b2o11b$11b2o3b2o5944b2o50bo87bo5853b2o3b2o11b$5962bobo49b2o87b2o5869b$5963bo138b2o5870b$5963bobo6008b$5967bo37bo1914bo4053b$5965bobo36bo212b2o1701b2o4052b$6004b3o209bobo1700bobo4052b$6218bo5755b$5782b2o114b2o174b2o114b2o5782b$4058bo1723b2o67bo46b2o174b2o114b2o5782b$4057b2o1701b2o87bobo6122b$4057bobo1700bobo87b2o6122b$19b3o5738bo6191b3o19b$5966b2o38b2o5966b$5955bo10b2o38b2o109bo5856b$6117bobo5854b$6117b2o5855b$11974b$11974b$11974b$11974b$5790b2o98b2o190b2o98b2o5790b$5790b2o98b2o190b2o98b2o5790b$11974b$11974b$11974b$11974b$11974b$16b2o11938b2o16b$15bo2bo11936bo2bo15b$11b2o2bo2bo11936bo2bo2b2o11b$11b2o3b2o5940b2o54b2o5940b2o3b2o11b$5958b2o54b2o5958b$7860bo4108b3o2b$6157b2o1701b2o4107bo2bob$6156bobo1700bobo4107bo4b$6158bo5810bo3bo$11969bo3bo$4118bo7850bo4b$4117b2o1663b2o36b2o76b2o174b2o114b2o5778bobob$4117bobo1662b2o36bobo75b2o174b2o114b2o5782b$5820bo6153b$11974b$2b3o14b3o11930b3o19b$bo2bo5961b2o38b2o5966b$4bo5961b2o38b2o5966b$o3bo11969b$o3bo11969b$4bo11969b$bobo11970b$11974b$11974b$5790b2o98b2o190b2o98b2o5790b$5790b2o98b2o190b2o98b2o5790b$11974b$11974b$11974b$11974b$11974b$16b2o11938b2o16b$15bo2bo11936bo2bo15b$11b2o2bo2bo11936bo2bo2b2o11b$11b2o3b2o5940b2o54b2o1784bo4155b2o3b2o11b$5958b2o54b2o81b2o1701b2o4172b$6096bobo1700bobo4172b$6098bo5875b$11974b$4178bo7795b$4177b2o1701b2o6092b$4177bobo1700bobo6091b$5782b2o96bo17b2o174b2o114b2o5782b$5782b2o114b2o174b2o114b2o5782b$11974b$11974b$19b3o11930b3o19b$11974b$11974b$11974b$11974b$11974b$11974b$11974b$11974b$5790b2o390b2o5790b$5790b2o390b2o5790b$11974b$5816bo6157b$5814b2o6158b$5815b2o6157b$11974b$16b2o11938b2o16b$15bo2bo6143bo1577bo4214bo2bo15b$11b2o2bo2bo6018b2o124b2o1575b2o4213bo2bo2b2o11b$11b2o3b2o5940b2o54b2o20bobo123b2o1575bobo4214b2o3b2o11b$5958b2o54b2o22bo5935b$11974b$4238bo7735b$4237b2o1701b2o6032b$4237bobo1700bobo6031b$5940bo6033b$11974b$5782b2o114b2o174b2o114b2o5782b$5782b2o114b2o174b2o114b2o5782b$11974b$11974b$19b3o11930b3o19b$11974b$11974b$11974b$11974b$11974b$11974b$11974b$11974b$5790b2o390b2o5790b$5790b2o390b2o5790b$11974b$11974b$11974b$11974b$7680bo4293b$16b2o5959b2o1701b2o4274b2o16b$15bo2bo5957bobo1700bobo4273bo2bo10b3o2b$11b2o2bo2bo5959bo5976bo2bo2b2o6bo2bob$11b2o3b2o5940b2o54b2o5940b2o3b2o6bo4b$4298bo1659b2o54b2o5953bo3bo$4297b2o1701b2o5967bo3bo$4297bobo1700bobo5966bo4b$6000bo5969bobob$11974b$11974b$11974b$2b3o5777b2o114b2o174b2o114b2o5782b$bo2bo5777b2o114b2o174b2o114b2o5782b$4bo11969b$o3bo11969b$o3bo14b3o11930b3o19b$4bo11969b$bobo11970b$11974b$11974b$11974b$11974b$11974b$11974b$11974b$11974b$11974b$11974b$7620bo4353b$5917b2o1701b2o4352b$5916bobo1700bobo4352b$16b2o5900bo6037b2o16b$15bo2bo11936bo2bo15b$11b2o2bo2bo4339bo7596bo2bo2b2o11b$11b2o3b2o4339b2o1599b2o54b2o44b2o5894b2o3b2o11b$4357bobo1598b2o54b2o44bobo5911b$6060bo5913b$11974b$11974b$11974b$11974b$11974b$5782b2o114b2o174b2o114b2o5782b$5782b2o114b2o174b2o114b2o5782b$11974b$11974b$19b3o11930b3o19b$11974b$11974b$11974b$11974b$11974b$11974b$11974b$11974b$11974b$11974b$7560bo4413b$5857b2o1701b2o4412b$5856bobo1700bobo4412b$5858bo6115b$11974b$16b2o4400bo7537b2o16b$15bo2bo4398b2o1371bo329b2o5833bo2bo15b$11b2o2bo2bo4398bobo1369b3o328bobo5832bo2bo2b2o11b$11b2o3b2o5770b5o165b2o54b2o104bo5835b2o3b2o11b$5787b3ob2o165b2o54b2o5958b$5787b2ob2o6182b$5789bo6184b$11974b$11974b$6183bo5790b$6182b3o5789b$5898b2o174b2o105b2o2bo5788b$5898b2o174b2o105bo3bo5788b$6181bob2o5789b$5780b2o399b2o9b2o5780b$19b3o5758b2o8b2o400b2o5758b3o19b$5790b2o6182b$11974b$11974b$11974b$5778b3o410bobo5780b$5778bo2bo410b2o5780b$5776bo5bo409bo5781b$5776bobo4bo6190b$5776b3o2bobo1716bo4473b$5782bo14b2o395b2o1304b2o4472b$5796bobo395b2o1303bobo4472b$5798bo6175b$11969b3o2b$4478bo7490bo2bob$4477b2o1701b2o5787bo4b$16b2o4459bobo1700bobo5773b2o11bo3bo$15bo2bo6161bo5774bo2bo10bo3bo$11b2o2bo2bo5763b2o406b2o5763bo2bo2b2o6bo4b$11b2o3b2o5764b2o174b2o54b2o174b2o5764b2o3b2o7bobob$5958b2o54b2o5958b$11974b$11974b$2b3o11969b$bo2bo11969b$4bo11969b$o3bo11969b$o3bo5893b2o174b2o5898b$4bo5893b2o174b2o5898b$bobo11970b$11974b$19b3o5768b2o390b2o5768b3o19b$5790b2o390b2o5790b$11974b$11974b$11974b$11974b$11974b$7440bo4533b$5737b2o1701b2o4532b$5736bobo1700bobo4532b$5738bo6235b$11974b$4538bo1705bo5729b$4537b2o1701b2o3b2o5727b$4537bobo1700bobo5731b$6240bo5733b$16b2o11938b2o16b$15bo2bo11936bo2bo15b$11b2o2bo2bo5763b2o406b2o5763bo2bo2b2o11b$11b2o3b2o5764b2o174b2o54b2o174b2o5764b2o3b2o11b$5958b2o54b2o5958b$11974b$11974b$11974b$11974b$11974b$11974b$5898b2o174b2o5898b$5898b2o174b2o5898b$11974b$11974b$19b3o5768b2o390b2o5768b3o19b$5790b2o390b2o5790b$11974b$11974b$11974b$5783b2o1595bo4593b$5782b2o1596b2o4592b$5784bo1594bobo4592b$6133bobo5838b$6133b2o5839b$4598bo1535bo49b2o5788b$4597b2o1586b2o5787b$4597bobo1584bo5789b$5843bobo6128b$5844b2o6128b$5844bo6129b$16b2o11938b2o16b$15bo2bo11936bo2bo15b$11b2o2bo2bo5763b2o406b2o5763bo2bo2b2o11b$11b2o3b2o5764b2o174b2o54b2o174b2o5764b2o3b2o11b$5958b2o54b2o5958b$11974b$11974b$11974b$11974b$11974b$11974b$5898b2o174b2o5898b$5898b2o174b2o5898b$11974b$11974b$19b3o5768b2o390b2o5768b3o19b$5790b2o390b2o5790b$5899b2o6073b$5843b2o49b2o2bo2bo172b2o1244bo4653b$5842b2o49b3o2bo7b2o166b2o1244b2o4652b$5844bo48b3ob2o4bo3b2o1410bobo4652b$5883b2o3bobo2b3ob4o2bobo2bo167bo5897b$5882b3o3bo2bobo9b4ob2o155b3o7bobo13bo5882b$4658bo1224bo3bo7bo8bo3bo155bo3bo9bo10b2ob2o30b2o5848b$37bo4619b2o1227b2o7bo8b2obo157bo2bo5b2o2bo2b2o6bo35b2o5842b3o2b$36b2o4619bobo1234bo10b2o6bo151bo2bo5b3ob2ob2o6bo3bo30bo5844bo2bob$36bobo5844b4o6bo20b2o151bo7bo2bo11b3o5876bo4b$5888bo3bo20b2o153b2o3b2ob2o5891bo3bo$5884b4o185b5o5891bo3bo$5886bo186b3o5855bo37bo4b$11931b2o37bobob$11930bobo41b$15b2o11940b2o15b$11b2o2b2o5765b2o114b2o174b2o114b2o5765b2o2b2o11b$2b3o6b2o5769b2o114b2o58b2o54b2o58b2o114b2o5769b2o11b$bo2bo5953b2o54b2o5958b$4bo11969b$o3bo11969b$o3bo11969b$4bo11969b$bobo11970b$11974b$11974b$11974b$11974b$6092bo5881b$19b3o5768b2o98b2o190b2o6bobo89b2o5768b3o19b$5790b2o98b2o11b2o177b2o7b2o89b2o1076bo4713b$5902b2o1356b2o4712b$5904bo1354bobo4712b$5876bo6097b$5876bobo6095b$4718bo1157b2o186b2o5908b$97bo4619b2o1246bobo97b2o5907b$96b2o4619bobo1244bo2bo96bo5909b$96bobo5864b2o3bo6005b$5968bo6005b$11974b$5963b3o2bo5902bo102b$5967b2o5902b2o101b$5964b3o40bo5862bobo101b$5964b3o39b3o5965b$6006bob2o5964b$15b2o5988b2o5950b2o15b$11b2o2b2o5765b2o114b2o105b2o67b2o114b2o5765b2o2b2o11b$11b2o5769b2o114b2o105b2o67b2o114b2o5769b2o11b$6009bo5964b$6008b2o5964b$5956b2o48bobo7b2o5956b$5956b2o8b2o37bo2bo7b2o5956b$5956bo9b2o38b2o5966b$5955bo6018b$5955b2o6017b$5955b3o6016b$5956b2o6016b$5951bo65bo5956b$6018b2o1180bo4773b$19b3o5768b2o226b2o162b2o1016b2o4750b3o19b$5790b2o390b2o1015bobo4772b$6017bo5956b$6018b2o5954b$4778bo7195b$157bo4619b2o7195b$156b2o4619bobo7194b$156bobo11815b$11974b$11974b$5958b2o54b2o5795bo162b$5958b2o54b2o5795b2o161b$11810bobo161b$11974b$11974b$11974b$11974b$15b2o11940b2o15b$11b2o2b2o5765b2o114b2o174b2o114b2o5765b2o2b2o11b$11b2o5769b2o114b2o174b2o114b2o5769b2o11b$11974b$11974b$11974b$5966b2o38b2o5966b$5966b2o38b2o5966b$11974b$11974b$11974b$7140bo4833b$7140b2o4832b$7139bobo4832b$19b3o5768b2o390b2o5768b3o19b$5790b2o390b2o5790b$4838bo7135b$217bo4619b2o7135b$216b2o4619bobo7134b$216bobo11750b3o2b$11969bo2bob$11969bo4b$11751bo217bo3bo$11751b2o216bo3bo$5958b2o54b2o5734bobo216bo4b$5958b2o54b2o5954bobob$11974b$11974b$11974b$2b3o11969b$bo2bo11969b$4bo10b2o11940b2o15b$o3bo6b2o2b2o5765b2o114b2o174b2o114b2o5765b2o2b2o11b$o3bo6b2o5769b2o114b2o174b2o114b2o5769b2o11b$4bo11969b$bobo11970b$11974b$11974b$11974b$11974b$7080bo4893b$7080b2o4892b$6152bo926bobo4892b$6150bobo5821b$6151b2o5821b$19b3o4876bo891b2o390b2o5768b3o19b$277bo4619b2o891b2o390b2o5790b$276b2o4619bobo916bo6157b$276bobo5537bobo6155b$5816b2o6156b$11974b$11691bo282b$11691b2o281b$11690bobo281b$11974b$5958b2o54b2o5958b$5958b2o54b2o5958b$11974b$11974b$11974b$11974b$11974b$15b2o11940b2o15b$11b2o2b2o5765b2o114b2o174b2o114b2o5765b2o2b2o11b$11b2o5769b2o114b2o174b2o114b2o5769b2o11b$11974b$11974b$11974b$11974b$7020bo4953b$7020b2o4952b$7019bobo4952b$11974b$11974b$4958bo7015b$337bo4619b2o7015b$19b3o314b2o4619bobo830b2o390b2o5768b3o19b$336bobo5451b2o390b2o5790b$11974b$11974b$11631bo342b$11631b2o341b$11630bobo341b$11974b$11974b$11974b$5958b2o54b2o5958b$5958b2o54b2o5958b$11974b$11974b$11974b$11974b$11974b$15b2o11940b2o15b$11b2o2b2o5765b2o114b2o174b2o114b2o5765b2o2b2o11b$11b2o5769b2o114b2o174b2o114b2o5769b2o11b$11974b$11974b$6960bo5013b$6191b3o766b2o5012b$6191b3o2bo762bobo5012b$6191bob3obo5776b$5783b3o398b3o8bobo5776b$5018bo756b2o4b2o3bo392b2o5bo11bo5775b$397bo4619b2o756bobo3bo5bo385b2o3b4obo14b2o5774b$396b2o4619bobo750bobo2b3o4bo4bo7b2o375b2o4bob2o4bo10bo2bo5773b$396bobo5371bo5bo7bo9bobo375b2o12bo10bo2bo5773b$19b3o5748bo3bo9bo8b2obo376b3o10bo10bo3bo5750b3o19b$5771bo2bo10bo8b6o374b3o3bo2bo2bo10bo2bo5768b3o2b$5773bo21bo4bo377b2o4b2o10b2obo5371bo397bo2bob$5786b2o9bo2bo395b2o10bo5362b2o396bo4b$5786bo11b2o406bobo5361bobo396bo3bo$6207b2o5760bo3bo$11969bo4b$11970bobob$11974b$5782b2o406b2o5782b$5782b2o174b2o54b2o174b2o5782b$2b3o5953b2o54b2o5958b$bo2bo11969b$4bo11969b$o3bo11969b$o3bo11969b$4bo11969b$bobo11b2o11940b2o15b$11b2o2b2o5881b2o174b2o5881b2o2b2o11b$11b2o5885b2o174b2o5885b2o11b$6900bo5073b$6900b2o5072b$5790b2o390b2o715bobo5072b$5790b2o8bobo379b2o5790b$5801b2o6171b$5078bo722bo6172b$457bo4619b2o6895b$456b2o4619bobo6894b$456bobo5707bobo5805b$6166b2o5806b$6167bo5806b$19b3o11489bo440b3o19b$11511b2o461b$11510bobo461b$11974b$11974b$11974b$11974b$11974b$11974b$5782b2o406b2o5782b$5782b2o174b2o54b2o174b2o5782b$5958b2o54b2o5958b$11974b$11974b$11974b$11974b$11974b$15b2o11940b2o15b$11b2o2b2o5881b2o174b2o764bo5116b2o2b2o11b$11b2o5885b2o174b2o764b2o5119b2o11b$6839bobo5132b$11974b$5790b2o390b2o5790b$5138bo651b2o390b2o5790b$517bo4619b2o6835b$516b2o4619bobo6834b$516bobo11455b$11974b$11974b$11451bo522b$11451b2o521b$19b3o11428bobo499b3o19b$11974b$5729b3o510b3o5729b$11974b$5727bo5bo506bo5bo5727b$5727bo5bo477b2o27bo5bo5727b$5727bo5bo476bobo27bo5bo5727b$6212bo5761b$5729b3o510b3o5729b$5782b2o406b2o5782b$5766b2o14b2o174b2o54b2o174b2o5782b$5766bobo189b2o54b2o5958b$5766bo6207b$11974b$11974b$11974b$6780bo5193b$15b2o6763b2o5175b2o15b$11b2o2b2o5881b2o174b2o703bobo5175b2o2b2o11b$11b2o5885b2o174b2o5885b2o11b$11974b$5198bo6775b$577bo4619b2o591b2o390b2o5790b$576b2o4619bobo590b2o390b2o5790b$576bobo11395b$11974b$11974b$11391bo582b$11391b2o576b3o2b$11390bobo576bo2bob$11969bo4b$19b3o11930b3o14bo3bo$11969bo3bo$5729b3o510b3o5724bo4b$6151b2o5817bobob$5727bo5bo416bobo87bo5bo5727b$5727bo5bo418bo87bo5bo5727b$5727bo5bo506bo5bo5727b$2b3o11969b$bo2bo5724b3o94b2o414b3o5729b$4bo5777b2o42bobo361b2o5782b$o3bo5777b2o42bo131b2o54b2o174b2o5782b$o3bo5953b2o54b2o5958b$4bo11969b$bobo11970b$5901bo818bo5253b$5897b2obobo817b2o5252b$5896bo5b2o815bobo5252b$15b2o11940b2o15b$11b2o2b2o5879bo6bo6053b2o2b2o11b$11b2o5245bo638bo3b2o6058b2o11b$637bo4619b2o637bo4bo6072b$636b2o4619bobo600bobo32bo3b2o176bo5896b$636bobo5151b2o69b2o32b2o4bo174b3o103b2o5790b$5790b2o69bo34b4obo174b4o102b2o5790b$5890bo7b2ob2o170b2obo3b2o5892b$5890bo10bo169b2o2b2o5254bo642b$5890bo9bo172bo2bobo3bo23bobo5222b2o641b$6076bo4bo24b2o5222bobo641b$6077bob2o26bo5866b$6079b2o5893b$11974b$19b3o11930b3o19b$5902b2o166b2o19b2o5881b$5729b3o170b2o166b2o18bobo149b3o5729b$6092bo5881b$5727bo5bo506bo5bo5727b$5727bo5bo506bo5bo5727b$5727bo5bo152b2o352bo5bo5727b$5886bobo6085b$5729b3o154bo355b3o5729b$5782b2o114b2o174b2o114b2o5782b$5782b2o114b2o58b2o54b2o58b2o114b2o5782b$5958b2o54b2o5958b$6660bo5313b$6660b2o5312b$6015b2o642bobo5312b$6014bo4b3o5952b$6010bo3bobo4b2o5951b$15b2o5301bo641b3o46b3o3b2o2bo3bo5933b2o15b$11b2o2b2o680bo4619b2o612bo20bo7bo46b2o2bo9b2o5934b2o2b2o11b$11b2o683b2o4619bobo609bobo19b4ob2obobo9bo30bo4b3o5951b2o11b$696bobo5231b2o18bo2b3obobo3bo5bo3bo22b3o3bobo5bo13b2o5948b$5949b3o3b2o4b2o11bo27bob2ob4o12bo2bo5947b$5790b2o98b2o54bo3bobobo4bo7b2o5b2o35bo11bobo56b2o98b2o5790b$5790b2o98b2o52b2o4b3o7b2o5bo8bo30b2ob2o9bo2b2o11bo44b2o98b2o5087bo702b$5945b2o5bo7bo6bo4bobo31b2o2bo8b3o2b2o11bobo5231b2o701b$5968b3o3bo2bo29b3o9bo17b2o5231bobo701b$5973bo2b2o30bo10bobo5952b$5973b3o44b2o10bo5941b$5974bo58b2o5939b$6032b2o5940b$11974b$19b3o11930b3o19b$5958b2o54b2o5958b$5729b3o226b2o54b2o226b3o5729b$11974b$5727bo5bo506bo5bo5727b$5727bo5bo506bo5bo5727b$5727bo5bo506bo5bo5727b$11974b$5729b3o510b3o5729b$5782b2o114b2o174b2o114b2o5782b$5782b2o114b2o174b2o114b2o408bo5373b$6600b2o5372b$5859bobo737bobo5372b$5859b2o6113b$5860bo105b2o38b2o5966b$5378bo587b2o38b2o5966b$757bo4619b2o600bo5994b$15b2o739b2o4619bobo597bobo137bobo5837b2o15b$11b2o2b2o739bobo5219b2o138b2o5837b2o2b2o11b$11b2o6105bo5842b2o11b$11974b$5989bo5221bo762b$5790b2o197bobo190b2o5027b2o761b$5790b2o197b2o191b2o5026bobo761b$11969b3o2b$11969bo2bob$11969bo4b$11969bo3bo$11969bo3bo$11969bo4b$11970bobob$19b3o11930b3o19b$5958b2o54b2o5958b$5729b3o226b2o54b2o226b3o5729b$2b3o11969b$bo2bo5722bo5bo506bo5bo5727b$4bo5722bo5bo506bo5bo5727b$o3bo5722bo5bo506bo5bo5727b$o3bo11969b$4bo5724b3o510b3o295bo5433b$bobo5778b2o114b2o174b2o114b2o348b2o5432b$5782b2o114b2o174b2o114b2o347bobo5432b$11974b$11974b$5438bo6535b$817bo4619b2o527b2o38b2o5966b$816b2o4619bobo526b2o38b2o5966b$816bobo11155b$15b2o11940b2o15b$11b2o2b2o11940b2o2b2o11b$11b2o11138bo809b2o11b$11151b2o821b$11150bobo821b$5790b2o390b2o5790b$5790b2o390b2o5790b$11974b$11974b$11974b$11974b$11974b$11974b$11974b$19b3o11930b3o19b$5958b2o54b2o5958b$5729b3o226b2o54b2o226b3o5729b$11974b$5727bo5bo506bo5bo5727b$5727bo5bo506bo5bo5727b$5727bo5bo506bo5bo233bo5493b$6480b2o5492b$5729b3o510b3o234bobo5492b$5782b2o114b2o174b2o114b2o5782b$5782b2o114b2o174b2o114b2o5782b$5498bo6475b$877bo4619b2o6475b$876b2o4619bobo6474b$876bobo11095b$11974b$11974b$15b2o11074bo865b2o15b$11b2o2b2o11074b2o864b2o2b2o11b$11b2o11077bobo868b2o11b$11974b$11974b$5790b2o390b2o5790b$5790b2o390b2o5790b$11974b$11974b$11974b$11974b$11974b$11974b$11974b$19b3o11930b3o19b$5958b2o54b2o5958b$5729b3o226b2o54b2o226b3o5729b$11974b$5727bo5bo506bo5bo173bo5553b$5727bo5bo506bo5bo173b2o5552b$5727bo5bo506bo5bo172bobo5552b$11974b$5729b3o510b3o5729b$5558bo223b2o114b2o174b2o114b2o5782b$937bo4619b2o223b2o15bobo96b2o174b2o114b2o5782b$936b2o4619bobo239b2o6173b$936bobo4861bo6173b$11974b$11974b$6177bobo4851bo942b$6178b2o4851b2o941b$15b2o6161bo4851bobo924b2o15b$11b2o2b2o11940b2o2b2o11b$11b2o11948b2o11b$11969b3o2b$11969bo2bob$5790b2o390b2o5785bo4b$5790b2o390b2o5785bo3bo$11969bo3bo$11969bo4b$11970bobob$11974b$11974b$11974b$2b3o11969b$bo2bo14b3o11930b3o19b$4bo5953b2o54b2o5958b$o3bo5724b3o226b2o54b2o167bo58b3o115bo5613b$o3bo6177bobo175b2o5612b$4bo5722bo5bo447b2ob2o54bo5bo112bobo5612b$bobo5723bo5bo448bo2bo54bo5bo5727b$5727bo5bo448bo3bo53bo5bo5727b$5618bo563bo5791b$997bo4619b2o110b3o510b3o5729b$996b2o4619bobo278b2o174b2o5898b$996bobo4790b2o107b2o174b2o5898b$5789bobo6182b$5780b2o7b3o400b2o5780b$5780b2o7b5o388bo9b2o4777bo1002b$5792b2o388b2o4787b2o1001b$5784bo4bob2o5177bobo1001b$5782b2o6bo6183b$15b2o5766b2o5bo6166b2o15b$11b2o2b2o11940b2o2b2o11b$11b2o6181bo5766b2o11b$6192b2obo5778b$6192b2o5780b$6192bo5781b$5778b2o413b2o5779b$5778b2o414bo5779b$11974b$11974b$11974b$11974b$11974b$11974b$19b3o5760b2o406b2o108bo5651b3o19b$5782b2o174b2o54b2o174b2o108b2o5672b$5729b3o226b2o54b2o226b3o54bobo5672b$11974b$5727bo5bo506bo5bo5727b$5678bo48bo5bo506bo5bo5727b$1057bo4619b2o48bo5bo506bo5bo5727b$1056b2o4619bobo6294b$1056bobo4670b3o510b3o5729b$5898b2o174b2o5898b$5898b2o174b2o5898b$10911bo1062b$10911b2o1061b$5790b2o390b2o4726bobo1061b$5790b2o390b2o5790b$11974b$11974b$15b2o11940b2o15b$11b2o2b2o11940b2o2b2o11b$11b2o11948b2o11b$11974b$11974b$11974b$11974b$5735bo6238b$5734bo6239b$5734b3o6237b$11974b$11974b$11974b$6240b2ob2o5729b$19b3o5760b2o406b2o49bo5710b3o19b$5782b2o174b2o54b2o174b2o49bob2o5729b$5729b3o226b2o54b2o224b3o5731b$11974b$1117bo4609bo5bo502b5o5bo5727b$1116b2o4609bo5bo504bo7bo5727b$1116bobo4608bo5bo7bo504bo5727b$5740b2o6232b$5729b3o8bobo499b3o5729b$5898b2o174b2o4775bo1122b$5898b2o174b2o4775b2o1121b$10850bobo1121b$11974b$5790b2o390b2o5790b$5790b2o390b2o5790b$11974b$11969b3o2b$15b2o11940b2o10bo2bob$11b2o2b2o5819bo6120b2o2b2o6bo4b$11b2o5824b2o6122b2o6bo3bo$5836b2o6131bo3bo$11969bo4b$11970bobob$6132bo5841b$6130b2o5842b$6131b2o5841b$2b3o11969b$bo2bo11969b$4bo11969b$o3bo11969b$o3bo6172bo5796b$4bo14b3o5760b2o393b2o11b2o5760b3o19b$bobo5778b2o174b2o54b2o160bobo11b2o5782b$1177bo4780b2o54b2o5958b$1176b2o10796b$1176bobo4622bo6172b$5800b2o6172b$5800bobo6171b$10791bo1182b$10791b2o1181b$5898b2o174b2o4714bobo1181b$5898b2o174b2o5898b$11974b$11974b$5790b2o390b2o5790b$5790b2o390b2o5790b$11974b$11974b$15b2o11940b2o15b$11b2o2b2o11940b2o2b2o11b$11b2o11948b2o11b$11974b$6077b3o5894b$6077bo2bo5893b$6076bo4bo5892b$6079bo5894b$11974b$6077b2o5895b$6077bobo5894b$5894bo182bobo37bo5856b$5894b2o221b2o5855b$5896bo176bo42bobo5855b$19b3o1215bo4544b2o110b2o179bo114b2o5760b3o19b$1236b2o4544b2o109bobo62b2o54b2o58b2o114b2o5782b$1236bobo4622bo32bo63b2o54b2o5958b$5860b2o30bobo6079b$5860bobo27bo193bo5889b$5890bobo192bo4645bo1242b$6083b3o4645b2o1241b$10730bobo1241b$11974b$11974b$11974b$11974b$11974b$5790b2o98b2o190b2o98b2o5790b$5790b2o98b2o10bo179b2o98b2o5790b$11974b$11974b$15b2o11940b2o15b$11b2o2b2o11940b2o2b2o11b$11b2o11948b2o11b$11974b$11974b$11974b$11974b$11974b$11974b$6057bo5916b$6057b2o5915b$6056bobo5915b$1297bo10676b$1296b2o10676b$19b3o1274bobo4483b2o114b2o21bo86b2o64b2o114b2o5760b3o19b$5782b2o114b2o20b2o39bo45b3o64b2o114b2o5782b$5920bobo39bo44b3o5964b$5958bobob2o43bo4663bo1302b$5957bobobo48b2o4b2o4653b2o1301b$5956bo50b3obo4b2o4652bobo1301b$5957bo49b4o5963b$5964b3o42b2o5963b$5964bo2bo6006b$5965b3o6006b$11974b$11974b$5962bo6006b3o2b$5790b2o214bo175b2o5785bo2bob$5790b2o213bobo174b2o5785bo4b$5954b2o49bo12b2o5949bo3bo$5954b2o50bo11b2o5949bo3bo$15b2o11940b2o10bo4b$11b2o2b2o11940b2o2b2o7bobob$11b2o11948b2o11b$11974b$11974b$2b3o11969b$bo2bo5953b2o54b2o5958b$4bo5953b2o54b2o5958b$o3bo11969b$o3bo11969b$4bo1352bo10616b$bobo1352b2o10616b$1356bobo10615b$11974b$19b3o5760b2o114b2o174b2o114b2o5760b3o19b$5782b2o114b2o174b2o114b2o4419bo1362b$10611b2o1361b$10610bobo1361b$11974b$5966b2o38b2o5966b$5966b2o38b2o5966b$11974b$11974b$11974b$11974b$11974b$11974b$5790b2o390b2o5790b$5790b2o390b2o5790b$11974b$11974b$15b2o11940b2o15b$11b2o2b2o11940b2o2b2o11b$11b2o11948b2o11b$11974b$11974b$11974b$5958b2o54b2o5958b$5958b2o54b2o5958b$1417bo10556b$1416b2o10556b$1416bobo10555b$5834bo6139b$5833bo6140b$5833b3o4715bo1422b$19b3o5760b2o114b2o174b2o114b2o4359b2o1399b3o19b$5782b2o114b2o174b2o114b2o4358bobo1421b$6003bobo138bo5829b$6004b2o139bo5828b$6004b3o136b3o5828b$6006b2o5966b$6006b2o5966b$11974b$11974b$11974b$11974b$11974b$11974b$5790b2o390b2o5790b$5790b2o390b2o5790b$11974b$11974b$15b2o11940b2o15b$11b2o2b2o11940b2o2b2o11b$11b2o11948b2o11b$11974b$11974b$11974b$1477bo4480b2o54b2o5958b$1476b2o4480b2o54b2o5958b$1476bobo10495b$11974b$11974b$10491bo1482b$10491b2o1481b$10490bobo1481b$19b3o5760b2o114b2o174b2o114b2o5760b3o19b$5782b2o114b2o174b2o114b2o5782b$11974b$11974b$11974b$11974b$11974b$11974b$11969b3o2b$11969bo2bob$11969bo4b$11969bo3bo$11969bo3bo$5790b2o390b2o5785bo4b$5790b2o390b2o5786bobob$11974b$11974b$15b2o11940b2o15b$2b3o6b2o2b2o11940b2o2b2o11b$bo2bo6b2o11948b2o11b$4bo11969b$o3bo1532bo10436b$o3bo1531b2o10436b$4bo1531bobo4419b2o54b2o5958b$bobo5954b2o54b2o5958b$11974b$10431bo1542b$10431b2o1541b$10430bobo1541b$11974b$11974b$19b3o5760b2o114b2o174b2o114b2o5760b3o19b$5782b2o114b2o174b2o114b2o5782b$11974b$11974b$6191b2o5781b$6190bo4b3o5776b$6186bo3bobo4b2o5775b$5784b3o398b3o3b2o2bo3bo5774b$5776bo7bo398b2o2bo9b2o5775b$5775b4ob2obobo9bo382bo4b3o5788b$5774bo2b3obobo3bo5bo3bo374b3o3bobo5bo13b2o5772b$5773b3o3b2o4b2o11bo379bob2ob4o12bo2bo5771b$5770bo3bobobo4bo7b2o5b2o387bo11bobo5772b$5768b2o4b3o7b2o5bo8bo382b2ob2o9bo2b2o5772b$5769b2o5bo7bo6bo4bobo383b2o2bo8b3o2b2o5772b$5792b3o3bo2bo381b3o9bo5778b$5797bo2b2o382bo10bobo5776b$15b2o5780b3o396b2o10bo5748b2o15b$11b2o2b2o5781bo410b2o5746b2o2b2o11b$11b2o1584bo4610b2o5751b2o11b$1596b2o10376b$1596bobo10375b$5782b2o406b2o15b3o5764b$5782b2o174b2o54b2o174b2o17bo5764b$5958b2o54b2o192bo4162bo1602b$10371b2o1601b$10370bobo1601b$5769b3o6202b$5769bo6204b$5770bo6203b$11974b$19b3o5876b2o174b2o5876b3o19b$5898b2o174b2o5898b$11974b$11974b$5790b2o390b2o5790b$5790b2o390b2o5790b$5803bo6170b$5801bobo6170b$5802b2o6170b$11974b$11974b$6165bo5808b$6165bobo5806b$6165b2o5807b$11974b$11974b$11974b$15b2o1640bo10299b2o15b$11b2o2b2o1639b2o10299b2o2b2o11b$11b2o1643bobo10302b2o11b$6147b3o5824b$6149bo5824b$5782b2o364bo41b2o4119bo1662b$5782b2o174b2o54b2o174b2o4119b2o1661b$5958b2o54b2o4294bobo1661b$5829b3o6142b$5829bo6144b$5830bo6143b$11974b$11974b$5898b2o6074b$19b3o5879bo6050b3o19b$5899bo3bo6070b$5898bo2bobo6070b$5898b2o6074b$5790b2o111b2o166b3o5bo102b2o5785b3o2b$5790b2o101bo2bo7bo174b2o101b2o5785bo2bob$5890bo180b3o4b2o3bo5885bo4b$5890bo8bo171b3o9bo5885bo3bo$5890bo8bobobo179bo5885bo3bo$5893bo3b4o6068bo4b$5899bo3bo6066bobob$5900bobo6071b$11974b$11974b$2b3o5897b2o166b2o5902b$bo2bo1712bo4184b2o166b2o5902b$4bo1711b2o10256b$o3bo10b2o1699bobo10238b2o15b$o3bo6b2o2b2o6070b3o5867b2o2b2o11b$4bo6b2o6076bo5871b2o11b$bobo6084bo4162bo1722b$10251b2o1721b$5782b2o114b2o174b2o114b2o4058bobo1721b$5782b2o105b3o6b2o58b2o54b2o58b2o114b2o5782b$5889bo68b2o54b2o5958b$5890bo6083b$11974b$5927bo6046b$5928bo6045b$5926b3o86bo5958b$5958b2o50b3obobo5957b$19b3o5936bo52b4ob2o3b3o5928b3o19b$6016bo2b5o17bo5932b$5950bo2bo5bo45b2o3b2o3bo3bo20bo5933b$5950bo2bo6bo37b3o3bo2bobo5bo4b5o15b3o5931b$5790b2o98b2o57bo5bo4b2o13bo24bo2bo6b3o11bo57b2o98b2o5790b$5790b2o98b2o58b2obobo5bo3b2o6b2ob2o20bob2o2b3o3bo10bobo58b2o98b2o5790b$5950bo4bobob2obo2b2o6bo2bo21bob2obo3b3o11b2o5bobo5943b$5951b8obobo11b2o24bob2o4bo20b2o5943b$5953b9o43bo23bo5944b$5954bo45b3o2bo5968b$5996bo4bo5972b$5996bo4bo5972b$5997bo2bo5973b$1777bo10196b$1776b2o4180b2o54b2o5958b$1776bobo4179b2o54b2o5958b$11974b$15b2o11940b2o15b$11b2o2b2o10174bo1765b2o2b2o11b$11b2o10178b2o1768b2o11b$10190bobo1781b$5864bo6109b$5782b2o78b2o34b2o174b2o114b2o5782b$5782b2o79b2o33b2o174b2o114b2o5782b$11974b$5975bo5998b$5976bo137bo5859b$5966b2o6b3o29b2o107b2o5857b$5966b2o38b2o106b2o5858b$11974b$5993bo5980b$19b3o5970bo5959b3o19b$5992b3o5979b$11974b$11974b$5790b2o71bo26b2o190b2o98b2o5790b$5790b2o69bobo26b2o190b2o98b2o5790b$5862b2o6110b$11974b$11974b$6105bo5868b$6105bobo5866b$1837bo4267b2o5867b$1836b2o10136b$1836bobo10135b$5958b2o54b2o5958b$5958b2o54b2o5958b$10131bo1842b$15b2o10114b2o1824b2o15b$11b2o2b2o10113bobo1824b2o2b2o11b$11b2o11948b2o11b$11974b$11974b$5782b2o114b2o174b2o114b2o5782b$5782b2o114b2o174b2o114b2o5782b$11974b$11974b$11974b$5966b2o38b2o5966b$5966b2o38b2o5966b$11974b$11974b$19b3o11930b3o14b3o2b$11969bo2bob$11969bo4b$11969bo3bo$5790b2o98b2o190b2o98b2o5785bo3bo$5790b2o98b2o190b2o98b2o5785bo4b$11970bobob$11974b$11974b$1897bo10076b$2b3o1891b2o10076b$bo2bo1891bobo10075b$4bo11969b$o3bo11969b$o3bo5953b2o54b2o4055bo1902b$4bo5953b2o54b2o4055b2o1901b$bobo10066bobo1901b$15b2o11940b2o15b$11b2o2b2o11940b2o2b2o11b$11b2o11948b2o11b$11974b$11974b$5782b2o114b2o174b2o114b2o5782b$5782b2o114b2o174b2o114b2o5782b$11974b$11974b$11974b$11974b$11974b$11974b$11974b$19b3o11930b3o19b$11974b$11974b$11974b$5790b2o390b2o5790b$5790b2o390b2o5790b$11974b$1957bo10016b$1956b2o10016b$1956bobo10015b$11974b$11974b$10011bo1962b$10011b2o1961b$5958b2o54b2o3994bobo1961b$5958b2o54b2o5958b$11974b$15b2o11940b2o15b$11b2o2b2o11940b2o2b2o11b$11b2o5791bo6156b2o11b$5802b2o6170b$5803b2o6169b$5782b2o114b2o174b2o114b2o5782b$5782b2o114b2o174b2o114b2o5782b$6174bo5799b$6175b2o5797b$6174b2o5798b$11974b$11974b$11974b$11974b$19b3o11930b3o19b$11974b$11974b$11974b$5790b2o390b2o5790b$2017bo3772b2o390b2o5790b$2016b2o9956b$2016bobo9955b$11974b$11974b$9951bo2022b$9951b2o2021b$9950bobo2021b$11974b$5958b2o54b2o5958b$5958b2o54b2o5958b$11974b$15b2o11940b2o15b$11b2o2b2o11940b2o2b2o11b$11b2o11948b2o11b$11974b$5788b2o6184b$5788b3o107b2o174b2o107bo5790b$5788b3o107b2o174b2o106b3o5789b$5790bo390b2obo5789b$5780b2o4b2o404b2o5780b$5780b2o4bob3o401b2o5780b$5787b4o6178b3o2b$5787b2o6180bo2bob$11969bo4b$6190bobo5776bo3bo$19b3o6169b2o5759b3o14bo3bo$6191bo5777bo4b$11970bobob$2077bo3713bo6182b$2076b2o3712bobo6181b$2076bobo3699b2o12bo401b2o5778b$2b3o5773b2o11bo402b2o5778b$bo2bo11969b$4bo9886bo2082b$o3bo9886b2o2081b$o3bo9885bobo2081b$4bo6173b2o5794b$bobo6175b2o5793b$5782b2o394bo11b2o5782b$5782b2o174b2o54b2o174b2o5782b$5958b2o54b2o5958b$5799b2o6173b$15b2o5781b2o6157b2o15b$11b2o2b2o5783bo6156b2o2b2o11b$11b2o11948b2o11b$11974b$11974b$5898b2o174b2o5898b$5898b2o174b2o5898b$11974b$11974b$5790b2o390b2o5790b$5790b2o390b2o5790b$11974b$11974b$11974b$19b3o6056bo5873b3o19b$2137bo3939b2o5895b$2136b2o3938b4o5894b$2136bobo3936b2o3b3o5891b$6076bo5bo5891b$6082bo5891b$6076bo4bo3749bo2142b$6075b2o2bo3751b2o2141b$6075b2obo3751bobo2141b$5895bo180b2o40b2o5854b$5894b3o222b2o5853b$5893b2o2bo220bo5855b$5897bo6076b$5782b2o112bo177b2o114b2o5782b$5782b2o75b2o31bo65b2o54b2o58b2o114b2o5782b$5858b2o32bobo63b2o54b2o5958b$5860bo31b2o6080b$15b2o11940b2o15b$11b2o2b2o11940b2o2b2o11b$11b2o6073bo5874b2o11b$6084bobo5887b$6085b2o5887b$11974b$11974b$11974b$11974b$5790b2o98b2o190b2o98b2o5790b$5790b2o98b2o190b2o98b2o5790b$5832bobo6139b$5833b2o6139b$2197bo3635bo6140b$19b3o2174b2o9754b3o19b$2196bobo9775b$6134bobo5837b$6134b2o5838b$6135bo3635bo2202b$9771b2o2201b$9770bobo2201b$6058b2o5914b$6059b2o5913b$6058bo5915b$11974b$11974b$5919b2o6053b$5782b2o114b2o18b2o89bo64b2o114b2o5782b$5782b2o114b2o20bo88bo64b2o114b2o5782b$5960bobo46bo5964b$5963bo6010b$15b2o5939b2o2bob3obo39bobo7b2o5939b2o15b$11b2o2b2o5939b2o5bo2bo38bo2bo2bo4b2o5939b2o2b2o11b$11b2o5954bo38bobo3b2o5947b2o11b$5964bob3o42b2o5961b$5968bo6005b$5963b3ob3o6004b$5964bo3bo6000b3o2b$5965b3o6001bo2bob$5966bo6002bo4b$5790b2o98b2o190b2o98b2o5785bo3bo$5790b2o98b2o190b2o98b2o5785bo3bo$2257bo3696b2o62b2o5949bo4b$2256b2o3696b2o62b2o5950bobob$2256bobo9715b$19b3o11930b3o19b$11974b$2b3o9706bo2262b$bo2bo9706b2o2261b$4bo9705bobo2261b$o3bo5953b2o54b2o5958b$o3bo5953b2o54b2o5958b$4bo11969b$bobo11970b$11974b$11974b$11974b$11974b$5782b2o114b2o174b2o114b2o5782b$5782b2o114b2o174b2o114b2o5782b$11974b$11974b$15b2o11940b2o15b$11b2o2b2o5949b2o38b2o5949b2o2b2o11b$11b2o5953b2o38b2o5953b2o11b$11974b$11974b$11974b$11974b$11974b$11974b$2317bo3472b2o98b2o190b2o98b2o5790b$2316b2o3472b2o98b2o190b2o98b2o5790b$2316bobo9655b$11974b$11974b$19b3o9629bo2300b3o19b$9651b2o2321b$9650bobo2321b$11974b$11974b$5958b2o54b2o5958b$5958b2o54b2o5958b$11974b$11974b$11974b$11974b$11974b$5832bo6141b$5782b2o48bobo63b2o174b2o114b2o5782b$5782b2o48b2o64b2o174b2o114b2o5782b$11974b$11974b$15b2o6129bo5810b2o15b$11b2o2b2o6127bobo5810b2o2b2o11b$11b2o6132b2o5814b2o11b$11974b$5889b3o6082b$5888bo2bo6082b$5887bo5bo6080b$2377bo3508bo4bobo6080b$2376b2o3508bobo2b3o6080b$2376bobo3411b2o95bo294b2o5790b$21b3o5766b2o390b2o5766b3o21b$11974b$19bo5bo9565bo2356bo5bo19b$19bo5bo9565b2o2355bo5bo19b$19bo5bo9564bobo2355bo5bo19b$11974b$21b3o11926b3o21b$11974b$11974b$5958b2o54b2o5958b$5958b2o54b2o5893b3o62b$11911bo62b$11910bo63b$11974b$11974b$67b3o11904b$67bo11906b$68bo5713b2o114b2o174b2o114b2o5782b$5782b2o114b2o174b2o114b2o5782b$11974b$11974b$15b2o11940b2o15b$11b2o2b2o11940b2o2b2o11b$11b2o11948b2o6b3o2b$11969bo2bob$11969bo4b$2437bo9531bo3bo$2436b2o9531bo3bo$2436bobo9530bo4b$11970bobob$5790b2o390b2o5790b$21b3o5766b2o390b2o3347bo2418b3o21b$9531b2o2441b$2b3o14bo5bo9504bobo2415bo5bo19b$bo2bo14bo5bo11922bo5bo19b$4bo14bo5bo11922bo5bo19b$o3bo11969b$o3bo16b3o11926b3o21b$4bo11969b$bobo11845b3o122b$5958b2o54b2o5835bo122b$5958b2o54b2o5834bo123b$11974b$11974b$127b3o11844b$127bo11846b$128bo11845b$11974b$5782b2o114b2o174b2o114b2o5782b$5782b2o114b2o174b2o114b2o5782b$11974b$11974b$15b2o11940b2o15b$11b2o2b2o11940b2o2b2o11b$11b2o11948b2o11b$2497bo9476b$2496b2o3285b3o6188b$2496bobo3276b2o4b2o3bo403b3o5781b$5775bobo3bo5bo393bo8b2ob2o5779b$5770bobo2b3o4bo4bo7b2o382b4o5bo6bo5778b$5770bo5bo7bo9bobo381bob4obo2b2o5bo3275bo2502b$5770bo3bo9bo8b2obo380b2o7bo7b2o3275b2o2501b$21b3o5747bo2bo10bo8b6o378b3obo3bobo3281bobo2477b3o21b$5773bo21bo4bo378b2o2bobo2bo4bo5780b$19bo5bo5760b2o9bo2bo389b2o5756bo5bo19b$19bo5bo5760bo11b2o6148bo5bo19b$19bo5bo11922bo5bo19b$11974b$21b3o11765b3o158b3o21b$11791bo182b$5782b2o406b2o5598bo183b$5782b2o174b2o54b2o174b2o5782b$5958b2o54b2o5958b$187b3o11784b$187bo11786b$188bo11785b$11974b$11974b$11974b$5898b2o174b2o100bobo5795b$5898b2o174b2o100b2o5796b$6177bo5796b$11974b$15b2o5773b2o390b2o5773b2o15b$11b2o2b2o2540bo3232b2o8bobo379b2o5773b2o2b2o11b$11b2o2543b2o3243b2o6158b2o11b$2556bobo3242bo6172b$11974b$11974b$9411bo2562b$9411b2o2561b$9410bobo2561b$11974b$21b3o11926b3o21b$11974b$19bo5bo11922bo5bo19b$19bo5bo11922bo5bo19b$19bo5bo11703b3o216bo5bo19b$11731bo242b$21b3o11706bo219b3o21b$11974b$5782b2o406b2o5782b$247b3o5532b2o174b2o54b2o174b2o5782b$247bo5710b2o54b2o5958b$248bo11725b$11974b$11974b$11974b$11974b$11974b$5898b2o174b2o5898b$5898b2o174b2o5898b$11969b3o2b$2617bo9351bo2bob$15b2o2599b2o3172b2o390b2o5773b2o10bo4b$11b2o2b2o2599bobo3171b2o390b2o5773b2o2b2o6bo3bo$11b2o11948b2o6bo3bo$11969bo4b$9351bo2618bobob$9351b2o2621b$9350bobo2621b$11974b$2b3o11969b$bo2bo11969b$4bo16b3o11926b3o21b$o3bo11969b$o3bo14bo5bo11643b3o276bo5bo19b$4bo14bo5bo11645bo276bo5bo19b$bobo15bo5bo11644bo277bo5bo19b$11974b$21b3o11926b3o21b$307b3o11664b$307bo5474b2o406b2o5782b$308bo5473b2o174b2o54b2o174b2o5782b$5958b2o54b2o5958b$11974b$11974b$11974b$11974b$11974b$11974b$5898b2o174b2o5898b$2677bo3220b2o174b2o5898b$2676b2o9296b$2676bobo9295b$15b2o5773b2o390b2o74bo5698b2o15b$11b2o2b2o5773b2o390b2o72bobo5698b2o2b2o11b$11b2o6244b2o3032bo2669b2o11b$9291b2o2681b$9290bobo2681b$5710bo6263b$5710bobo6261b$5710b2o6262b$11974b$11974b$21b3o11585b3o338b3o21b$11611bo362b$19bo5bo11584bo337bo5bo19b$19bo5bo11922bo5bo19b$19bo5bo11922bo5bo19b$367b3o11604b$21b3o343bo11582b3o21b$368bo11605b$5782b2o406b2o5782b$5782b2o174b2o54b2o174b2o5782b$5958b2o54b2o5958b$11974b$11974b$5901bo6072b$5897bo4b2o6070b$5897bo3b3o212bobo5855b$2737bo3164b2o212b2o5856b$2736b2o3164bo214bo5856b$2736bobo3157b2o3b2o171bobo5897b$5896bo4b2o168b2obo2bo5896b$5860bobo32bo4b2o169b2obo2bo5896b$15b2o5773b2o69b2o32bo5bo168bob2o108b2o3047bo2725b2o15b$11b2o2b2o5773b2o69bo33b2o2bobo168b4o5bo102b2o3047b2o2724b2o2b2o11b$11b2o5886bob2o177b2o3148bobo2728b2o11b$5889b3o7bob2o170b2o6bo5892b$6070bo3b2obob3o5892b$6071b5o5898b$6074bo5899b$11974b$11549b3o422b$11551bo422b$21b3o5878b2o166b2o5478bo399b3o21b$5902b2o166b2o5902b$19bo5bo11922bo5bo19b$19bo5bo401b3o11518bo5bo19b$19bo5bo401bo11520bo5bo19b$428bo11545b$21b3o11926b3o21b$11974b$5782b2o114b2o174b2o114b2o5782b$5782b2o114b2o58b2o54b2o58b2o114b2o5782b$5958b2o54b2o5958b$11974b$6048bo5925b$6046b2o5926b$2797bo3249b2o5925b$2796b2o9171b3o2b$2796bobo3162b2o52bo5953bo2bob$5930bo29b2o51b3o5953bo4b$5931b2o18b3o3bo3bobo49bo2b2o5951bo3bo$5930b2o18bo3b2ob3o3bo6b3o3198bo2797bo3bo$5950b2o3bo3b4o6b5o27b2o3b3o8b5o3149b2o2796bo4b$15b2o5773b2o98b2o53bo4bo3bo4bo8bob5o25bob2o2b3obobo2bobo3bo60b2o98b2o2986bobo2784b2o11bobob$11b2o2b2o5773b2o98b2o53bobo3bobo6b3o4b2ob3o2b2o22b2o4bo5bob2o3bob2o60b2o98b2o5773b2o2b2o11b$11b2o5932b2o4bo16b3o2bob2o23b2o3b3o10b2o5941b2o11b$5960bo8bo6b2o27b2o2b2o5963b$2b3o5956bo11bo2bo5997b$bo2bo5968b3o5998b$4bo11484b3o482b$o3bo11486bo482b$o3bo11485bo483b$4bo11969b$bobo17b3o5934b2o54b2o5934b3o21b$487b3o5468b2o54b2o5958b$19bo5bo461bo11460bo5bo19b$19bo5bo462bo11459bo5bo19b$19bo5bo11922bo5bo19b$11974b$21b3o6085bo5840b3o21b$6107bobo5864b$5782b2o114b2o174b2o32b2o80b2o5782b$5782b2o114b2o174b2o114b2o5782b$5999bobo5972b$5859bo139b2o5973b$2857bo3001bobo138bo5973b$2856b2o3001b2o105b2o38b2o5966b$2856bobo3107b2o38b2o5966b$5977bobo5994b$5978b2o5994b$5978bo3132bo2862b$9111b2o2861b$6318bo2791bobo2861b$6316bobo5655b$15b2o5773b2o390b2o133b2o5638b2o15b$11b2o2b2o5773b2o390b2o5773b2o2b2o11b$11b2o11948b2o11b$5650bo6323b$5650bobo5776b3o542b$5650b2o5779bo542b$11430bo543b$11974b$11974b$547b3o11424b$21b3o523bo5410b2o54b2o5934b3o21b$548bo5409b2o54b2o5958b$19bo5bo11922bo5bo19b$19bo5bo11922bo5bo19b$19bo5bo11922bo5bo19b$11974b$21b3o11926b3o21b$11974b$5782b2o114b2o174b2o114b2o5782b$5782b2o114b2o174b2o114b2o5782b$2917bo9056b$2916b2o9056b$2916bobo9055b$5966b2o38b2o5966b$5966b2o38b2o5966b$9051bo2922b$9051b2o2921b$9050bobo2921b$11974b$11974b$11974b$15b2o5773b2o390b2o5773b2o15b$11b2o2b2o5773b2o390b2o5773b2o2b2o11b$11b2o11356b3o589b2o11b$11371bo602b$11370bo603b$11974b$11974b$607b3o11364b$607bo11366b$608bo11365b$21b3o5934b2o54b2o5934b3o21b$5958b2o54b2o5958b$19bo5bo11922bo5bo19b$19bo5bo11922bo5bo19b$19bo5bo11922bo5bo19b$11974b$21b3o11926b3o21b$11974b$2977bo2804b2o114b2o174b2o114b2o5782b$2976b2o2804b2o114b2o174b2o114b2o5782b$2976bobo8995b$11969b3o2b$11969bo2bob$8991bo2977bo4b$8991b2o2976bo3bo$8990bobo2976bo3bo$11969bo4b$11970bobob$11974b$11974b$11974b$2b3o10b2o5773b2o390b2o5125b3o645b2o15b$bo2bo6b2o2b2o5773b2o390b2o5127bo645b2o2b2o11b$4bo6b2o11297bo650b2o11b$o3bo11969b$o3bo11969b$4bo662b3o11304b$bobo663bo11306b$668bo11305b$11974b$11974b$21b3o5934b2o54b2o5934b3o21b$5958b2o54b2o5958b$19bo5bo11922bo5bo19b$19bo5bo11922bo5bo19b$19bo5bo6143bo5778bo5bo19b$6167bobo5804b$21b3o3013bo3130b2o5780b3o21b$3036b2o8936b$3036bobo2743b2o114b2o174b2o114b2o5782b$5782b2o15bo98b2o174b2o114b2o5782b$5799bobo6172b$5799b2o3130bo3042b$8931b2o3041b$8930bobo3041b$11974b$11974b$11974b$6378bo5595b$6376bobo5595b$6377b2o4870b3o722b$11251bo722b$15b2o5773b2o390b2o5066bo706b2o15b$11b2o2b2o5573bo199b2o390b2o5773b2o2b2o11b$11b2o5577bobo6368b2o11b$727b3o4860b2o6382b$727bo11246b$728bo11245b$11974b$11974b$11974b$11974b$21b3o5934b2o54b2o5934b3o21b$5958b2o54b2o5958b$19bo5bo11922bo5bo19b$19bo5bo11922bo5bo19b$19bo5bo3071bo8850bo5bo19b$3096b2o8876b$21b3o3072bobo8851b3o21b$11974b$5782b2o114b2o174b2o114b2o5782b$5782b2o114b2o174b2o114b2o2679bo3102b$8871b2o3101b$8870bobo3101b$11974b$11974b$11974b$11974b$11974b$11189b3o782b$11191bo782b$11190bo783b$11974b$15b2o11940b2o15b$11b2o2b2o770b3o11167b2o2b2o11b$11b2o774bo11173b2o11b$788bo11185b$11974b$11974b$11974b$11974b$11974b$11974b$21b3o5934b2o54b2o5934b3o21b$5958b2o54b2o5958b$19bo5bo3131bo8790bo5bo19b$19bo5bo3130b2o8790bo5bo19b$19bo5bo3130bobo8789bo5bo19b$11974b$21b3o11926b3o21b$8811bo3157b3o2b$5898b2o174b2o109bo2625b2o3156bo2bob$5789b2o107b2o174b2o108b2o2624bobo3156bo4b$5790b3o390bo5785bo3bo$5780b2o9b2o391b2o6b2o5775bo3bo$5780b2o10b2o390b2ob2o3b2o5775bo4b$5789b2obo391b4o5782bobob$5783bobo3b3o390b2ob3o5786b$5783b2o5bo391b2ob2o4942b3o842b$5784bo396bo3b3o4943bo842b$2b3o6178b3obo4942bo843b$bo2bo6180bo5788b$4bo6177bo2bo5788b$o3bo842b3o11124b$o3bo10b2o830bo5334b3o5772b2o15b$4bo6b2o2b2o831bo4929b2o414b2o5761b2o2b2o11b$bobo7b2o5765b2o414b2o5765b2o11b$11974b$11974b$11974b$11974b$11974b$11974b$5782b2o406b2o5782b$21b3o3193bo2564b2o174b2o54b2o174b2o5758b3o21b$3216b2o2740b2o54b2o5958b$19bo5bo3190bobo8729bo5bo19b$19bo5bo11922bo5bo19b$19bo5bo11922bo5bo19b$8751bo3222b$21b3o8727b2o3197b3o21b$8750bobo3221b$5898b2o174b2o5898b$5898b2o174b2o5898b$11974b$11974b$5790b2o390b2o5790b$5790b2o390b2o4885b3o902b$11071bo902b$6438bo4631bo903b$6436bobo5535b$6437b2o5535b$907b3o5323bo5740b$907bo5323bobo5740b$908bo4621bo701b2o5740b$15b2o5513bobo6424b2o15b$11b2o2b2o5513b2o6425b2o2b2o11b$11b2o5722bo6225b2o11b$5735bobo6236b$5735b2o6237b$11974b$11974b$11974b$3277bo8696b$3276b2o2504b2o406b2o5782b$21b3o3252bobo2503b2o174b2o54b2o174b2o5758b3o21b$5958b2o54b2o5958b$19bo5bo11922bo5bo19b$19bo5bo8665bo3256bo5bo19b$19bo5bo8665b2o3255bo5bo19b$8690bobo3281b$21b3o11926b3o21b$11974b$5898b2o174b2o5898b$5898b2o174b2o5898b$11974b$11009b3o962b$5790b2o349bobo38b2o4827bo962b$5790b2o349b2o39b2o4826bo963b$6142bo5831b$11974b$967b3o11004b$967bo4867bobo6136b$968bo4867b2o6136b$5836bo6137b$11974b$15b2o11940b2o15b$11b2o2b2o11940b2o2b2o11b$11b2o11948b2o11b$11974b$11974b$11974b$3337bo8636b$3336b2o8636b$3336bobo8635b$5782b2o406b2o5782b$21b3o5758b2o174b2o54b2o174b2o5758b3o21b$5958b2o54b2o2615bo3342b$19bo5bo8605b2o3315bo5bo19b$19bo5bo8604bobo3315bo5bo14b3o2b$19bo5bo11922bo5bo14bo2bob$11969bo4b$21b3o11926b3o16bo3bo$11969bo3bo$5898b2o174b2o5893bo4b$5898b2o174b2o4873b3o1018bobob$10951bo1022b$10950bo1023b$5790b2o390b2o5790b$2b3o5785b2o390b2o5790b$bo2bo1022b3o10944b$4bo1022bo10946b$o3bo1023bo4870bo6074b$o3bo5893bob2o6072b$4bo5884b2o6b2o2b2o6071b$bobo5883bo3bo4bobo4bo6070b$5885b2o4bo3b3o5b2o173bo5895b$15b2o5868bo5bob2ob2o4b2o173bobo5877b2o15b$11b2o2b2o5868bo2b2o3b2o7bo173b2ob2o5876b2o2b2o11b$11b2o5873bob2o5bobo178b2obo5881b2o11b$6076b3o2b2o5891b$3397bo2679bo5896b$3396b2o2680bo5895b$3396bobo2679b2o5894b$6073b2o5899b$6073b2o5899b$5782b2o114b2o174b2o114b2o2379bo3402b$21b3o5758b2o114b2o58b2o54b2o59bo114b2o2379b2o3377b3o21b$5958b2o54b2o2554bobo3401b$19bo5bo11922bo5bo19b$19bo5bo6058bo5863bo5bo19b$19bo5bo6056bobo5863bo5bo19b$6083b2o5889b$21b3o11926b3o21b$10889b3o1082b$5884bo5006bo1082b$5884bobo5003bo1083b$5884b2o6088b$11974b$1087b3o4700b2o98b2o190b2o98b2o5790b$1087bo4702b2o98b2o190b2o98b2o314bo5475b$1088bo5407bobo5475b$6497b2o5475b$6293bo5680b$6291bobo5680b$5470bo821b2o5680b$5470bobo6501b$5470b2o6502b$15b2o5658bo6281b2o15b$11b2o2b2o5658bobo6279b2o2b2o11b$11b2o3444bo2217b2o6284b2o11b$3456b2o8516b$3456bobo8515b$11974b$11974b$8511bo3462b$8511b2o3461b$5782b2o114b2o174b2o114b2o2318bobo3461b$21b3o5758b2o114b2o108b3o63b2o114b2o5758b3o21b$5965b2o40bo3bo5962b$19bo5bo5938bobo44bo5936bo5bo19b$19bo5bo5930b2o6b2o40bo9b2o5930bo5bo19b$19bo5bo5930b2o6b2o40b2ob2o5b2o5930bo5bo19b$5965bobobo40bo4818b3o1142b$21b3o5943b2o4862bo1118b3o21b$5958bobo4b2obo4861bo1143b$5958b2o124bo5889b$5959bo123bobo5888b$1147b3o4935b2o5887b$1147bo4934b2obo5888b$1148bo4641b2o214bo75bo2bo96b2o5790b$5790b2o214b3o74b2o97b2o5790b$5954b2o50b3o9b2o5954b$5954b2o62b2o5954b$11974b$11974b$11974b$11974b$11974b$15b2o3500bo8439b2o15b$11b2o2b2o3499b2o2440b2o54b2o5941b2o2b2o11b$11b2o3503bobo2439b2o54b2o5945b2o11b$11974b$11974b$8451bo3522b$8451b2o3521b$8450bobo3521b$11974b$5782b2o114b2o174b2o114b2o5777b3o2b$21b3o5758b2o114b2o174b2o114b2o5758b3o16bo2bob$11969bo4b$19bo5bo11922bo5bo14bo3bo$19bo5bo10743b3o1176bo5bo14bo3bo$19bo5bo5940b2o38b2o4763bo1176bo5bo14bo4b$5966b2o38b2o4762bo1199bobob$21b3o11926b3o21b$11974b$1207b3o10764b$2b3o1202bo10766b$bo2bo1203bo10765b$4bo11969b$o3bo5785b2o390b2o5790b$o3bo5785b2o390b2o5790b$4bo11969b$bobo11970b$11974b$11974b$11974b$3577bo8396b$3576b2o8396b$15b2o3559bobo8378b2o15b$11b2o2b2o5941b2o54b2o5941b2o2b2o11b$11b2o5945b2o54b2o5945b2o11b$8391bo3582b$8391b2o3581b$8390bobo3581b$11974b$11974b$11974b$5782b2o114b2o174b2o114b2o5782b$21b3o5758b2o114b2o174b2o114b2o5758b3o21b$6144bo4564b3o1262b$19bo5bo6116bobo4566bo1236bo5bo19b$19bo5bo6117b2o4565bo1237bo5bo19b$19bo5bo11922bo5bo19b$11974b$21b3o1243b3o4554bo6125b3o21b$1267bo4556bobo6147b$1268bo4555b2o6148b$11974b$11974b$6558bo5415b$5790b2o390b2o372bobo5415b$5790b2o390b2o373b2o5415b$6353bo5620b$6351bobo5620b$5410bo941b2o5620b$3637bo1772bobo6561b$3636b2o1772b2o6562b$3636bobo1976bo6358b$5615bobo6356b$15b2o5598b2o6340b2o15b$11b2o2b2o5941b2o54b2o2315bo3625b2o2b2o11b$11b2o5945b2o54b2o2315b2o3628b2o11b$8330bobo3641b$11974b$11974b$11974b$11974b$11974b$5782b2o114b2o174b2o114b2o4457b3o1322b$21b3o5758b2o114b2o174b2o114b2o4459bo1298b3o21b$10650bo1323b$19bo5bo11922bo5bo19b$19bo5bo11922bo5bo19b$19bo5bo1301b3o10618bo5bo19b$1327bo10646b$21b3o1304bo10621b3o21b$11974b$11974b$11974b$11974b$11974b$5790b2o390b2o5790b$5790b2o390b2o5790b$11974b$3697bo8276b$3696b2o8276b$3696bobo8275b$11974b$11974b$8271bo3702b$15b2o8254b2o3684b2o15b$11b2o2b2o5941b2o54b2o2254bobo3684b2o2b2o11b$11b2o5945b2o54b2o5945b2o11b$11974b$11974b$11969b3o2b$11969bo2bob$10589b3o1377bo4b$10591bo1377bo3bo$5782b2o114b2o174b2o114b2o4398bo1378bo3bo$21b3o5758b2o114b2o174b2o114b2o5758b3o16bo4b$11970bobob$19bo5bo1361b3o10558bo5bo19b$19bo5bo1361bo10560bo5bo19b$19bo5bo1362bo10559bo5bo19b$2b3o11969b$bo2bo16b3o11926b3o21b$4bo11969b$o3bo11969b$o3bo11969b$4bo11969b$bobo11970b$11974b$3757bo8216b$3756b2o8216b$3756bobo8215b$11974b$11974b$8211bo3762b$8211b2o3761b$8210bobo3761b$15b2o11940b2o15b$11b2o2b2o5941b2o54b2o5941b2o2b2o11b$11b2o5945b2o54b2o5945b2o11b$11974b$11974b$10529b3o1442b$10531bo1442b$10530bo1443b$11974b$5782b2o114b2o174b2o114b2o5782b$21b3o1423b3o4332b2o114b2o174b2o114b2o5758b3o21b$1447bo10526b$19bo5bo1422bo10499bo5bo19b$19bo5bo11922bo5bo19b$19bo5bo11922bo5bo19b$11974b$21b3o11926b3o21b$11974b$11974b$6618bo5355b$6616bobo5355b$3817bo2799b2o5355b$3816b2o2595bo5560b$3816bobo2592bobo5560b$5350bo1061b2o5560b$5350bobo6621b$5350b2o2799bo3822b$5555bo2595b2o3821b$5555bobo2592bobo3821b$5555b2o6417b$11974b$15b2o11940b2o15b$11b2o2b2o5941b2o54b2o5941b2o2b2o11b$11b2o5945b2o54b2o5945b2o11b$10469b3o1502b$10471bo1502b$10470bo1503b$11974b$11974b$1507b3o10464b$1507bo4274b2o114b2o174b2o114b2o5782b$21b3o1484bo4273b2o114b2o174b2o114b2o5758b3o21b$11974b$19bo5bo11922bo5bo19b$19bo5bo11922bo5bo19b$19bo5bo11922bo5bo19b$11974b$21b3o11926b3o21b$11974b$11974b$3877bo8096b$3876b2o8096b$3876bobo8095b$11974b$11974b$8091bo3882b$8091b2o3881b$8090bobo3881b$11974b$11974b$11974b$11974b$15b2o11940b2o15b$11b2o2b2o5941b2o54b2o4393b3o1545b2o2b2o6b3o2b$11b2o5945b2o54b2o4395bo1549b2o6bo2bob$10410bo1558bo4b$11969bo3bo$11969bo3bo$1567b3o10399bo4b$1567bo10402bobob$1568bo4622bo5782b$5898b2o174b2o115b2o5781b$21b3o5874b2o174b2o114bobo5757b3o21b$2b3o6185bobobo5779b$bo2bo14bo5bo6164b2ob2obo5751bo5bo19b$4bo14bo5bo5761b2o408bo5750bo5bo19b$o3bo14bo5bo5754bo5bo2bo405b2o5751bo5bo19b$o3bo5782b3obo390bo5791b$4bo16b3o5755bobo5bo3bo390bo5767b3o21b$bobo3933bo1842bo10bo390bo5791b$3936b2o8036b$3936bobo8035b$11974b$11974b$8031bo3942b$5778b2o414b2o1835b2o3941b$5778b2o414b2o1834bobo3941b$11974b$11974b$11974b$11974b$11974b$10349b3o1622b$15b2o5765b2o406b2o4159bo1605b2o15b$11b2o2b2o5765b2o174b2o54b2o174b2o4158bo1606b2o2b2o11b$11b2o5945b2o54b2o5945b2o11b$11974b$1627b3o10344b$1627bo10346b$1628bo4591bo5753b$6218bobo5753b$6219b2o5753b$5898b2o174b2o5898b$21b3o5874b2o174b2o5874b3o21b$5748bo6225b$19bo5bo5722bobo6197bo5bo19b$19bo5bo5722b2o40b2o390b2o5764bo5bo19b$19bo5bo5764b2o390b2o5764bo5bo19b$3997bo7976b$21b3o3972b2o7952b3o21b$3996bobo2679bo5295b$6676bobo5295b$6677b2o5295b$6473bo1497bo4002b$6471bobo1497b2o4001b$5290bo1181b2o1496bobo4001b$5290bobo6681b$5290b2o6682b$5495bo6478b$5495bobo6476b$5495b2o6477b$10289b3o1682b$10291bo1682b$10290bo1683b$15b2o5765b2o370bobo33b2o5765b2o15b$11b2o2b2o5765b2o174b2o54b2o138b2o34b2o5765b2o2b2o11b$11b2o1674b3o4268b2o54b2o139bo5805b2o11b$1687bo10286b$1688bo10285b$5822bobo6149b$5823b2o6149b$5823bo6150b$11974b$5898b2o174b2o5898b$21b3o5874b2o174b2o5874b3o21b$11974b$19bo5bo11922bo5bo19b$19bo5bo4031bo1732b2o390b2o5764bo5bo19b$19bo5bo4030b2o1732b2o390b2o5764bo5bo19b$4056bobo7915b$21b3o11926b3o21b$11974b$7911bo4062b$7911b2o4061b$7910bobo4061b$11974b$11974b$11974b$11974b$11974b$10229b3o1742b$10231bo1742b$10230bo1738b3o2b$11969bo2bob$11969bo4b$15b2o1730b3o4032b2o406b2o5765b2o10bo3bo$11b2o2b2o1730bo4034b2o174b2o54b2o174b2o5765b2o2b2o6bo3bo$11b2o1735bo4209b2o54b2o5945b2o6bo4b$11970bobob$11974b$11974b$11974b$2b3o11969b$bo2bo11969b$4bo5893b2o174b2o5898b$o3bo16b3o5874b2o174b2o5874b3o21b$o3bo4112bo7856b$4bo14bo5bo4090b2o7830bo5bo19b$bobo15bo5bo4090bobo1671b2o390b2o5764bo5bo19b$19bo5bo5764b2o390b2o5764bo5bo19b$11974b$21b3o7827bo4098b3o21b$7851b2o4121b$7850bobo4121b$11974b$11974b$11974b$11974b$11974b$10169b3o1802b$10171bo1802b$10170bo1803b$11974b$11974b$1807b3o10164b$1807bo10166b$15b2o1791bo3973b2o107bo298b2o5765b2o15b$11b2o2b2o5765b2o106b3o65b2o54b2o174b2o5765b2o2b2o11b$11b2o5880bo64b2o54b2o5945b2o11b$5891b2o6081b$5892bo387bo5693b$6278bobo5693b$6279b2o5693b$11974b$11974b$4177bo1510bo392b3o5890b$21b3o4152b2o1510bobo390bo2bo5865b3o21b$4176bobo1509b2o391bob2o5889b$19bo5bo5874b2o170b2o5874bo5bo19b$19bo5bo5764b2o98b2o8b2o170b2o108b2o5764bo5bo19b$19bo5bo5764b2o98b2o290b2o1607bo4156bo5bo19b$6738bo1052b2o4181b$21b3o6712bobo1051bobo4157b3o21b$6073bo663b2o5235b$6073bobo457bo5440b$5902bo170b2o456bobo5440b$5230bo670b3o628b2o5440b$5230bobo667b2ob2o6069b$5230b2o667b3o4207b3o1862b$5435bo464bob2o166b2o4039bo1862b$5435bobo463b2o167b2o4038bo1863b$5435b2o465bo6071b$11974b$1867b3o10104b$1867bo10106b$1868bo4225bobo5877b$6016bo77b2o5878b$15b2o5765b2o114b2o115b3o56b2o19bo94b2o5765b2o15b$11b2o2b2o5765b2o114b2o113b2o3bo55b2o114b2o5765b2o2b2o11b$11b2o6000b5o5943b2o11b$5882bobo127bo5961b$5883b2o78b2o48bo3b2o5955b$5883bo79b3o47b2o2b2o5955b$5962b2o2bo48b2o5957b$4237bo1723b3o42bo5967b$4236b2o1717b3o4b3o41bo5967b$4236bobo1724bo42bo5967b$21b3o11926b3o21b$11974b$19bo5bo7705bo4216bo5bo19b$19bo5bo5764b2o98b2o190b2o98b2o1547b2o4215bo5bo19b$19bo5bo5764b2o98b2o190b2o98b2o1546bobo4215bo5bo19b$5954b2o62b2o5954b$21b3o5930b2o62b2o5930b3o21b$11974b$11974b$11974b$10049b3o1922b$10051bo1922b$10050bo1923b$5958b2o54b2o5958b$5958b2o54b2o5953b3o2b$1927b3o10039bo2bob$1927bo10041bo4b$1928bo10040bo3bo$11969bo3bo$11969bo4b$11970bobob$15b2o5765b2o114b2o174b2o114b2o5765b2o15b$11b2o2b2o5765b2o114b2o174b2o114b2o5765b2o2b2o11b$11b2o11948b2o11b$2b3o11969b$bo2bo11969b$4bo4292bo1668b2o38b2o5966b$o3bo4291b2o1668b2o38b2o5966b$o3bo4291bobo7675b$4bo11969b$bobo11970b$21b3o7647bo4278b3o21b$7671b2o4301b$19bo5bo7644bobo4275bo5bo19b$19bo5bo5764b2o390b2o5764bo5bo19b$19bo5bo5764b2o390b2o5764bo5bo19b$11974b$21b3o11926b3o21b$11974b$9989b3o1982b$9991bo1982b$6131bo3858bo1983b$6129bobo5842b$6130b2o5842b$1987b3o3968b2o54b2o5958b$1987bo3970b2o17bobo34b2o5958b$1988bo3848bo139b2o5995b$5837bobo138bo5995b$5837b2o6135b$11974b$5999bobo5972b$6000b2o5972b$15b2o5765b2o114b2o100bo73b2o114b2o5765b2o15b$11b2o2b2o5765b2o114b2o174b2o114b2o5765b2o2b2o11b$11b2o6327bo5620b2o11b$4357bo1980bobo5633b$4356b2o1981b2o5633b$4356bobo1607b2o38b2o5966b$5966b2o38b2o5966b$5628bo6345b$5628bobo1980bo4362b$5628b2o1981b2o4361b$21b3o7586bobo4337b3o21b$11974b$19bo5bo11922bo5bo19b$19bo5bo5764b2o390b2o614bo5149bo5bo19b$19bo5bo5764b2o390b2o612bobo5149bo5bo19b$6797b2o5175b$21b3o6569bo3335b3o2018b3o21b$6591bobo3337bo2042b$5170bo1421b2o3336bo2043b$5170bobo6801b$5170b2o6802b$2047b3o3325bo6598b$2047bo3327bobo6596b$2048bo3326b2o581b2o54b2o5958b$5958b2o54b2o5958b$11974b$11974b$11974b$11974b$11974b$11974b$15b2o5765b2o114b2o174b2o114b2o5765b2o15b$11b2o2b2o4400bo1364b2o114b2o174b2o114b2o5765b2o2b2o11b$11b2o4403b2o7543b2o11b$4416bobo7555b$11974b$11974b$7551bo4422b$7551b2o4421b$7550bobo4421b$11974b$21b3o11926b3o21b$11974b$19bo5bo11922bo5bo19b$19bo5bo5764b2o390b2o5764bo5bo19b$19bo5bo5764b2o390b2o3685b3o2076bo5bo19b$9871bo2102b$21b3o9846bo2079b3o21b$11974b$11974b$2107b3o9864b$2107bo9861b3o2b$2108bo9860bo2bob$11969bo4b$5958b2o54b2o5953bo3bo$5958b2o54b2o5953bo3bo$11969bo4b$11970bobob$11974b$11974b$11974b$2b3o4472bo7496b$bo2bo10b2o4459b2o1304b2o114b2o174b2o114b2o5765b2o15b$4bo6b2o2b2o4459bobo1303b2o114b2o174b2o114b2o5765b2o2b2o11b$o3bo6b2o11948b2o11b$o3bo11969b$4bo7486bo4482b$bobo7487b2o4481b$7490bobo4481b$11974b$11974b$11974b$21b3o11926b3o21b$11974b$19bo5bo9783b3o2136bo5bo19b$19bo5bo9785bo2136bo5bo19b$19bo5bo9784bo2137bo5bo19b$11974b$21b3o11926b3o21b$2167b3o9804b$2167bo9806b$2168bo9805b$11974b$11974b$11974b$5958b2o54b2o5958b$5958b2o54b2o5958b$11974b$11974b$11974b$4537bo7436b$4536b2o7436b$4536bobo7435b$15b2o5765b2o114b2o174b2o114b2o208bo5556b2o15b$11b2o2b2o5765b2o114b2o174b2o114b2o206bobo5556b2o2b2o11b$11b2o6386b2o1030bo4529b2o11b$7431b2o4541b$7430bobo4541b$5568bo6405b$5568bobo6403b$5568b2o212bo6191b$5781bobo6190b$5781bobo5bo5bo391bo5786b$21b3o5761b2o3bo2bo392bobo3560b3o2198b3o21b$5775b2o7bo8bo4bo390bo668bo2892bo2222b$19bo5bo5748b2ob2o2bobo15bo384b3o2bo666bobo2891bo2197bo5bo19b$19bo5bo5749bob2o10b2o8bo383b2o3b2o667b2o5089bo5bo19b$19bo5bo5750bo8b2o2b2o2bo5bo384b2ob2o464bo5294bo5bo19b$2227b3o3547b3ob3obo8bo3bo386b2ob2o461bobo5320b$21b3o2203bo2882bo667bo18bo388bo2bo462b2o5296b3o21b$2228bo2881bobo1073bo2bo5784b$5110b2o1076b2o5784b$5315bo6658b$5315bobo6656b$5315b2o6657b$5782b2o406b2o5782b$5782b2o174b2o54b2o174b2o5782b$5958b2o54b2o5958b$11974b$4597bo7376b$4596b2o7376b$4596bobo1580bobo5792b$6179b2o5793b$6180bo5793b$15b2o5881b2o174b2o1295bo4585b2o15b$11b2o2b2o5881b2o174b2o1295b2o4584b2o2b2o11b$11b2o5784bobo1570bobo4588b2o11b$5798b2o6174b$5790b2o6bo383b2o5790b$5790b2o390b2o5790b$11974b$11974b$9689b3o2282b$9691bo2282b$21b3o9666bo2259b3o21b$11974b$19bo5bo11922bo5bo19b$19bo5bo2261b3o9658bo5bo19b$19bo5bo2261bo9660bo5bo19b$2288bo9685b$21b3o11926b3o16b3o2b$11969bo2bob$11969bo4b$11969bo3bo$11969bo3bo$11969bo4b$5782b2o406b2o5778bobob$5782b2o174b2o54b2o174b2o5782b$4657bo1300b2o54b2o5958b$4656b2o7316b$2b3o4651bobo7315b$bo2bo11969b$4bo11969b$o3bo7306bo4662b$o3bo7306b2o4661b$4bo10b2o5881b2o174b2o1234bobo4644b2o15b$bobo7b2o2b2o5881b2o174b2o5881b2o2b2o11b$11b2o11948b2o11b$11974b$5790b2o390b2o5790b$5790b2o390b2o5790b$9629b3o2342b$9631bo2342b$9630bo2343b$11974b$21b3o11926b3o21b$2347b3o9624b$19bo5bo2321bo9600bo5bo19b$19bo5bo2322bo9599bo5bo19b$19bo5bo11922bo5bo19b$11974b$21b3o11926b3o21b$11974b$11974b$11974b$11974b$11974b$4717bo1064b2o406b2o5782b$4716b2o1064b2o174b2o54b2o174b2o5782b$4716bobo1239b2o54b2o5958b$11974b$11974b$7251bo4722b$7251b2o4721b$6460bo789bobo4721b$6458bobo5513b$15b2o5881b2o174b2o383b2o5496b2o15b$11b2o2b2o5881b2o174b2o179bo5701b2o2b2o11b$11b2o6240bobo5705b2o11b$5508bo745b2o5718b$5508bobo279b2o390b2o3385b3o2402b$5508b2o280b2o390b2o3387bo2402b$5713bo3856bo2403b$5713bobo6258b$5713b2o6259b$2407b3o4508bo5055b$21b3o2383bo4508bobo5031b3o21b$2408bo4508b2o5055b$19bo5bo6687bo5234bo5bo19b$19bo5bo6685bobo5234bo5bo19b$19bo5bo5024bo1661b2o5234bo5bo19b$5050bobo6921b$21b3o5026b2o6898b3o21b$5255bo6718b$5255bobo6716b$5255b2o6717b$4777bo7196b$4776b2o7196b$4776bobo1003b2o406b2o5782b$5782b2o174b2o54b2o174b2o5782b$5958b2o54b2o5958b$7191bo4782b$6119bobo1069b2o4781b$6119b2o1069bobo4781b$6120bo5853b$11974b$11974b$15b2o5840bobo38b2o174b2o5881b2o15b$11b2o2b2o5841b2o32bo4b2obo173b2o5881b2o2b2o11b$11b2o5845bo33b2o3bo2b2o3607b3o2449b2o11b$5892b5o3b2o3609bo2462b$5790b2o104bo2bobo168b5o107b2o3326bo2463b$5790b2o101bobobobobo166b2o3bobob4o101b2o5790b$5893b3obobobo166b2o5bo5bo5892b$2467b3o3425b2o3bo169bob4o2b2o2b2o5890b$2467bo3605bo3bo2bob2o3bo5886b$2468bo3412b3o181bo12b2o3b2o2bo5886b$21b3o6041b3o10bob2ob2o2bo3b3o5856b3o21b$5880bo3bo179bob3o8bo2b7o5887b$19bo5bo5854bo3bo176b2o5b2o7bob7o5862bo5bo14b3o2b$19bo5bo5877bo160bo2b2obo6bo3bo5866bo5bo14bo2bob$19bo5bo5855b3o18bo161b3o4bo9bo5866bo5bo14bo4b$5902bo2bo158b3o4b2o9b2o5885bo3bo$21b3o5879b3ob3o158b4o10bo5867b3o16bo3bo$5055bo848bo3b2o158b3o9bobo5886bo4b$4837bo216b2o847b3o2b3o145bo11b2o11bo5888bobob$4836b2o216bobo847bobobo145b2o5918b$4836bobo1066b2o148b2o5917b$5906bo6067b$2b3o5777b2o114b2o174b2o114b2o721bo5060b$bo2bo5777b2o114b2o22bo35b2o54b2o58b2o114b2o721b2o216bo4842b$4bo5918b2o33b2o54b2o896bobo216b2o4841b$o3bo5917b2o1206bobo4841b$o3bo11969b$4bo11969b$bobo11970b$11974b$11974b$15b2o9432b3o2505b2o15b$11b2o2b2o5943b2obo3487bo2505b2o2b2o11b$11b2o5946bo3bo3486bo2510b2o11b$5958bo6015b$5790b2o98b2o66bo3b2o2b2o114b2o98b2o5790b$2527b3o3260b2o98b2o66b3o6b2o113b2o98b2o5790b$2527bo3438b2o6006b$2528bo3437bo6007b$11974b$5960b2o48b3o5961b$21b3o5935bo50bo2bo5936b3o21b$5960b2o47bo3bo5960b$19bo5bo5983b3o2bo86bo5846bo5bo19b$19bo5bo5984b4o85bobo5846bo5bo19b$19bo5bo5932b2o140b2o5846bo5bo19b$5115bo842b2o6014b$21b3o4873bo216b2o891bobo5940b3o21b$4896b2o216bobo750bo139b2o5965b$4896bobo968bobo138bo5965b$5867b2o6105b$6853bo5120b$5969bobo881b2o216bo4902b$5782b2o114b2o70b2o102b2o114b2o660bobo216b2o4901b$5782b2o114b2o70bo103b2o114b2o878bobo4901b$11974b$11974b$11974b$5966b2o38b2o512bo5453b$5966b2o38b2o510bobo5453b$6519b2o2868b3o2582b$6315bo3075bo2582b$15b2o6296bobo3074bo2566b2o15b$11b2o2b2o5431bo865b2o5641b2o2b2o11b$11b2o5435bobo6510b2o11b$2587b3o2858b2o6524b$2587bo3065bo136b2o390b2o5790b$2588bo3064bobo134b2o390b2o5790b$5653b2o1244bobo5072b$6899b2o5073b$6900bo5073b$11974b$21b3o6749bo5176b3o21b$5077bobo1691bobo5200b$19bo5bo5052b2o1692b2o5174bo5bo19b$19bo5bo5052bo96bo6772bo5bo19b$19bo5bo4931bo216b2o782b2o54b2o5932bo5bo19b$4956b2o216bobo18bo762b2o54b2o5958b$21b3o4932bobo236bobo6752b3o21b$5195b2o6777b$6793bo5180b$6793b2o216bo4962b$6792bobo216b2o4961b$7010bobo4961b$5782b2o114b2o174b2o114b2o5782b$5782b2o114b2o174b2o114b2o5782b$11974b$11974b$11974b$5966b2o38b2o3321b3o2642b$5966b2o38b2o3323bo2642b$9330bo2643b$11974b$15b2o11940b2o15b$11b2o2b2o2630b3o9307b2o2b2o11b$11b2o2634bo9313b2o11b$2648bo9325b$5790b2o390b2o5790b$5790b2o390b2o5790b$11974b$11974b$11969b3o2b$11969bo2bob$21b3o5429bo6496b3o16bo4b$5235bo216b2o6515bo3bo$19bo5bo4991bo216b2o216bobo6493bo5bo14bo3bo$19bo5bo4990b2o216bobo6711bo5bo14bo4b$19bo5bo4990bobo939b2o54b2o5932bo5bo15bobob$5958b2o54b2o499bo5458b$21b3o6491b2o216bo5216b3o21b$6514bobo216b2o216bo5022b$2b3o6727bobo216b2o5021b$bo2bo6945bobo5021b$4bo11969b$o3bo11969b$o3bo5777b2o114b2o174b2o114b2o5782b$4bo5777b2o114b2o174b2o114b2o5782b$bobo11970b$9269b3o2702b$9271bo2702b$9270bo2703b$11974b$11974b$2707b3o9264b$15b2o2690bo9249b2o15b$11b2o2b2o2691bo9248b2o2b2o11b$11b2o11948b2o11b$11974b$5790b2o390b2o5790b$5790b2o390b2o5790b$11974b$11974b$5513bo6460b$5295bo216b2o6460b$21b3o5053bo216b2o216bobo646bo5788b3o21b$5076b2o216bobo862bobo5812b$19bo5bo5050bobo1081b2o5786bo5bo19b$19bo5bo6429bo5492bo5bo19b$19bo5bo5932b2o54b2o439b2o216bo5274bo5bo19b$5807bo150b2o54b2o438bobo216b2o216bo5082b$21b3o5783bobo862bobo216b2o5057b3o21b$5807b2o1081bobo5081b$11974b$11974b$11974b$11974b$5782b2o114b2o174b2o114b2o5782b$5782b2o114b2o174b2o114b2o3017b3o2762b$6507bobo2701bo2762b$6507b2o2701bo2763b$6508bo5465b$11974b$2767b3o3605bo5598b$2767bo2701bobo901bobo5598b$2768bo2701b2o902b2o5598b$15b2o5453bo6486b2o15b$11b2o2b2o11940b2o2b2o11b$11b2o5580bo6367b2o11b$5593bobo6378b$5593b2o195b2o390b2o655bobo5132b$5790b2o390b2o655b2o5133b$5573bo1266bo5133b$5355bo216b2o6400b$5137bo216b2o216bobo1258bo5140b$5136b2o216bobo1474bobo5140b$21b3o5112bobo1693b2o5116b3o21b$6395bo5578b$19bo5bo6369b2o216bo5334bo5bo19b$19bo5bo6368bobo216b2o5333bo5bo19b$19bo5bo5109b2o821b2o54b2o596bobo5333bo5bo19b$5958b2o54b2o5958b$21b3o11926b3o21b$11974b$11974b$11974b$11974b$5783b2o3364b3o2822b$5781bob2o113b2o174b2o114b2o2959bo2822b$5898b2o174b2o3074bo2823b$5779bo6bo3bo6183b$5779bo3bo2b3obo399b2o5782b$2827b3o2949b2obo3bo397b3obob2o5782b$2827bo2951bo2bo2bob3o393bob2ob3o6bo5776b$2828bo2951bobobob3o394b2obo2b2o6bo5776b$5780b2o3bo397bo2bo4b2o3bo5777b$6177b3o5bobo2b3o5781b$15b2o5782bo373bo3bobo5bo4bobo5764b2o15b$11b2o2b2o5781b3o372bo3bo5779b2o2b2o11b$11b2o6160bo4b2o8b2o9b3o5759b2o11b$6179bo7b3o5b3o4b2o5770b$5633bo164b3o386b3o4b2o2b3ob2o5765b3o2b$5415bo216b2o144b2o19bo383bo8b2o8b2o5765bo2bob$5414b2o216bobo142bobo403bo8bo2b2o2b3o5767bo4b$5414bobo356bo3b2o405bo7bo3bo4bo5767bo3bo$5773b5o415b3o3bo5769bo3bo$5773b2obo558bo5633bo4b$21b3o5750b2o435bo123b2o216bo5396b3o17bobob$5774b3o432bobo122bobo216b2o5419b$19bo5bo5749b2o433b2o340bobo5393bo5bo19b$19bo5bo5756b2o406b2o5756bo5bo19b$2b3o14bo5bo5756b2o174b2o54b2o174b2o5756bo5bo19b$bo2bo5752bo200b2o54b2o5958b$4bo16b3o5733bobo6190b3o21b$o3bo5752b2o6215b$o3bo11969b$4bo9084b3o2882b$bobo9087bo2882b$9090bo2883b$5898b2o174b2o5898b$5898b2o174b2o5898b$2887b3o9084b$2887bo9086b$2888bo2901b2o390b2o5790b$5790b2o390b2o5790b$11974b$11974b$11974b$15b2o11940b2o15b$11b2o2b2o11940b2o2b2o11b$11b2o5680bo6267b2o11b$5475bo216b2o6280b$5474b2o216bobo468bobo5808b$5474bobo686b2o5809b$6164bo5809b$6275bo5698b$6275b2o216bo5480b$5813bobo458bobo216b2o5479b$21b3o5790b2o676bobo5455b3o21b$5814bo6159b$19bo5bo11922bo5bo19b$19bo5bo5756b2o406b2o5756bo5bo19b$19bo5bo5756b2o174b2o54b2o174b2o5756bo5bo19b$5958b2o54b2o5958b$21b3o11926b3o21b$9029b3o2942b$9031bo2942b$9030bo2943b$11974b$11974b$2947b3o2948b2o174b2o371bobo5524b$2947bo2950b2o174b2o371b2o5525b$2948bo3499bo5525b$11974b$5790b2o390b2o251bo5538b$5529bobo258b2o390b2o249bobo5538b$5530b2o902b2o5538b$5530bo6443b$11974b$15b2o5516bo219bo6203b2o15b$11b2o2b2o5516bobo216b2o6203b2o2b2o11b$11b2o5520b2o217bobo6206b2o11b$11974b$11974b$6215bo5758b$6215b2o5757b$6214bobo5757b$11974b$11974b$21b3o11926b3o21b$11974b$19bo5bo11922bo5bo19b$19bo5bo5756b2o406b2o5756bo5bo19b$19bo5bo5756b2o174b2o54b2o174b2o5756bo5bo19b$5958b2o54b2o2953b3o3002b$21b3o8947bo2978b3o21b$8970bo3003b$11974b$11974b$3007b3o8964b$3007bo8966b$3008bo2889b2o174b2o5898b$5898b2o174b2o5898b$11974b$11974b$5790b2o390b2o5790b$5790b2o390b2o5790b$11974b$5813bo6160b$5812b2o6160b$15b2o5795bobo6142b2o10b3o2b$11b2o2b2o11940b2o2b2o6bo2bob$11b2o11948b2o6bo4b$6155bo5813bo3bo$6155b2o5812bo3bo$6154bobo5812bo4b$11970bobob$11974b$11974b$5754b2o6218b$2b3o16b3o5729b2o6195b3o21b$bo2bo5750bo6218b$4bo14bo5bo11922bo5bo19b$o3bo14bo5bo5756b2o406b2o2717b3o3036bo5bo19b$o3bo14bo5bo5756b2o174b2o54b2o174b2o21b2o2696bo3036bo5bo19b$4bo5953b2o54b2o198b2o2694bo3063b$bobo17b3o6189bo5736b3o21b$11974b$3067b3o8904b$3067bo8906b$3068bo8905b$11974b$5892b3o6079b$11974b$6080bo5893b$5891bo8b2o170b2o4bob2o5892b$5790b2o97b2ob2o2bo3b2o170b2o4b6o98b2o5790b$5790b2o81bo17bo5bo183bo2bo97b2o5790b$5872b2o21b3o184bobo5889b$5872bobo204bo5894b$6079b3obobo5888b$15b2o6062bo5bo5871b2o15b$11b2o2b2o6064b3o11bo5861b2o2b2o11b$11b2o6068b3o11b2o6bobo5855b2o11b$6094bobo6b2o5869b$6104bo5869b$5902b2o166b2o5902b$5902b2o166b2o5902b$5814b2o57bobo6098b$5813b2o59b2o6098b$5815bo58bo6099b$21b3o11926b3o21b$8849b3o3122b$19bo5bo6127b2o2696bo3096bo5bo19b$19bo5bo5756b2o114b2o174b2o78b2o34b2o2658bo3097bo5bo19b$19bo5bo5756b2o114b2o112b3o59b2o77bo36b2o5756bo5bo19b$5959b2o51b5o5957b$21b3o3103b3o2826bob3o47b3o5939b3o21b$3127bo2827b2obo2bo46b2o7bo5956b$3128bo2830b3o46bo3b2o3bo5956b$5954b2o2b3ob2o43b2obob2o2bo5957b$5955b2ob5obo45b6o5958b$5954b4o2b2o2b2o41bo2bo3bo5959b$5954b2o7b2o32bo10bo5965b$5956b2ob2o35bo2bo4bo5969b$5958bo37bobo6bo5968b$5933bo24bo38b2o23b2o5950b$5790b2o98b2o40b2o69b3o15bo2bo57b2o98b2o5790b$5790b2o98b2o40bobo85b3ob2ob3o52b2o98b2o5790b$5954b2o63b3o2bo3b2o5944b$5954b2o62bo2b2obob2o5946b$6014b12o9bo5938b$15b2o5998bo5bo13b2o5920b2o15b$11b2o2b2o6002b2o13bobo5920b2o2b2o11b$11b2o6003bo2bo5941b2o11b$6018bo5955b$11974b$5874b2o82b2o54b2o20b2o5936b$5873b2o83b2o54b2o5958b$5875bo6098b$11974b$8789b3o3182b$21b3o6069b2o2696bo3158b3o21b$6094b2o2694bo3183b$19bo5bo6067bo5854bo5bo19b$19bo5bo5756b2o114b2o174b2o114b2o5756bo5bo19b$19bo5bo3161b3o2592b2o114b2o174b2o114b2o5756bo5bo19b$3187bo8786b$21b3o3164bo8761b3o21b$11974b$5966b2o38b2o5966b$5966b2o38b2o5966b$11974b$11974b$11974b$11974b$6122bo5851b$6123bo5850b$5790b2o329b3o58b2o5790b$5790b2o390b2o5785b3o2b$11969bo2bob$5846bo138bobo5981bo4b$5845bo139b2o5982bo3bo$15b2o5828b3o138bo5970b2o10bo3bo$11b2o2b2o11940b2o2b2o6bo4b$11b2o11948b2o7bobob$5934b2o55bobo5980b$5933b2o57b2o5980b$5935bo22b2o32bo21b2o5958b$2b3o5953b2o54b2o5958b$bo2bo8724b3o3242b$4bo6028b2o2696bo3242b$o3bo6029b2o2694bo3243b$o3bo16b3o6009bo5916b3o21b$4bo11969b$bobo15bo5bo3221b3o8698bo5bo19b$19bo5bo3221bo2534b2o114b2o174b2o114b2o5756bo5bo19b$19bo5bo3222bo2533b2o114b2o174b2o114b2o5756bo5bo19b$11974b$21b3o11926b3o21b$11974b$5966b2o38b2o5966b$5966b2o38b2o5966b$11974b$11974b$11974b$11974b$11974b$11974b$5790b2o390b2o5790b$5790b2o390b2o5790b$11974b$11974b$11974b$15b2o11940b2o15b$11b2o2b2o5977b2o5961b2o2b2o11b$11b2o5980b2o5966b2o11b$5995bo5978b$11974b$5958b2o54b2o2653b3o3302b$5958b2o13b2o39b2o2655bo3302b$5974b2o2694bo3303b$5973bo6000b$11974b$21b3o3283b3o8640b3o21b$3307bo8666b$19bo5bo3282bo8639bo5bo19b$19bo5bo5756b2o114b2o174b2o114b2o5756bo5bo19b$19bo5bo5756b2o114b2o174b2o114b2o5756bo5bo19b$11974b$21b3o11926b3o21b$11974b$11974b$11974b$11974b$11974b$11974b$11974b$11974b$11974b$5790b2o390b2o5790b$5790b2o390b2o5790b$11974b$11974b$6054b2o5918b$15b2o6036b2o5902b2o15b$11b2o2b2o6038bo5901b2o2b2o11b$11b2o11948b2o11b$8609b3o3362b$5913b2o2696bo3362b$5914b2o42b2o54b2o2594bo3363b$5913bo44b2o54b2o5958b$11974b$3367b3o8604b$3367bo8606b$21b3o3344bo8581b3o21b$11974b$19bo5bo11922bo5bo19b$19bo5bo5756b2o114b2o174b2o114b2o5756bo5bo19b$19bo5bo5756b2o114b2o174b2o114b2o5756bo5bo19b$11974b$21b3o11926b3o21b$11974b$5791b2o6181b$5790bo2bo6180b$11974b$5791bobo6180b$6182bo5791b$6181bobo5785b3o2b$6182b2o5785bo2bob$6182bo5786bo4b$6182bo5786bo3bo$6182bo5786bo3bo$6114b2o5853bo4b$6113b2o5855bobob$6115bo5858b$15b2o11940b2o15b$11b2o2b2o6166b2o2364b3o3405b2o2b2o11b$2b3o6b2o5840b2o327b3o2366bo3409b2o11b$bo2bo5849b2o326bo2bo2364bo3423b$4bo5848bo328b2ob2o5787b$o3bo5953b2o54b2o166b2ob2o5787b$o3bo3422b3o2528b2o54b2o165b2ob2o5788b$4bo3422bo2754bo5791b$bobo3424bo2754b3o5788b$5789b3o392bo5789b$21b3o5765bo2bo6157b3o21b$5788bo6185b$19bo5bo5765b2o6155bo5bo19b$19bo5bo5761bo3b2o105b2o174b2o5872bo5bo19b$19bo5bo5761bo110b2o174b2o5872bo5bo19b$5789bo6184b$21b3o5756b2o7b3o400b2o5756b3o21b$5780b2o8b2o390b2o8b2o5780b$5791bo390b2o5790b$6194bo5779b$6193bobo5778b$6192bo5781b$6193bo3bo5776b$5779bo413bo4bo5775b$5779bobo417bo5774b$5779b2o6193b$5779bo394b2o18bo5779b$5778b2o393b2o22bo5776b$5778b2o395bo5798b$11974b$8489b3o3482b$15b2o5776b2o2696bo3465b2o15b$11b2o2b2o5777b2o2694bo3466b2o2b2o11b$11b2o5780bo6167b2o11b$11974b$3487b3o2292b2o406b2o5782b$3487bo2294b2o174b2o54b2o174b2o5782b$3488bo2469b2o54b2o5958b$11974b$11974b$11974b$21b3o11926b3o21b$11974b$19bo5bo11922bo5bo19b$19bo5bo5872b2o174b2o5872bo5bo19b$19bo5bo5872b2o174b2o5872bo5bo19b$11974b$21b3o11926b3o21b$5790b2o390b2o5790b$5790b2o390b2o5790b$11974b$11974b$11974b$11974b$11974b$6234b2o5738b$6233b2o5739b$6235bo5738b$11974b$8429b3o3542b$5733b2o2696bo3542b$5734b2o2694bo3543b$15b2o5716bo6223b2o15b$11b2o2b2o11940b2o2b2o11b$11b2o3534b3o8411b2o11b$3547bo8426b$3548bo2233b2o406b2o5782b$5782b2o174b2o54b2o174b2o5782b$5958b2o54b2o5958b$11974b$11974b$11974b$21b3o11926b3o21b$11974b$19bo5bo11922bo5bo19b$19bo5bo5872b2o174b2o5872bo5bo19b$19bo5bo5872b2o174b2o5872bo5bo19b$11974b$21b3o11926b3o21b$5790b2o390b2o5790b$5790b2o390b2o5790b$11969b3o2b$11969bo2bob$6190b3o5776bo4b$6192bo5776bo3bo$6191bo5777bo3bo$11969bo4b$11970bobob$5786b3o52bo2527b3o3602b$5786bo52bobo2529bo3602b$5787bo52b2o2528bo3603b$2b3o11969b$bo2bo11969b$4bo10b2o3590b3o2517bo5829b2o15b$o3bo6b2o2b2o3590bo2519bobo5827b2o2b2o11b$o3bo6b2o3595bo2518b2o5832b2o11b$4bo11969b$bobo5778b2o406b2o5782b$5782b2o174b2o54b2o174b2o5782b$5958b2o54b2o5958b$11974b$11974b$11974b$21b3o11926b3o21b$11974b$19bo5bo11922bo5bo19b$19bo5bo5872b2o174b2o5872bo5bo19b$19bo5bo5872b2o174b2o5872bo5bo19b$11974b$21b3o11926b3o21b$5790b2o390b2o5790b$5790b2o390b2o5790b$6072b3o55b3o5841b$6065bo2b2o2bo2bo56bo5841b$6065bo2bob4o6bo50bo5842b$5896bob2o6b2o163bo8b2o9bo5882b$5895b2o2bo5bo3bo156bo4bo8bobo2b3o3bo5882b$5846b3o36bo7bo5bo4bo5bo155b2o13bo2bo7bo2216b3o3662b$5846bo38b2o8b3o7bo4bo168b2o2bo2bo4b2o2218bo3662b$5847bo38b2o3bo3b2o10bo2bo154b2o14bo5b5o2218bo3663b$5886bo4bobo13bobo156b2o12b2o5bo5886b$5881b3obo9bo12bo149bo9bobo8bo7bobo5884b$3667b3o2211b3o11bo161bo10b2o17bobo5884b$3667bo2227bo3b2o156b3o5914b$15b2o3651bo8288b2o15b$11b2o2b2o11940b2o2b2o11b$11b2o11948b2o11b$11974b$5782b2o114b2o174b2o114b2o5782b$5782b2o114b2o58b2o54b2o58b2o114b2o5782b$5958b2o54b2o5958b$11974b$11974b$11974b$21b3o11926b3o21b$11974b$19bo5bo11922bo5bo19b$19bo5bo11922bo5bo19b$19bo5bo11922bo5bo19b$11974b$21b3o11926b3o21b$5790b2o89bo8b2o178b3o9b2o98b2o5790b$5790b2o87b2o9b2o180bo9b2o98b2o5790b$5880b2o189bo5902b$11974b$11974b$5906b3o188bo2151b3o3722b$5906bo191b2o2151bo3722b$5907bo102bo86b2o2151bo3723b$6010b2o5962b$6012bo5961b$3727b3o2280b2o5962b$3727bo2281bobo5962b$3728bo2237bo43bo5963b$5964b2ob2o39bobo5963b$15b2o5947b2ob2o37bo5950b2o15b$11b2o2b2o5946b3obo38bobo5948b2o2b2o11b$11b2o5953b3o5992b2o11b$11974b$5782b2o114b2o174b2o114b2o5782b$5782b2o114b2o174b2o114b2o5782b$11974b$11974b$5956b2o6016b$5956b2o8b2o38b2o5966b$21b3o5942b2o38b2o10bo5931b3o21b$11974b$19bo5bo11922bo5bo19b$19bo5bo11922bo5bo19b$19bo5bo11922bo5bo19b$5955b2o6012b3o2b$21b3o5933bo5992b3o16bo2bob$5790b2o163bo2bo223b2o5785bo4b$5790b2o163bobo224b2o5785bo3bo$5955b2o6012bo3bo$5955b2o2232b3o3777bo4b$8191bo3778bobob$8190bo3783b$11974b$11974b$2b3o3782b3o8184b$bo2bo3782bo8186b$4bo3783bo2169b2o54b2o5958b$o3bo5953b2o54b2o5958b$o3bo11969b$4bo11969b$bobo11b2o11940b2o15b$11b2o2b2o11940b2o2b2o11b$11b2o11948b2o11b$11974b$5782b2o114b2o174b2o114b2o5782b$5782b2o114b2o174b2o114b2o5782b$11974b$11974b$11974b$5966b2o38b2o5966b$21b3o5942b2o38b2o5942b3o21b$11974b$19bo5bo11922bo5bo19b$19bo5bo11922bo5bo19b$19bo5bo11922bo5bo19b$11974b$21b3o11926b3o21b$5790b2o390b2o5790b$5790b2o390b2o1945b3o3842b$8131bo3842b$8130bo3843b$11974b$11974b$3847b3o8124b$3847bo8126b$3848bo8125b$11974b$5958b2o54b2o5958b$5958b2o54b2o5958b$11974b$11974b$15b2o11940b2o15b$11b2o2b2o11940b2o2b2o11b$11b2o11948b2o11b$11974b$5782b2o114b2o174b2o114b2o5782b$5782b2o114b2o174b2o114b2o5782b$11974b$11974b$11974b$11974b$21b3o11926b3o21b$11974b$19bo5bo11922bo5bo19b$19bo5bo11922bo5bo19b$19bo5bo11922bo5bo19b$5821bo6152b$21b3o5795b2o2248b3o3878b3o21b$5790b2o28b2o360b2o1887bo3902b$5790b2o390b2o1886bo3903b$11974b$6157bo5816b$3907b3o2248b2o5814b$3907bo2249b2o5815b$3908bo8065b$11974b$11974b$11974b$5958b2o54b2o5958b$5958b2o54b2o5958b$11974b$11974b$15b2o11940b2o15b$11b2o2b2o11940b2o2b2o11b$11b2o11948b2o11b$11974b$5782b2o114b2o174b2o114b2o5782b$5782b2o114b2o174b2o114b2o5782b$11974b$11974b$11974b$11974b$21b3o11926b3o21b$11969b3o2b$19bo5bo11922bo5bo14bo2bob$19bo5bo11922bo5bo14bo4b$19bo5bo7983b3o3936bo5bo14bo3bo$8011bo3957bo3bo$21b3o7986bo3939b3o16bo4b$5790b2o390b2o5786bobob$5790b2o390b2o5790b$3967b3o8004b$3967bo8006b$2b3o3963bo8005b$bo2bo11969b$4bo11969b$o3bo11969b$o3bo11969b$4bo11969b$bobo5954b2o54b2o5958b$5958b2o54b2o5958b$11974b$11974b$15b2o11940b2o15b$11b2o2b2o11940b2o2b2o11b$11b2o11948b2o11b$11974b$5898b2o174b2o112b3o5783b$5783b2o113b2o174b2o112b5o5781b$5780bob3o399b3o5787b$5779b2obo2bo398b2o7bo5780b$5783b3o398bo3b2o3bo5780b$5778b2o2b3ob2o395b2obob2o2bo5781b$21b3o5755b2ob5obo397b6o5758b3o21b$5778b4o2b2o2b2o393bo2bo3bo5783b$19bo5bo5752b2o7b2o384bo10bo1764b3o3996bo5bo19b$19bo5bo5754b2ob2o387bo2bo4bo1770bo3996bo5bo19b$19bo5bo5756bo389bobo6bo1768bo3997bo5bo19b$5782bo390b2o23b2o5774b$21b3o6155b3o15bo2bo5749b3o21b$4027b3o2166b3ob2ob3o5768b$4027bo1750b2o415b3o2bo3b2o5768b$4028bo1749b2o414bo2b2obob2o5770b$6190b12o5772b$6191bo5bo11b2o5763b$6195b2o12bo5764b$6192bo2bo13b2o5763b$6194bo11bo3bobo5761b$6206bob2o3bo5760b$5782b2o406b2o14b3obobo5761b$5782b2o174b2o54b2o174b2o5782b$5958b2o54b2o5958b$11974b$11974b$15b2o11940b2o15b$11b2o2b2o11940b2o2b2o11b$11b2o11948b2o11b$11974b$5898b2o174b2o5898b$5898b2o174b2o5898b$11974b$11974b$5790b2o390b2o5790b$5790b2o390b2o5790b$21b3o7865b3o4058b3o21b$7891bo4082b$19bo5bo7864bo4057bo5bo19b$19bo5bo11922bo5bo19b$19bo5bo11922bo5bo19b$4087b3o1726b2o6156b$21b3o4063bo1727b2o6133b3o21b$4088bo1728bo6156b$11974b$6161bobo5810b$6151b2o8b2o5811b$6152b2o8bo5811b$6151bo5822b$11974b$5815bobo6156b$5816b2o6156b$5782b2o32bo373b2o5782b$5782b2o174b2o54b2o174b2o5782b$5958b2o54b2o5958b$11974b$11974b$15b2o11940b2o15b$11b2o2b2o11940b2o2b2o11b$11b2o11948b2o11b$11974b$5892b2o6080b$5892b2o6080b$5891bo6082b$5891bob2o5b2o174b3o5890b3o2b$5790b2o99bo3b2o3b2o177bo102b2o1645b3o4137bo2bob$5790b2o287b2o101b2o1647bo4137bo4b$21b3o5866bo181b3o3b3o1749bo4119b3o16bo3bo$5889bobo180bo3bo4bo5887bo3bo$19bo5bo5869bo176bo3bo5871bo5bo14bo4b$19bo5bo4121b3o1726b2o17bo180bob4o5866bo5bo15bobob$19bo5bo4121bo1727b2o14bobo184b2obo5866bo5bo19b$4148bo1728bo200b3o5893b$21b3o5866bobo6057b3o21b$2b3o5886bo6082b$bo2bo5886bo10b2o166b2o19b2o5881b$4bo5897b2o166b2o20b2o5880b$o3bo6086bo5882b$o3bo11969b$4bo11969b$bobo11970b$11974b$11974b$5782b2o114b2o174b2o114b2o5782b$5782b2o114b2o114b2o58b2o114b2o5782b$5957b2obo53b2o5958b$5957bo2bo4b2o6007b$5960bo4bo6008b$15b2o5943bob3o50bo4bo5936b2o15b$11b2o2b2o5939b3ob2o2bo49bobo3b3o5934b2o2b2o11b$11b2o5943b3obo3bo44b3o2bobo2bob2o5938b2o11b$5961b2o45b2obo3b2o3bo2bo5950b$6007bo3bo10bo5951b$5997bo5bo3bob2o5963b$5997bo3b2ob3o3bo13b2o1743b3o4202b$5973b5o19bo6b2o2b4o11bo2bo1744bo4202b$5790b2o98b2o82b3o29bo4bo10b2ob2o55b2o98b2o1586bo4203b$5790b2o98b2o61b2o20bo30b6o9b3o2bo11bo43b2o98b2o5790b$21b3o5921bo6bo2bo50bo3b2o7bobo2b2o10b2o5912b3o21b$4207b3o1726b2o8b2o4b2obo50bo2bo8b2obo15b2o5935b$19bo5bo4181bo1727b2o9b5o3bo52b3o9bobo5926bo5bo19b$19bo5bo4182bo1728bo9bo2bo69b2o11bo5914bo5bo19b$19bo5bo5922b4obo80bo5913bo5bo19b$5952bo79b3o5939b$21b3o5929bo5996b3o21b$11974b$5958b2o54b2o5958b$5958b2o54b2o5958b$11974b$11974b$11974b$11974b$11974b$11974b$5782b2o114b2o174b2o114b2o5782b$5782b2o114b2o174b2o114b2o5782b$11974b$11974b$11974b$15b2o5949b2o38b2o5949b2o15b$11b2o2b2o5949b2o38b2o5949b2o2b2o11b$11b2o11948b2o11b$6119bo5854b$6117bobo1589b3o4262b$6118b2o1591bo4262b$7710bo4263b$5990bo5983b$5790b2o57bo40b2o96b2o92b2o98b2o5790b$4267b3o1520b2o57bobo38b2o97b2o91b2o98b2o5790b$21b3o4243bo1581b2o6099b3o21b$4268bo7705b$19bo5bo5962bo5959bo5bo19b$19bo5bo5963b2o5957bo5bo19b$19bo5bo5962b2o5958bo5bo19b$11974b$21b3o11926b3o21b$6101bobo5870b$5958b2o54b2o85b2o5871b$5958b2o54b2o86bo5871b$11974b$11974b$5875bobo6096b$5876b2o6096b$5876bo6097b$11974b$5782b2o114b2o174b2o114b2o5782b$5782b2o114b2o174b2o114b2o5782b$11974b$11974b$11974b$15b2o5949b2o38b2o5949b2o15b$11b2o2b2o5949b2o38b2o5949b2o2b2o11b$11b2o7636b3o4309b2o11b$7651bo4317b3o2b$7650bo4318bo2bob$11969bo4b$11969bo3bo$4327b3o7639bo3bo$4327bo1462b2o98b2o190b2o98b2o5785bo4b$4328bo1461b2o98b2o190b2o98b2o5786bobob$21b3o11926b3o21b$11974b$19bo5bo11922bo5bo19b$2b3o14bo5bo11922bo5bo19b$bo2bo14bo5bo11922bo5bo19b$4bo11969b$o3bo16b3o11927b2o21b$o3bo11945bo2bo20b$4bo17b2o5934b2o54b2o5934bobo21b$bobo18b2o5934b2o54b2o5935bo22b$21b2o11951b$23bo11950b$11974b$11974b$11974b$11974b$5782b2o114b2o174b2o114b2o5782b$5782b2o114b2o174b2o114b2o5782b$11974b$11974b$11974b$15b2o7572b3o4365b2o15b$11b2o2b2o7574bo4365b2o2b2o11b$11b2o7577bo4370b2o11b$11974b$11974b$4387b3o7584b$4387bo7586b$4388bo7585b$5790b2o390b2o5790b$5790b2o390b2o5790b$21b3o11926b3o21b$11974b$19bo5bo11869b2o51bo5bo19b$19bo5bo11870b2o50bo5bo19b$19bo5bo11869bo52bo5bo19b$11974b$21b2o11928b2o21b$20bo2bo58b2o11866bo2bo20b$21bobo57b2o5875b2o54b2o5934bobo21b$22bo60bo5874b2o54b2o5935bo22b$11974b$11974b$11974b$11974b$11974b$11974b$5782b2o114b2o174b2o114b2o5782b$5782b2o114b2o174b2o114b2o5782b$11974b$7529b3o4442b$7531bo4442b$15b2o7513bo4426b2o15b$11b2o2b2o6162bo5777b2o2b2o11b$11b2o6164bobo5781b2o11b$4447b3o1728b2o5794b$4447bo1344bo6181b$4448bo1344b2o6179b$5790b2ob2o6179b$5790b2obo6180b$5790bo2bo388b2o5790b$5791b2o389b2o5790b$21b3o11811b2o113b3o21b$11836b2o136b$19bo5bo11809bo112bo5bo19b$19bo5bo11922bo5bo19b$19bo5bo5761bo6160bo5bo19b$142b2o5642b2o6186b$21b2o118b2o5642bo6165b2o21b$20bo2bo119bo5642b2o6162bo2bo20b$21bobo5762bobo169b2o54b2o5934bobo21b$22bo5764bo170b2o54b2o167bo5767bo22b$5787bobo391b2ob2o5788b$5791bo389b2ob2o5788b$5789bobo390bob3o5787b$6181b3o5790b$11974b$11974b$5898b2o174b2o5898b$5898b2o174b2o1393b3o4502b$7471bo4502b$6192b2o1276bo4503b$5790b2o390b2o8b2o5775b3o2b$15b2o5762bo10b2o390b2o5773b2o10bo2bob$11b2o2b2o4490b3o7447b2o2b2o6bo4b$11b2o4494bo7453b2o6bo3bo$4508bo7460bo3bo$11969bo4b$6193b2o5775bobob$5785b2o405bo5781b$5785bobo403bo2bo5779b$5785bo406bobo5580b2o197b$2b3o6188b2o5581b2o196b$bo2bo16b3o6169b2o5580bo174b3o21b$4bo6177b2o5790b$o3bo14bo5bo6155bobo5764bo5bo19b$o3bo14bo5bo176b2o5979bo5764bo5bo19b$4bo14bo5bo175b2o11745bo5bo19b$bobo199bo11770b$21b2o11928b2o21b$20bo2bo5758b2o406b2o5758bo2bo20b$21bobo5758b2o174b2o54b2o174b2o5758bobo21b$22bo5935b2o54b2o5935bo22b$11974b$11974b$11974b$11974b$11974b$7409b3o4562b$5898b2o174b2o1335bo4562b$5898b2o174b2o1334bo4563b$11974b$11974b$4567b3o1220b2o390b2o5790b$15b2o4550bo1222b2o390b2o5773b2o15b$11b2o2b2o4551bo7388b2o2b2o11b$11b2o5882b2o177bo5886b2o11b$5896b2o176b3o5897b$5845b2o47bobo3bo3b3o165b2o2bo5897b$5845bobo37b3o6bo3b3ob2o3bo6066b$5845bo38b5o6b4o3bo3b2o160b5o8b3o3b2o5626b2o257b$5883b5obo8bo4bo3bo4bo155bo3bobo2bobob3o2b2obo5626b2o256b$5881b2o2b3ob2o4b3o6bobo3bobo155b2obo3b2obo5bo4b2o5624bo258b$5881b2obo2b3o16bo4b2o157b2o10b3o3b2o32b2o5850b$21b3o5856b2o6bo8bo181b2o2b2o36bobo5826b3o21b$262b2o5617bo2bo11bo226bo5850b$19bo5bo235b2o5619b3o6063bo5bo19b$19bo5bo237bo11684bo5bo19b$19bo5bo11922bo5bo19b$11974b$21b2o11928b2o21b$20bo2bo5758b2o114b2o174b2o114b2o5758bo2bo20b$21bobo5758b2o114b2o58b2o54b2o58b2o114b2o5758bobo21b$22bo5935b2o54b2o5935bo22b$11974b$11974b$11974b$7349b3o4622b$7351bo4622b$7350bo4623b$11974b$6088bobo5883b$4627b3o1459b2o5883b$4627bo1461bo5884b$4628bo1161b2o98b2o190b2o98b2o5790b$15b2o5773b2o98b2o190b2o98b2o5773b2o15b$11b2o2b2o5861bobo6076b2o2b2o11b$11b2o5865b2o25b2o6054b2o11b$5879bo25bobo6066b$5905bo5749b2o317b$11656b2o316b$11655bo318b$6062b2o5910b$6061bobo5910b$322b2o5642bo96bo67bo5842b$21b3o297b2o5642b3o162bo5819b3o21b$323bo5640bo165b3o5841b$19bo5bo5939b2o5981bo5bo19b$19bo5bo5939bo5982bo5bo19b$19bo5bo5821bo6100bo5bo19b$5848bo6125b$21b2o5823b3o6102b2o21b$20bo2bo5758b2o114b2o174b2o114b2o5758bo2bo20b$21bobo5758b2o114b2o106b3o65b2o114b2o5758bobo21b$22bo5982bo2bo5942bo22b$6005b2obo5965b$5956b2o58b2o1271b3o4682b$5956b2o8b2o48b2o1273bo4682b$5966b2o1322bo4683b$11974b$11974b$4687b3o1326bo5952b3o2b$4687bo1326bobo5952bo2bob$4688bo1266bo59b2o5952bo4b$5954b3o6012bo3bo$5790b2o98b2o61b2ob2o124b2o98b2o5785bo3bo$15b2o5773b2o98b2o64b3o123b2o98b2o5773b2o10bo4b$11b2o2b2o5937b2obo60b2o5937b2o2b2o7bobob$11b2o5942b2o61b2o5575b2o364b2o11b$5955bo5640b2o376b$11595bo378b$2b3o11969b$bo2bo11969b$4bo377b2o11590b$o3bo376b2o11591b$o3bo378bo5574b2o54b2o5958b$4bo16b3o5934b2o54b2o5934b3o21b$bobo11970b$19bo5bo11922bo5bo19b$19bo5bo11922bo5bo19b$19bo5bo11922bo5bo19b$11974b$21b2o11928b2o21b$20bo2bo5758b2o114b2o174b2o114b2o5758bo2bo20b$21bobo5758b2o114b2o174b2o114b2o5758bobo21b$22bo7206b3o4719bo22b$7231bo4742b$7230bo4743b$5966b2o38b2o5966b$5966b2o38b2o5966b$4747b3o7224b$4747bo7226b$4748bo7225b$11974b$11974b$11974b$5790b2o98b2o190b2o98b2o5790b$15b2o5773b2o98b2o190b2o98b2o5351b2o420b2o15b$11b2o2b2o11519b2o419b2o2b2o11b$11b2o11522bo425b2o11b$11974b$11974b$442b2o11530b$441b2o11531b$443bo11530b$11974b$5958b2o54b2o5958b$21b3o5934b2o54b2o5934b3o21b$11974b$19bo5bo11922bo5bo19b$19bo5bo11922bo5bo19b$19bo5bo11922bo5bo19b$11974b$21b2o11928b2o21b$20bo2bo5758b2o114b2o174b2o114b2o977b3o4778bo2bo20b$21bobo5758b2o114b2o174b2o114b2o979bo4778bobo21b$22bo7147bo4780bo22b$11974b$11974b$4807b3o7164b$4807bo7166b$4808bo7165b$6148bobo5823b$6149b2o5823b$6149bo5824b$11974b$11475b2o497b$5790b2o26bobo361b2o5292b2o496b$15b2o5773b2o26b2o362b2o5291bo481b2o15b$11b2o2b2o5802bo6137b2o2b2o11b$11b2o11948b2o11b$502b2o11470b$501b2o11471b$503bo11470b$11974b$11974b$11974b$5958b2o54b2o5958b$21b3o5934b2o54b2o5934b3o21b$11974b$19bo5bo11922bo5bo19b$19bo5bo11922bo5bo19b$19bo5bo11922bo5bo19b$7109b3o4862b$21b2o7088bo4839b2o21b$20bo2bo5758b2o114b2o174b2o114b2o918bo4839bo2bo20b$21bobo5758b2o114b2o174b2o114b2o5758bobo21b$22bo11928bo22b$4867b3o7104b$4867bo7106b$4868bo7100b3o2b$11969bo2bob$11969bo4b$11969bo3bo$11969bo3bo$11415b2o552bo4b$11416b2o552bobob$11415bo558b$5790b2o390b2o5790b$15b2o5773b2o390b2o5773b2o15b$2b3o6b2o2b2o545b2o11393b2o2b2o11b$bo2bo6b2o548b2o11398b2o11b$4bo558bo11410b$o3bo11969b$o3bo11969b$4bo11969b$bobo11970b$11974b$5958b2o54b2o5958b$21b3o5934b2o54b2o5934b3o21b$11974b$19bo5bo11922bo5bo19b$19bo5bo7023b3o4896bo5bo19b$19bo5bo7025bo4896bo5bo19b$7050bo4923b$21b2o11928b2o21b$20bo2bo5758b2o114b2o174b2o114b2o5758bo2bo20b$21bobo4903b3o852b2o114b2o174b2o114b2o5758bobo21b$22bo4904bo7023bo22b$4928bo7045b$11974b$11974b$11974b$11974b$11355b2o617b$11356b2o616b$11355bo618b$11974b$11974b$622b2o11350b$15b2o604b2o11334b2o15b$11b2o2b2o606bo11333b2o2b2o11b$11b2o11948b2o11b$11974b$11974b$11974b$11974b$11974b$11974b$5958b2o54b2o5958b$21b3o5934b2o54b2o5934b3o21b$6989b3o4982b$19bo5bo6965bo4956bo5bo19b$19bo5bo6964bo4957bo5bo19b$19bo5bo11922bo5bo19b$11974b$21b2o4964b3o6961b2o21b$20bo2bo4963bo794b2o114b2o174b2o114b2o5758bo2bo20b$21bobo4964bo793b2o114b2o174b2o114b2o5758bobo21b$22bo11928bo22b$11974b$11974b$11974b$11295b2o677b$11296b2o676b$11295bo678b$11974b$11974b$682b2o11290b$681b2o11291b$683bo11290b$15b2o11940b2o15b$11b2o2b2o11940b2o2b2o11b$11b2o11948b2o11b$11974b$11974b$11974b$11974b$11974b$11974b$5958b2o54b2o913b3o5042b$21b3o5934b2o54b2o915bo5018b3o21b$6930bo5043b$19bo5bo11922bo5bo19b$19bo5bo11922bo5bo19b$19bo5bo5021b3o6898bo5bo19b$5047bo6926b$21b2o5025bo6902b2o21b$20bo2bo5874b2o174b2o5874bo2bo20b$21bobo5874b2o174b2o112bo5761bobo16b3o2b$22bo5757bo406b3o5761bo17bo2bob$5780bo5bo403bo5778bo4b$5779b3o5bo399b4obo5042b2o732bo3bo$5785bobo399b2ob4o5042b2o731bo3bo$5779b3o4b2o399b2o2b2obo5040bo733bo4b$5780bo9b3o390b3ob2o2bo2bo5775bobob$6183b3o2bo4bo5780b$742b2o5439b7o5784b$741b2o5440b4obo5785b$2b3o738bo5440bo2bo5786b$bo2bo6180b2o5787b$4bo11969b$o3bo10b2o5761b2o414b2o5761b2o15b$o3bo6b2o2b2o5761b2o414b2o5761b2o2b2o11b$4bo6b2o11948b2o11b$bobo11970b$11974b$11974b$11974b$6869b3o5102b$5782b2o406b2o679bo5102b$5782b2o174b2o54b2o174b2o678bo5103b$21b3o5934b2o54b2o5934b3o21b$11974b$19bo5bo5081b3o6838bo5bo19b$19bo5bo5081bo6840bo5bo19b$19bo5bo5082bo6839bo5bo19b$11974b$21b2o11928b2o21b$20bo2bo5874b2o174b2o5874bo2bo20b$21bobo5726bo147b2o174b2o5874bobo21b$22bo5725b2o5425b2o774bo22b$5749b2o5425b2o796b$5790b2o390b2o4991bo798b$5790b2o390b2o5790b$6228bo5745b$802b2o5425b2o5743b$801b2o5425b2o5744b$803bo11170b$11974b$11974b$11974b$11974b$15b2o11940b2o15b$11b2o2b2o11940b2o2b2o11b$11b2o11948b2o11b$11974b$11974b$6078b2o729b3o5162b$6077bobo731bo5162b$6076b2o732bo5163b$5782b2o294bo111b2o5782b$5782b2o106b3o65b2o54b2o62bobo109b2o5782b$21b3o5143b3o788b2o54b2o64b2o5868b3o21b$5167bo722bobo186b3o5892b$19bo5bo5142bo654bo69bo6054bo5bo19b$19bo5bo5795bobo65bo3bo6054bo5bo19b$19bo5bo5796b2o6124bo5bo19b$5889bo2b2o6080b$21b2o11928b2o21b$20bo2bo6121bo4969b2o833bo2bo20b$21bobo6121bobo4968b2o832bobo21b$22bo6122b2o4968bo835bo22b$5900b2o6072b$5790b2o98b2o8b2o180b2o98b2o5790b$862b2o4926b2o98b2o190b2o98b2o5790b$861b2o11111b$863bo11110b$11974b$11974b$5900bo6073b$5899bo2bo6071b$5902b2o6070b$5900bo3bo6069b$15b2o5883bo2bo6053b2o15b$11b2o2b2o5884b2o6054b2o2b2o11b$11b2o11948b2o11b$6749b3o5222b$6751bo5222b$6750bo5223b$11974b$11974b$5227b3o552b2o114b2o174b2o114b2o5782b$5227bo554b2o114b2o174b2o114b2o5782b$21b3o5204bo781b2o5938b3o21b$6010b2ob3o5958b$19bo5bo5985b6o5931bo5bo19b$19bo5bo5937b2o50b3o5930bo5bo19b$19bo5bo5936bo2b2o41bo5939bo5bo14b3o2b$5956bo5b2obo41b3o5045b2o912bo2bob$21b2o5933bo6bo3b2o37bo2bo5046b2o893b2o16bo4b$20bo2bo5932bo49b3o5046bo894bo2bo15bo3bo$21bobo5983bo5942bobo16bo3bo$22bo11928bo17bo4b$922b2o11046bobob$921b2o4867b2o98b2o190b2o98b2o5790b$923bo4866b2o98b2o190b2o98b2o5790b$5954b2o62b2o5954b$2b3o5949b2o62b2o5954b$bo2bo11969b$4bo11969b$o3bo11969b$o3bo11969b$4bo11969b$bobo11970b$15b2o5941b2o54b2o5941b2o15b$11b2o2b2o5941b2o54b2o673b3o5265b2o2b2o11b$11b2o6678bo5269b2o11b$6690bo5283b$11974b$11974b$5287b3o6684b$5287bo6686b$5288bo493b2o114b2o174b2o114b2o5782b$5782b2o114b2o174b2o114b2o5782b$21b3o11926b3o21b$11974b$19bo5bo11922bo5bo19b$19bo5bo5940b2o38b2o4987b2o951bo5bo19b$19bo5bo5940b2o38b2o4988b2o950bo5bo19b$10995bo978b$21b2o5667bo6260b2o21b$20bo2bo5664b2o6260bo2bo20b$21bobo958b2o4705b2o6259bobo21b$22bo958b2o10968bo22b$983bo10990b$5790b2o98b2o190b2o98b2o104bo5685b$5790b2o98b2o190b2o98b2o105b2o5683b$6288b2o5684b$11974b$11974b$11974b$11974b$11974b$11974b$6629b3o5342b$15b2o5941b2o54b2o615bo5325b2o15b$11b2o2b2o5822bo118b2o54b2o614bo5326b2o2b2o11b$11b2o5824b2o6122b2o11b$5838b2o6134b$5347b3o6624b$5347bo652bo5973b$5348bo649bobo138bo5834b$5999b2o139b2o5832b$5782b2o114b2o174b2o63b2o49b2o5782b$5782b2o114b2o174b2o114b2o5782b$21b3o5859bo84bo5981b3o21b$5881bobo86bo4964b2o1037b$19bo5bo5856b2o82bo2bo4966b2o1010bo5bo19b$19bo5bo5980b2o4927bo1012bo5bo19b$19bo5bo5940b2o38b2o5940bo5bo19b$6085bo5888b$21b2o1019b2o5041bobo5863b2o21b$20bo2bo1017b2o5042b2o5863bo2bo20b$21bobo1019bo10906bobo21b$22bo11928bo22b$11974b$5790b2o98b2o190b2o98b2o5790b$5790b2o98b2o190b2o98b2o5790b$11974b$11974b$11974b$11974b$11974b$6569b3o5402b$6571bo5402b$6570bo5403b$15b2o5941b2o54b2o5941b2o15b$11b2o2b2o5941b2o54b2o5941b2o2b2o11b$11b2o5394b3o6551b2o11b$5407bo6566b$5408bo6565b$11974b$11974b$11974b$5782b2o114b2o174b2o114b2o5782b$5782b2o114b2o174b2o114b2o4683b2o1097b$21b3o10852b2o1072b3o16b3o2b$10875bo1093bo2bob$19bo5bo11922bo5bo14bo4b$19bo5bo11922bo5bo14bo3bo$19bo5bo1076b2o10844bo5bo14bo3bo$1101b2o10866bo4b$21b2o1080bo10847b2o17bobob$20bo2bo11926bo2bo20b$21bobo11926bobo21b$22bo11928bo22b$2b3o11969b$bo2bo5785b2o390b2o5790b$4bo5785b2o390b2o5790b$o3bo11969b$o3bo11969b$4bo11969b$bobo6505b3o5462b$6511bo5462b$6510bo5463b$11974b$11974b$15b2o5450b3o488b2o54b2o5941b2o15b$11b2o2b2o5450bo490b2o54b2o5941b2o2b2o11b$11b2o5455bo6492b2o11b$11974b$11974b$11974b$11974b$10815b2o1157b$5782b2o114b2o174b2o114b2o4624b2o1156b$5782b2o114b2o174b2o114b2o4623bo1158b$21b3o11926b3o21b$11974b$19bo5bo1136b2o10784bo5bo19b$19bo5bo1135b2o10785bo5bo19b$19bo5bo1137bo4466bo6317bo5bo19b$5628b2o6344b$21b2o5606b2o6320b2o21b$20bo2bo11926bo2bo20b$21bobo11926bobo21b$22bo6325bo5602bo22b$6349b2o5623b$6348b2o5624b$11974b$11974b$6449b3o5522b$6451bo5522b$6450bo5523b$11974b$11974b$5527b3o6444b$5527bo6446b$15b2o5511bo429b2o54b2o5941b2o15b$11b2o2b2o5941b2o54b2o5941b2o2b2o11b$11b2o11948b2o11b$11974b$11974b$10755b2o1217b$10756b2o1216b$10755bo1218b$5782b2o114b2o174b2o114b2o5782b$5782b2o114b2o174b2o114b2o5782b$21b3o1198b2o10726b3o21b$1221b2o10751b$19bo5bo1197bo10724bo5bo19b$19bo5bo11922bo5bo19b$19bo5bo11922bo5bo19b$11974b$21b2o11928b2o21b$20bo2bo11926bo2bo20b$21bobo11926bobo21b$22bo11928bo22b$11974b$11974b$6389b3o5582b$6391bo5582b$6390bo5583b$11974b$11974b$5587b3o6384b$5587bo6386b$5588bo6385b$11974b$15b2o5941b2o54b2o5941b2o15b$11b2o2b2o5941b2o54b2o5941b2o2b2o11b$11b2o11948b2o11b$10695b2o1277b$6194bo4501b2o1276b$6195bo4499bo1278b$6193bo2bo5772b3o2b$11969bo2bob$1282b2o4614b2o174b2o5893bo4b$1281b2o4498bobo114b2o174b2o112b2o5bo5773bo3bo$21b3o1259bo4326bo168b2obob2o401b3o173bo5586b3o16bo3bo$5610bo167bo3bo404b2o3bo170bo5605bo4b$19bo5bo5584bo167bo3bo403b2o5b2o168bo5584bo5bo15bobob$19bo5bo5752bo2bo6bo398b2o4bo5754bo5bo19b$19bo5bo5580b3o3b3o164bo2bo5b2o392bo7b2o155b2o10b3o3b3o5580bo5bo19b$5781b3o3bo2bo391bo10b2o153b2o5624b$2b3o16b2o5587bo168bo4bo3b2o392bo164bo15bo5587b2o21b$bo2bo15bo2bo5586bo168b2o3bo3bo574bo5586bo2bo20b$4bo16bobo5586bo169bob2o579bo5586bobo21b$o3bo17bo5607b2o6319bo22b$o3bo5624b2o6343b$4bo5626bo6342b$bobo5774b2o414b2o5778b$5778b2o414b2o5778b$11974b$11974b$11974b$11974b$11974b$11974b$5782b2o406b2o5782b$15b2o5765b2o174b2o54b2o174b2o5765b2o15b$11b2o2b2o5941b2o54b2o4619b2o1320b2o2b2o11b$11b2o10623b2o1323b2o11b$5755bo4879bo1338b$5754bo6219b$5754b3o6217b$1342b2o10630b$1341b2o10631b$1343bo4554b2o174b2o147bo5750b$5898b2o174b2o148bo5749b$21b3o5586bo611b3o138bo5586b3o21b$5610bo752bo5610b$19bo5bo5584bo179b2o390b2o103b2o74bo5584bo5bo19b$19bo5bo5764b2o390b2o104b2o5658bo5bo19b$19bo5bo5580b3o3b3o672bo71b3o3b3o5580bo5bo19b$11974b$21b2o5587bo752bo5587b2o21b$20bo2bo5586bo79b2o671bo5586bo2bo20b$21bobo5586bo78b2o672bo5586bobo21b$22bo5668bo6259bo22b$11974b$11974b$11974b$11974b$11974b$11974b$11974b$11974b$5816bo6157b$5817b2o6155b$5782b2o32b2o372b2o4383b2o1397b$15b2o5765b2o174b2o54b2o174b2o4384b2o1379b2o15b$11b2o2b2o5941b2o54b2o4559bo1381b2o2b2o11b$11b2o6139bo5808b2o11b$6150b2o5822b$1402b2o4747b2o5821b$1401b2o10571b$1403bo10570b$11974b$5898b2o174b2o5898b$5898b2o174b2o5898b$21b3o5586bo616b2o134bo5586b3o21b$5610bo617b2o133bo5610b$19bo5bo5584bo179b2o390b2o43bo135bo5584bo5bo19b$19bo5bo5764b2o390b2o5764bo5bo19b$19bo5bo5580b3o3b3o744b3o3b3o5580bo5bo19b$5750b2o6222b$21b2o5587bo138b2o612bo5587b2o21b$20bo2bo5586bo140bo611bo5586bo2bo20b$21bobo5586bo752bo5586bobo21b$22bo11928bo22b$11974b$11974b$11974b$11974b$11974b$11974b$11974b$11974b$10515b2o1457b$10516b2o1456b$5782b2o406b2o4323bo1458b$15b2o5765b2o174b2o54b2o174b2o5765b2o15b$11b2o2b2o5941b2o54b2o5941b2o2b2o11b$11b2o1449b2o10497b2o6b3o2b$1461b2o10506bo2bob$1463bo10505bo4b$11969bo3bo$11969bo3bo$11969bo4b$5898b2o174b2o91b2o5801bobob$5898b2o174b2o92b2o5804b$21b3o5586bo556bo195bo5586b3o21b$5610bo752bo5610b$2b3o14bo5bo5584bo179b2o390b2o179bo5584bo5bo19b$bo2bo14bo5bo5764b2o18b2o370b2o5764bo5bo19b$4bo14bo5bo5580b3o3b3o194b2o548b3o3b3o5580bo5bo19b$o3bo5806bo6162b$o3bo16b2o5587bo752bo5587b2o21b$4bo15bo2bo5586bo752bo5586bo2bo20b$bobo17bobo5586bo615bo136bo5586bobo21b$22bo6203b2o5723bo22b$6225bobo5746b$11974b$11974b$5752bo6221b$5751b2o6221b$5751bobo6220b$10455b2o1517b$10456b2o1516b$10455bo1518b$11974b$5782b2o406b2o5782b$15b2o1505b2o4258b2o174b2o54b2o66bo107b2o5765b2o15b$11b2o2b2o1504b2o4435b2o54b2o65b3o5873b2o2b2o11b$11b2o1510bo4557b3o5877b2o11b$11974b$6080b4o5890b$6080b5o5889b$6081bob2o22b2o5865b$6108b2o5864b$6107bo5866b$5891b2o6081b$21b3o5586bo280bobo469bo5586b3o21b$5610bo259b2o19bo2bo5b2o170b2o289bo5610b$19bo5bo5584bo179b2o77b2o29b2o170b2o8b2o98b2o179bo5584bo5bo19b$19bo5bo5764b2o79bo18bob2o188b2o98b2o5764bo5bo19b$19bo5bo5580b3o3b3o273bo3bo466b3o3b3o5580bo5bo19b$5889bobo7bo6074b$21b2o5587bo286bobo266bo196bo5587b2o21b$20bo2bo5586bo287b2o266b2o195bo5586bo2bo20b$21bobo5586bo461bo92bobo195bo5586bobo21b$22bo6050b2o5876bo22b$6070b2ob2o5899b$5812bo257b2obo5900b$5811b2o89b2o166bo2bo5900b$5811bobo88b2o167b2o5901b$10395b2o1577b$10396b2o1576b$5876bo4518bo1578b$5877b2o6095b$5876b2o6096b$1582b2o10390b$1581b2o4199b2o114b2o57b2o115b2o114b2o5782b$15b2o1566bo4198b2o114b2o56b2obo114b2o16bo97b2o5765b2o15b$11b2o2b2o5940bobo130b2o5865b2o2b2o11b$11b2o5941bo5bo130b2o5868b2o11b$5953bo3bob2o6013b$5953bobob2o49b3o36b2o5925b$6007b2o2bo36b2o5924b$5967bo38bobob2o35bo5926b$5967bo41b3o4b3o5955b$5967bo6006b$5930b2o6042b$21b3o5586bo318b2o432bo5586b3o21b$5610bo320bo431bo5610b$19bo5bo5584bo179b2o98b2o190b2o98b2o179bo5584bo5bo19b$19bo5bo5764b2o98b2o190b2o98b2o5764bo5bo19b$19bo5bo5580b3o3b3o339b2o62b2o86bo252b3o3b3o5580bo5bo19b$5954b2o62b2o86b2o5866b$21b2o5587bo494bobo255bo5587b2o21b$20bo2bo5586bo752bo5586bo2bo20b$21bobo5586bo752bo5586bobo21b$22bo5849bo6078bo22b$5871b2o6101b$5871bobo6100b$5958b2o54b2o4319b2o1637b$5958b2o54b2o4320b2o1636b$10335bo1638b$11974b$11974b$1642b2o10330b$1641b2o10331b$1643bo10325b3o2b$5782b2o114b2o174b2o114b2o5777bo2bob$15b2o5765b2o114b2o174b2o114b2o5765b2o10bo4b$11b2o2b2o11940b2o2b2o6bo3bo$11b2o11948b2o6bo3bo$11969bo4b$5966b2o38b2o5962bobob$5966b2o38b2o5966b$11974b$11974b$2b3o11969b$bo2bo11969b$4bo16b3o5586bo752bo5586b3o21b$o3bo5605bo752bo5610b$o3bo14bo5bo5584bo179b2o254bo135b2o179bo5584bo5bo19b$4bo14bo5bo5764b2o254b2o134b2o5764bo5bo19b$bobo15bo5bo5580b3o3b3o430bobo311b3o3b3o5580bo5bo19b$11974b$21b2o5587bo752bo5587b2o21b$20bo2bo5586bo321bo430bo5586bo2bo20b$21bobo5586bo232bo87b2o430bo5586bobo21b$22bo5820bobo85bobo6001b2o14bo22b$5843b2o4430b2o1657bobo37b$10276b2o1658bo37b$5958b2o34bo19b2o4259bo1698b$5958b2o35b2o17b2o119bo5838b$42b2o5950b2o137bobo5838b$42bobo1657b2o4430b2o5838b$42bo1658b2o10271b$1703bo4270bo5999b$5972b2o6000b$5973b2o5999b$5782b2o114b2o174b2o114b2o5782b$15b2o5765b2o114b2o174b2o114b2o5765b2o15b$11b2o2b2o11940b2o2b2o11b$11b2o11948b2o11b$11974b$5966b2o38b2o5966b$5966b2o38b2o5966b$11974b$11974b$11974b$11974b$21b3o5586bo375bo376bo5586b3o21b$26b2o5582bo375b2o375bo5582b2o26b$19bo5bo2bo5581bo179b2o193bobo194b2o179bo5581bo2bo5bo19b$19bo5bo2bo5761b2o390b2o5761bo2bo5bo19b$19bo6b2o5578b3o3b3o744b3o3b3o5578b2o6bo19b$5992bo5981b$21b2o5587bo380b2o370bo5587b2o21b$20bo2bo5586bo380bobo369bo5511b2o73bo2bo20b$21bobo5586bo752bo3851b2o1657bobo73bobo21b$22bo10193b2o1658bo74bo22b$10215bo1758b$11974b$102b2o5854b2o54b2o5958b$102bobo1657b2o4194b2o54b2o5958b$102bo1658b2o10211b$1763bo10210b$11974b$11974b$11974b$11974b$5782b2o114b2o174b2o114b2o5782b$15b2o5765b2o114b2o174b2o114b2o5765b2o15b$11b2o2b2o11940b2o2b2o11b$11b2o11948b2o11b$11974b$11974b$11974b$11974b$11974b$5926bo6047b$5926b2o6046b$21b3o5586bo314bobo435bo5586b3o21b$26b2o5582bo752bo5582b2o26b$19bo5bo2bo5581bo179b2o390b2o179bo5581bo2bo5bo19b$19bo5bo2bo5761b2o260bo129b2o5761bo2bo5bo19b$19bo6b2o5578b3o3b3o436b2o306b3o3b3o5578b2o6bo19b$6051bobo5761b2o157b$21b2o5587bo752bo3791b2o1657bobo134b2o21b$20bo2bo5586bo752bo3792b2o1658bo133bo2bo20b$21bobo5586bo752bo3791bo1794bobo21b$22bo11928bo22b$162b2o11810b$162bobo1657b2o10150b$162bo1658b2o4135b2o54b2o5958b$1823bo4134b2o54b2o5958b$11974b$11969b3o2b$11969bo2bob$11969bo4b$11969bo3bo$11969bo3bo$5782b2o114b2o174b2o114b2o5777bo4b$15b2o5765b2o114b2o174b2o114b2o5765b2o11bobob$11b2o2b2o11940b2o2b2o11b$11b2o11948b2o11b$11974b$2b3o11969b$bo2bo11969b$4bo5861bo6107b$o3bo5861b2o6106b$o3bo5860bobo6106b$4bo5780b3o6186b$bobo17b3o5586bo174b3o575bo5586b3o21b$26b2o5582bo173bo3b2o322bo250bo5582b2o26b$19bo5bo2bo5581bo173b2o3bo321b2o250bo5581bo2bo5bo19b$19bo5bo2bo5756bo3bo321bobo5641b2o188bo2bo5bo19b$19bo6b2o5578b3o3b3o170bo2bo570b3o3b3o3727b2o1657bobo189b2o6bo19b$5785b3o4308b2o1658bo217b$21b2o5587bo173bobo576bo3731bo1855b2o21b$20bo2bo5586bo173b2o577bo5586bo2bo20b$21bobo198b2o5386bo575b2o175bo5586bobo21b$22bo199bobo1657b2o4302bob2o5761bo22b$222bo1658b2o4305b2o5784b$1883bo3898b2o402b2o5786b$5782b2o174b2o54b2o168b2o5788b$5958b2o54b2o5958b$6184bobo5787b$6185bo5788b$5793bo6180b$5794bo6179b$5792b3o6179b$11974b$5898b2o174b2o5898b$15b2o5881b2o174b2o5881b2o15b$11b2o2b2o11940b2o2b2o11b$11b2o11948b2o11b$5790b2o390b2o5790b$5790b2o14bo375b2o5790b$5806b2o6166b$5805bobo6166b$11974b$11974b$6172bo5801b$21b3o5586bo560b2o190bo5586b3o21b$26b2o5582bo560bobo189bo5331b2o249b2o26b$19bo5bo2bo5581bo752bo3671b2o1657bobo248bo2bo5bo19b$19bo5bo2bo10007b2o1658bo248bo2bo5bo19b$19bo6b2o5578b3o3b3o744b3o3b3o3667bo1910b2o6bo19b$11974b$21b2o259b2o5326bo752bo5587b2o21b$20bo2bo258bobo1657b2o3666bo752bo5586bo2bo20b$21bobo258bo1658b2o3667bo752bo5586bobo21b$22bo1920bo10007bo22b$11974b$5782b2o406b2o5782b$5782b2o174b2o54b2o174b2o5782b$5958b2o54b2o5958b$11974b$11974b$11974b$11974b$11974b$11974b$5898b2o174b2o5898b$15b2o5881b2o174b2o5881b2o15b$11b2o2b2o11940b2o2b2o11b$11b2o5733bo6214b2o11b$5746b2o42b2o390b2o5790b$5745bobo42b2o390b2o5790b$11974b$11974b$6232bo5741b$6231b2o5741b$6231bobo5401b2o337b$21b3o5586bo752bo3611b2o1657bobo313b3o21b$26b2o5582bo752bo3612b2o1658bo309b2o26b$19bo5bo2bo5581bo752bo3611bo1969bo2bo5bo19b$19bo5bo2bo11916bo2bo5bo19b$19bo6b2o314b2o5262b3o3b3o744b3o3b3o5578b2o6bo19b$342bobo1657b2o9970b$21b2o319bo1658b2o3607bo752bo5587b2o21b$20bo2bo1979bo3606bo752bo5586bo2bo20b$21bobo5586bo752bo5586bobo21b$22bo11928bo22b$11974b$5782b2o406b2o5777b3o2b$5782b2o174b2o54b2o174b2o5777bo2bob$5958b2o54b2o5953bo4b$11969bo3bo$11969bo3bo$11969bo4b$11970bobob$11974b$11974b$5774b2o122b2o174b2o5898b$2b3o10b2o5757bobo121b2o174b2o5881b2o15b$bo2bo6b2o2b2o5757bo6182b2o2b2o11b$4bo6b2o11948b2o11b$o3bo5785b2o390b2o5790b$o3bo5785b2o390b2o9b2o5779b$4bo6187bobo5779b$bobo6190bo5779b$11575b2o397b$9915b2o1657bobo397b$9916b2o1658bo397b$21b3o5586bo752bo3551bo2034b3o21b$26b2o5582bo752bo5582b2o26b$19bo5bo2bo373b2o5206bo752bo5581bo2bo5bo19b$19bo5bo2bo373bobo1657b2o9881bo2bo5bo19b$19bo6b2o374bo1658b2o3543b3o3b3o744b3o3b3o5578b2o6bo19b$2063bo9910b$21b2o5587bo752bo5587b2o21b$20bo2bo5586bo752bo5586bo2bo20b$21bobo5586bo752bo5586bobo21b$22bo6102bo5825bo22b$6124bo5849b$5782b2o340b3o63b2o5782b$5782b2o174b2o54b2o174b2o5782b$5958b2o54b2o5958b$5853bo6120b$5854bo6119b$5852b3o6119b$11974b$5834b2o6138b$5834bobo6137b$5834bo64bo174b2o5898b$15b2o5880b2obo173b2o5881b2o15b$11b2o2b2o5874b3o2bo3bo6056b2o2b2o11b$11b2o5881bo5bo232b2o5826b2o11b$5790b2o103bobob2o173bo57bobo47b2o5790b$5790b2o100bo4bobobo167b5obo3b2o53bo47b2o5790b$5893b3obobobo164b2ob4o2b4o2bo5433b2o457b$5895b2o3bo171b3o2b2obobo3772b2o1657bobo457b$6082b2ob2o3769b2o1658bo457b$5882bo195b3o3b4o4bo3762bo2118b$5881b3o180b3o11bo8bo4bo5881b$21b3o438b2o5146bo269bobobo177bo3b2o13b2obobo5bo270bo5586b3o21b$26b2o434bobo1657b2o3486bo269bobobo177bobo3b2o7b4o2bobo277bo5582b2o26b$19bo5bo2bo433bo1658b2o3487bo270b3o19b2o157bo5bobo6b2o284bo5581bo2bo5bo19b$19bo5bo2bo2094bo3758bo19bo3bo157b3o4bo7b3o5863bo2bo5bo19b$19bo6b2o5578b3o3b3o287bo5bo156bo6bo6b2o2b2o274b3o3b3o5578b2o6bo19b$5903b2obobo162bo8bobo5891b$21b2o5587bo293bo4bo157b4o9b3o280bo5587b2o21b$20bo2bo5586bo293bo4bo145bo307bo5586bo2bo20b$21bobo5586bo293bo4bo145bobo305bo5586bobo21b$22bo5882b3o147b2o5894bo22b$11974b$5782b2o114b2o174b2o114b2o5782b$5782b2o114b2o23bo34b2o54b2o58b2o114b2o5782b$5921bobo34b2o54b2o5958b$5922b2o6050b$11974b$5894b2o6078b$5894bobo6077b$5894bo6079b$11974b$11974b$15b2o5943bobo110b2o5882b2o15b$11b2o2b2o5942b2obo109bobo5882b2o2b2o11b$11b2o5945b2o2b2o110bo5886b2o11b$5790b2o98b2o65b2o7b3o113b2o98b2o5271b2o517b$5790b2o98b2o66b2o8bo113b2o98b2o3611b2o1657bobo517b$5959bo6bobo3827b2o1658bo517b$5966b2o3827bo2178b$6011bo5962b$522b2o5436bo49b3o5961b$522bobo1657b2o3775bo49b2o2bo5960b$21b3o498bo1658b2o3427bo349bo48bob4o348bo5586b3o21b$26b2o2155bo3426bo398bo4bo84bobo261bo5582b2o26b$19bo5bo2bo5581bo398bo2b2o86b2o261bo5581bo2bo5bo19b$19bo5bo2bo5929b2o51b2o87bo5844bo2bo5bo19b$19bo6b2o5578b3o3b3o343b2o399b3o3b3o5578b2o6bo19b$6007bo5966b$21b2o5587bo256bobo137bobo353bo5587b2o21b$20bo2bo5586bo256b2o138b2o354bo5586bo2bo15b3o2b$21bobo5586bo257bo494bo5586bobo16bo2bob$22bo11928bo17bo4b$5971bo5997bo3bo$5782b2o114b2o69bobo102b2o114b2o5777bo3bo$5782b2o114b2o70b2o102b2o114b2o5777bo4b$11970bobob$11974b$11974b$5966b2o38b2o5966b$2b3o5961b2o38b2o5966b$bo2bo11969b$4bo11969b$o3bo11969b$o3bo10b2o11940b2o15b$4bo6b2o2b2o11378b2o560b2o2b2o11b$bobo7b2o9722b2o1657bobo564b2o11b$5790b2o390b2o3552b2o1658bo577b$5790b2o390b2o3551bo2238b$11974b$582b2o11390b$582bobo1657b2o9730b$582bo1658b2o9731b$2243bo9730b$21b3o5586bo752bo5586b3o21b$26b2o5582bo752bo5582b2o26b$19bo5bo2bo5581bo752bo5581bo2bo5bo19b$19bo5bo2bo5929b2o54b2o5929bo2bo5bo19b$19bo6b2o5578b3o3b3o343b2o54b2o343b3o3b3o5578b2o6bo19b$11974b$21b2o5587bo752bo5587b2o21b$20bo2bo5586bo752bo5586bo2bo20b$21bobo5586bo752bo5586bobo21b$22bo11928bo22b$11974b$5782b2o114b2o174b2o114b2o5782b$5782b2o114b2o174b2o114b2o5782b$11974b$11974b$11974b$5966b2o38b2o5966b$5966b2o38b2o5966b$11974b$11974b$11335b2o637b$15b2o9658b2o1657bobo620b2o15b$11b2o2b2o9659b2o1658bo620b2o2b2o11b$11b2o9662bo2285b2o11b$5790b2o390b2o5790b$642b2o5146b2o390b2o5790b$642bobo1657b2o9670b$642bo1658b2o9671b$2303bo9670b$11974b$11974b$21b3o5586bo752bo5586b3o21b$26b2o5582bo752bo5582b2o26b$19bo5bo2bo5581bo752bo5581bo2bo5bo19b$19bo5bo2bo5929b2o54b2o5929bo2bo5bo19b$19bo6b2o5578b3o3b3o343b2o54b2o343b3o3b3o5578b2o6bo19b$11974b$21b2o5587bo752bo5587b2o21b$20bo2bo5586bo752bo5586bo2bo20b$21bobo5586bo752bo5586bobo21b$22bo11928bo22b$11974b$5782b2o114b2o174b2o114b2o5782b$5782b2o114b2o174b2o114b2o5782b$11974b$11974b$11974b$11974b$11974b$11275b2o697b$9615b2o1657bobo697b$9616b2o1658bo697b$15b2o9598bo2341b2o15b$11b2o2b2o11940b2o2b2o11b$11b2o689b2o11257b2o11b$702bobo1657b2o3426b2o390b2o5790b$702bo1658b2o3427b2o390b2o5790b$2363bo9610b$11974b$11974b$11974b$6159bobo5812b$21b3o5586bo549b2o201bo5586b3o21b$26b2o5582bo549bo202bo5582b2o26b$19bo5bo2bo5581bo752bo5581bo2bo5bo19b$19bo5bo2bo5929b2o54b2o5929bo2bo5bo14b3o2b$19bo6b2o5578b3o3b3o192bobo148b2o54b2o343b3o3b3o5578b2o6bo14bo2bob$5807b2o6160bo4b$21b2o5587bo197bo554bo5587b2o16bo3bo$20bo2bo5586bo752bo5586bo2bo15bo3bo$21bobo5586bo752bo5586bobo16bo4b$22bo11928bo18bobob$11974b$5782b2o114b2o174b2o114b2o5782b$5782b2o114b2o174b2o114b2o5782b$2b3o11969b$bo2bo11969b$4bo11969b$o3bo11210b2o757b$o3bo9550b2o1657bobo757b$4bo9551b2o1658bo757b$bobo9551bo2418b$11974b$15b2o745b2o11193b2o15b$11b2o2b2o745bobo1657b2o9533b2o2b2o11b$11b2o749bo1658b2o9538b2o11b$2423bo3366b2o390b2o5790b$5790b2o390b2o5790b$11974b$11974b$11974b$11974b$11974b$21b3o5586bo752bo5586b3o21b$26b2o5582bo752bo5582b2o26b$19bo5bo2bo5581bo752bo5581bo2bo5bo19b$19bo5bo2bo5929b2o54b2o5929bo2bo5bo19b$19bo6b2o5578b3o3b3o343b2o54b2o343b3o3b3o5578b2o6bo19b$11974b$21b2o5587bo752bo5587b2o21b$20bo2bo5586bo752bo5586bo2bo20b$21bobo5586bo752bo5586bobo21b$22bo11928bo22b$11974b$5782b2o114b2o174b2o114b2o5782b$5782b2o114b2o174b2o114b2o5782b$11974b$11155b2o817b$9495b2o1657bobo817b$9496b2o1658bo817b$9495bo2478b$11974b$822b2o11150b$822bobo1657b2o9490b$15b2o805bo1658b2o9474b2o15b$11b2o2b2o2466bo9473b2o2b2o11b$11b2o11948b2o11b$11974b$11974b$5785b3o6186b$5784bo2bo6186b$5784bo3bo6185b$5783bo6190b$5782b2ob3o395bo5790b$21b3o5586bo172bo399b2o178bo5586b3o21b$26b2o5582bo172b2o3bo393bo2bo177bo5582b2o26b$19bo5bo2bo5581bo173bo398bobo177bo5581bo2bo5bo19b$19bo5bo2bo5929b2o54b2o166bo2bo5759bo2bo5bo19b$19bo6b2o5578b3o3b3o343b2o54b2o166bo2bo173b3o3b3o5578b2o6bo19b$5789bobo390bobo5789b$21b2o5587bo179b2o391b3o177bo5587b2o21b$20bo2bo5586bo179bo572bo5586bo2bo20b$21bobo5586bo752bo5586bobo21b$22bo11928bo22b$11974b$5898b2o174b2o5898b$5898b2o174b2o5019b2o877b$9435b2o1657bobo877b$6192b2o3242b2o1658bo877b$5790b2o390b2o8b2o3241bo2538b$5790b2o390b2o5790b$882b2o11090b$882bobo1657b2o3649b3o5778b$882bo1658b2o3239b2o409b3o5778b$2543bo3237b2o410b4o5777b$15b2o5766bo411bob2o5758b2o15b$11b2o2b2o6177b2ob2o5758b2o2b2o11b$11b2o6177b2o2b5o5762b2o11b$6185b2o8b3o5776b$6186b2o9bo5776b$6185bo5788b$11974b$11974b$11974b$11969b3o2b$21b3o5586bo752bo5586b3o16bo2bob$26b2o5582bo752bo5582b2o21bo4b$19bo5bo2bo5581bo171b2o406b2o171bo5581bo2bo5bo14bo3bo$19bo5bo2bo5753b2o174b2o54b2o174b2o5753bo2bo5bo14bo3bo$19bo6b2o5578b3o3b3o343b2o54b2o343b3o3b3o5578b2o6bo14bo4b$11970bobob$21b2o5587bo752bo5587b2o21b$20bo2bo5586bo752bo5586bo2bo20b$21bobo5586bo752bo5586bobo21b$2b3o17bo11928bo22b$bo2bo11030b2o937b$4bo5893b2o174b2o3299b2o1657bobo937b$o3bo5893b2o174b2o3300b2o1658bo937b$o3bo9370bo2598b$4bo11969b$bobo938b2o4846b2o390b2o5790b$942bobo1657b2o3186b2o390b2o5790b$942bo1658b2o3239b2o55b2o6073b$2603bo3237b2o55bob2o5b2o6065b$5843bo54bobo2b6o166bo5898b$5883b2o7b3o8bobo160bo8bo5898b$15b2o5865b5o2bobo10bob3o158bob2o5bob3o5878b2o15b$11b2o2b2o5864bo4b2obobo7b2o2b2ob2o156b5o6b2o2bo45b2o5830b2o2b2o11b$11b2o5868b2obob2obo3b2o9bo4bo153b2o2b2o5bob5o6b3o36b2o5833b2o11b$5885bo6b2o9b2ob3o154bo2bo13b3o4bo37bo5848b$5883bo9bobo7b2o159bobo14b2o4bo5886b$5884b3o7bo9b2o8bo150bo22b2obo5882b$5885b2o18bo9b2o156bo3b3o11b2o5881b$5914b2o158bo5899b$6073bo5900b$11974b$21b3o5586bo752bo5586b3o21b$26b2o5582bo752bo5582b2o26b$19bo5bo2bo5581bo171b2o114b2o174b2o114b2o171bo5581bo2bo5bo19b$19bo5bo2bo5753b2o114b2o58b2o54b2o58b2o114b2o5753bo2bo5bo19b$19bo6b2o5578b3o3b3o343b2o54b2o343b3o3b3o5578b2o6bo19b$11974b$21b2o5587bo752bo5587b2o21b$20bo2bo5586bo752bo5586bo2bo20b$21bobo5586bo752bo4611b2o973bobo21b$22bo9292b2o1657bobo974bo22b$9316b2o1658bo997b$9315bo2658b$11974b$1002b2o10970b$1002bobo1657b2o9310b$1002bo1658b2o3127b2o98b2o10b2o178b2o9bo88b2o5790b$2663bo3126b2o98b2o9b2o179b2o7bobo88b2o5790b$5903bo188b2o5880b$11974b$11974b$5875bo189b2o5907b$15b2o5858bobo188b2o5889b2o15b$11b2o2b2o5858b2o188bo5891b2o2b2o11b$11b2o5949b3o5996b2o11b$5962bo6011b$5962b3o6009b$11974b$5963bo43bo5966b$5963b3o40bobo5965b$5965b3o37b2ob2o117bobo5844b$5965b2o39bo2bo117b2o5845b$21b3o5586bo395bo3bo117bo234bo5586b3o21b$26b2o5582bo395bo356bo5582b2o26b$19bo5bo2bo5581bo171b2o114b2o174b2o114b2o171bo5581bo2bo5bo19b$19bo5bo2bo5753b2o65bobo46b2o174b2o114b2o5753bo2bo5bo19b$19bo6b2o5578b3o3b3o235b2o507b3o3b3o5578b2o6bo19b$5850bo6123b$21b2o5587bo344bo60b2o345bo4551b2o1034b2o21b$20bo2bo5586bo344bo10b2o38bo9b2o345bo2891b2o1657bobo1033bo2bo20b$21bobo5586bo355b2o38b2o355bo2892b2o1658bo1033bobo21b$22bo5931bobo3298bo2695bo22b$5954bobo6017b$1062b2o10910b$1062bobo1657b2o9250b$1062bo1658b2o3295bo5955b$2723bo3292b2obo5954b$5790b2o98b2o124b2o64b2o98b2o5790b$5790b2o98b2o124bo65b2o98b2o5790b$6017b2o5955b$6018bo5955b$11974b$11974b$15b2o11940b2o15b$11b2o2b2o11940b2o2b2o11b$11b2o11948b2o11b$11974b$5958b2o54b2o5958b$5958b2o54b2o5953b3o2b$11969bo2bob$11969bo4b$11969bo3bo$11969bo3bo$21b3o5586bo752bo5586b3o16bo4b$26b2o5582bo752bo5582b2o22bobob$19bo5bo2bo5581bo171b2o114b2o174b2o114b2o171bo5581bo2bo5bo19b$19bo5bo2bo5753b2o114b2o174b2o114b2o5753bo2bo5bo19b$19bo6b2o5578b3o3b3o744b3o3b3o4487b2o1089b2o6bo19b$2b3o9190b2o1657bobo1117b$bo2bo16b2o5587bo752bo2832b2o1658bo1094b2o21b$4bo15bo2bo5586bo355b2o38b2o355bo2831bo2754bo2bo20b$o3bo16bobo5586bo355b2o38b2o355bo5586bobo21b$o3bo17bo1099b2o10827bo22b$4bo1117bobo1657b2o9190b$bobo1118bo1658b2o9191b$2783bo9190b$11974b$11974b$5790b2o98b2o190b2o98b2o5790b$5790b2o98b2o190b2o98b2o5790b$11974b$11974b$11974b$11974b$15b2o11940b2o15b$11b2o2b2o11940b2o2b2o11b$11b2o11948b2o11b$11974b$5958b2o54b2o5958b$5958b2o54b2o5958b$11974b$11974b$11974b$11974b$21b3o5586bo752bo5586b3o21b$26b2o5582bo752bo5582b2o26b$19bo5bo2bo5581bo171b2o114b2o174b2o114b2o171bo4431b2o1148bo2bo5bo19b$19bo5bo2bo5753b2o114b2o174b2o114b2o2943b2o1657bobo1148bo2bo5bo19b$19bo6b2o5578b3o3b3o744b3o3b3o2768b2o1658bo1149b2o6bo19b$9135bo2838b$21b2o5587bo752bo5587b2o21b$20bo2bo1158b2o4426bo752bo5586bo2bo20b$21bobo1158bobo1657b2o2766bo752bo5586bobo21b$22bo1159bo1658b2o9108bo22b$2843bo9130b$11974b$11974b$6153bo5820b$6151bobo5820b$5790b2o360b2o28b2o5790b$5790b2o390b2o5790b$11974b$5815bo6158b$5815bobo6156b$5815b2o6157b$15b2o11940b2o15b$11b2o2b2o11940b2o2b2o11b$11b2o11948b2o11b$11974b$5958b2o54b2o5958b$5958b2o54b2o5958b$11974b$11974b$11974b$11974b$21b3o5586bo752bo4371b2o1213b3o21b$26b2o5582bo752bo2711b2o1657bobo1209b2o26b$19bo5bo2bo5581bo171b2o114b2o174b2o114b2o171bo2712b2o1658bo1208bo2bo5bo19b$19bo5bo2bo5753b2o114b2o174b2o114b2o2883bo2869bo2bo5bo19b$19bo6b2o5578b3o3b3o744b3o3b3o5578b2o6bo19b$1242b2o10730b$21b2o1219bobo1657b2o2706bo752bo5587b2o21b$20bo2bo1218bo1658b2o2707bo752bo5586bo2bo20b$21bobo2879bo2706bo752bo5586bobo21b$22bo11928bo22b$11974b$11974b$11974b$11974b$11974b$5790b2o390b2o5790b$5790b2o390b2o5790b$11974b$11974b$11974b$11974b$15b2o11940b2o15b$11b2o2b2o11940b2o2b2o6b3o2b$11b2o11948b2o6bo2bob$11969bo4b$5958b2o54b2o5953bo3bo$5958b2o54b2o5953bo3bo$11969bo4b$11970bobob$10675b2o1297b$9015b2o1657bobo1297b$21b3o5586bo752bo2652b2o1658bo1273b3o21b$2b3o21b2o5582bo752bo2651bo2930b2o26b$bo2bo14bo5bo2bo5581bo171b2o114b2o174b2o114b2o171bo5581bo2bo5bo19b$4bo14bo5bo2bo1273b2o4478b2o114b2o174b2o114b2o5753bo2bo5bo19b$o3bo14bo6b2o1274bobo1657b2o2642b3o3b3o744b3o3b3o5578b2o6bo19b$o3bo1297bo1658b2o9011b$4bo16b2o2940bo2646bo752bo5587b2o21b$bobo16bo2bo5586bo752bo5586bo2bo20b$21bobo5586bo752bo5586bobo21b$22bo11928bo22b$11974b$11974b$11974b$11974b$11974b$11974b$11974b$5785b3o6186b$5784bo2bo6186b$5784bo3bo6185b$5783bo6190b$15b2o5765b2ob3o395bo5773b2o15b$11b2o2b2o5766bo399b2o5772b2o2b2o11b$11b2o5770b2o3bo393bo2bo5775b2o11b$5784bo398bobo5788b$5958b2o54b2o166bo2bo5788b$5958b2o54b2o166bo2bo5788b$5789bobo390bobo4430b2o1357b$5790b2o391b3o2769b2o1657bobo1357b$5790bo3165b2o1658bo1357b$8955bo3018b$21b3o5586bo752bo5586b3o21b$26b2o1334b2o4246bo752bo5582b2o26b$19bo5bo2bo1333bobo1657b2o2586bo287b2o174b2o287bo5581bo2bo5bo19b$19bo5bo2bo1333bo1658b2o2875b2o174b2o5869bo2bo5bo19b$19bo6b2o2995bo2582b3o3b3o744b3o3b3o5578b2o6bo19b$6192b2o5780b$21b2o5587bo179b2o390b2o8b2o169bo5587b2o21b$20bo2bo5586bo179b2o390b2o179bo5586bo2bo20b$21bobo5586bo752bo5586bobo21b$22bo6170b3o5755bo22b$5782b2o409b3o5778b$5781b2o410b4o5777b$5783bo411bob2o5775b$6194b2ob2o5775b$6190b2o2b5o5775b$6185b2o8b3o5776b$6186b2o9bo5776b$6185bo5788b$11974b$11974b$11974b$15b2o11940b2o15b$11b2o2b2o11940b2o2b2o11b$11b2o11948b2o11b$5782b2o406b2o5782b$5782b2o174b2o54b2o174b2o4363b2o1417b$5958b2o54b2o2879b2o1657bobo1417b$8896b2o1658bo1417b$8895bo3078b$11974b$1422b2o4217bo6332b$21b3o1398bobo1657b2o2556b2o6308b3o21b$26b2o1394bo1658b2o2557bobo6303b2o26b$19bo5bo2bo3054bo2814b2o174b2o5869bo2bo5bo19b$19bo5bo2bo5869b2o174b2o5869bo2bo5bo19b$19bo6b2o6299bo5618b2o6bo19b$6327b2o5645b$21b2o5767b2o390b2o142bobo5622b2o21b$20bo2bo5766b2o390b2o5766bo2bo20b$21bobo5818b2o55b2o6049bobo21b$22bo5818b2o55bob2o5b2o6042bo22b$5843bo54bobo2b6o166bo5898b$5883b2o7b3o8bobo160bo8bo5898b$5882b5o2bobo10bob3o158bob2o5bob3o5895b$5881bo4b2obobo7b2o2b2ob2o156b5o6b2o2bo45b2o5847b$5881b2obob2obo3b2o9bo4bo153b2o2b2o5bob5o6b3o36b2o5846b$5885bo6b2o9b2ob3o154bo2bo13b3o4bo37bo5848b$5883bo9bobo7b2o159bobo14b2o4bo5886b$5884b3o7bo9b2o8bo150bo22b2obo5882b$5885b2o18bo9b2o156bo3b3o11b2o5876b3o2b$5914b2o158bo5894bo2bob$6073bo5895bo4b$15b2o11940b2o10bo3bo$11b2o2b2o11940b2o2b2o6bo3bo$11b2o10482b2o1464b2o6bo4b$5782b2o114b2o174b2o114b2o2643b2o1657bobo1473bobob$5782b2o114b2o58b2o54b2o58b2o114b2o2644b2o1658bo1477b$5958b2o54b2o2819bo3138b$11974b$2b3o1477b2o4217bo6272b$bo2bo1477bobo1657b2o2556b2o6272b$4bo1477bo1658b2o2557bobo6271b$o3bo16b3o3119bo8806b3o21b$o3bo21b2o11918b2o26b$4bo14bo5bo2bo6238bo5677bo2bo5bo19b$bobo15bo5bo2bo6238b2o5676bo2bo5bo19b$19bo6b2o6238bobo5677b2o6bo19b$11974b$21b2o5767b2o98b2o10b2o178b2o9bo88b2o5767b2o21b$20bo2bo5766b2o98b2o9b2o179b2o7bobo88b2o5766bo2bo20b$21bobo5879bo188b2o5856bobo21b$22bo11928bo22b$11974b$5875bo189b2o5907b$5875bobo188b2o5906b$5875b2o188bo5908b$5962b3o6009b$5962bo6011b$5962b3o6009b$11974b$5963bo43bo5966b$5963b3o40bobo5965b$5965b3o37b2ob2o117bobo5844b$15b2o5948b2o39bo2bo117b2o4306b2o1520b2o15b$11b2o2b2o5989bo3bo117bo2646b2o1657bobo1520b2o2b2o11b$11b2o5993bo2769b2o1658bo1524b2o11b$5782b2o114b2o174b2o114b2o2583bo3198b$5782b2o65bobo46b2o174b2o114b2o5782b$1542b2o4217bo88b2o6122b$1542bobo1657b2o2556b2o88bo6123b$1542bo1658b2o2557bobo192bo60b2o5956b$3203bo2751bo10b2o38bo9b2o5956b$5966b2o38b2o5966b$21b3o5930bobo250bo5742b3o21b$26b2o5926bobo250b2o5737b2o26b$19bo5bo2bo6177bobo5736bo2bo5bo19b$19bo5bo2bo11916bo2bo5bo19b$19bo6b2o5990bo5927b2o6bo19b$6016b2obo5954b$21b2o5767b2o98b2o124b2o64b2o98b2o5767b2o21b$20bo2bo5766b2o98b2o124bo65b2o98b2o5766bo2bo20b$21bobo5993b2o5931bobo21b$22bo5995bo5932bo22b$11974b$11974b$11974b$11974b$11974b$11974b$5958b2o54b2o5958b$5958b2o54b2o5958b$11974b$10375b2o1597b$8715b2o1657bobo1597b$15b2o8699b2o1658bo1580b2o15b$11b2o2b2o8698bo3241b2o2b2o11b$11b2o11948b2o11b$1602b2o4178b2o37bo76b2o174b2o114b2o5782b$1602bobo1657b2o2518b2o36b2o76b2o174b2o114b2o5782b$1602bo1658b2o2557bobo6151b$3263bo8710b$11974b$5966b2o38b2o139bo5826b$5966b2o38b2o139b2o5825b$21b3o6122bobo5801b3o21b$26b2o11918b2o26b$19bo5bo2bo11916bo2bo5bo19b$19bo5bo2bo11916bo2bo5bo19b$19bo6b2o11918b2o6bo19b$11974b$21b2o5767b2o98b2o190b2o98b2o5767b2o21b$20bo2bo5766b2o98b2o190b2o98b2o5766bo2bo20b$21bobo11926bobo21b$22bo11928bo22b$11974b$11974b$11974b$11974b$11969b3o2b$11969bo2bob$5958b2o54b2o5953bo4b$5958b2o54b2o4299b2o1652bo3bo$8655b2o1657bobo1652bo3bo$8656b2o1658bo1652bo4b$8655bo3314bobob$15b2o11940b2o15b$11b2o2b2o1645b2o4217bo6075b2o2b2o11b$11b2o1649bobo1657b2o2556b2o6079b2o11b$2b3o1657bo1658b2o2459b2o96bobo15b2o174b2o114b2o5782b$bo2bo3318bo2458b2o114b2o174b2o114b2o5782b$4bo11969b$o3bo6082bo5886b$o3bo6082b2o5885b$4bo6081bobo5885b$bobo11970b$21b3o11926b3o21b$26b2o11918b2o26b$19bo5bo2bo11916bo2bo5bo19b$19bo5bo2bo11916bo2bo5bo19b$19bo6b2o6125bo5792b2o6bo19b$6151bobo5820b$21b2o5767b2o360b2o28b2o5767b2o21b$20bo2bo5766b2o390b2o5766bo2bo20b$21bobo11926bobo21b$22bo5792bo6135bo22b$5815bobo6156b$5815b2o6157b$11974b$11974b$11974b$10255b2o1717b$5958b2o54b2o2579b2o1657bobo1717b$5958b2o54b2o2580b2o1658bo1717b$8595bo3378b$11974b$1722b2o4217bo6032b$15b2o1705bobo1657b2o2556b2o6015b2o15b$11b2o2b2o1705bo1658b2o2557bobo6014b2o2b2o11b$11b2o3370bo8577b2o11b$5782b2o114b2o174b2o114b2o5782b$5782b2o114b2o127bo46b2o114b2o5782b$6027b2o5945b$6026bobo5945b$11974b$11974b$11974b$21b3o11926b3o21b$26b2o11918b2o26b$19bo5bo2bo11916bo2bo5bo19b$19bo5bo2bo11916bo2bo5bo19b$19bo6b2o11918b2o6bo19b$11974b$21b2o5767b2o390b2o5767b2o21b$20bo2bo5766b2o390b2o5766bo2bo20b$21bobo11926bobo21b$22bo11928bo22b$11974b$11974b$11974b$10195b2o1777b$8535b2o1657bobo1777b$8536b2o1658bo1777b$5958b2o54b2o2519bo3438b$5958b2o54b2o5958b$1782b2o4217bo5972b$1782bobo1657b2o2556b2o5972b$1782bo1658b2o2557bobo5971b$15b2o3426bo8513b2o15b$11b2o2b2o11940b2o2b2o11b$11b2o5954bo5993b2o11b$5782b2o114b2o67b2o105b2o114b2o5782b$5782b2o114b2o66bobo105b2o114b2o5782b$11974b$11974b$11974b$11974b$11974b$21b3o11926b3o21b$26b2o11918b2o26b$19bo5bo2bo11916bo2bo5bo19b$19bo5bo2bo11916bo2bo5bo19b$19bo6b2o11918b2o6bo19b$11974b$21b2o11928b2o21b$20bo2bo11926bo2bo20b$21bobo11926bobo21b$22bo11928bo22b$11969b3o2b$10135b2o1832bo2bob$8475b2o1657bobo1832bo4b$8476b2o1658bo1832bo3bo$8475bo3493bo3bo$11969bo4b$1842b2o4114b2o54b2o45bo5908bobob$1842bobo1657b2o2454b2o54b2o44b2o5912b$1842bo1658b2o2557bobo5911b$3503bo8470b$2b3o11969b$bo2bo10b2o5890bo6049b2o15b$4bo6b2o2b2o5890b2o6048b2o2b2o11b$o3bo6b2o5893bobo6052b2o11b$o3bo5777b2o114b2o174b2o114b2o5782b$4bo5777b2o114b2o174b2o114b2o5782b$bobo11970b$11974b$11974b$11974b$11974b$21b3o11926b3o21b$26b2o11918b2o26b$19bo5bo2bo11916bo2bo5bo19b$19bo5bo2bo11916bo2bo5bo19b$19bo6b2o11918b2o6bo19b$11974b$21b2o11928b2o21b$20bo2bo11926bo2bo20b$21bobo11926bobo21b$22bo10052b2o1874bo22b$8415b2o1657bobo1897b$8416b2o1658bo1897b$8415bo3558b$11974b$1902b2o4217bo5852b$1902bobo1657b2o2556b2o5852b$1902bo1658b2o2395b2o54b2o104bobo5851b$3563bo2394b2o54b2o5958b$11974b$5847bo6126b$5847b2o6125b$15b2o5829bobo6108b2o15b$11b2o2b2o11940b2o2b2o11b$11b2o5775bo393b3o5776b2o11b$5787bobo108b2o174b2o106bo2bo5788b$5898b2o174b2o105bo3bo5788b$5788bo2bo389b4o5789b$5780b2o4bo5bo389bo9b2o5780b$5780b2o3bo3b3o400b2o5780b$5785b3o6186b$11974b$21b3o11926b3o21b$26b2o6164bo5753b2o26b$19bo5bo2bo6164bo5751bo2bo5bo19b$19bo5bo2bo6162b3o5751bo2bo5bo19b$19bo6b2o11918b2o6bo19b$11974b$21b2o11928b2o21b$20bo2bo5754b2o414b2o3819b2o1933bo2bo20b$21bobo5754b2o414b2o2159b2o1657bobo1933bobo21b$22bo8333b2o1658bo1934bo22b$8355bo3618b$11974b$1962b2o4217bo5792b$1962bobo1657b2o2556b2o5792b$1962bo1658b2o2557bobo5791b$3623bo2158b2o406b2o5782b$5782b2o174b2o54b2o174b2o5782b$5787bo170b2o54b2o5958b$5787b2o6185b$5786bobo6185b$11974b$15b2o11940b2o15b$11b2o2b2o11940b2o2b2o11b$11b2o11948b2o11b$5898b2o174b2o5898b$5898b2o174b2o5898b$11974b$11974b$5790b2o390b2o5790b$5790b2o390b2o5790b$11974b$21b3o11926b3o21b$26b2o11918b2o26b$19bo5bo2bo11916bo2bo5bo19b$19bo5bo2bo11916bo2bo5bo19b$19bo6b2o11918b2o6bo19b$9955b2o2017b$21b2o5714bobo2555b2o1657bobo1994b2o16b3o2b$20bo2bo5713b2o2557b2o1658bo1993bo2bo15bo2bob$21bobo5714bo2556bo3654bobo16bo4b$22bo6220bobo5705bo17bo3bo$2022b2o4217bo3bo5723bo3bo$2022bobo1657b2o2556b3o2bo5723bo4b$2022bo1658b2o2557bo5729bobob$3683bo8290b$5733b2o6239b$5733bobo46b2o406b2o5782b$2b3o5728bo48b2o174b2o54b2o174b2o5782b$bo2bo5953b2o54b2o5958b$4bo11969b$o3bo11969b$o3bo11969b$4bo10b2o11940b2o15b$bobo7b2o2b2o11940b2o2b2o11b$11b2o11948b2o11b$5898b2o174b2o5898b$5898b2o174b2o5898b$11974b$11974b$5790b2o390b2o5790b$5790b2o390b2o5790b$5834bo6139b$21b3o5811bo6114b3o21b$26b2o5805b3o6110b2o26b$19bo5bo2bo11916bo2bo5bo19b$19bo5bo2bo9866b2o2048bo2bo5bo19b$19bo6b2o6106bo2100b2o1657bobo2049b2o6bo19b$6133bo2102b2o1658bo2077b$21b2o6110b3o2099bo3715b2o21b$20bo2bo6160b2o5764bo2bo20b$21bobo2058b2o4099bobo5764bobo21b$22bo2059bobo1657b2o2441bo5765bo22b$2082bo1658b2o8231b$3743bo8230b$5793b2o6179b$5793bobo6178b$5793bo6180b$5782b2o406b2o5782b$5782b2o174b2o54b2o174b2o5782b$5958b2o54b2o5958b$11974b$11974b$11974b$15b2o11940b2o15b$11b2o2b2o11940b2o2b2o11b$11b2o11948b2o11b$5898b2o174b2o5898b$5898b2o174b2o5898b$11974b$11974b$5790b2o390b2o5790b$5790b2o390b2o5790b$11974b$21b3o6050b2o5874b3o21b$26b2o6046b2o3759b2o2109b2o26b$19bo5bo2bo5865bob2o2277b2o1657bobo2108bo2bo5bo19b$19bo5bo2bo5865bo3bo2277b2o1658bo2108bo2bo5bo19b$19bo6b2o5871bo165b2o3bo4b3o2097bo3770b2o6bo19b$5890b2o2b2o3bo165bob2o7b2o12b3o31b2o5848b$21b2o2119b2o3745b2o6b3o165b3o3bo3bo2bo2b2o6b2ob2o29bobo5825b2o21b$20bo2bo2118bobo1657b2o2086b2o174bo6bob2obo2b2o6bo2b2o31bo5824bo2bo20b$21bobo2118bo1658b2o2088bo175b2o9bo11b2o5858bobo21b$22bo3780bo2272b2o5873bo22b$5853b2o41b2o171b2ob5o5897b$5853bobo42bo6075b$5853bo42b2o6076b$11974b$11974b$5782b2o114b2o174b2o114b2o5782b$5782b2o114b2o58b2o54b2o58b2o114b2o5782b$5958b2o54b2o5958b$11974b$11974b$11974b$15b2o11940b2o15b$11b2o2b2o5869bobo6068b2o2b2o11b$11b2o5873b2o6073b2o11b$5887bo6086b$11974b$11974b$6090bobo5881b$5790b2o98b2o190b2o7b2o89b2o5790b$5790b2o98b2o190b2o7bo90b2o5790b$9775b2o2197b$21b3o8091b2o1657bobo2173b3o21b$26b2o8088b2o1658bo2169b2o26b$19bo5bo2bo8086bo3829bo2bo5bo14b3o2b$19bo5bo2bo6035b2o5879bo2bo5bo14bo2bob$19bo6b2o2174b2o3859bobo5880b2o6bo14bo4b$2202bobo1657b2o2201bo5903bo3bo$21b2o2179bo1658b2o8088b2o16bo3bo$20bo2bo3839bo8086bo2bo15bo4b$21bobo5889b2o6035bobo17bobob$22bo5890bobo6035bo22b$5913bo6060b$11974b$2b3o6001b3o5965b$bo2bo6000bo2bo5965b$4bo6004bo5964b$o3bo5777b2o114b2o105b2o67b2o114b2o5782b$o3bo5777b2o114b2o63b3o39b2o3bo63b2o114b2o5782b$4bo6005bo5963b$bobo5961b2o41bo5965b$5956b2o7bobo38b3o7b2o5956b$5956b2o6bo3bo37b2o8b2o5956b$15b2o5873bo69bo4bobo38bo5950b2o15b$11b2o2b2o5872b3o68bobo3bo5990b2o2b2o11b$11b2o5875bo3bo67b2o5999b2o11b$5893bo6080b$5886bo3b2ob2o6079b$5890b2o126bo5955b$5886b2o6bo121bobo5955b$5790b2o100b2o123b2o163b2o3531b2o2257b$5790b2o226bo163b2o1871b2o1657bobo2257b$5954b2o62b2o2036b2o1658bo2257b$21b3o5930b2o62b2o2035bo3894b3o21b$26b2o11918b2o26b$19bo5bo2bo2233b2o9681bo2bo5bo19b$19bo5bo2bo2233bobo1657b2o8021bo2bo5bo19b$19bo6b2o2234bo1658b2o8023b2o6bo19b$3923bo8050b$21b2o11928b2o21b$20bo2bo5934b2o54b2o5934bo2bo20b$21bobo5934b2o54b2o5934bobo21b$22bo11928bo22b$11974b$11974b$11974b$11974b$11974b$5782b2o114b2o174b2o114b2o5782b$5782b2o114b2o174b2o114b2o5782b$11974b$11974b$11974b$5966b2o38b2o5966b$15b2o5949b2o38b2o5949b2o15b$11b2o2b2o11940b2o2b2o11b$11b2o11948b2o11b$11974b$11974b$9655b2o2317b$7995b2o1657bobo2317b$5790b2o390b2o1812b2o1658bo2317b$5790b2o390b2o1811bo3978b$11974b$21b3o2298b2o9626b3o21b$26b2o2294bobo1657b2o7962b2o26b$19bo5bo2bo2293bo1658b2o7962bo2bo5bo19b$19bo5bo2bo3954bo7961bo2bo5bo19b$19bo6b2o11918b2o6bo19b$11974b$21b2o11928b2o21b$20bo2bo5934b2o54b2o5934bo2bo20b$21bobo5934b2o54b2o5934bobo21b$22bo11928bo22b$11974b$11974b$11974b$11974b$11974b$5782b2o114b2o174b2o114b2o5782b$5782b2o114b2o174b2o114b2o5782b$11974b$11974b$11974b$5826bobo6145b$15b2o5809b2o6129b2o15b$11b2o2b2o5810bo6129b2o2b2o11b$11b2o11948b2o11b$9595b2o2377b$6150bobo1782b2o1657bobo2377b$6151b2o1783b2o1658bo2377b$6151bo1783bo4038b$5790b2o390b2o5790b$2382b2o3406b2o390b2o5785b3o2b$2382bobo1657b2o7925bo2bob$21b3o2358bo1658b2o7907b3o16bo4b$26b2o4015bo7902b2o21bo3bo$19bo5bo2bo11916bo2bo5bo14bo3bo$19bo5bo2bo11916bo2bo5bo14bo4b$19bo6b2o11918b2o6bo15bobob$11974b$21b2o11928b2o21b$20bo2bo5934b2o54b2o5934bo2bo20b$2b3o16bobo5934b2o54b2o5934bobo21b$bo2bo17bo11928bo22b$4bo11969b$o3bo11969b$o3bo11969b$4bo11969b$bobo11970b$5782b2o114b2o174b2o114b2o5782b$5782b2o114b2o174b2o114b2o5782b$11974b$11974b$11974b$11974b$15b2o11940b2o15b$11b2o2b2o9518b2o2420b2o2b2o11b$11b2o7862b2o1657bobo2424b2o11b$7876b2o1658bo2437b$7875bo4098b$11974b$2442b2o9530b$2442bobo1657b2o1686b2o390b2o5790b$2442bo1658b2o1687b2o390b2o5790b$4103bo7870b$21b3o11926b3o21b$26b2o11918b2o26b$19bo5bo2bo11916bo2bo5bo19b$19bo5bo2bo11916bo2bo5bo19b$19bo6b2o11918b2o6bo19b$11974b$21b2o11928b2o21b$20bo2bo5934b2o54b2o5934bo2bo20b$21bobo5934b2o54b2o5934bobo21b$22bo11928bo22b$11974b$11974b$11974b$11974b$11974b$5898b2o174b2o114b2o5782b$5898b2o174b2o114b2o5782b$11974b$5782b3o3bo6185b$5785bobobo6184b$5785bo4bo3684b2o2497b$15b2o5759b2o7bobo2b2o399b2o1622b2o1657bobo2480b2o15b$11b2o2b2o5764bo2bob2o2bo4bo390b2o2bo2bo1622b2o1658bo2480b2o2b2o11b$11b2o5767bo2bo4b2o4bobo388b3o2bo7b2o1615bo4145b2o11b$5781bobo3bo6bob2o387b3ob2o4bo3b2o5773b$2502b2o3269bo10bo9bobo2b3o373b2o3bobo2b3ob4o2bobo2bo5773b$2502bobo1657b2o1607b3o3bo6bobo7b2o378b3o3bo2bobo9b4ob2o5772b$2502bo1658b2o1607bo5b4o3bo10b2o379bo3bo7bo8bo3bo5773b$4163bo1605bo4b3ob3o3bobo391b2o7bo8b2obo5774b$5770bo4bobo2b2o3bo400bo10b2o6bo5768b$5772b2o3b2o2b2o6b2o384b4o6bo20b2o5766b$21b3o5748bobo2bo3bo398bo3bo20b2o5743b3o21b$26b2o5750b3o395b4o5766b2o26b$19bo5bo2bo5733b2o15bo398bo5766bo2bo5bo19b$19bo5bo2bo5734b2o6180bo2bo5bo19b$19bo6b2o5735bo6182b2o6bo19b$5764b3o6207b$21b2o5740bo2bo15b2o406b2o5759b2o21b$20bo2bo5739b2o17b2o174b2o54b2o174b2o5758bo2bo20b$21bobo5934b2o54b2o5934bobo21b$22bo6181b3o5744bo22b$6206bo5767b$6205bo5768b$11974b$11974b$11974b$5898b2o174b2o5898b$5898b2o174b2o5898b$11974b$9415b2o2557b$5790b2o390b2o1571b2o1657bobo2557b$5790b2o390b2o1572b2o1658bo2557b$15b2o7738bo4201b2o15b$11b2o2b2o11940b2o2b2o11b$11b2o2549b2o3604bo5792b2o11b$2562bobo1657b2o1944bobo5803b$2562bo1658b2o1945b2o5799b3o2b$4223bo7745bo2bob$11969bo4b$5810bo6158bo3bo$5808bobo6158bo3bo$5809b2o6158bo4b$21b3o11926b3o17bobob$26b2o11918b2o26b$19bo5bo2bo5793b3o6120bo2bo5bo19b$19bo5bo2bo5793bo6122bo2bo5bo19b$2b3o14bo6b2o5795bo6122b2o6bo19b$bo2bo11969b$4bo16b2o5759b2o406b2o5759b2o21b$o3bo15bo2bo5758b2o174b2o54b2o128b3o43b2o5758bo2bo20b$o3bo16bobo5934b2o54b2o130bo5803bobo21b$4bo17bo6122bo5805bo22b$bobo11970b$11974b$6073bo5900b$6072bo2bo5898b$6071bo3bo5898b$6071bo4bo5897b$6071b7o3277b2o2617b$6071bo2bo2b2o1616b2o1657bobo2617b$5893bo176b4o3bo1618b2o1658bo2617b$5790b2o99b2o178bo5bo104b2o1511bo4278b$5790b2o280b2o2bo105b2o5790b$15b2o2605b2o3271b3o175b2o8bo5873b2o15b$11b2o2b2o2605bobo1657b2o1609bo2bo3b3o180bo5873b2o2b2o11b$11b2o2609bo1658b2o1610b3o187bo5877b2o11b$4283bo1610bo6079b$11974b$11974b$11974b$11974b$5902b2o166b2o5902b$5902b2o166b2o5902b$21b3o5858b3o6065b3o21b$26b2o5854bo6063b2o26b$19bo5bo2bo5854bo6061bo2bo5bo19b$19bo5bo2bo11916bo2bo5bo19b$19bo6b2o11918b2o6bo19b$6084b3o5887b$21b2o5759b2o114b2o174b2o10bo103b2o5759b2o21b$20bo2bo5758b2o114b2o58b2o54b2o58b2o9bo104b2o5758bo2bo20b$21bobo5934b2o54b2o5934bobo21b$22bo11928bo22b$11974b$11974b$5957bo6016b$5956b3o85bo5929b$5952b3o88bo3251b2o2677b$5952bobo2bo6b2o77b3o1589b2o1657bobo2677b$5963b2o5bo40b5o6bo1613b2o1658bo2677b$5950b2o12bobo2b2o4b2o34b3ob2o4b2o1612bo4338b$5934bo15b2o11bob4o2bo4bo24b2o7bo2b2o5b2o3b2o5947b$2682b2o3106b2o98b2o43bo13bobo12b3o4b3o2bo24bobo6b2obo11b3o54b2o98b2o5790b$2682bobo1657b2o1446b2o98b2o41b3o13b3o11bob2o3b7o26bo4bob2obo8bob3o55b2o98b2o5790b$15b2o2665bo1658b2o1606b3o12b2o4b2o26bo2b3o4bob3o10bobo5931b2o15b$11b2o2b2o4326bo1608bo11bo5b2o25bob2o9bo13bo5932b2o2b2o11b$11b2o5928bobo8b2o43bob2o9b3o5948b2o11b$5941b2o55bo5975b$5942bo6031b$11974b$11974b$11974b$5958b2o54b2o5958b$5958b2o54b2o5958b$21b3o11926b3o21b$26b2o11918b2o26b$19bo5bo2bo11916bo2bo5bo19b$19bo5bo2bo11916bo2bo5bo19b$19bo6b2o11918b2o6bo19b$11974b$21b2o5759b2o114b2o174b2o114b2o5759b2o21b$20bo2bo5758b2o114b2o174b2o35bo78b2o5758bo2bo20b$21bobo6088b2o5836bobo21b$22bo6088b2o5838bo22b$11974b$5966b2o28bo9b2o5966b$5857bo108b2o27bo10b2o3227b2o2737b$5855b2o138b3o1577b2o1657bobo2737b$5856b2o1718b2o1658bo2737b$7575bo4398b$5982bo5991b$2742b2o3239bo5990b$2742bobo1657b2o1577b3o5990b$2742bo1658b2o1387b2o98b2o190b2o98b2o5790b$4403bo1386b2o98b2o190b2o98b2o5790b$15b2o6091bo5848b2o10b3o2b$11b2o2b2o6091bobo5846b2o2b2o6bo2bob$11b2o6095b2o5851b2o6bo4b$11969bo3bo$11969bo3bo$5870bo6098bo4b$5868bobo6099bobob$5869b2o6103b$5958b2o54b2o5958b$5958b2o54b2o5958b$2b3o16b3o11926b3o21b$bo2bo21b2o11918b2o26b$4bo14bo5bo2bo11916bo2bo5bo19b$o3bo14bo5bo2bo11916bo2bo5bo19b$o3bo14bo6b2o11918b2o6bo19b$4bo11969b$bobo17b2o5759b2o114b2o174b2o114b2o5759b2o21b$20bo2bo5758b2o114b2o174b2o114b2o5758bo2bo20b$21bobo11926bobo21b$22bo11928bo22b$9175b2o2797b$5966b2o38b2o1507b2o1657bobo2797b$5966b2o38b2o1508b2o1658bo2797b$7515bo4458b$11974b$2802b2o9170b$2802bobo1657b2o7510b$2802bo1658b2o7511b$4463bo7510b$5790b2o98b2o190b2o98b2o5790b$5790b2o98b2o190b2o98b2o5790b$15b2o11940b2o15b$11b2o2b2o11940b2o2b2o11b$11b2o11948b2o11b$11974b$11974b$11974b$11974b$11974b$5958b2o54b2o5958b$5958b2o54b2o5958b$21b3o11926b3o21b$26b2o11918b2o26b$19bo5bo2bo11916bo2bo5bo19b$19bo5bo2bo11916bo2bo5bo19b$19bo6b2o11918b2o6bo19b$11974b$21b2o5759b2o114b2o174b2o114b2o5759b2o21b$20bo2bo5758b2o114b2o174b2o114b2o5758bo2bo20b$21bobo9091b2o2833bobo21b$22bo7432b2o1657bobo2834bo22b$7456b2o1658bo2857b$7455bo4518b$11974b$2862b2o9110b$2862bobo1657b2o7450b$2862bo1658b2o7451b$4523bo7450b$11974b$11974b$5790b2o390b2o5790b$5790b2o390b2o5790b$15b2o11940b2o15b$11b2o2b2o11940b2o2b2o11b$11b2o11948b2o11b$11974b$11974b$11974b$11974b$11974b$5958b2o54b2o5958b$5958b2o54b2o5958b$21b3o11926b3o21b$26b2o11918b2o26b$19bo5bo2bo11916bo2bo5bo19b$19bo5bo2bo11916bo2bo5bo19b$19bo6b2o11918b2o6bo19b$6171bo5802b$21b2o5759b2o114b2o174b2o96b2o16b2o2863b2o2894b2o21b$20bo2bo5758b2o114b2o174b2o95b2o17b2o1203b2o1657bobo2893bo2bo20b$21bobo7372b2o1658bo2893bobo21b$22bo7372bo4555bo22b$5797bo6176b$2922b2o2871b2o6177b$2922bobo1657b2o1212b2o6176b$2922bo1658b2o7391b$4583bo7390b$11974b$11974b$11969b3o2b$11969bo2bob$5790b2o390b2o5785bo4b$5790b2o390b2o5785bo3bo$15b2o11940b2o10bo3bo$11b2o2b2o11940b2o2b2o6bo4b$11b2o11948b2o7bobob$11974b$11974b$11974b$2b3o11969b$bo2bo11969b$4bo5953b2o54b2o5958b$o3bo5953b2o54b2o5958b$o3bo16b3o11926b3o21b$4bo21b2o11918b2o26b$bobo15bo5bo2bo5761bo6154bo2bo5bo19b$19bo5bo2bo5760b3o6153bo2bo5bo19b$19bo6b2o5760bo2b2o3202b2o2949b2o6bo19b$5788b2ob2o392bo1149b2o1657bobo2977b$21b2o5764b3o108b2o174b2o109bo1150b2o1658bo2954b2o21b$20bo2bo5764b2obo106b2o174b2o109bo1149bo4614bo2bo20b$21bobo5765bo2bo6157bobo21b$22bo2959b2o2796b2o7bo392b3o7b2o5757bo22b$2982bobo1657b2o1136b2o8bobo389bobo7b2o5780b$2982bo1658b2o1148bo390b3o2bobo5784b$4643bo1544b2o5784b$6188bo5785b$11974b$11974b$5779bobo6192b$5779b2o6193b$5780bo6193b$11974b$5778b2o414b2o5778b$15b2o5761b2o414b2o5761b2o15b$11b2o2b2o11940b2o2b2o11b$11b2o11948b2o11b$5792b2o6180b$5791b2o6181b$5793bo6180b$11974b$5782b2o406b2o5782b$5782b2o174b2o54b2o159b2o13b2o5782b$5958b2o54b2o160b2o5796b$21b3o6151bo5774b3o21b$26b2o11918b2o26b$19bo5bo2bo8906b2o3008bo2bo5bo19b$19bo5bo2bo7246b2o1657bobo3008bo2bo5bo19b$19bo6b2o7248b2o1658bo3009b2o6bo19b$7275bo4698b$21b2o5875b2o174b2o5875b2o21b$20bo2bo3018b2o2854b2o174b2o5874bo2bo20b$21bobo3018bobo1657b2o7246bobo21b$22bo3019bo1658b2o7248bo22b$4703bo1086b2o390b2o5790b$5790b2o390b2o5790b$11974b$11974b$5897b2o6075b$5895b4o6075b$5895bo2bo6075b$5889b2o3b2o4b2o6072b$5887b2o2bo3b3o3b2o6071b$5887bo2b3o2bob2ob2o6072b$5887bo4bo4b4o177bo5895b$15b2o5871b5o184b3o5877b2o15b$11b2o2b2o5835b2o36b2o184bo2b2o5876b2o2b2o11b$11b2o5838b2o222b2o5884b2o11b$5853bo220b2ob3o5894b$6074b2o2bo5895b$6077b3o5894b$6075b2o38b2o5857b$5782b2o114b2o175b2o39b2o72b2o5782b$5782b2o114b2o58b2o54b2o99bo74b2o5782b$5958b2o54b2o5958b$21b3o6059bo2791b2o3073b3o21b$26b2o6053bobo1131b2o1657bobo3069b2o26b$19bo5bo2bo6053b2o1132b2o1658bo3068bo2bo5bo19b$19bo5bo2bo7186bo4729bo2bo5bo19b$19bo6b2o11918b2o6bo19b$3102b2o2781bo6088b$21b2o3079bobo1657b2o1121bobo6063b2o21b$20bo2bo3078bo1658b2o1122b2o6063bo2bo20b$21bobo4739bo7186bobo21b$22bo11928bo22b$5790b2o98b2o190b2o98b2o5790b$5790b2o98b2o190b2o98b2o5790b$11974b$11969b3o2b$6137bobo5829bo2bob$6137b2o5830bo4b$6138bo5830bo3bo$11969bo3bo$11969bo4b$5839bobo6128bobob$5840b2o70b2o6060b$15b2o5823bo70b2o6044b2o15b$11b2o2b2o5896bo6043b2o2b2o11b$2b3o6b2o11948b2o11b$bo2bo11969b$4bo6050b2o5917b$o3bo6051b2o5916b$o3bo6050bo5918b$4bo5777b2o114b2o174b2o114b2o5782b$bobo5778b2o114b2o108b2o64b2o114b2o2623b2o3157b$5965b2o40bobo1145b2o1657bobo3157b$21b3o5941bobo39bo2bo1145b2o1658bo3133b3o21b$26b2o5928b2o7b3o38b2o2b2o4b2o1137bo4790b2o26b$19bo5bo2bo5927b2o7b5o38bob2o4b2o5927bo2bo5bo19b$19bo5bo2bo3133b2o2804b2o5975bo2bo5bo19b$19bo6b2o3134bobo1657b2o1136bo4bob2o37bo5939b2o6bo19b$3162bo1658b2o1135b2o6bo39bo5967b$21b2o4800bo1135b2o5bo5984b2o21b$20bo2bo5986bo5939bo2bo20b$21bobo11926bobo21b$22bo5984b2o5942bo22b$5790b2o98b2o115bo74b2o98b2o5790b$5790b2o98b2o114b3o73b2o98b2o5790b$5954b2o62b2o5954b$5954b2o62b2o5954b$11974b$11974b$11974b$11974b$11974b$11974b$5958b2o54b2o5958b$15b2o5941b2o54b2o5941b2o15b$11b2o2b2o11940b2o2b2o11b$11b2o11948b2o11b$11974b$11974b$11974b$8755b2o3217b$5782b2o114b2o174b2o114b2o903b2o1657bobo3217b$5782b2o114b2o174b2o114b2o904b2o1658bo3217b$7095bo4878b$21b3o11926b3o21b$26b2o3194b2o8722b2o26b$19bo5bo2bo3193bobo1657b2o1082b2o38b2o5937bo2bo5bo19b$19bo5bo2bo3193bo1658b2o1083b2o38b2o5937bo2bo5bo19b$19bo6b2o4855bo7062b2o6bo19b$11974b$21b2o11928b2o21b$20bo2bo11926bo2bo20b$21bobo11926bobo21b$22bo11928bo22b$5790b2o98b2o190b2o98b2o5790b$5790b2o98b2o190b2o98b2o5790b$11974b$11974b$11974b$11974b$11974b$11974b$11974b$11974b$5958b2o54b2o5958b$15b2o5941b2o54b2o5941b2o15b$11b2o2b2o11940b2o2b2o11b$11b2o11948b2o11b$11974b$8695b2o3277b$7035b2o1657bobo3277b$7036b2o1658bo3277b$5782b2o114b2o174b2o114b2o843bo4938b$5782b2o114b2o174b2o67bo46b2o5782b$3282b2o2857bobo5830b$21b3o3258bobo1657b2o1198b2o5806b3o21b$26b2o3254bo1658b2o7003b2o26b$19bo5bo2bo4914bo1139b2o5860bo2bo5bo19b$19bo5bo2bo5796bo257b2o5860bo2bo5bo19b$19bo6b2o5797bobo256bo5861b2o6bo19b$5825b2o6147b$21b2o11928b2o21b$20bo2bo11926bo2bo20b$21bobo11926bobo21b$22bo11928bo17b3o2b$5790b2o390b2o5785bo2bob$5790b2o390b2o5785bo4b$11969bo3bo$11969bo3bo$11969bo4b$11970bobob$11974b$11974b$11974b$2b3o11969b$bo2bo5953b2o54b2o5958b$4bo10b2o5941b2o54b2o5941b2o15b$o3bo6b2o2b2o11940b2o2b2o11b$o3bo6b2o8622b2o3324b2o11b$4bo6970b2o1657bobo3337b$bobo6972b2o1658bo3337b$6975bo4998b$11974b$3342b2o2438b2o114b2o174b2o114b2o5782b$3342bobo1657b2o778b2o114b2o174b2o114b2o5782b$3342bo1658b2o6971b$21b3o4979bo6946b3o21b$26b2o11918b2o26b$19bo5bo2bo11916bo2bo5bo19b$19bo5bo2bo11916bo2bo5bo19b$19bo6b2o11918b2o6bo19b$11974b$21b2o11928b2o21b$20bo2bo11926bo2bo20b$21bobo11926bobo21b$22bo11928bo22b$5790b2o390b2o5790b$5790b2o390b2o5790b$11974b$11974b$11974b$11974b$11974b$11974b$11974b$11974b$5958b2o54b2o5958b$15b2o5941b2o54b2o2559b2o3380b2o15b$11b2o2b2o6898b2o1657bobo3380b2o2b2o11b$11b2o6903b2o1658bo3384b2o11b$6915bo5058b$11974b$3402b2o8570b$3402bobo1657b2o6910b$3402bo1658b2o835b2o174b2o114b2o5782b$5063bo718b5o111b2o174b2o114b2o5782b$5781b2o5bo6185b$21b3o5757b2obo3b2o6160b3o21b$26b2o5753b2obo6161b2o26b$19bo5bo2bo5752bo3bobobo402bo5752bo2bo5bo19b$19bo5bo2bo5753bobob2ob2o400b3o5751bo2bo5bo19b$19bo6b2o5755bo5b2o5bo398b3o5748b2o6bo19b$5788bo10b2o383b2o6bo2bobo5776b$21b2o5771bo6bo377bo5b2o5764b2o21b$20bo2bo5768b2o4b2obo371b2o4b2o2bobo12b2o5750bo2bo20b$21bobo5750b2o16b2obo4bo372bo4bo2b4obo11b2o5750bobo21b$22bo5751bo18b2o378bo2b3o4b3o12bobo5750bo22b$5768b2o3bob2o396b7o3b2obo11b3o5773b$5769bobobo3b2o399b2o4b2o12b3o5773b$5771bobo5bo2bo395b2o5bo11bo5776b$5764bo7bob3ob2o3bo412b2o8bobo5765b$5764bo11bo3bobo424b2o5765b$5763bo14b4o425bo5766b$5765bo12b3o6193b$5761b3o2bo6207b$5761b3ob3o6206b$5761b2o3bo15b2o406b2o2323b2o3457b$5782b2o174b2o54b2o174b2o14b2o647b2o1657bobo3457b$15b2o5941b2o54b2o189bobo648b2o1658bo3440b2o15b$11b2o2b2o6190bo647bo5101b2o2b2o11b$11b2o11948b2o11b$3462b2o8510b$3462bobo1657b2o6850b$3462bo1658b2o6851b$5123bo6850b$5898b2o174b2o5898b$5898b2o174b2o5898b$11974b$21b3o11926b3o21b$26b2o5762b2o390b2o5762b2o26b$19bo5bo2bo5761b2o390b2o5761bo2bo5bo19b$19bo5bo2bo11916bo2bo5bo19b$19bo6b2o11918b2o6bo19b$11969b3o2b$21b2o6144bo5783b2o16bo2bob$20bo2bo6142bo5783bo2bo15bo4b$21bobo6142b3o5781bobo16bo3bo$22bo11928bo17bo3bo$11969bo4b$5811bo6158bobob$5812bo6161b$5810b3o8b2o6151b$5821bobo6150b$2b3o5816bo6152b$bo2bo11969b$4bo8450b2o3517b$o3bo6141b2o647b2o1657bobo3517b$o3bo5777b2o361bobo42b2o604b2o1658bo3517b$4bo5777b2o174b2o54b2o131bo42b2o603bo5178b$bobo11b2o5941b2o54b2o5941b2o15b$11b2o2b2o3505b2o8433b2o2b2o11b$11b2o3509bobo1657b2o6777b2o11b$3522bo1658b2o889bo5901b$5183bo887bobob2o5897b$6070b2o5bo5896b$11974b$6070bo6bo5896b$6071b2o3bo5897b$6072bo4bo5896b$21b3o5872bo176b2o3bo5871b3o21b$26b2o5762b2o103b3o174bo4b2o103b2o5762b2o26b$19bo5bo2bo5761b2o102b4o174bob4o104b2o5761bo2bo5bo19b$19bo5bo2bo5863b2o3bob2o170b2ob2o7bo5861bo2bo5bo19b$19bo6b2o5869b2o2b2o169bo10bo5862b2o6bo19b$5891bo3bobo2bo172bo9bo5890b$21b2o5869bo4bo6053b2o21b$20bo2bo5869b2obo6053bo2bo20b$21bobo5869b2o6055bobo21b$22bo11928bo22b$11974b$5881b2o19b2o166b2o5902b$5881bobo18b2o166b2o5902b$5881bo6092b$11974b$8395b2o3577b$6086b2o647b2o1657bobo3577b$6085bobo648b2o1658bo3577b$6087bo647bo5238b$5782b2o114b2o174b2o114b2o5782b$3582b2o2198b2o114b2o58b2o54b2o58b2o114b2o5782b$15b2o3565bobo1657b2o714b2o54b2o5941b2o15b$11b2o2b2o3565bo1658b2o6714b2o2b2o11b$11b2o5230bo6717b2o11b$5957b2o6015b$5952b3o4bo6014b$5951b2o4bobo3bo6010b$5950bo3bo2b2o3b3o46b3o5960b$5951b2o9bo2b2o46bo7bo20bo5931b$5964b3o4bo30bo9bobob2ob4o19bobo5929b$5948b2o13bo5bobo3b3o22bo3bo5bo3bobob3o2bo18b2o5930b$21b3o5923bo2bo12b4ob2obo27bo11b2o4b2o3b3o5925b3o21b$26b2o5762b2o98b2o56bobo11bo35b2o5b2o7bo4bobobo3bo54b2o98b2o5762b2o26b$19bo5bo2bo5761b2o98b2o44bo11b2o2bo9b2ob2o30bo8bo5b2o7b3o4b2o52b2o98b2o5761bo2bo5bo19b$19bo5bo2bo5905bobo11b2o2b3o8bo2b2o31bobo4bo6bo7bo5b2o5916bo2bo5bo19b$19bo6b2o5907b2o17bo9b3o29bo2bo3b3o5940b2o6bo19b$5952bobo10bo30b2o2bo5973b$21b2o5918bo10b2o44b3o5950b2o21b$20bo2bo5915b2o58bo5950bo2bo20b$21bobo5916b2o6008bobo21b$22bo11928bo22b$11974b$5958b2o54b2o5958b$5958b2o54b2o5958b$8335b2o3637b$6675b2o1657bobo3637b$6676b2o1658bo3637b$6675bo5298b$11974b$3642b2o8330b$3642bobo1657b2o478b2o114b2o174b2o114b2o5782b$3642bo1658b2o479b2o114b2o174b2o114b2o5782b$15b2o5286bo6653b2o15b$11b2o2b2o6095bobo5842b2o2b2o11b$11b2o6100b2o5846b2o11b$5966b2o38b2o105bo5860b$5966b2o38b2o5966b$5994bo5979b$5854bobo137bobo5977b$5854b2o138b2o5978b$5855bo6118b$11974b$21b3o5960bo5965b3o21b$26b2o5762b2o98b2o90bobo97b2o98b2o5762b2o21b3o2b$19bo5bo2bo5761b2o98b2o91b2o97b2o98b2o5761bo2bo5bo14bo2bob$19bo5bo2bo11916bo2bo5bo14bo4b$19bo6b2o6079bo5838b2o6bo14bo3bo$6106bo5862bo3bo$21b2o6083b3o5842b2o16bo4b$20bo2bo11926bo2bo16bobob$21bobo11926bobo21b$22bo5848bo6079bo22b$5872bo6101b$2b3o5865b3o85b2o54b2o2259b2o3697b$bo2bo5953b2o54b2o599b2o1657bobo3697b$4bo6611b2o1658bo3697b$o3bo6610bo5358b$o3bo11969b$4bo3697b2o8270b$bobo3698bobo1657b2o6610b$3702bo1658b2o6611b$5363bo418b2o114b2o174b2o114b2o5782b$5782b2o114b2o174b2o114b2o5782b$15b2o11940b2o15b$11b2o2b2o11940b2o2b2o11b$11b2o11948b2o11b$5966b2o38b2o5966b$5966b2o38b2o5966b$11974b$11974b$11974b$11974b$11974b$21b3o11926b3o21b$26b2o5762b2o98b2o190b2o98b2o5762b2o26b$19bo5bo2bo5761b2o98b2o190b2o98b2o5761bo2bo5bo19b$19bo5bo2bo11916bo2bo5bo19b$19bo6b2o11918b2o6bo19b$11974b$21b2o11928b2o21b$20bo2bo11926bo2bo20b$21bobo11926bobo21b$22bo8192b2o3734bo22b$6555b2o1657bobo3757b$5958b2o54b2o540b2o1658bo3757b$5958b2o54b2o539bo5418b$11974b$3762b2o8210b$3762bobo1657b2o6550b$3762bo1658b2o6551b$5423bo6550b$11974b$5782b2o114b2o174b2o114b2o5782b$5782b2o114b2o174b2o114b2o5782b$15b2o11940b2o15b$11b2o2b2o11940b2o2b2o11b$11b2o11948b2o11b$11974b$11974b$11974b$11974b$11974b$11974b$11974b$21b3o11926b3o21b$26b2o5762b2o390b2o5762b2o26b$19bo5bo2bo5761b2o390b2o5761bo2bo5bo19b$19bo5bo2bo11916bo2bo5bo19b$19bo6b2o11918b2o6bo19b$11974b$21b2o11928b2o21b$20bo2bo8131b2o3793bo2bo20b$21bobo6471b2o1657bobo3793bobo21b$22bo6473b2o1658bo3794bo22b$6495bo5478b$5958b2o54b2o5958b$3822b2o2134b2o54b2o5958b$3822bobo1657b2o6490b$3822bo1658b2o6491b$5483bo6490b$11974b$11974b$11974b$5782b2o114b2o174b2o114b2o5782b$5782b2o114b2o174b2o96bobo15b2o5782b$15b2o6156b2o5782b2o15b$11b2o2b2o6156bo5783b2o2b2o11b$11b2o11948b2o11b$11974b$5794bobo6177b$5794b2o6178b$5795bo6178b$11969b3o2b$11969bo2bob$11969bo4b$21b3o11926b3o16bo3bo$26b2o5762b2o390b2o5762b2o21bo3bo$19bo5bo2bo5761b2o390b2o5761bo2bo5bo14bo4b$19bo5bo2bo11916bo2bo5bo15bobob$19bo6b2o11918b2o6bo19b$8095b2o3877b$21b2o6412b2o1657bobo3854b2o21b$2b3o15bo2bo6412b2o1658bo3853bo2bo20b$bo2bo16bobo6411bo5514bobo21b$4bo17bo11928bo22b$o3bo3877b2o8090b$o3bo3877bobo1657b2o414b2o54b2o5958b$4bo3877bo1658b2o247bo167b2o54b2o5958b$bobo5539bo245bobo6182b$5788b2ob2o6181b$5788bo2bo6182b$5787bo3bo6182b$5791bo6182b$11974b$5898b2o174b2o5898b$5898b2o174b2o107b2o5789b$15b2o6165bobo5772b2o15b$11b2o2b2o5763b2o400b3o7b2o5763b2o2b2o11b$11b2o5767b2o9bo388b5o7b2o5767b2o11b$5790b2o388b2o5792b$6181b2obo4bo5784b$6183bo6b2o5782b$6183bo5b2o5783b$11974b$5779bo6194b$5778bob2o6192b$21b3o5756b2o6168b3o21b$26b2o5753bo6164b2o26b$19bo5bo2bo5750b2o413b2o5749bo2bo5bo19b$19bo5bo2bo5750bo414b2o1839b2o3908bo2bo5bo19b$19bo6b2o5763bo583b2o1657bobo3909b2o6bo19b$5790b2o584b2o1658bo3937b$21b2o5767bobo582bo5575b2o21b$20bo2bo11926bo2bo20b$21bobo3918b2o8006bobo21b$22bo3919bobo1657b2o573bo5773bo22b$3942bo1658b2o179b2o393b2o11b2o5782b$5603bo178b2o174b2o54b2o160bobo11b2o5782b$5958b2o54b2o5958b$11974b$11974b$11974b$11974b$11974b$11974b$5898b2o174b2o5898b$5898b2o174b2o5898b$15b2o11940b2o15b$11b2o2b2o11940b2o2b2o11b$11b2o5777b2o390b2o5777b2o11b$5790b2o390b2o5790b$11974b$11974b$5898b3o6073b$5897b2o3bo6071b$5898bobo6073b$5885b2o4bo5b2o2b4o6069b$21b3o5860bobo3b3obo2b2o5b2o171b3o5870b3o21b$26b2o5856bo3bo4b2o2b2o3bobo172bo2bo1894b2o3969b2o26b$19bo5bo2bo5822bo32b2o4b5o7b2o172bo4bo233b2o1657bobo3968bo2bo5bo19b$19bo5bo2bo5821b2o38bo2bo185bo236b2o1658bo3968bo2bo5bo19b$19bo6b2o5822bobo35bo426bo5630b2o6bo19b$6077b2o5895b$21b2o3979b2o2073bobo5871b2o21b$20bo2bo3978bobo1657b2o413bobo37bo5832bo2bo20b$21bobo3978bo1658b2o454b2o5831bobo21b$22bo5640bo409bo42bobo5832bo22b$5782b2o114b2o175bo114b2o5782b$5782b2o114b2o58b2o54b2o58b2o114b2o5782b$5958b2o54b2o5958b$11974b$6084bo5889b$6085bo5888b$6083b3o5888b$11974b$11974b$5884bo6089b$5883bo6090b$15b2o5866b3o6071b2o15b$11b2o2b2o11940b2o2b2o11b$11b2o5777b2o98b2o190b2o98b2o5777b2o11b$5790b2o98b2o190b2o98b2o5785b3o2b$11969bo2bob$11969bo4b$11969bo3bo$6137bo5831bo3bo$6135b2o5832bo4b$6136b2o1777b2o4053bobob$21b3o5887bo343b2o1657bobo4033b3o21b$26b2o5882b2o344b2o1658bo4029b2o26b$19bo5bo2bo5812bo68bobo342bo5689bo2bo5bo19b$2b3o14bo5bo2bo5813b2o6101bo2bo5bo19b$bo2bo14bo6b2o4034b2o1777b2o6103b2o6bo19b$4bo4057bobo1657b2o333bo5916b$o3bo16b2o4039bo1658b2o334b2o5892b2o21b$o3bo15bo2bo5699bo332bobo5891bo2bo20b$4bo16bobo11926bobo21b$bobo18bo11928bo22b$5782b2o114b2o108b2o64b2o114b2o5782b$5782b2o114b2o66bo40b3o64b2o114b2o5782b$5965b3o39b3o5964b$5965bob2o38bo5966b$5956b2o52b2o4b2o5956b$5956b2o49b3obo4b2o5956b$6007b4o5963b$6009b2o5963b$11974b$5957bobo6014b$5957b2o6015b$15b2o5941bo5998b2o15b$11b2o2b2o11940b2o2b2o11b$11b2o5777b2o98b2o114bo75b2o98b2o5777b2o11b$5790b2o98b2o113bobo74b2o98b2o5790b$5954b2o49bo12b2o5954b$5954b2o50bo11b2o5954b$11974b$7855b2o4117b$6195b2o1657bobo4117b$6196b2o1658bo4117b$21b3o6171bo5754b3o21b$26b2o11918b2o26b$19bo5bo2bo4093b2o1834b2o54b2o5929bo2bo5bo19b$19bo5bo2bo4093bobo1657b2o174b2o54b2o5929bo2bo5bo19b$19bo6b2o4094bo1658b2o6163b2o6bo19b$5783bo6190b$21b2o11928b2o21b$20bo2bo11926bo2bo20b$21bobo11926bobo21b$22bo11928bo22b$5782b2o114b2o174b2o114b2o5782b$5782b2o114b2o174b2o114b2o5782b$11974b$11974b$11974b$5966b2o38b2o5966b$5966b2o38b2o5966b$11974b$11974b$11974b$11974b$15b2o11940b2o15b$11b2o2b2o11940b2o2b2o11b$11b2o5777b2o98b2o190b2o98b2o5777b2o11b$5790b2o98b2o190b2o98b2o5790b$11974b$7795b2o4177b$6135b2o1657bobo4177b$6136b2o1658bo4177b$6135bo5838b$11974b$21b3o4158b2o7766b3o21b$26b2o4154bobo1657b2o6102b2o26b$19bo5bo2bo4153bo1658b2o115b2o54b2o5929bo2bo5bo19b$19bo5bo2bo5814bo114b2o54b2o5929bo2bo5bo19b$19bo6b2o11918b2o6bo19b$11974b$21b2o11928b2o21b$20bo2bo11926bo2bo20b$21bobo11926bobo21b$22bo11928bo22b$5782b2o114b2o174b2o114b2o5782b$5782b2o114b2o174b2o114b2o5782b$6144bo5829b$6145bo5828b$6143b3o5828b$11974b$11974b$5824bo6149b$5823bo6150b$5823b3o6148b$11969b3o2b$15b2o11940b2o10bo2bob$11b2o2b2o11940b2o2b2o6bo4b$11b2o5777b2o390b2o5777b2o6bo3bo$5790b2o390b2o1551b2o4232bo3bo$6075b2o1657bobo4232bo4b$6076b2o1658bo4233bobob$6075bo5898b$11974b$4242b2o7730b$2b3o4237bobo1657b2o6070b$bo2bo16b3o4218bo1658b2o6047b3o21b$4bo21b2o5875bo6042b2o26b$o3bo14bo5bo2bo5929b2o54b2o5929bo2bo5bo19b$o3bo14bo5bo2bo5929b2o54b2o5929bo2bo5bo19b$4bo14bo6b2o11918b2o6bo19b$bobo11970b$21b2o11928b2o21b$20bo2bo11926bo2bo20b$21bobo11926bobo21b$22bo11928bo22b$5782b2o114b2o174b2o114b2o5782b$5782b2o114b2o174b2o114b2o5782b$11974b$11974b$11974b$11974b$11974b$11974b$11974b$11974b$11974b$15b2o11940b2o15b$11b2o2b2o7658b2o4280b2o2b2o11b$11b2o5777b2o223b2o165b2o1490bobo4284b2o11b$5790b2o224b2o164b2o1492bo4297b$6015bo5958b$11974b$4302b2o7670b$4302bobo1657b2o6010b$4302bo1658b2o6011b$5963bo6010b$21b3o11926b3o21b$26b2o11918b2o26b$19bo5bo2bo5929b2o54b2o5929bo2bo5bo19b$19bo5bo2bo5929b2o54b2o5929bo2bo5bo19b$19bo6b2o11918b2o6bo19b$11974b$21b2o11928b2o21b$20bo2bo11926bo2bo20b$21bobo11926bobo21b$22bo11928bo22b$5782b2o114b2o174b2o114b2o5782b$5782b2o114b2o174b2o114b2o5782b$11974b$11974b$11974b$11974b$11974b$11974b$11974b$11974b$7615b2o4357b$15b2o5938b2o1657bobo4340b2o15b$11b2o2b2o5939b2o1658bo4340b2o2b2o11b$11b2o5942bo6005b2o11b$11974b$4362b2o7610b$4362bobo1657b2o5950b$4362bo1658b2o5951b$6023bo5950b$11974b$11974b$21b3o11926b3o21b$26b2o11918b2o26b$19bo5bo2bo5929b2o54b2o5929bo2bo5bo19b$19bo5bo2bo5929b2o54b2o5929bo2bo5bo19b$19bo6b2o11918b2o6bo19b$11974b$21b2o11928b2o21b$20bo2bo11926bo2bo20b$21bobo11926bobo21b$22bo11928bo22b$5782b2o114b2o174b2o114b2o5782b$5782b2o114b2o174b2o114b2o5782b$11974b$11974b$11974b$11974b$11969b3o2b$11969bo2bob$7555b2o4412bo4b$5895b2o1657bobo4412bo3bo$5896b2o1658bo4412bo3bo$15b2o5878bo6061b2o10bo4b$11b2o2b2o11940b2o2b2o7bobob$11b2o4409b2o7537b2o11b$4422bobo1657b2o5890b$4422bo1658b2o5891b$2b3o6078bo5890b$bo2bo11969b$4bo11969b$o3bo11969b$o3bo11969b$4bo16b3o11926b3o21b$bobo22b2o11918b2o26b$19bo5bo2bo5929b2o54b2o5929bo2bo5bo19b$19bo5bo2bo5929b2o54b2o5929bo2bo5bo19b$19bo6b2o11918b2o6bo19b$11974b$21b2o11928b2o21b$20bo2bo11926bo2bo20b$21bobo11926bobo21b$22bo6168bo5759bo22b$5898b2o174b2o114b4o5780b$5898b2o174b2o113bobo2bo5779b$5780bo412b3o5778b$5780bo5bo403bo4bo5778b$5779b3o5bo402b2o3b3o5776b$5785bobo397bo3b3o5782b$5779b3o4b2o395b5ob2o1304b2o4477b$5780bo9b3o42b2o345b3ob5o1303bobo4477b$5836b2o345b5ob2o3b2o1300bo4477b$5835bo349bo4bo2b3o5778b$6192b3o5779b$15b2o4465b2o1708b2o5763b2o15b$11b2o2b2o4465bobo1657b2o5813b2o2b2o11b$11b2o4469bo1658b2o5818b2o11b$5778b2o363bo50b2o5778b$5778b2o414b2o5778b$11974b$11974b$11974b$11974b$11974b$21b3o11926b3o21b$26b2o5754b2o406b2o5754b2o26b$19bo5bo2bo5753b2o174b2o54b2o174b2o5753bo2bo5bo19b$19bo5bo2bo5929b2o54b2o5929bo2bo5bo19b$19bo6b2o11918b2o6bo19b$11974b$21b2o6195bo5732b2o21b$20bo2bo6195b2o5729bo2bo20b$21bobo6194b2o5730bobo21b$22bo11928bo22b$5898b2o174b2o5898b$5750bo147b2o174b2o5898b$5748b2o6224b$5749b2o6223b$5790b2o390b2o1251b2o4537b$5775b2o13b2o390b2o1250bobo4537b$5776b2o1658bo4537b$5775bo6198b$11974b$4542b2o7430b$4542bobo1657b2o5770b$15b2o4525bo1658b2o5754b2o15b$11b2o2b2o6186bo5753b2o2b2o11b$11b2o11948b2o11b$11974b$11974b$11974b$11974b$11974b$11974b$11974b$21b3o6131bo5794b3o21b$26b2o5754b2o371bobo32b2o5754b2o26b$19bo5bo2bo5753b2o174b2o54b2o139b2o33b2o5753bo2bo5bo19b$19bo5bo2bo5929b2o54b2o5929bo2bo5bo19b$19bo6b2o11918b2o6bo19b$5823bo6150b$21b2o5798bobo6127b2o21b$20bo2bo5798b2o6126bo2bo20b$21bobo11926bobo21b$22bo11928bo22b$5898b2o174b2o5898b$5898b2o174b2o5898b$5744b3o1628b2o4592b3o2b$5744bo1629bobo4592bo2bob$5745bo44b2o390b2o1192bo4592bo4b$5790b2o390b2o5785bo3bo$11969bo3bo$4602b2o1618b3o5744bo4b$4602bobo1619bo5745bobob$4602bo1620bo5750b$11974b$15b2o11940b2o15b$2b3o6b2o2b2o11940b2o2b2o11b$bo2bo6b2o11948b2o11b$4bo11969b$o3bo11969b$o3bo11969b$4bo11969b$bobo11970b$11974b$11974b$21b3o11926b3o21b$26b2o5754b2o406b2o5754b2o26b$19bo5bo2bo5753b2o174b2o54b2o174b2o5753bo2bo5bo19b$19bo5bo2bo5929b2o54b2o5929bo2bo5bo19b$19bo6b2o11918b2o6bo19b$11974b$21b2o11928b2o21b$20bo2bo11926bo2bo20b$21bobo11926bobo21b$22bo11928bo22b$5804b3o91b2o174b2o1239b2o4657b$5804bo93b2o174b2o1238bobo4657b$5805bo1510bo4657b$11974b$5790b2o390b2o5790b$4662b2o1126b2o370b3o17b2o5790b$4662bobo1499bo5809b$4662bo1500bo5810b$11974b$11974b$11974b$15b2o11940b2o15b$11b2o2b2o11940b2o2b2o11b$11b2o11948b2o11b$11974b$11974b$11974b$11974b$11974b$11974b$11974b$21b3o11926b3o21b$26b2o5754b2o406b2o5754b2o26b$19bo5bo2bo5753b2o106b3o65b2o54b2o174b2o5753bo2bo5bo19b$19bo5bo2bo5929b2o54b2o5929bo2bo5bo19b$19bo6b2o5862bobo6053b2o6bo19b$5893bo6080b$21b2o5866bo3bo6057b2o21b$20bo2bo11926bo2bo20b$21bobo5840b3o22bo2b2o1361b2o4693bobo21b$22bo5841bo1389bobo4694bo22b$5865bo1390bo4717b$6081b2o5891b$6080bob2o5890b$4722b2o1176b2o170b2o7bo20b3o5869b$4722bobo1065b2o98b2o8b2o170b2o6b3o21bo77b2o5790b$4722bo1067b2o98b2o188b3o20bo78b2o5790b$6080b2ob2o5889b$6075bo5898b$6073b2o5899b$6074b2o5898b$5900bo6073b$15b2o5882bo2bo6054b2o15b$11b2o2b2o5885b2o6053b2o2b2o11b$11b2o5887bo3bo6056b2o11b$5900bo2bo166b2o5902b$5901b2o167b2o5902b$11974b$11974b$11974b$6095bo5878b$6095bobo5876b$21b3o6071b2o5853b3o21b$26b2o5754b2o114b2o115b3o56b2o114b2o5754b2o26b$19bo5bo2bo5753b2o114b2o114bo2bo56b2o114b2o5753bo2bo5bo19b$19bo5bo2bo5854bo129b2ob2o5927bo2bo5bo19b$19bo6b2o5853bobo129bo5932b2o6bo19b$5882b2o80bo48b2ob2o2bo5953b$21b2o5901b3o36b4o47b4obo1175b2o4754b2o21b$20bo2bo5900bo37bo1231bobo4753bo2bo20b$21bobo5901bo30bo4bo3bo1230bo4753bobo16b3o2b$22bo5933bo5bobo40b3o5943bo17bo2bob$5956bo6bo6005bo4b$4782b2o1258b3o5924bo3bo$4782bobo1259bo5924bo3bo$4782bo1260bo5925bo4b$5790b2o98b2o190b2o98b2o5786bobob$5790b2o98b2o190b2o98b2o5790b$5954b2o62b2o5954b$5954b2o62b2o5954b$2b3o11969b$bo2bo11969b$4bo11969b$o3bo10b2o11940b2o15b$o3bo6b2o2b2o11940b2o2b2o11b$4bo6b2o11948b2o11b$bobo5954b2o54b2o5958b$5958b2o54b2o5958b$11974b$11974b$11974b$11974b$11974b$21b3o11926b3o21b$26b2o5754b2o114b2o174b2o114b2o5754b2o26b$19bo5bo2bo5753b2o114b2o174b2o114b2o5753bo2bo5bo19b$19bo5bo2bo11916bo2bo5bo19b$19bo6b2o7107b2o4809b2o6bo19b$7134bobo4837b$21b2o5943b2o38b2o1128bo4814b2o21b$20bo2bo5942b2o38b2o5942bo2bo20b$21bobo11926bobo21b$22bo4819b2o7107bo22b$4842bobo7129b$4842bo7131b$11944b2o28b$11943bobo28b$5790b2o390b2o5761bo28b$5790b2o390b2o5790b$11974b$33b2o11939b$33bobo11938b$33bo11940b$6129bo5844b$15b2o6113b2o5825b2o15b$11b2o2b2o6112b2o5826b2o2b2o11b$11b2o11948b2o11b$5958b2o18bo35b2o5958b$5839bo118b2o17bo36b2o5958b$5837b2o138b3o5994b$5838b2o6134b$11974b$6000bo5973b$16b3o5982bo5953b3o16b$25bo10bo5962b3o5935bo10bo25b$24bobo8bobo5744b2o114b2o174b2o114b2o5744bobo8bobo24b$24bo2bo7bobo5744b2o114b2o174b2o114b2o883b2o4859bobo7bo2bo24b$9bo15b2o9bo7037bobo4860bo9b2o15bo9b$9bo7066bo4887bo9b$9bo11954bo9b$5966b2o38b2o5966b$4902b2o1062b2o38b2o5966b$4902bobo7069b$4902bo7071b$11884b2o88b$11883bobo88b$11885bo88b$11974b$5790b2o390b2o5790b$93b2o5695b2o390b2o5790b$93bobo11878b$93bo11880b$11974b$11974b$11974b$15b2o11940b2o15b$11b2o2b2o11940b2o2b2o11b$11b2o11948b2o11b$5958b2o54b2o5958b$5958b2o54b2o5958b$11974b$11974b$11974b$11974b$16b3o11936b3o16b$25bo10bo6978b2o4920bo10bo25b$24bobo8bobo5744b2o114b2o174b2o114b2o822bobo4919bobo8bobo24b$24bo2bo7bobo5744b2o114b2o174b2o114b2o824bo4919bobo7bo2bo24b$9bo15b2o9bo11900bo9b2o15bo9b$9bo11954bo4b3o2b$9bo4952b2o7000bo4bo2bob$4962bobo7004bo4b$4962bo7006bo3bo$11824b2o143bo3bo$11823bobo143bo4b$11825bo144bobob$11974b$11974b$153b2o11819b$2b3o148bobo5634b2o390b2o5790b$bo2bo148bo5636b2o390b2o5790b$4bo11969b$o3bo11969b$o3bo11969b$4bo11969b$bobo11970b$15b2o11940b2o15b$11b2o2b2o11940b2o2b2o11b$11b2o11948b2o11b$5958b2o54b2o5958b$5958b2o54b2o5958b$11974b$11974b$11974b$6955b2o5017b$16b3o6935bobo4998b3o16b$25bo10bo6919bo4980bo10bo25b$24bobo8bobo5744b2o114b2o174b2o114b2o5744bobo8bobo24b$24bo2bo7bobo5744b2o114b2o174b2o114b2o5744bobo7bo2bo24b$9bo15b2o9bo4985b2o6913bo9b2o15bo9b$9bo5012bobo6939bo9b$9bo5012bo6941bo9b$11764b2o208b$11763bobo208b$11765bo208b$11974b$11974b$213b2o5971b3o5785b$213bobo5970b3o5785b$213bo5970b2o3bo5784b$6184bo3b2o5784b$6184bo3bo5785b$6185bo2bo5785b$6186b3o5785b$6187bobo5784b$6188b2o5784b$5786b2o6186b$15b2o5767b2obo6169b2o15b$11b2o2b2o5767b2o6171b2o2b2o11b$11b2o5773b2o402b2o5769b2o11b$5788b2o168b2o54b2o174b2o5782b$5958b2o54b2o5958b$5787bobo6184b$5788bo1106b2o5077b$6180bo713bobo5077b$6179bo716bo5077b$16b3o6160b3o5773b3o16b$25bo10bo11900bo10bo25b$24bobo8bobo5044b2o814b2o174b2o5860bobo8bobo24b$24bo2bo7bobo5044bobo813b2o174b2o5860bobo7bo2bo24b$9bo15b2o9bo5045bo6854bo9b2o15bo9b$9bo11694b2o258bo9b$9bo5780b2o390b2o5519bobo258bo9b$5790b2o390b2o5521bo268b$11974b$11974b$273b2o11699b$273bobo11698b$273bo11700b$11974b$11974b$11974b$11974b$11974b$11974b$11974b$11974b$11974b$15b2o11940b2o15b$11b2o2b2o11940b2o2b2o11b$11b2o5769b2o406b2o5769b2o11b$5782b2o174b2o54b2o174b2o5782b$5958b2o54b2o819b2o5137b$6834bobo5137b$6836bo5137b$11974b$11974b$16b3o5123b2o6811b3o16b$25bo10bo5105bobo6792bo10bo20b3o2b$24bobo8bobo5104bo755b2o174bo5861bobo8bobo19bo2bob$24bo2bo7bobo5860b2o173bob2o5567b2o290bobo7bo2bo19bo4b$9bo15b2o9bo6036bo3bo2b3o5560bobo291bo9b2o15bo4bo3bo$9bo6063bo5bo5565bo318bo4bo3bo$9bo5780b2o107bo173b2obobo103b2o5780bo4bo4b$5790b2o101b2o3bob5o167bobobo4bo100b2o5786bobob$333b2o5557bo2b4o2b4ob2o164bobobob3o5893b$333bobo5555bobob2o2b3o171bo3b2o5895b$333bo5553b2ob2o6082b$2b3o5876bo4b4o3b3o195bo5882b$bo2bo5876bo4bo8bo11b3o180b3o5881b$4bo5876bo5bobob2o13b2o3bo177bobobo5880b$o3bo5883bobo2b4o7b2o3bobo177bobobo5880b$o3bo5890b2o6bobo5bo157b2o19b3o5881b$4bo5887b3o7bo4b3o157bo3bo19bo5882b$bobo5885b2o2b2o6bo6bo156bo5bo5902b$5891bobo8bo162bobob2o5903b$5891b3o9b4o157bo4bo5904b$5918bo145bo4bo5904b$5916bobo145bo4bo5904b$15b2o5900b2o147b3o5888b2o15b$11b2o2b2o11940b2o2b2o11b$11b2o5769b2o114b2o174b2o114b2o583b2o5184b2o11b$5782b2o114b2o58b2o54b2o34bo23b2o114b2o582bobo5197b$5958b2o54b2o34bobo723bo5197b$6050b2o5922b$11974b$5202b2o519bobo6248b$5202bobo518b2o6249b$16b3o5183bo521bo6230b3o16b$25bo10bo11547b2o351bo10bo25b$24bobo8bobo11545bobo350bobo8bobo24b$24bo2bo7bobo5974bo240bobo5329bo350bobo7bo2bo24b$9bo15b2o9bo5972b5o240b2o5681bo9b2o15bo9b$9bo5997bo3bob2o239bo5709bo9b$9bo383b2o5395b2o98b2o114bo4bo2b2o66b2o98b2o5780bo9b$393bobo5394b2o98b2o114bo3bo2b2o67b2o98b2o5790b$393bo5612b3o5965b$11974b$11974b$5962bo49b2o5960b$5961b3o48b2o5960b$5960b2o2bo48bo5960b$5872bobo85bob3o6009b$5872b2o86b2o6012b$5873bo140b2o5958b$5965bo48b2o5958b$5966bo6007b$5964b3o137bobo5867b$6105b2o5867b$6105bo5868b$15b2o5831bo154bo711b2o5240b2o15b$11b2o2b2o5832bo152bo711bobo5240b2o2b2o11b$11b2o5769b2o63b3o48b2o102b3o69b2o114b2o524bo5244b2o11b$5782b2o114b2o174b2o114b2o5782b$11974b$5262b2o856bo5853b$5262bobo854bo5854b$5262bo703b2o38b2o111b3o5852b$5966b2o38b2o5516b2o448b$16b3o11504bobo429b3o16b$25bo10bo11488bo411bo10bo25b$24bobo8bobo11898bobo8bobo24b$24bo2bo7bobo11898bobo7bo2bo24b$9bo15b2o9bo416b2o11482bo9b2o15bo9b$9bo443bobo11508bo9b$9bo443bo5336b2o98b2o190b2o98b2o5780bo9b$5790b2o98b2o190b2o98b2o5790b$11974b$11974b$11974b$11974b$11974b$11974b$11974b$11974b$5958b2o54b2o5958b$5958b2o54b2o5958b$11974b$11974b$6655b2o5317b$6654bobo5317b$15b2o6639bo5300b2o15b$11b2o2b2o11940b2o2b2o11b$11b2o5769b2o114b2o174b2o114b2o5769b2o11b$5322b2o458b2o114b2o174b2o114b2o5782b$5322bobo6649b$5322bo6651b$11464b2o503b3o2b$5966b2o38b2o5455bobo503bo2bob$5966b2o38b2o5457bo503bo4b$16b3o11936b3o11bo3bo$25bo10bo11900bo10bo20bo3bo$24bobo8bobo475b2o11421bobo8bobo19bo4b$24bo2bo7bobo475bobo11420bobo7bo2bo20bobob$9bo15b2o9bo476bo11423bo9b2o15bo9b$9bo11954bo9b$9bo5780b2o98b2o190b2o98b2o5780bo9b$2b3o5785b2o98b2o190b2o98b2o5790b$bo2bo11969b$4bo11969b$o3bo11969b$o3bo11969b$4bo11969b$bobo11970b$11974b$11974b$5958b2o54b2o5958b$5958b2o54b2o5958b$6595b2o5377b$6594bobo5377b$6596bo5377b$11974b$15b2o11940b2o15b$11b2o2b2o5365b2o6573b2o2b2o11b$11b2o5369bobo397b2o114b2o174b2o114b2o5769b2o11b$5382bo399b2o114b2o174b2o114b2o5782b$11404b2o568b$5663bobo5737bobo568b$5663b2o5740bo568b$5664bo6309b$11974b$16b3o554b2o11380b3o16b$25bo10bo536bobo5737bobo5621bo10bo25b$24bobo8bobo535bo5740b2o5620bobo8bobo24b$24bo2bo7bobo6276bo5621bobo7bo2bo24b$9bo15b2o9bo11900bo9b2o15bo9b$9bo11954bo9b$9bo5780b2o390b2o5780bo9b$5790b2o390b2o5790b$11974b$11974b$11974b$11974b$5812bobo6159b$5812b2o6160b$5813bo6160b$11974b$5958b2o54b2o519b2o5437b$5958b2o54b2o148bobo367bobo5437b$6165b2o369bo5437b$6165bo5808b$11974b$5442b2o6530b$15b2o5425bobo6512b2o15b$11b2o2b2o5425bo6514b2o2b2o11b$11b2o5769b2o114b2o174b2o114b2o5152b2o615b2o11b$5782b2o114b2o174b2o114b2o5151bobo628b$11345bo628b$11974b$11974b$633b2o11339b$633bobo11338b$16b3o614bo11321b3o16b$25bo10bo11900bo10bo25b$24bobo8bobo11898bobo8bobo24b$24bo2bo7bobo11898bobo7bo2bo24b$9bo15b2o9bo11900bo9b2o15bo9b$9bo11954bo9b$9bo5780b2o390b2o5780bo9b$5790b2o390b2o5790b$11974b$11974b$11974b$11974b$11974b$11974b$6475b2o5497b$6474bobo5497b$5958b2o54b2o460bo5497b$5958b2o54b2o5958b$11974b$5502b2o6470b$5502bobo6469b$5502bo6471b$15b2o11267b2o671b2o15b$11b2o2b2o11266bobo671b2o2b2o11b$11b2o5769b2o114b2o174b2o114b2o5093bo675b2o6b3o2b$5782b2o114b2o174b2o114b2o5777bo2bob$11969bo4b$693b2o11274bo3bo$693bobo11273bo3bo$693bo11275bo4b$11970bobob$16b3o11936b3o16b$25bo10bo11900bo10bo25b$24bobo8bobo11898bobo8bobo24b$2b3o19bo2bo7bobo11898bobo7bo2bo24b$bo2bo4bo15b2o9bo11900bo9b2o15bo9b$4bo4bo11954bo9b$o3bo4bo11954bo9b$o3bo11969b$4bo11969b$bobo11970b$11974b$11974b$6415b2o5557b$6414bobo5557b$6416bo5557b$11974b$5958b2o54b2o5958b$5562b2o394b2o54b2o5958b$5562bobo6409b$5562bo6411b$11224b2o748b$11223bobo748b$15b2o11208bo731b2o15b$11b2o2b2o11940b2o2b2o11b$11b2o5769b2o114b2o174b2o114b2o5769b2o11b$753b2o4848bobo176b2o114b2o174b2o114b2o5782b$753bobo4847b2o6369b$753bo4850bo6369b$11974b$11974b$6373bobo5598b$16b3o6355b2o5579b3o16b$25bo10bo6337bo5562bo10bo25b$24bobo8bobo11898bobo8bobo24b$24bo2bo7bobo11898bobo7bo2bo24b$9bo15b2o9bo6336bo5563bo9b2o15bo9b$9bo6363b2o5589bo9b$9bo6362bobo5589bo9b$11974b$11974b$5605bo6368b$5604b2o6368b$5604bobo6367b$6186b2o5786b$6186b2o5786b$6188bo5785b$6186b3o5785b$5958b2o54b2o169bobo5786b$5789b3o166b2o54b2o170b2o5786b$5788bo3bo392bo4978b2o808b$6185bo4977bobo808b$5787bo395bo4981bo808b$5788b5o6181b$15b2o5774bo6165b2o15b$11b2o2b2o796b2o11142b2o2b2o11b$11b2o800bobo5082b2o174b2o5885b2o11b$813bo5084b2o174b2o5898b$5610bo752bo5610b$5610bo169b2o581bo5610b$5610bo169b2o8b2o390b2o179bo5610b$5790b2o390b2o5790b$5606b3o3b3o744b3o3b3o5606b$16b3o11936b3o16b$25bo10bo5573bo752bo5573bo10bo25b$24bobo8bobo5572bo702bo49bo5572bobo8bobo24b$24bo2bo7bobo5572bo169bo532b2o48bo5572bobo7bo2bo24b$9bo15b2o9bo5742bobo530bobo5622bo9b2o15bo9b$9bo5771b2o6181bo9b$9bo5768b2obo6182bo9b$5665bo112bo2bo6192b$5664b2o113b2o6193b$5664bobo6307b$11974b$11974b$11974b$11974b$11974b$5782b2o406b2o5782b$5782b2o174b2o54b2o174b2o4912b2o868b$5958b2o54b2o5087bobo868b$11105bo868b$11974b$11969b3o2b$873b2o11094bo2bob$15b2o856bobo11081b2o10bo4b$11b2o2b2o856bo11083b2o2b2o6bo3bo$11b2o5885b2o174b2o5885b2o6bo3bo$5898b2o174b2o5893bo4b$5610bo752bo5606bobob$5610bo752bo5610b$5610bo179b2o390b2o179bo5610b$5790b2o390b2o5790b$2b3o5601b3o3b3o744b3o3b3o5606b$bo2bo11b3o6234bo5701b3o16b$4bo20bo10bo5573bo642b2o108bo5573bo10bo25b$o3bo19bobo8bobo5572bo641bobo108bo5572bobo8bobo24b$o3bo19bo2bo7bobo5572bo752bo5572bobo7bo2bo24b$4bo4bo15b2o9bo11900bo9b2o15bo9b$bobo5bo5715bo6238bo9b$9bo5714b2o6238bo9b$5724bobo6247b$11974b$11974b$11974b$11974b$11974b$11974b$5729bo5314b2o928b$5729bobo50b2o406b2o4851bobo928b$5729b2o51b2o174b2o54b2o174b2o4853bo928b$5958b2o54b2o5958b$11974b$933b2o5314bo5724b$933bobo5311bobo5724b$933bo5314b2o5724b$15b2o11940b2o15b$11b2o2b2o11940b2o2b2o11b$11b2o5885b2o174b2o5885b2o11b$5898b2o174b2o5898b$5610bo752bo5610b$5610bo752bo5610b$5610bo179b2o390b2o179bo5610b$5790b2o390b2o9bo5780b$5606b3o3b3o578b2o164b3o3b3o5606b$16b3o6173bobo5760b3o16b$25bo10bo5573bo752bo5573bo10bo25b$24bobo8bobo5572bo752bo5572bobo8bobo24b$24bo2bo7bobo5572bo174bo577bo5572bobo7bo2bo24b$9bo15b2o9bo5747b2o6151bo9b2o15bo9b$9bo5774bobo6177bo9b$9bo11954bo9b$11974b$5841bobo6130b$5842b2o407b2o5721b$5842bo409b2o5720b$6251bo5722b$10984b2o988b$6125bobo4855bobo988b$5726b2o397b2o4858bo988b$5725b2o55b2o342bo63b2o5782b$5727bo54b2o174b2o54b2o174b2o5782b$993b2o4963b2o54b2o5958b$993bobo10978b$993bo10980b$11974b$11974b$15b2o11940b2o15b$11b2o2b2o11940b2o2b2o11b$11b2o5885b2o174b2o5885b2o11b$5898b2o174b2o5898b$5610bo752bo5610b$5610bo522bo229bo5610b$5610bo179b2o277bo4bo58b2o47b2o179bo5610b$5790b2o275bo2bo2bobo3bo52bobo47b2o5790b$5606b3o3b3o281b2o168bo3bob2obo2bob2o277b3o3b3o5606b$16b3o5876b3o168bo2bo3b2o2b2ob2o5873b3o16b$25bo10bo5573bo234bo50bob2o5b2o171bo3bo280bo5573bo10bo25b$24bobo8bobo5572bo233b2o51bo2b2o3b3o170b5ob4o275bo5572bobo8bobo24b$24bo2bo7bobo5572bo233bobo36bo12b3o8bo156b2o16b2o3bo3b3o269bo5572bobo7bo2bo24b$9bo15b2o9bo5845bobo4b2o4bo4b2o2b2o157bo2b2o10bobobo2b2o5850bo9b2o15bo9b$9bo5879bobo3bo8b2o156b3o3bo8bo5bo5880bo9b$9bo5874bo6bo3bo2bo6bo5bobo149bo4b2o7bo2b2ob2o5879bo9b$5884bo3bob2o4bobo7bo5b2o150b3obob2o6bo4b2o106b2o5781b$5880bo3bo2b2o23bo154b2ob2o8bo2bo108b2o5780b$5884bo3b2o177b2ob2o8b3o108bo5782b$5880bo3b2o182b2o11bo4842b2o1048b$5881b2obo170bobo4865bobo1048b$5786b2o95bo171b2o4868bo1048b$5785b2o269bo5917b$5787bo6186b$1053b2o4727b2o114b2o174b2o114b2o5782b$1053bobo4726b2o114b2o58b2o54b2o58b2o114b2o5777b3o2b$1053bo4904b2o54b2o5953bo2bob$11969bo4b$11969bo3bo$11969bo3bo$11969bo4b$15b2o11940b2o11bobob$11b2o2b2o11940b2o2b2o11b$11b2o11948b2o11b$6073bo5900b$2b3o5605bo462b2o288bo5610b$bo2bo5605bo461bobo288bo5610b$4bo5605bo179b2o98b2o190b2o98b2o179bo5610b$o3bo5785b2o98b2o190b2o98b2o5790b$o3bo5601b3o3b3o263bo26bo453b3o3b3o5606b$4bo11b3o5858bo26b2o6049b3o16b$bobo21bo10bo5573bo266b3o24bobo456bo5573bo10bo25b$24bobo8bobo5572bo399b3o350bo5572bobo8bobo24b$24bo2bo7bobo5572bo399bo2bo349bo5572bobo7bo2bo24b$9bo15b2o9bo5972bo3bo86bo5836bo9b2o15bo9b$9bo5999b3o2bo86bo29b2o5831bo9b$9bo5956bo43b4o85b3o30b2o5830bo9b$5965b3o163bo5842b$5964b5o4895b2o1108b$5963b3ob2o38bobo4853bobo1108b$5846b2o115b2ob2o39b2o4856bo1108b$5845b2o118bo42bo5965b$5847bo6126b$1113b2o10859b$1113bobo10858b$1113bo4668b2o114b2o174b2o114b2o5782b$5782b2o114b2o174b2o114b2o5782b$11974b$11974b$5956b2o6016b$5956b2o8b2o38b2o5966b$5966b2o38b2o5966b$15b2o11940b2o15b$11b2o2b2o11940b2o2b2o11b$11b2o11948b2o11b$5954b3o6017b$5610bo343bo2bo405bo5610b$5610bo341bo5bo404bo5610b$5610bo179b2o160bobo4bo222b2o179bo5610b$5790b2o160b3o2bobo222b2o5790b$5606b3o3b3o343bo400b3o3b3o5606b$16b3o11936b3o16b$25bo10bo5573bo752bo5573bo10bo25b$24bobo8bobo5572bo752bo5572bobo8bobo24b$24bo2bo7bobo5572bo460b2o290bo5572bobo7bo2bo24b$9bo15b2o9bo6035b2o5863bo9b2o15bo9b$9bo6061bo5892bo9b$9bo10794b2o1158bo9b$5958b2o54b2o4787bobo1168b$5906b2o50b2o54b2o4789bo1168b$5905b2o6067b$5907bo6066b$1173b2o10799b$1173bobo10798b$1173bo10800b$11974b$5782b2o114b2o174b2o114b2o5782b$5782b2o114b2o174b2o114b2o5782b$11974b$11974b$11974b$5966b2o38b2o5966b$5966b2o38b2o5966b$15b2o11940b2o15b$11b2o2b2o11940b2o2b2o11b$11b2o11948b2o11b$11974b$5610bo752bo5610b$5610bo752bo5610b$5610bo179b2o390b2o179bo5610b$5790b2o390b2o5790b$5606b3o3b3o744b3o3b3o5606b$16b3o11936b3o16b$25bo10bo5573bo400b2o350bo5573bo10bo25b$24bobo8bobo5572bo401b2o349bo5572bobo8bobo24b$24bo2bo7bobo5572bo400bo351bo5572bobo7bo2bo24b$9bo15b2o9bo10707b2o1191bo9b2o15bo9b$9bo10733bobo1218bo9b$9bo5956b2o4777bo1218bo9b$5958b2o5b2o47b2o5958b$5958b2o7bo46b2o5958b$1233b2o10739b$1233bobo10738b$1233bo10740b$11969b3o2b$11969bo2bob$11969bo4b$5782b2o114b2o174b2o114b2o5777bo3bo$5782b2o114b2o174b2o114b2o5777bo3bo$11969bo4b$11970bobob$11974b$11974b$11974b$2b3o10b2o11940b2o15b$bo2bo6b2o2b2o11940b2o2b2o11b$4bo6b2o11948b2o11b$o3bo11969b$o3bo5605bo752bo5610b$4bo5605bo752bo5610b$bobo5606bo179b2o26bo363b2o179bo5610b$5790b2o25bo364b2o5790b$5606b3o3b3o202b3o131b2o406b3o3b3o5606b$16b3o5933b2o6001b3o16b$25bo10bo5573bo340bo411bo5573bo10bo25b$24bobo8bobo5572bo549bo202bo4320b2o1250bobo8bobo24b$24bo2bo7bobo5572bo550bo201bo4319bobo1250bobo7bo2bo24b$9bo15b2o9bo5989b2o131b3o4523bo1251bo9b2o15bo9b$9bo6015b2o5937bo9b$9bo6017bo5936bo9b$1293b2o4663b2o54b2o5958b$1293bobo4662b2o54b2o5958b$1293bo10680b$11974b$11974b$11974b$11974b$11974b$5782b2o114b2o174b2o114b2o5782b$5782b2o114b2o174b2o114b2o5782b$11974b$11974b$11974b$11974b$11974b$15b2o11940b2o15b$11b2o2b2o11940b2o2b2o11b$11b2o11948b2o11b$11974b$5610bo752bo5610b$5610bo752bo5610b$5610bo179b2o99b2o289b2o179bo5610b$5790b2o100b2o288b2o5790b$5606b3o3b3o276bo467b3o3b3o5606b$16b3o10605b2o1329b3o16b$25bo10bo5573bo752bo4259bobo1311bo10bo25b$24bobo8bobo5572bo475b2o275bo4261bo1310bobo8bobo24b$24bo2bo7bobo5572bo474b2o276bo5572bobo7bo2bo24b$9bo15b2o9bo6050bo5849bo9b2o15bo9b$9bo1343b2o10609bo9b$9bo1343bobo10608bo9b$1353bo4604b2o54b2o5958b$5958b2o54b2o5958b$11974b$11974b$11974b$11974b$11974b$5781b2o6191b$5781bobo114b2o174b2o114b2o5782b$5781bobo114b2o174b2o108bo4b2obo5781b$5778b2obob2o399b2o3bo2b2o5780b$5778b6o400b5o3b2o5780b$5776bo2bo408bo2bobo5780b$5777bo407bobobobobo5780b$6185b3obobobo5780b$15b2o5773b3o394b2o3bo5764b2o15b$11b2o2b2o11940b2o2b2o11b$11b2o6160b3o5785b2o11b$11974b$5610bo220b2o339bo3bo186bo5610b$5610bo221b2o338bo3bo186bo5610b$5610bo220bo363bo167bo5610b$5778b2o393b3o18bo4369b2o1408b$5606b3o3b3o163b2o414bo2bo161b3o3b3o4195bobo1408b$16b3o6127b2o47b3ob3o4363bo1389b3o16b$25bo10bo5573bo534b2o49bo3b2o161bo5573bo10bo25b$24bobo8bobo5572bo536bo47b3o2b3o160bo5572bobo8bobo24b$24bo2bo7bobo1375b2o4195bo585bobobo162bo5572bobo7bo2bo24b$9bo15b2o9bo1376bobo4781b2o5738bo9b2o15bo9b$9bo1403bo4784bo5765bo9b$9bo5772b2o406b2o5772bo9b$5782b2o174b2o54b2o174b2o22bo5759b$5958b2o54b2o199b2o5752b3o2b$6214b2o5753bo2bob$11969bo4b$11969bo3bo$5754bo6214bo3bo$5752b2o6215bo4b$5753b2o6215bobob$5898b2o174b2o5898b$5898b2o174b2o5898b$11974b$2b3o11969b$bo2bo5785b2o390b2o5790b$4bo5785b2o390b2o5790b$o3bo11969b$o3bo10b2o11940b2o15b$4bo6b2o2b2o11940b2o2b2o11b$bobo7b2o5758b2o6188b2o11b$5772b2o6200b$5610bo160bo591bo5610b$5610bo752bo4140b2o1468b$5610bo752bo4139bobo1468b$6206b2o4297bo1468b$5606b3o3b3o590b2o152b3o3b3o5606b$16b3o6188bo5747b3o16b$25bo10bo1436b2o4135bo548bo203bo5573bo10bo25b$24bobo8bobo1435bobo4134bo548bobo201bo5572bobo8bobo24b$24bo2bo7bobo1435bo4136bo548b2o202bo5572bobo7bo2bo24b$9bo15b2o9bo11900bo9b2o15bo9b$9bo11954bo9b$9bo5772b2o35bo370b2o5772bo9b$5782b2o33bobo138b2o54b2o174b2o5782b$5818b2o138b2o54b2o5958b$11974b$11974b$11974b$11974b$11974b$11974b$5898b2o174b2o5898b$5898b2o174b2o5898b$11974b$11974b$5790b2o390b2o5790b$5790b2o390b2o5790b$5748b3o6223b$15b2o5731bo6208b2o15b$11b2o2b2o5732bo6207b2o2b2o11b$11b2o11948b2o11b$10444b2o1528b$5610bo607b3o142bo4079bobo1528b$5610bo609bo142bo4081bo1528b$5610bo608bo143bo5610b$11974b$1533b2o4071b3o3b3o744b3o3b3o5606b$16b3o1514bobo10419b3o16b$25bo10bo1496bo4076bo752bo5573bo10bo25b$24bobo8bobo5572bo752bo5572bobo8bobo24b$24bo2bo7bobo5572bo752bo5572bobo7bo2bo24b$9bo15b2o9bo11900bo9b2o15bo9b$9bo11954bo9b$9bo5772b2o406b2o5772bo9b$5782b2o174b2o54b2o174b2o5782b$5958b2o54b2o5958b$11974b$11974b$11974b$11974b$11974b$11974b$5898b2o174b2o5898b$5898b2o174b2o5898b$11974b$11974b$5790b2o16b3o371b2o5790b$5790b2o16bo373b2o5790b$5809bo6164b$15b2o11940b2o15b$11b2o2b2o10367b2o1571b2o2b2o11b$11b2o6145b3o4222bobo1575b2o11b$6160bo4224bo1588b$5610bo548bo203bo5610b$5610bo752bo5610b$1593b2o4015bo752bo5610b$1593bobo10378b$1593bo4012b3o3b3o744b3o3b3o5606b$16b3o11936b3o16b$25bo10bo5573bo752bo5573bo10bo25b$24bobo8bobo5572bo752bo5572bobo8bobo24b$24bo2bo7bobo5572bo752bo5572bobo7bo2bo24b$9bo15b2o9bo11900bo9b2o15bo4b3o2b$9bo11954bo4bo2bob$9bo5772b2o406b2o5772bo4bo4b$5782b2o174b2o54b2o174b2o5777bo3bo$5958b2o54b2o5953bo3bo$11969bo4b$11970bobob$11974b$11974b$11974b$2b3o5886bo6082b$bo2bo5885b3o186b3o5892b$4bo5884bo2b2o186b2o5892b$o3bo5863b3o18b3o186bo3b2o5890b$o3bo5863bo31b2o170b2o4bobob2o5890b$4bo5785b2o77bo30b2o170b2o3b2o3b2o98b2o5790b$bobo5786b2o286b2o102b2o5790b$10324b2o1648b$15b2o6081b3o4222bobo1631b2o15b$11b2o2b2o5882bo200bo4224bo1631b2o2b2o11b$11b2o5887b2o197bo5861b2o11b$5899b2o6073b$1653b2o3955bo752bo5610b$1653bobo3954bo752bo5610b$1653bo3956bo472b2o278bo5610b$5902b2o166b2o5902b$5606b3o3b3o287b2o166b2o27bo259b3o3b3o5606b$16b3o6080bobo5853b3o16b$25bo10bo5573bo488b2o262bo5573bo10bo25b$24bobo8bobo5572bo752bo5572bobo8bobo24b$24bo2bo7bobo5572bo752bo5572bobo7bo2bo24b$9bo15b2o9bo5842bo6057bo9b2o15bo9b$9bo5867bobo76bobo55bo5949bo9b$9bo5772b2o94b2o18b2o55b2o2b2o52bobo58b2o114b2o5772bo9b$5782b2o114b2o54b2obo3bo51bobo58b2o114b2o5782b$5954b2ob2o3bo49b3o5959b$5962bo48bo2b2o5958b$5954bo2bo2b2o54bo5957b$5954bo5b2o52bobo5957b$5956b3o53bo3bo5957b$5956b3o52bo6bo5955b$5966b3o41b2o4b3o5955b$5928b3o67bo12bob5o5956b$5928bo69bo5975b$5929bo6044b$11974b$5790b2o98b2o190b2o98b2o4080b2o1708b$5790b2o98b2o146b3o41b2o98b2o4079bobo1708b$5954b2o42bo19b2o20bo4224bo1708b$15b2o5937b2o42bo19bo20bo5917b2o15b$11b2o2b2o11940b2o2b2o11b$11b2o1700b2o10246b2o11b$1713bobo10258b$1713bo3896bo752bo5610b$5610bo752bo5610b$5610bo752bo5610b$5958b2o54b2o5958b$5606b3o3b3o343b2o54b2o343b3o3b3o5606b$16b3o11936b3o16b$25bo10bo5573bo752bo5573bo10bo25b$24bobo8bobo5572bo752bo5572bobo8bobo24b$24bo2bo7bobo5572bo752bo5572bobo7bo2bo24b$9bo15b2o9bo11900bo9b2o15bo9b$9bo11954bo9b$9bo5772b2o114b2o174b2o114b2o5772bo9b$5782b2o114b2o174b2o114b2o5782b$11974b$11974b$11974b$5966b2o38b2o5966b$5966b2o38b2o5966b$11974b$11974b$11974b$11974b$10204b2o1768b$10203bobo1768b$5790b2o390b2o4021bo1768b$5790b2o390b2o5790b$6125bo5848b$15b2o1756b2o4351b2o5829b2o15b$11b2o2b2o1756bobo4349b2o5830b2o2b2o11b$11b2o1760bo10187b2o11b$5982bo5991b$5610bo232bo137bo381bo5610b$5610bo230b2o138b3o379bo5610b$5610bo231b2o519bo5610b$5958b2o54b2o5958b$5606b3o3b3o343b2o36bo17b2o343b3o3b3o5606b$16b3o5978bo5957b3o11b3o2b$25bo10bo5573bo384b3o365bo5573bo10bo20bo2bob$24bobo8bobo5572bo752bo5572bobo8bobo19bo4b$24bo2bo7bobo5572bo752bo5572bobo7bo2bo19bo3bo$9bo15b2o9bo11900bo9b2o15bo4bo3bo$9bo11954bo4bo4b$9bo5772b2o114b2o174b2o114b2o5772bo5bobob$5782b2o114b2o174b2o114b2o5782b$11974b$11974b$2b3o11969b$bo2bo5961b2o38b2o5966b$4bo5961b2o38b2o5966b$o3bo11969b$o3bo11969b$4bo10139b2o1828b$bobo10139bobo1828b$10145bo1828b$11974b$5790b2o390b2o5790b$1833b2o3955b2o390b2o5790b$1833bobo10138b$15b2o1816bo10123b2o15b$11b2o2b2o11940b2o2b2o11b$11b2o11948b2o11b$11974b$5610bo752bo5610b$5610bo752bo5610b$5610bo752bo5610b$5958b2o54b2o5958b$5606b3o3b3o343b2o54b2o343b3o3b3o5606b$16b3o11936b3o16b$25bo10bo5573bo752bo5573bo10bo25b$24bobo8bobo5572bo752bo5572bobo8bobo24b$24bo2bo7bobo5572bo752bo5572bobo7bo2bo24b$9bo15b2o9bo11900bo9b2o15bo9b$9bo11954bo9b$9bo5772b2o114b2o174b2o114b2o5772bo9b$5782b2o114b2o174b2o114b2o5782b$11974b$11974b$11974b$11974b$11974b$10084b2o1888b$10083bobo1888b$10085bo1888b$11974b$11974b$1893b2o10079b$1893bobo3894b2o390b2o5790b$1893bo3896b2o390b2o5790b$11974b$15b2o11940b2o15b$11b2o2b2o11940b2o2b2o11b$11b2o11948b2o11b$11974b$5610bo752bo5610b$5610bo752bo5610b$5610bo752bo5610b$5958b2o54b2o5958b$5606b3o3b3o343b2o54b2o343b3o3b3o5606b$16b3o11936b3o16b$25bo10bo5573bo752bo5573bo10bo25b$24bobo8bobo5572bo752bo5572bobo8bobo24b$24bo2bo7bobo5572bo752bo5572bobo7bo2bo24b$9bo15b2o9bo11900bo9b2o15bo9b$9bo11954bo9b$9bo5772b2o114b2o174b2o114b2o5772bo9b$5782b2o114b2o174b2o114b2o5782b$11974b$11974b$11974b$10024b2o1948b$10023bobo1948b$6181b3o3841bo1948b$6180bo3bo5789b$6180b2ob2o5789b$1953b2o4224b2ob2obo5788b$1953bobo4222b2o5b2o5787b$1953bo4224b2o3bob2o5787b$6184bo5789b$11974b$11974b$15b2o11940b2o15b$11b2o2b2o11940b2o2b2o11b$11b2o11948b2o11b$11974b$5610bo752bo5610b$5610bo752bo5605b3o2b$5610bo752bo5605bo2bob$5958b2o54b2o5953bo4b$5606b3o3b3o343b2o54b2o343b3o3b3o5601bo3bo$16b3o11936b3o11bo3bo$25bo10bo5573bo752bo5573bo10bo20bo4b$24bobo8bobo5572bo752bo5572bobo8bobo20bobob$24bo2bo7bobo5572bo752bo5572bobo7bo2bo24b$9bo15b2o9bo11900bo9b2o15bo9b$9bo5772b2o6180bo9b$2b3o4bo5774bo113b2o174b2o5888bo9b$bo2bo5779bo113b2o174b2o112bob2o5782b$4bo6182b2o2bo5782b$o3bo5775b2ob2o399b5o2bo3772b2o2008b$o3bo5774b2ob2o401bo3bobo3771bobo2008b$4bo5774bo2bo3bo397bobo2b3o3773bo2008b$bobo5775bob3o2b2o396bobo2b3o5782b$5778b2o4bo2b2o387b2o6bobo5787b$2013b2o3764b3obob3o386b4o6bo5789b$2013bobo3764b2ob4o386b2o3b2o5794b$2013bo3768b2o388b3ob3obo5793b$6178bob2o16b2o5774b$6179bo19bo4bo5769b$6198bo5bo5769b$5778b2o415b2ob3ob3o5769b$5778b2o411b2o2b2ob3obo5771b$15b2o6173bo4b3o4bo5754b2o15b$11b2o2b2o6174bobo14b3o5746b2o2b2o11b$11b2o6179b3obo5764b2o11b$6195bo11bobo5764b$5610bo596bo3bo151bo5610b$5610bo595b2o3b2o150bo5610b$5610bo171b2o406b2o16bo2bo151bo5610b$5782b2o174b2o54b2o174b2o5782b$5606b3o3b3o343b2o54b2o343b3o3b3o5606b$16b3o11936b3o16b$25bo10bo5573bo752bo5573bo10bo25b$24bobo8bobo5572bo752bo5572bobo8bobo24b$24bo2bo7bobo5572bo752bo5572bobo7bo2bo24b$9bo15b2o9bo11900bo9b2o15bo9b$9bo11954bo9b$9bo5888b2o174b2o5888bo9b$5898b2o174b2o3828b2o2068b$9903bobo2068b$9905bo2068b$5790b2o390b2o5790b$5790b2o390b2o5790b$2073b2o9899b$2073bobo9898b$2073bo9900b$11974b$11974b$5817bo6156b$5816b2o6156b$5816bobo6155b$6163bo5810b$6161b2o5811b$15b2o6134bo10b2o5793b2o15b$11b2o2b2o6134b2o5804b2o2b2o11b$11b2o6137bobo5808b2o11b$5815bo6158b$5610bo205b2o545bo5610b$5610bo204b2o546bo5610b$5610bo171b2o406b2o171bo5610b$5782b2o174b2o54b2o174b2o5782b$5606b3o3b3o343b2o54b2o343b3o3b3o5606b$16b3o11936b3o16b$25bo10bo5573bo752bo5573bo10bo25b$24bobo8bobo5572bo752bo5572bobo8bobo24b$24bo2bo7bobo5572bo752bo5572bobo7bo2bo24b$9bo15b2o9bo11900bo9b2o15bo9b$9bo9834b2o2118bo9b$9bo9833bobo2118bo9b$5892b3o3950bo2128b$5892bo6081b$5892b2obo4b2o6072b$2133b2o3655b2o101bobo4b2o174b3o103b2o5790b$2133bobo3654b2o102b2o179bo3bo102b2o5790b$2133bo3757b2o179bo7bo5893b$5889b2o3bo177bob3obob2o5892b$5894b3o175bo3bobob2o5892b$5877bo12b3o184bo3bo5892b$5876b2o14bo184b4o5893b$5876bobo11b3o186bo5894b$5890b3o6081b$5891bo6082b$5902b2o166b2o19bo5882b$5902b2o166b2o19b2o5881b$15b2o6073bobo5864b2o15b$11b2o2b2o11940b2o2b2o6b3o2b$11b2o11948b2o6bo2bob$11969bo4b$5610bo752bo5605bo3bo$5610bo752bo5605bo3bo$5610bo171b2o114b2o174b2o114b2o171bo5605bo4b$5782b2o114b2o114b2o58b2o114b2o5778bobob$5606b3o3b3o344bobo52b2o343b3o3b3o5606b$16b3o5937b2o2bo4bo5989b3o16b$25bo10bo5573bo345bobo6b2o396bo5573bo10bo25b$2b3o19bobo8bobo5572bo344b2obo2bo4b2o47b2o346bo5572bobo8bobo24b$bo2bo19bo2bo7bobo5572bo344b2o9b2o46bo2bo2bo342bo3420b2o2150bobo7bo2bo24b$4bo4bo15b2o9bo5920b2obob5o47bob4ob2o3760bobo2151bo9b2o15bo9b$o3bo4bo5952bo2bo43b3o3bo2b2o2bo3762bo2178bo9b$o3bo4bo5952bo2bo42bo2bo9b2o5941bo9b$4bo5969bo22bo9b2obo5963b$bobo2189b2o3754b2o22bo2bo20bo3b3obo18b2o5948b$2193bobo3778b3o20bo7bob4o13b2o5948b$2193bo3596b2o98b2o61bo20b3o29b2o3bo10bo2bo56b2o98b2o5790b$5790b2o98b2o52bo62bo2bo10bo2bo12bobo42b2o98b2o5790b$5944bo4bo3b2o52bo2bo9bo4bo11b2o5935b$5937bo7bobo5bobo51b3o9b2o3bo13bo5935b$5936b2o9bobo4b2o64b2o5952b$5936bobo9b2o4b2o65bo11bo5940b$5949bo2b3o76bobo5940b$5952b3o77b2o5940b$11974b$11974b$5958b2o54b2o5958b$5958b2o54b2o5958b$15b2o11940b2o15b$11b2o2b2o11940b2o2b2o11b$11b2o11948b2o11b$11974b$5610bo752bo5610b$5610bo752bo5610b$5610bo171b2o114b2o174b2o114b2o171bo5610b$5782b2o114b2o174b2o114b2o5782b$5606b3o3b3o744b3o3b3o5606b$16b3o11936b3o16b$25bo10bo5573bo752bo3360b2o2211bo10bo25b$24bobo8bobo5572bo355b2o38b2o355bo3359bobo2210bobo8bobo24b$24bo2bo7bobo5572bo355b2o38b2o355bo3361bo2210bobo7bo2bo24b$9bo15b2o9bo6081bo5818bo9b2o15bo9b$9bo6109bo5844bo9b$9bo2243b2o3862b3o5844bo9b$2253bobo9718b$2253bo9720b$5850bo138bobo5982b$5790b2o57bo40b2o97b2o91b2o98b2o5790b$5790b2o57b3o38b2o98bo91b2o98b2o5790b$11974b$11974b$5987bobo5984b$5988b2o5984b$5988bo5985b$11974b$6103bo5870b$6101b2o5871b$5958b2o54b2o86b2o5870b$5958b2o54b2o5958b$15b2o11940b2o15b$11b2o2b2o5858bo6081b2o2b2o11b$11b2o5863b2o6083b2o11b$5875b2o6097b$5610bo752bo5610b$5610bo752bo5610b$5610bo171b2o114b2o174b2o114b2o171bo5610b$5782b2o114b2o174b2o114b2o5782b$5606b3o3b3o744b3o3b3o3296b2o2308b$16b3o9644bobo2289b3o16b$25bo10bo5573bo752bo3301bo2271bo10bo25b$24bobo8bobo5572bo355b2o38b2o355bo5572bobo8bobo24b$24bo2bo7bobo5572bo355b2o38b2o355bo5572bobo7bo2bo24b$9bo15b2o9bo2276b2o9622bo9b2o15bo9b$9bo2303bobo9648bo9b$9bo2303bo9650bo9b$11974b$11974b$11974b$5790b2o98b2o190b2o98b2o5790b$5790b2o98b2o190b2o98b2o5790b$11974b$11974b$11974b$11974b$11974b$11974b$11974b$11969b3o2b$5958b2o54b2o5953bo2bob$5958b2o54b2o5953bo4b$15b2o11940b2o10bo3bo$11b2o2b2o11940b2o2b2o6bo3bo$11b2o11948b2o6bo4b$11970bobob$5610bo752bo5610b$5610bo752bo5610b$5610bo171b2o114b2o174b2o114b2o171bo3240b2o2368b$2b3o5777b2o114b2o174b2o114b2o3411bobo2368b$bo2bo5601b3o3b3o744b3o3b3o3237bo2368b$4bo11b3o11936b3o16b$o3bo20bo10bo5573bo752bo5573bo10bo25b$o3bo19bobo8bobo2335b2o3235bo752bo5572bobo8bobo24b$4bo19bo2bo7bobo2335bobo3234bo752bo5572bobo7bo2bo24b$bobo5bo15b2o9bo2336bo9563bo9b2o15bo9b$9bo11954bo9b$9bo11954bo9b$11974b$11974b$11974b$5790b2o390b2o5790b$5790b2o390b2o5790b$11974b$11974b$11974b$11974b$11974b$11974b$11974b$11974b$5958b2o54b2o5958b$5958b2o54b2o5958b$15b2o11940b2o15b$11b2o2b2o11940b2o2b2o11b$11b2o11948b2o11b$11974b$5610bo752bo3180b2o2428b$5610bo752bo3179bobo2428b$5610bo171b2o114b2o174b2o114b2o171bo3181bo2428b$5782b2o114b2o174b2o114b2o5782b$5606b3o3b3o744b3o3b3o5606b$16b3o2414b2o9520b3o16b$25bo10bo2396bobo3174bo752bo5573bo10bo25b$24bobo8bobo2395bo3176bo567bo184bo5572bobo8bobo24b$24bo2bo7bobo5572bo568bo183bo5572bobo7bo2bo24b$9bo15b2o9bo6140b3o5757bo9b2o15bo9b$9bo11954bo9b$9bo5781b2o6171bo9b$5793bo6180b$5791bo2bo6179b$5791bobo6180b$5791b2o389b2o5790b$5791b2o389b2o5790b$11974b$11974b$11974b$11974b$11974b$11974b$11974b$11974b$5958b2o54b2o5958b$5958b2o54b2o5958b$15b2o11940b2o15b$11b2o2b2o11940b2o2b2o11b$11b2o9471b2o2475b2o11b$9483bobo2488b$5610bo752bo3121bo2488b$5610bo171b2o579bo5610b$5610bo173bo113b2o174b2o287bo5610b$2493b2o3289bo113b2o174b2o112bob2o5782b$2493bobo3110b3o3b3o572b2o2bo167b3o3b3o5606b$16b3o2474bo3286b2ob2o399b5o2bo5763b3o16b$25bo10bo5573bo168b2ob2o401bo3bobo171bo5573bo10bo25b$24bobo8bobo5572bo168bo2bo3bo397bobo2b3o171bo5572bobo8bobo24b$24bo2bo7bobo5572bo168bob3o2b2o396bobo2b3o171bo5572bobo7bo2bo24b$9bo15b2o9bo5741b2o4bo2b2o387b2o6bobo5750bo9b2o15bo9b$9bo5769b3obob3o386b4o6bo5779bo9b$9bo5770b2ob4o386b2o3b2o5784bo9b$5782b2o388b3ob3obo5793b$6178bob2o16b2o5774b$6179bo19bo4bo5769b$6198bo5bo5769b$5778b2o415b2ob3ob3o5769b$5778b2o411b2o2b2ob3obo5771b$6190bo4b3o4bo5771b$6191bobo14b3o5763b$6192b3obo5772b3o2b$6195bo11bobo5759bo2bob$6207bo3bo5757bo4b$6206b2o3b2o5756bo3bo$5782b2o406b2o16bo2bo5757bo3bo$5782b2o174b2o54b2o174b2o5777bo4b$5958b2o54b2o5954bobob$15b2o9407b2o2531b2o15b$11b2o2b2o9406bobo2531b2o2b2o11b$11b2o9412bo2535b2o11b$2b3o11969b$bo2bo5605bo752bo5610b$4bo2548b2o3055bo752bo5610b$o3bo2548bobo3054bo287b2o174b2o287bo5610b$o3bo2548bo3059bo284b2o174b2o5898b$4bo5601b3o4b3o743b3o3b3o5606b$bobo12b3o5594bo2bo6338b3o16b$25bo10bo5573bo3bobo173b2o390b2o179bo5573bo10bo25b$24bobo8bobo5572bo3b2o174b2o390b2o179bo5572bobo8bobo24b$24bo2bo7bobo5572bo752bo5572bobo7bo2bo24b$9bo15b2o9bo11900bo9b2o15bo9b$9bo6342b2o5610bo9b$9bo6343b2o5609bo9b$6352bo5621b$5817bo6156b$5816b2o6156b$5816bobo6155b$6163bo5810b$6161b2o5811b$6151bo10b2o5810b$6151b2o5821b$6150bobo5821b$5815bo6158b$5816b2o6156b$5815b2o6157b$5782b2o406b2o5782b$5782b2o174b2o54b2o174b2o3172b2o2608b$5958b2o54b2o3347bobo2608b$15b2o9348bo2591b2o15b$11b2o2b2o11940b2o2b2o11b$11b2o11948b2o11b$2613b2o9359b$2613bobo9358b$2613bo9360b$11974b$5675b2o215b3o6079b$5674b2o216bo6081b$16b3o5657bo215b2obo4b2o6053b3o16b$25bo10bo5753b2o101bobo4b2o174b3o103b2o5753bo10bo25b$24bobo8bobo5752b2o102b2o179bo3bo102b2o5752bobo8bobo24b$24bo2bo7bobo5853b2o179bo7bo211b2o5642bobo7bo2bo24b$9bo15b2o9bo5852b2o3bo177bob3obob2o211b2o5642bo9b2o15bo9b$9bo5884b3o175bo3bobob2o210bo5671bo9b$9bo5867bo12b3o184bo3bo5882bo9b$5876b2o14bo184b4o5893b$5876bobo11b3o186bo5894b$5890b3o6081b$5891bo6082b$5902b2o166b2o19bo5882b$5902b2o166b2o19b2o5881b$6090bobo5881b$11974b$11974b$11974b$11974b$9304b2o2668b$5782b2o114b2o174b2o114b2o3111bobo2668b$5782b2o114b2o114b2o58b2o114b2o3113bo2668b$5959bobo52b2o5958b$15b2o5939b2o2bo4bo5991b2o15b$11b2o2b2o2656b2o3281bobo6b2o5990b2o2b2o11b$11b2o2660bobo3279b2obo2bo4b2o47b2o5944b2o11b$2673bo3281b2o9b2o46bo2bo2bo5953b$5957b2obob5o47bob4ob2o5951b$5735b2o225bo2bo43b3o3bo2b2o2bo5951b$5734b2o226bo2bo42bo2bo9b2o5951b$5736bo237bo22bo9b2obo5963b$5949b2o22bo2bo20bo3b3obo18b2o5948b$16b3o5955b3o20bo7bob4o13b2o5929b3o16b$25bo10bo5753b2o98b2o61bo20b3o29b2o3bo10bo2bo56b2o98b2o48b2o5703bo10bo25b$24bobo8bobo5752b2o98b2o52bo62bo2bo10bo2bo12bobo42b2o98b2o49b2o5701bobo8bobo24b$24bo2bo7bobo5906bo4bo3b2o52bo2bo9bo4bo11b2o193bo5703bobo7bo2bo24b$9bo15b2o9bo5900bo7bobo5bobo51b3o9b2o3bo13bo5898bo9b2o15bo9b$9bo5926b2o9bobo4b2o64b2o5942bo9b$9bo5926bobo9b2o4b2o65bo11bo5930bo9b$5949bo2b3o76bobo5940b$5952b3o77b2o5940b$11974b$11974b$5958b2o54b2o5953b3o2b$5958b2o54b2o5953bo2bob$11969bo4b$11969bo3bo$11969bo3bo$9244b2o2723bo4b$9243bobo2724bobob$9245bo2728b$5782b2o114b2o174b2o114b2o5782b$5782b2o114b2o174b2o114b2o5782b$2b3o2728b2o9239b$bo2bo10b2o2716bobo9221b2o15b$4bo6b2o2b2o2716bo9223b2o2b2o11b$o3bo6b2o5953b2o38b2o5953b2o11b$o3bo5790b2o169b2o38b2o5966b$4bo5789b2o322bo5855b$bobo5792bo322bo5854b$6117b3o5854b$11974b$6172b2o5800b$16b3o5831bo138bobo181b2o5780b3o16b$25bo10bo5753b2o57bo40b2o97b2o91b2o88bo9b2o5753bo10bo25b$24bobo8bobo5752b2o57b3o38b2o98bo91b2o98b2o5752bobo8bobo24b$24bo2bo7bobo11898bobo7bo2bo24b$9bo15b2o9bo11900bo9b2o15bo9b$9bo5977bobo5974bo9b$9bo5978b2o5974bo9b$5988bo5985b$11974b$6103bo5870b$6101b2o5871b$5958b2o54b2o86b2o5870b$5958b2o54b2o5958b$11974b$5875bo3308b2o2788b$5876b2o3305bobo2788b$5875b2o3308bo2788b$11974b$11974b$2793b2o2987b2o114b2o174b2o114b2o5782b$2793bobo2986b2o114b2o174b2o114b2o5782b$2793bo9180b$15b2o11940b2o15b$11b2o2b2o5838b2o6100b2o2b2o11b$11b2o5841b2o110b2o38b2o5953b2o11b$5856bo109b2o38b2o5966b$11974b$11974b$6112b2o5860b$6113b2o5859b$6112bo5861b$16b3o11936b3o16b$25bo10bo5753b2o98b2o190b2o98b2o5753bo10bo25b$24bobo8bobo5752b2o98b2o190b2o98b2o5752bobo8bobo24b$24bo2bo7bobo11898bobo7bo2bo24b$9bo15b2o9bo11900bo9b2o15bo9b$9bo11954bo9b$9bo11954bo9b$11974b$11974b$11974b$11974b$5958b2o54b2o5958b$5958b2o54b2o3108b2o2848b$9123bobo2848b$9125bo2848b$11974b$11974b$2853b2o9119b$2853bobo9118b$2853bo2928b2o114b2o174b2o114b2o5782b$5782b2o114b2o174b2o114b2o5782b$5915b2o6057b$15b2o5897b2o6041b2o15b$11b2o2b2o5899bo6040b2o2b2o11b$11b2o11948b2o11b$11974b$6052b2o5920b$6053b2o5919b$6052bo5921b$11974b$11974b$16b3o11936b3o16b$25bo10bo5753b2o390b2o5753bo10bo25b$24bobo8bobo5752b2o390b2o5752bobo8bobo24b$24bo2bo7bobo11898bobo7bo2bo24b$9bo15b2o9bo11900bo9b2o15bo9b$9bo11954bo9b$9bo11954bo9b$11969b3o2b$11969bo2bob$11969bo4b$9064b2o2903bo3bo$5958b2o54b2o3047bobo2903bo3bo$5958b2o54b2o3049bo2903bo4b$11970bobob$11974b$2913b2o9059b$2913bobo9058b$2b3o2908bo9060b$bo2bo11969b$4bo5777b2o114b2o75b2o97b2o114b2o5782b$o3bo5777b2o114b2o74b2o98b2o114b2o5782b$o3bo5971bo5997b$4bo10b2o11940b2o15b$bobo7b2o2b2o11940b2o2b2o11b$11b2o5979b2o184bo5782b2o11b$5993b2o184bo5794b$5992bo184b3o5794b$11974b$5791b2o6181b$5793bo6180b$5791bo2bo6179b$16b3o5772bobo6161b3o16b$25bo10bo5754b2o389b2o5753bo10bo25b$24bobo8bobo5753b2o389b2o5752bobo8bobo24b$24bo2bo7bobo11898bobo7bo2bo24b$9bo15b2o9bo11900bo9b2o15bo9b$9bo11954bo9b$9bo11954bo9b$11974b$9004b2o2968b$9003bobo2968b$9005bo2968b$5958b2o54b2o5958b$5958b2o54b2o5958b$2973b2o8999b$2973bobo8998b$2973bo9000b$11974b$6035b2o5937b$6034b2o5938b$5782b2o114b2o136bo37b2o114b2o5782b$5782b2o114b2o174b2o114b2o5782b$11974b$15b2o5915b2o6023b2o15b$11b2o2b2o5916b2o6022b2o2b2o11b$11b2o5919bo6028b2o11b$11974b$11974b$11974b$11974b$11974b$11974b$16b3o11936b3o16b$25bo10bo11900bo10bo25b$24bobo8bobo11898bobo8bobo24b$24bo2bo7bobo11898bobo7bo2bo24b$9bo15b2o9bo11900bo9b2o15bo9b$9bo11954bo9b$9bo8934b2o3018bo9b$8943bobo3028b$8945bo3028b$11974b$11974b$3033b2o2923b2o54b2o5958b$3033bobo2922b2o54b2o5958b$3033bo8940b$11974b$6095b2o5877b$6094b2o5878b$6096bo5877b$11974b$5782b2o114b2o174b2o114b2o5782b$5782b2o88b2o24b2o174b2o114b2o5782b$5873b2o6099b$15b2o5855bo6084b2o15b$11b2o2b2o11940b2o2b2o11b$11b2o11948b2o11b$6191b2o5781b$5782b2o402b2o2bo2bo5780b$5782b2o401b3o2bo7b2o5774b$6185b3ob2o4bo3b2o5773b$5784bo390b2o3bobo2b3ob4o2bobo2bo5773b$5773b3o7bobo13bo374b3o3bo2bobo9b4ob2o5772b$16b3o5753bo3bo9bo10b2ob2o373bo3bo7bo8bo3bo5754b3o16b$25bo10bo5736bo2bo5b2o2bo2b2o6bo380b2o7bo8b2obo5737bo10bo25b$24bobo8bobo5735bo2bo5b3ob2ob2o6bo3bo384bo10b2o6bo5730bobo8bobo24b$24bo2bo7bobo5737bo7bo2bo11b3o374b4o6bo20b2o5728bobo7bo2bo19b3o2b$9bo15b2o9bo5739b2o3b2ob2o394bo3bo20b2o2677b2o3051bo9b2o15bo4bo2bob$9bo5771b5o390b4o2703bobo3078bo4bo4b$9bo5771b3o394bo2706bo3078bo4bo3bo$11969bo3bo$11969bo4b$3093b2o8875bobob$3093bobo2686b2o406b2o5782b$3093bo2688b2o174b2o54b2o174b2o5782b$5958b2o54b2o5958b$2b3o6150b2o5817b$bo2bo6149b2o5818b$4bo6151bo5817b$o3bo11969b$o3bo11969b$4bo5807b2o6160b$bobo5809b2o83b2o174b2o5898b$5812bo85b2o174b2o5898b$11974b$15b2o5783bo6156b2o15b$11b2o2b2o5773b2o6bobo381b2o5773b2o2b2o11b$11b2o5777b2o7b2o381b2o5777b2o11b$11974b$11974b$6168bo5805b$6168bobo5803b$6168b2o5804b$11974b$16b3o11936b3o16b$25bo10bo11900bo10bo25b$24bobo8bobo8786b2o3110bobo8bobo24b$24bo2bo7bobo8785bobo3110bobo7bo2bo24b$9bo15b2o9bo8788bo3111bo9b2o15bo9b$9bo11954bo9b$9bo11954bo9b$3153b2o8819b$3153bobo8818b$3153bo8820b$5782b2o406b2o5782b$5782b2o174b2o54b2o174b2o23b2o5757b$5958b2o54b2o198b2o5758b$6216bo5757b$11974b$11974b$5752b2o6220b$5753b2o6219b$5752bo6221b$5898b2o174b2o5898b$5898b2o174b2o5898b$11974b$15b2o11940b2o15b$11b2o2b2o5773b2o390b2o5773b2o2b2o11b$11b2o5777b2o390b2o5777b2o11b$11974b$11974b$11974b$11974b$11974b$11974b$16b3o8745b2o3189b3o16b$25bo10bo8726bobo3171bo10bo25b$24bobo8bobo8727bo3170bobo8bobo24b$24bo2bo7bobo11898bobo7bo2bo24b$9bo15b2o9bo11900bo9b2o15bo9b$9bo3203b2o8749bo9b$9bo3203bobo8748bo9b$3213bo8760b$6209b3o5762b$6211bo5762b$5782b2o406b2o18bo5763b$5782b2o174b2o54b2o174b2o5782b$5958b2o54b2o5958b$5767b3o6204b$5767bo6206b$5768bo6205b$11974b$11974b$11974b$5898b2o174b2o5898b$5898b2o174b2o5898b$11974b$15b2o11940b2o15b$11b2o2b2o5773b2o390b2o5773b2o2b2o11b$11b2o5777b2o390b2o5777b2o11b$11974b$11974b$11974b$11974b$8704b2o3268b$8703bobo3263b3o2b$16b3o8686bo3249b3o11bo2bob$25bo10bo11900bo10bo20bo4b$24bobo8bobo11898bobo8bobo19bo3bo$24bo2bo7bobo3235b2o8661bobo7bo2bo19bo3bo$9bo15b2o9bo3236bobo8661bo9b2o15bo4bo4b$9bo3263bo8690bo5bobob$9bo6139b3o5812bo9b$6151bo5822b$6150bo5823b$2b3o11969b$bo2bo5777b2o406b2o5782b$4bo5777b2o43b3o128b2o54b2o174b2o5782b$o3bo5822bo130b2o54b2o5958b$o3bo5823bo6145b$4bo11969b$bobo11970b$5900bo6073b$5898bo2bo6072b$5898bo3bo6071b$5897bo4bo6071b$5860bo35b7o6071b$5858bobo34b2o2bo2bo6071b$15b2o5842b2o35bo3b4o176bo5876b2o15b$11b2o2b2o5773b2o104bo5bo178b2o99b2o5773b2o2b2o11b$11b2o5777b2o105bo2b2o280b2o5777b2o11b$5890bo8b2o175b3o29bo5865b$5890bo180b3o3bo2bo27bobo5863b$5890bo187b3o27b2o2534b2o3328b$6079bo2563bobo3328b$8645bo3328b$11974b$16b3o11936b3o16b$25bo10bo3296b2o8602bo10bo25b$24bobo8bobo3295bobo2566b2o166b2o5864bobo8bobo24b$24bo2bo7bobo3295bo2568b2o166b2o5864bobo7bo2bo24b$9bo15b2o9bo6052b3o5845bo9b2o15bo9b$9bo6081bo5872bo9b$9bo6080bo5873bo9b$11974b$11974b$5887b3o6084b$5782b2o103bo10b2o174b2o114b2o5782b$5782b2o104bo9b2o58b2o54b2o58b2o114b2o5782b$5958b2o54b2o5958b$11974b$11974b$11974b$6016bo5957b$5929bo85b3o5956b$5930bo88b3o5952b$5928b3o77b2o6bo2bobo5952b$5951bo6b5o40bo5b2o5963b$5951b2o4b2ob3o34b2o4b2o2bobo12b2o5950b$15b2o5930b2o3b2o5b2o2bo7b2o24bo4bo2b4obo11b2o15bo5917b2o15b$11b2o2b2o5773b2o98b2o54b3o11bob2o6bobo24bo2b3o4b3o12bobo13bo43b2o98b2o5773b2o2b2o11b$11b2o5777b2o98b2o55b3obo8bob2obo4bo26b7o3b2obo11b3o13b3o41b2o98b2o5777b2o11b$5948bobo10b3obo4b3o2bo26b2o4b2o12b3o2559b2o3388b$5949bo13bo9b2obo25b2o5bo11bo2561bobo3388b$5961b3o9b2obo43b2o8bobo2552bo3388b$5975bo55b2o5941b$6031bo5942b$3393b2o8579b$16b3o3374bobo8559b3o16b$25bo10bo3356bo8543bo10bo25b$24bobo8bobo5920b2o54b2o5920bobo8bobo24b$24bo2bo7bobo5920b2o54b2o5920bobo7bo2bo24b$9bo15b2o9bo11900bo9b2o15bo9b$9bo11954bo9b$9bo11954bo9b$11974b$11974b$11974b$5782b2o114b2o174b2o114b2o5782b$5782b2o78bo35b2o174b2o114b2o5782b$5860b2o6112b$5861b2o6111b$11974b$5966b2o9bo28b2o5966b$5966b2o10bo27b2o108bo5857b$5976b3o138b2o5855b$6116b2o5856b$11974b$5991bo5982b$5990bo5983b$15b2o5973b3o5964b2o15b$11b2o2b2o5773b2o390b2o2340b2o3431b2o2b2o11b$11b2o5777b2o390b2o2339bobo3435b2o11b$8525bo3448b$11969b3o2b$11969bo2bob$3453b2o8514bo4b$3453bobo8513bo3bo$3453bo8515bo3bo$16b3o11936b3o11bo4b$25bo10bo11900bo10bo21bobob$24bobo8bobo5920b2o54b2o5920bobo8bobo24b$24bo2bo7bobo5920b2o54b2o5920bobo7bo2bo24b$9bo15b2o9bo11900bo9b2o15bo9b$2b3o4bo11954bo9b$bo2bo4bo11954bo9b$4bo11969b$o3bo11969b$o3bo11969b$4bo5777b2o114b2o174b2o114b2o5782b$bobo5778b2o114b2o174b2o114b2o5782b$11974b$11974b$11974b$5966b2o38b2o5966b$5966b2o38b2o5966b$11974b$11974b$11974b$11974b$8464b2o3508b$15b2o8446bobo3491b2o15b$11b2o2b2o5773b2o390b2o2281bo3491b2o2b2o11b$11b2o5777b2o390b2o5777b2o11b$11974b$3513b2o8459b$3513bobo8458b$3513bo8460b$11974b$11974b$16b3o11936b3o16b$25bo10bo11900bo10bo25b$24bobo8bobo5920b2o54b2o5920bobo8bobo24b$24bo2bo7bobo5920b2o54b2o5920bobo7bo2bo24b$9bo15b2o9bo11900bo9b2o15bo9b$9bo11954bo9b$9bo11954bo9b$11974b$11974b$11974b$5782b2o114b2o174b2o114b2o5782b$5782b2o114b2o174b2o114b2o5782b$11974b$11974b$11974b$11974b$11974b$11974b$11974b$8404b2o3568b$8403bobo3568b$8405bo3568b$15b2o11940b2o15b$11b2o2b2o5773b2o390b2o5773b2o2b2o11b$11b2o3560b2o2215b2o390b2o5777b2o11b$3573bobo8398b$3573bo8400b$11974b$11974b$11974b$11974b$16b3o11936b3o16b$25bo10bo11900bo10bo25b$24bobo8bobo5920b2o54b2o5920bobo8bobo24b$24bo2bo7bobo5920b2o54b2o5920bobo7bo2bo24b$9bo15b2o9bo11900bo9b2o15bo9b$9bo11954bo9b$9bo11954bo9b$11974b$11974b$5802bo6171b$5782b2o16b2o96b2o174b2o114b2o5782b$5782b2o17b2o95b2o174b2o114b2o5782b$11974b$11974b$6176bo5797b$6177b2o5795b$6176b2o5796b$8344b2o3628b$8343bobo3628b$8345bo3628b$11974b$11974b$15b2o3616b2o8322b2o10b3o2b$11b2o2b2o3616bobo2154b2o390b2o5773b2o2b2o6bo2bob$11b2o3620bo2156b2o390b2o5777b2o6bo4b$11969bo3bo$11969bo3bo$11969bo4b$11970bobob$11974b$11974b$16b3o11936b3o16b$2b3o20bo10bo11900bo10bo25b$bo2bo19bobo8bobo5920b2o54b2o5920bobo8bobo24b$4bo19bo2bo7bobo5920b2o54b2o5920bobo7bo2bo24b$o3bo4bo15b2o9bo11900bo9b2o15bo9b$o3bo4bo11954bo9b$4bo4bo11954bo9b$bobo11970b$11974b$11974b$5787b3o108b2o174b2o5898b$5898b2o174b2o5898b$6185bo5788b$5780b2o8bo393b2obo4b2o5780b$5780b2o3bo2b2ob2o389b6o4b2o5780b$5784bo5bo390bo2bo2099b2o3688b$5784b3o394bobo2099bobo3688b$6186bo2098bo3688b$6180bobob3o5787b$6180bo5bo5787b$3693b2o2487b3o5789b$3693bobo2486b3o5789b$15b2o3676bo8263b2o15b$11b2o2b2o11940b2o2b2o11b$11b2o5765b2o414b2o5765b2o11b$5778b2o414b2o5778b$11974b$11974b$11974b$11974b$11974b$16b3o11936b3o16b$25bo10bo5745b2o406b2o5745bo10bo25b$24bobo8bobo5744b2o13b2o159b2o54b2o174b2o5744bobo8bobo24b$24bo2bo7bobo5759bobo158b2o54b2o5920bobo7bo2bo24b$9bo15b2o9bo5760bo6139bo9b2o15bo9b$9bo11954bo9b$9bo11954bo9b$6170b2o5802b$6169bobo5802b$6171bo5802b$5898b2o174b2o5898b$5898b2o174b2o5898b$11974b$8224b2o3748b$5790b2o390b2o2039bobo3748b$5790b2o390b2o2041bo3748b$11974b$11974b$3753b2o8219b$3753bobo8218b$3753bo8220b$11974b$15b2o11940b2o15b$11b2o2b2o11940b2o2b2o11b$11b2o11948b2o11b$5894b3o6077b$5894bo2bo6076b$5893bo3bo6076b$5898bo6075b$5894b3ob2o182bo5891b$5898bo182b2o5891b$16b3o5838b2o34bo3b2o181bo2bo5871b3o16b$25bo10bo5745b2o73bobo37bo182bobo107b2o5745bo10bo25b$24bobo8bobo5744b2o73bo100b2o54b2o64bo2bo106b2o5744bobo8bobo24b$24bo2bo7bobo5920b2o54b2o64bo2bo5852bobo7bo2bo24b$9bo15b2o9bo5853bobo188bobo5853bo9b2o15bo9b$9bo5880b2o188b3o27b2o5852bo9b$9bo5881bo217bobo5852bo9b$6111bo5862b$11974b$11974b$11974b$8164b2o3808b$6143bo2019bobo3808b$6072b2o68bo2022bo3808b$5790b2o98b2o180b2o8b2o58b3o37b2o5790b$5790b2o98b2o190b2o98b2o5790b$3813b2o8159b$3813bobo2019bo234b3o5901b$3813bo2022bo233b3o5896b3o2b$5834b3o232b4o5896bo2bob$6067b2obo5898bo4b$6067b2ob2o5897bo3bo$15b2o6050b5o2b2o5881b2o10bo3bo$11b2o2b2o6051b3o5886b2o2b2o6bo4b$11b2o6055bo5892b2o7bobob$11974b$11974b$11974b$2b3o11969b$bo2bo5912b2o6055b$4bo5912bobo6054b$o3bo11b3o5898bo6037b3o16b$o3bo20bo5756b2o114b2o174b2o114b2o5756bo25b$4bo19bobo5755b2o114b2o64b2o108b2o114b2o5755bobo24b$bobo20bo2bo5936b2o84b2o5894bo2bo24b$9bo15b2o5939bo82bobo5895b2o15bo9b$9bo5946b2o5b2obo44b3o37bo5912bo9b$9bo5946b2o3b2o3bo43bo5953bo9b$6009b2o5963b$5967bo41b3o3b3o5956b$5966bobo39bo4bo3bo2086b2o3868b$5962bo50bo3bo2085bobo3868b$5962bo45b4obo2091bo3868b$5964bobo41bob2o5962b$6009b3o5962b$3873b2o1915b2o98b2o73bobo114b2o98b2o5790b$3873bobo1914b2o98b2o74bo115b2o98b2o5790b$3873bo2080b2o10bo51b2o5954b$5954b2o62b2o5954b$11974b$11974b$11974b$11974b$15b2o11940b2o15b$11b2o2b2o71bo11868b2o2b2o11b$11b2o74b2o5869b2o54b2o5945b2o11b$87bobo5868b2o54b2o5958b$11974b$11974b$11880bo93b$11880b2o92b$11879bobo92b$16b3o11936b3o16b$25bo5756b2o114b2o174b2o114b2o5756bo25b$24bobo5755b2o114b2o174b2o114b2o5755bobo24b$24bo2bo11918bo2bo24b$9bo15b2o11920b2o15bo9b$9bo11954bo9b$9bo5956b2o38b2o5956bo9b$5966b2o38b2o2036b2o3928b$8043bobo3928b$8045bo3928b$11974b$11974b$3933b2o8039b$3933bobo8038b$3933bo1856b2o98b2o190b2o98b2o5790b$5790b2o98b2o190b2o98b2o5790b$11974b$11974b$11974b$11974b$11974b$148bo11825b$15b2o130b2o11808b2o15b$11b2o2b2o130bobo11807b2o2b2o11b$11b2o5945b2o54b2o5945b2o11b$5958b2o54b2o5958b$11820bo153b$11820b2o152b$6136bobo5680bobo152b$6137b2o5835b$6137bo5836b$16b3o11936b3o16b$25bo5756b2o114b2o70bo103b2o114b2o5756bo25b$24bobo5755b2o46bobo65b2o70bobo101b2o114b2o5755bobo24b$24bo2bo5802b2o138b2o5974bo2bo24b$9bo15b2o5804bo6115b2o15bo9b$9bo7974b2o3978bo9b$9bo5879b2o75b2o2015bobo3978bo9b$5888bo2bo74b2o2017bo3988b$11974b$5888bobo6083b$3993b2o2088bo5890b$3993bobo2086bobo5889b$3993bo2088b2o5890b$6083bo5890b$5790b2o291bo98b2o5785b3o2b$5790b2o291bo98b2o5785bo2bob$11969bo4b$11969bo3bo$11969bo3bo$208bo11760bo4b$207b2o11761bobob$207bobo11764b$15b2o11940b2o15b$11b2o2b2o11940b2o2b2o11b$2b3o6b2o5945b2o54b2o5744bo200b2o11b$bo2bo5953b2o54b2o5744b2o212b$4bo11754bobo212b$o3bo11969b$o3bo11969b$4bo11969b$bobo11970b$16b3o11936b3o16b$25bo5756b2o114b2o174b2o114b2o5756bo25b$24bobo5755b2o114b2o174b2o114b2o5755bobo24b$24bo2bo7896b2o4020bo2bo24b$9bo15b2o7896bobo4021b2o15bo9b$9bo7915bo4038bo9b$9bo11954bo9b$11974b$4053b2o7919b$4053bobo7918b$4053bo7920b$11974b$11974b$11974b$5790b2o390b2o5790b$5790b2o390b2o5790b$11974b$268bo11705b$267b2o11705b$267bobo11704b$11974b$11974b$15b2o11683bo256b2o15b$11b2o2b2o11683b2o255b2o2b2o11b$11b2o5945b2o54b2o5683bobo259b2o11b$5958b2o54b2o5958b$11974b$11974b$11974b$11974b$11974b$16b3o11936b3o16b$25bo5756b2o114b2o174b2o114b2o1672b2o4082bo25b$24bobo5755b2o114b2o174b2o114b2o1671bobo4081bobo24b$24bo2bo7837bo4080bo2bo24b$9bo15b2o11920b2o15bo9b$9bo11954bo9b$9bo4103b2o7849bo9b$4113bobo1664b3o6191b$4113bo1659bo2b2o2bo2bo6190b$5773bo2bob4o6bo6185b$5779bo8b2o9bo388bob2o6b2o5774b$5774bo4bo8bobo2b3o3bo387b2o2bo5bo3bo5772b$5774b2o13bo2bo7bo376bo7bo5bo4bo5bo5771b$5787b2o2bo2bo4b2o376b2o8b3o7bo4bo5771b$5773b2o14bo5b5o378b2o3bo3b2o10bo2bo5771b$328bo5445b2o12b2o5bo382bo4bobo13bobo5772b$327b2o5437bo9bobo8bo7bobo375b3obo9bo12bo5773b$327bobo5435bo10b2o17bobo375b3o11bo5786b$5765b3o419bo3b2o5781b$11974b$11640bo333b$11640b2o332b$15b2o11622bobo315b2o15b$11b2o2b2o5765b2o406b2o5765b2o2b2o11b$11b2o5754bo14b2o174b2o54b2o174b2o5769b2o11b$5766b2o190b2o54b2o5958b$5766bobo6205b$11974b$11974b$6201bo5772b$6201b2o1601b2o4168b$16b3o6181bobo1600bobo4149b3o16b$25bo5872b2o174b2o1729bo4142bo25b$24bobo5871b2o174b2o5871bobo24b$24bo2bo11918bo2bo24b$9bo15b2o4146b2o7772b2o15bo9b$9bo4163bobo1614b2o381bo8b2o5780bo9b$9bo4163bo1616b2o379b2o9b2o5780bo9b$6172b2o5800b$11974b$11974b$5805bo6163b3o2b$5806b2o6161bo2bob$5805b2o6162bo4b$388bo11580bo3bo$387b2o11580bo3bo$387bobo11579bo4b$11970bobob$11974b$11580bo393b$11580b2o392b$2b3o11574bobo392b$bo2bo11969b$4bo10b2o5810bo6129b2o15b$o3bo6b2o2b2o5765b2o42b2o362b2o5765b2o2b2o11b$o3bo6b2o5769b2o42bobo129b2o54b2o174b2o5769b2o11b$4bo5953b2o54b2o5958b$bobo11970b$6141bo5832b$5901bo239b2o1601b2o4228b$5900bobo237bobo1600bobo4228b$5896b5obo1842bo4228b$16b3o5876bob2ob3o172bo5879b3o16b$25bo5872b2obob2o171bo5871bo25b$24bobo4206b2o1662bob3o6045bobo24b$24bo2bo4205bobo1661b2o176b2o5869bo2bo24b$9bo15b2o4206bo1660bo2b3obo2bo166b3ob2o5870b2o15bo9b$9bo5780b2o103b3o2bo170bo4bo105b2o5780bo9b$9bo5780b2o106b2obo168b2o6b2o102b2o5780bo9b$5901bo169bob3ob2obo5893b$5889b3o7bobo168bo5bo3bo5893b$5900bo169bo2bobo4bo5893b$6071bo7bo5894b$448bo5624b3obo5896b$447b2o11525b$447bobo11524b$11974b$5902b2o166b2o5902b$5902b2o166b2o5448bo453b$11520b2o452b$11519bobo452b$11974b$5887bo6086b$5886b2o6086b$15b2o5869bobo6068b2o15b$11b2o2b2o5765b2o114b2o174b2o114b2o5765b2o2b2o11b$11b2o5769b2o114b2o58b2o54b2o58b2o114b2o5769b2o11b$5958b2o54b2o65bo5892b$6081b2o1601b2o4288b$6047bobo30bobo1600bobo4288b$6047b2o1636bo4288b$6048bo5925b$11974b$16b3o4274b2o1666b2o52bo5939b3o16b$25bo4267bobo1633bobo28b2o51b3o5932bo25b$24bobo4266bo1636b2o19b3o3bo3bobo49bo2b2o5929bobo24b$24bo2bo5902bo19bo3b2ob3o3bo6b3o5973bo2bo24b$9bo15b2o5923b2o3bo3b4o6b5o27b2o3b3o8b5o5925b2o15bo9b$9bo5780b2o98b2o53bo4bo3bo4bo8bob5o25bob2o2b3obobo2bobo3bo60b2o98b2o5780bo9b$9bo5780b2o98b2o53bobo3bobo6b3o4b2ob3o2b2o22b2o4bo5bob2o3bob2o60b2o98b2o5780bo9b$5945b2o4bo16b3o2bob2o23b2o3b3o10b2o5954b$5960bo8bo6b2o27b2o2b2o5963b$508bo5452bo11bo2bo5997b$507b2o5464b3o5998b$507bobo11464b$11974b$11974b$11460bo513b$5958b2o54b2o5444b2o512b$5958b2o54b2o5443bobo512b$11974b$11974b$11974b$6108bo5865b$6109bo5864b$15b2o6090b3o5847b2o15b$11b2o2b2o5765b2o114b2o174b2o114b2o5765b2o2b2o11b$11b2o5769b2o114b2o174b2o114b2o1432b2o4335b2o11b$5860bo138bobo1621bobo4348b$5859bo139b2o1624bo4348b$5859b3o138bo5973b$5966b2o38b2o5966b$4353b2o1611b2o38b2o5966b$4353bobo1621bobo5994b$16b3o4334bo1624b2o5975b3o16b$25bo5952bo5969bo25b$24bobo11920bobo24b$24bo2bo6085bo5832bo2bo24b$9bo15b2o6084b2o5834b2o15bo9b$9bo5780b2o98b2o190b2o28b2o68b2o5780bo9b$9bo5780b2o98b2o190b2o98b2o5780bo4b3o2b$568bo11400bo2bob$567b2o5296bo6103bo4b$567bobo5296b2o6101bo3bo$5865b2o6102bo3bo$11969bo4b$11400bo569bobob$11400b2o572b$11399bobo572b$5958b2o54b2o5958b$2b3o5953b2o54b2o5958b$bo2bo11969b$4bo11969b$o3bo11969b$o3bo11969b$4bo11969b$bobo11b2o7547b2o4391b2o15b$11b2o2b2o5765b2o114b2o174b2o114b2o1371bobo4391b2o2b2o11b$11b2o5769b2o114b2o174b2o114b2o1373bo4395b2o11b$11974b$11974b$4413b2o7559b$4413bobo1550b2o38b2o5966b$4413bo1552b2o38b2o5966b$11974b$16b3o11936b3o16b$25bo11922bo25b$24bobo11920bobo24b$24bo2bo11918bo2bo24b$9bo15b2o11920b2o15bo9b$9bo618bo5161b2o98b2o190b2o98b2o5780bo9b$9bo617b2o5161b2o98b2o190b2o98b2o5780bo9b$627bobo11344b$11974b$11974b$11340bo633b$11340b2o632b$11339bobo632b$11974b$11974b$5958b2o54b2o5958b$5958b2o54b2o5958b$11974b$11974b$11974b$7504b2o4468b$7503bobo4468b$15b2o7488bo4451b2o15b$11b2o2b2o5765b2o114b2o174b2o114b2o5765b2o2b2o11b$11b2o5769b2o114b2o174b2o114b2o5769b2o11b$4473b2o7499b$4473bobo7498b$4473bo7500b$11974b$11974b$11974b$16b3o11936b3o16b$25bo11922bo25b$24bobo11920bobo24b$24bo2bo660bo11257bo2bo24b$9bo15b2o660b2o11258b2o15bo9b$9bo677bobo5100b2o390b2o5780bo9b$9bo5780b2o390b2o5780bo9b$11974b$11280bo693b$11280b2o692b$11279bobo692b$11974b$11974b$11974b$11974b$5958b2o54b2o5958b$5958b2o54b2o5958b$11974b$6168bo1275b2o4528b$6169bo1273bobo4528b$6167b3o1275bo4528b$11974b$15b2o11940b2o15b$11b2o2b2o4516b2o1247b2o16bo97b2o174b2o114b2o5765b2o2b2o11b$11b2o4520bobo1246b2o15bo98b2o174b2o114b2o5769b2o11b$4533bo1265b3o6172b$11974b$11974b$11974b$11974b$11974b$16b3o11936b3o16b$25bo722bo11199bo25b$24bobo720b2o11198bobo19b3o2b$24bo2bo719bobo11196bo2bo19bo2bob$9bo15b2o11920b2o15bo4bo4b$9bo5780b2o390b2o5780bo4bo3bo$9bo5780b2o390b2o5036bo743bo4bo3bo$11220b2o747bo4b$11219bobo748bobob$11974b$11974b$11974b$2b3o11969b$bo2bo11969b$4bo11969b$o3bo5953b2o54b2o5958b$o3bo5953b2o54b2o1368b2o4588b$4bo7378bobo4588b$bobo7381bo4588b$11974b$11974b$4593b2o7379b$15b2o4576bobo7361b2o15b$11b2o2b2o4576bo1304b2o174b2o108b2o5771b2o2b2o11b$11b2o5776b2o107b2o174b2o108b2o5775b2o11b$5789bo2bo390bo5790b$5780b2o8bo392bob2o5b2o5780b$5780b2o8bo2bo389bo3b2o3b2o5780b$5789bo2b2o6180b$5783bo398bo5791b$808bo4974bobo3b3o389bobo5790b$16b3o788b2o4974b2o402bo5767b3o16b$25bo781bobo5377bo5760bo25b$24bobo6156bobo5761bobo24b$24bo2bo11918bo2bo24b$9bo15b2o6155bobo4975bo786b2o15bo9b$9bo6173bo4976b2o802bo9b$9bo5768b2o403bo10b2o4963bobo802bo9b$5778b2o414b2o5778b$11974b$11974b$11974b$11974b$11974b$11974b$5782b2o11b3o392b2o1132b2o4648b$5782b2o11bo162b2o54b2o174b2o1131bobo4648b$5796bo161b2o54b2o1309bo4648b$11974b$11974b$4653b2o1516b3o5800b$4653bobo1517bo5800b$4653bo1518bo5801b$15b2o11940b2o15b$11b2o2b2o5881b2o174b2o5881b2o2b2o11b$11b2o5885b2o174b2o5885b2o11b$11974b$11974b$5790b2o390b2o5790b$868bo4921b2o390b2o5790b$867b2o11105b$867bobo11104b$16b3o11936b3o16b$25bo11922bo25b$24bobo11073bo846bobo24b$24bo2bo11072b2o844bo2bo24b$9bo15b2o5868bo5203bobo845b2o15bo9b$9bo5883b2ob2o6066bo9b$9bo5883b2o6069bo9b$5892bobo3bo6075b$11974b$5897bo6076b$5894b3o6077b$5894b2o6078b$5855b3o41b2o177b3o1183b2o4708b$5855bo222bo1184bobo4708b$5782b2o72bo41bobo177b3o109b2o1073bo4708b$5782b2o114b2o58b2o54b2o174b2o5782b$5958b2o54b2o63bo5894b$4713b2o1364b3o29b3o5860b$4713bobo1174bo190b3o29bo5860b$4713bo1174b2o191b2o29bo5861b$5889b2o6083b$11974b$15b2o11940b2o15b$11b2o2b2o11940b2o2b2o11b$11b2o11948b2o11b$11974b$928bo5142bo5902b$927b2o4861b2o98b2o179bo10b2o57bo40b2o5790b$927bobo4860b2o98b2o190b2o57bobo38b2o5790b$6070bobo68b2o5826b3o2b$6070bobo5896bo2bob$16b3o11021bo914b3o11bo4b$25bo5811bo5202b2o906bo20bo3bo$24bobo5808bobo5201bobo905bobo19bo3bo$24bo2bo5808b2o6108bo2bo19bo4b$9bo15b2o11920b2o15bo5bobob$9bo11954bo9b$9bo11954bo9b$11974b$2b3o11969b$bo2bo11969b$4bo5910b3o1286b2o4768b$o3bo5910bo1287bobo4768b$o3bo5911bo1288bo4768b$4bo5959bo6009b$bobo5778b2o114b2o64bo109b2o114b2o5782b$4773b2o1007b2o114b2o65bo46bo38b3o20b2o114b2o5782b$4773bobo1189b2o44bobo39bo5920b$4773bo1189bo3bo43bo40bo5921b$5956b2o4bo48bob4o5957b$5956b2o4bo4bo47b2o5957b$5963b4o50bo5956b$5964bo43b2o5964b$15b2o5990b2o5948b2o15b$11b2o2b2o5989b2o6bo5942b2o2b2o11b$11b2o975bo10972b2o11b$987b2o5023bo5961b$987bobo5020bo5963b$5790b2o98b2o118bo71b2o98b2o5790b$5790b2o98b2o74b3o113b2o98b2o5790b$5954b2o11b2o49b2o4960bo993b$5954b2o10bo51b2o4960b2o992b$16b3o10960bobo973b3o16b$25bo11922bo25b$24bobo11920bobo24b$24bo2bo11918bo2bo24b$9bo15b2o11920b2o15bo9b$9bo11954bo9b$9bo5948b2o54b2o5948bo9b$5958b2o54b2o5958b$7144b2o4828b$7143bobo4828b$7145bo4828b$11974b$11974b$4833b2o7139b$4833bobo946b2o114b2o174b2o114b2o5782b$4833bo948b2o114b2o174b2o114b2o5782b$11974b$11974b$11974b$5966b2o38b2o5966b$5966b2o38b2o5966b$11974b$15b2o1031bo10908b2o15b$11b2o2b2o1030b2o10908b2o2b2o11b$11b2o1034bobo10911b2o11b$11974b$11974b$5790b2o98b2o190b2o98b2o4736bo1053b$5790b2o98b2o190b2o98b2o4736b2o1052b$10919bobo1052b$11974b$16b3o11936b3o16b$25bo11922bo25b$24bobo11920bobo24b$24bo2bo11918bo2bo24b$9bo15b2o11920b2o15bo9b$9bo11954bo9b$9bo5948b2o54b2o1068b2o4878bo9b$5958b2o54b2o1067bobo4888b$7085bo4888b$11974b$11974b$4893b2o1243bo5835b$4893bobo1243b2o5833b$4893bo1244b2o5834b$5782b2o114b2o174b2o114b2o5782b$5782b2o114b2o69bo104b2o114b2o5782b$5830bo137bo6005b$5828b2o138b3o6003b$5829b2o6143b$5966b2o6006b$1108bo4857b2o6006b$1107b2o10865b$15b2o1090bobo10847b2o15b$11b2o2b2o6067bo5872b2o2b2o11b$11b2o6072b2o5874b2o11b$6082b2ob2o4773bo1108b3o2b$6082b2obo4774b2o1107bo2bob$5790b2o290bo2bo96b2o4675bobo1107bo4b$5790b2o291b2o97b2o5785bo3bo$11969bo3bo$11969bo4b$16b3o11936b3o12bobob$25bo11922bo25b$24bobo11920bobo24b$24bo2bo11918bo2bo24b$2b3o4bo15b2o6997b2o4921b2o15bo9b$bo2bo4bo7013bobo4938bo9b$4bo4bo5948b2o54b2o1009bo4938bo9b$o3bo5953b2o54b2o5958b$o3bo11969b$4bo4948b2o7019b$bobo4949bobo7018b$4953bo7020b$11974b$11974b$5782b2o114b2o174b2o114b2o5782b$5782b2o114b2o174b2o114b2o5782b$11974b$11974b$1168bo10805b$1167b2o10805b$1167bobo10804b$11974b$15b2o11940b2o15b$11b2o2b2o10783bo1156b2o2b2o11b$11b2o10787b2o1159b2o11b$10799bobo1172b$11974b$5790b2o390b2o5790b$5790b2o390b2o5790b$11974b$11974b$11955b3o16b$11945bo4bo23b$20b2o6bo6935b2o4984b2o22b$20b2o5bobo6933bobo4977bo6b3o21b$9bo17bo2bo6934bo4976b2o2bobo2bo12bo9b$9bo18b2o11911b3o2bo3bo13bo9b$9bo5948b2o54b2o5926bo2bo18bo9b$5013b2o943b2o54b2o5927b2o29b$5013bobo6958b$5013bo6960b$11974b$11974b$11974b$11974b$5782b2o114b2o174b2o114b2o5782b$5782b2o114b2o174b2o114b2o5782b$1228bo10745b$1227b2o10745b$1227bobo10744b$11974b$11974b$6188bo4551bo1233b$15b2o5764b3o403b2o4551b2o1215b2o15b$11b2o2b2o5762bo3b2o401bobo3b2o3b2o4540bobo1215b2o2b2o11b$11b2o5768bobo393b2o7b2o3bo3b2o2bo5761b2o11b$5777b4o2b2o5bo4b2o379bo2b2o7b3o4b2ob2o5774b$5776b2o5b2o2bob3o3bobo377bo5bo13b2o5bobo5769b$81bo5695bobo3b2o2b2o4bo3bo376bo2b2o2bo6b2o7bobo3b2o5769b$80b2o5696b2o7b5o4b2o375b2ob2ob3o5b2o10bo3bo5770b$80bobo5705bo2bo381bo2bo10b2o5785b$5793bo379bob2o11bo5785b$6174b2o11bo716b2o5068b$6903bobo4981bo86b$20b2o6bo6876bo4981b2o56bo6b2o20b$20b2o5bobo11856bobo55bobo5b2o20b$9bo17bo2bo11912bo2bo17bo9b$9bo18b2o5043b2o707b2o406b2o5752b2o18bo9b$9bo5063bobo706b2o174b2o54b2o174b2o5772bo9b$5073bo884b2o54b2o5958b$11974b$11974b$11974b$11974b$11974b$11974b$1288bo4508bo100b2o174b2o5898b$1287b2o4509bo99b2o174b2o5898b$1287bobo4506b3o6175b$11974b$5790b2o390b2o5790b$5790b2o379bo10b2o4496bo1293b$6170bo4509b2o1292b$6170b3o4506bobo1287b3o2b$15b2o11940b2o10bo2bob$11b2o2b2o11940b2o2b2o6bo4b$11b2o11948b2o6bo3bo$141bo11827bo3bo$140b2o11827bo4b$140bobo11827bobob$11974b$6844b2o5128b$6843bobo4981bo146b$2b3o6840bo4981b2o145b$bo2bo11821bobo145b$4bo15b2o6bo11916bo6b2o20b$o3bo15b2o5bobo5103b2o6809bobo5b2o20b$o3bo4bo17bo2bo5102bobo6807bo2bo17bo9b$4bo4bo18b2o5103bo648b2o406b2o5752b2o18bo9b$bobo5bo5772b2o174b2o54b2o174b2o5772bo9b$5958b2o54b2o5958b$11974b$11974b$11974b$11974b$1348bo10625b$1347b2o10625b$1347bobo4548b3o6073b$5897bobob2o6071b$5897bo3b2o174bo5896b$5899bo4bo166b3o4546bo1353b$5790b2o106bo5bo172bobo102b2o4436b2o1352b$5790b2o100bobo3bo5bo165bo3bo3b2o102b2o4435bobo1352b$5891bo2bo3bo172bobo4bo4bo5890b$5891bo3bobo4bo169bo10bo5890b$15b2o5874bo2bo2bo4bo180bo5873b2o15b$11b2o2b2o184bo5690bobo2bo5bo6053b2o2b2o11b$11b2o187b2o5697b2obo6058b2o11b$200bobo5698bo6072b$11974b$6784b2o5188b$5902b2o166b2o711bobo4981bo206b$5902b2o166b2o713bo4981b2o205b$11766bobo205b$11974b$5193b2o6779b$20b2o6bo5164bobo6749bo6b2o20b$20b2o5bobo5163bo6750bobo5b2o20b$9bo17bo2bo11912bo2bo17bo9b$9bo18b2o5752b2o114b2o174b2o114b2o5752b2o18bo9b$9bo5772b2o114b2o58b2o54b2o58b2o114b2o5772bo9b$5958b2o54b2o5958b$11974b$11974b$1408bo4518bo6046b$1407b2o4516bobo6046b$1407bobo4516b2o84b2o5960b$6011b3o5960b$5957b3o52bob2o5b2o5951b$5957b2o54bo2b2o3b3o17bo4518bo1413b$5964b3o3b3o26bo12b3o8bo17bobo4516b2o1412b$5951b2o7b6obob6o23bobo4b2o4bo4b2o2b2o19b2o4516bobo1412b$5790b2o98b2o59bobo5bob5o4b2ob2o30bobo3bo8b2o60b2o98b2o5790b$5714bobo73b2o98b2o59bob2ob4o2bo2bo4b2o3bo24bo6bo3bo2bo6bo5bobo52b2o98b2o5790b$5714b2o236bo2b7o3bo3b6o25bo3bob2o4bobo7bo5b2o5944b$261bo5453bo237b3o5bo4bo5b3o21bo3bo2b2o23bo5945b$15b2o243b2o5738bo3b2o5951b2o15b$11b2o2b2o243bobo5733bo3b2o5955b2o2b2o11b$11b2o5984b2obo261bobo5696b2o11b$5999bo263b2o459b2o5248b$6263bo459bobo4981bo266b$6725bo4981b2o265b$5958b2o54b2o5690bobo265b$5958b2o54b2o5958b$5253b2o6719b$5253bobo6718b$5253bo6720b$20b2o6bo11916bo6b2o20b$20b2o5bobo11914bobo5b2o20b$9bo17bo2bo5832bobo6077bo2bo17bo9b$9bo18b2o5752b2o79b2o33b2o174b2o114b2o5752b2o18bo9b$9bo5772b2o80bo33b2o174b2o114b2o5772bo9b$5974bo5999b$1468bo4506bo5998b$1467b2o4504b3o137bobo5858b$1467bobo4496b2o38b2o106b2o5858b$5966b2o38b2o106bo5859b$5857bo136bo5979b$5858bo134bo4506bo1473b$5856b3o134b3o4504b2o1472b$10499bobo1472b$11974b$6111bo5857b3o2b$5790b2o98b2o190b2o26bo71b2o5785bo2bob$321bo5468b2o98b2o190b2o26b3o69b2o5785bo4b$320b2o11647bo3bo$320bobo11646bo3bo$15b2o11940b2o10bo4b$11b2o2b2o6647b2o5291b2o2b2o7bobob$11b2o6650bobo4981bo313b2o11b$6665bo4981b2o325b$11646bobo325b$2b3o11969b$bo2bo5308b2o643b2o54b2o5958b$4bo5308bobo642b2o54b2o5958b$o3bo5308bo6660b$o3bo11969b$4bo11969b$bobo16b2o6bo11916bo6b2o20b$20b2o5bobo11914bobo5b2o20b$9bo17bo2bo11912bo2bo17bo9b$9bo18b2o5752b2o114b2o174b2o114b2o5752b2o18bo9b$9bo1518bo4253b2o114b2o174b2o114b2o5772bo9b$1527b2o10445b$1527bobo10444b$11974b$5966b2o38b2o5966b$5966b2o38b2o4432bo1533b$10440b2o1532b$10439bobo1532b$11974b$11974b$11974b$381bo11592b$380b2o5408b2o98b2o190b2o98b2o5790b$380bobo5407b2o98b2o190b2o98b2o5790b$11974b$6604b2o5368b$15b2o6586bobo4981bo369b2o15b$11b2o2b2o6588bo4981b2o368b2o2b2o11b$11b2o11573bobo372b2o11b$11974b$5373b2o6599b$5373bobo6598b$5373bo584b2o54b2o5958b$5958b2o54b2o5958b$11974b$11974b$11974b$20b2o6bo11916bo6b2o20b$20b2o5bobo11914bobo5b2o20b$9bo17bo2bo1557bo10354bo2bo17bo9b$9bo18b2o1557b2o4193b2o114b2o174b2o114b2o5752b2o18bo9b$9bo1577bobo4192b2o114b2o174b2o114b2o5772bo9b$11974b$11974b$10380bo1593b$10380b2o1592b$10379bobo1592b$11974b$11974b$11974b$441bo11532b$440b2o11532b$440bobo5211bobo6317b$5654b2o134b2o390b2o5790b$5655bo134b2o390b2o360b2o5428b$6543bobo4981bo446b$6545bo4981b2o445b$15b2o6305bobo5201bobo428b2o15b$11b2o2b2o6306b2o5632b2o2b2o11b$11b2o5420b2o888bo5637b2o11b$5433bobo6538b$5433bo6540b$11974b$5958b2o54b2o5958b$5958b2o54b2o5958b$11974b$11974b$11974b$20b2o6bo1619bo4154bobo6139bo6b2o20b$20b2o5bobo1617b2o4154b2o6139bobo5b2o20b$9bo17bo2bo1616bobo4154bo6138bo2bo17bo9b$9bo18b2o5752b2o114b2o174b2o114b2o5752b2o18bo9b$9bo5772b2o114b2o174b2o114b2o5772bo9b$6173bobo4144bo1653b$6174b2o4144b2o1652b$6174bo4144bobo1652b$11974b$11974b$11974b$501bo11467b3o2b$500b2o11467bo2bob$500bobo11466bo4b$11969bo3bo$6484b2o5483bo3bo$5790b2o390b2o299bobo4981bo501bo4b$5790b2o390b2o301bo4981b2o501bobob$11466bobo505b$11974b$15b2o5476b2o6462b2o15b$2b3o6b2o2b2o5476bobo6461b2o2b2o11b$bo2bo6b2o5480bo6467b2o11b$4bo11969b$o3bo11969b$o3bo11969b$4bo5953b2o54b2o5958b$bobo5954b2o54b2o5958b$11974b$1708bo10265b$1707b2o10265b$20b2o6bo1678bobo10235bo6b2o20b$20b2o5bobo11914bobo5b2o20b$9bo17bo2bo11912bo2bo17bo9b$9bo18b2o5752b2o114b2o174b2o114b2o4068bo1683b2o18bo9b$9bo5772b2o114b2o174b2o114b2o4068b2o1702bo9b$10259bobo1712b$11974b$11974b$11974b$561bo11412b$560b2o11412b$560bobo11411b$11974b$6424b2o5548b$6423bobo4981bo566b$6425bo4981b2o565b$11406bobo565b$11974b$5553b2o6419b$5553bobo6418b$15b2o5536bo6403b2o15b$11b2o2b2o11940b2o2b2o11b$11b2o11948b2o11b$11974b$11974b$11974b$5958b2o54b2o5958b$1768bo4189b2o54b2o5958b$1767b2o10205b$1767bobo10204b$11974b$20b2o6bo11916bo6b2o20b$20b2o5bobo10170bo1743bobo5b2o20b$9bo17bo2bo10169b2o1741bo2bo17bo9b$9bo18b2o5752b2o114b2o174b2o114b2o4007bobo1742b2o18bo9b$9bo5772b2o114b2o174b2o114b2o5772bo9b$11974b$11974b$621bo11352b$620b2o4973bo6378b$620bobo4971bobo6377b$5593bo4b2o767bo3b2o5601b$5593bo7b2o763b3o2b2o5601b$5593bo6b2ob2o585b3o173bobo2b2o4974bo626b$5594bob2o3b3o577bo8b2ob2o171b2o2b2o8bo4966b2o625b$5595bo583b4o5bo6bo184bo4965bobo625b$6178bob4obo2b2o5bo5778b$5785b3o389b2o7bo7b2o5778b$5785bobo390b3obo3bobo5785b$5785bo3bo389b2o2bobo2bo4bo5780b$5783bo2b2obo400b2o5782b$15b2o5768bo3bo6167b2o15b$11b2o2b2o5769b2o6169b2o2b2o11b$11b2o5768bo6179b2o11b$5781bo5bo6186b$5782bo4bo6186b$1828bo3953b3o405b2o5782b$1827b2o4129b2o54b2o174b2o5782b$1827bobo4128b2o54b2o5958b$11974b$5790bobo6181b$5791b2o4347bo1833b$20b2o6bo5762bo4348b2o1803bo6b2o20b$20b2o5bobo10109bobo1802bobo5b2o20b$9bo17bo2bo11912bo2bo17bo9b$9bo18b2o5868b2o174b2o100bobo143bo5621b2o18bo9b$9bo5888b2o174b2o100b2o144b2o5640bo9b$681bo4928bo566bo143bobo39bo5610b$680b2o4928bo752bo5610b$680bobo4927bo179b2o390b2o179bo5605b3o2b$5656bo133b2o390b2o5785bo2bob$5606b3o3b3o40b2o702b3o3b3o5601bo4b$5655bobo5629bo681bo3bo$5610bo752bo4923b2o680bo3bo$5610bo752bo4922bobo680bo4b$5610bo752bo5606bobob$11974b$11974b$11974b$2b3o11969b$bo2bo11969b$4bo11969b$o3bo10b2o11940b2o15b$o3bo6b2o2b2o11940b2o2b2o11b$4bo6b2o11948b2o11b$bobo1884bo10085b$1887b2o10085b$1887bobo3892b2o406b2o5782b$5782b2o174b2o54b2o174b2o5782b$5958b2o54b2o5958b$10080bo1893b$10080b2o1892b$10079bobo1892b$20b2o6bo11916bo6b2o20b$20b2o5bobo6232bo5681bobo5b2o20b$9bo17bo2bo6231b2o5679bo2bo17bo9b$9bo18b2o711bo5156b2o174b2o185bobo5680b2o18bo9b$9bo730b2o5156b2o174b2o5888bo9b$740bobo4867bo752bo5610b$5610bo105bo646bo5610b$5610bo104b2o73b2o390b2o179bo5610b$5715bobo72b2o390b2o5043bo746b$5606b3o3b3o744b3o3b3o4859b2o745b$11226bobo745b$5610bo752bo5610b$5610bo752bo5610b$5610bo752bo5610b$11974b$11974b$11974b$11974b$11974b$11974b$15b2o11940b2o15b$11b2o2b2o1931bo10008b2o2b2o11b$11b2o1934b2o10012b2o11b$1947bobo10024b$11974b$5782b2o406b2o5782b$5782b2o174b2o54b2o174b2o3828bo1953b$5958b2o54b2o4004b2o1952b$10019bobo1952b$11974b$6202bo5771b$20b2o6bo6173b2o5741bo6b2o20b$20b2o5bobo771bo5399bobo5740bobo5b2o20b$9bo17bo2bo769b2o4918bo6222bo2bo17bo9b$9bo18b2o770bobo4917bobo175b2o174b2o5868b2o18bo9b$9bo5710b2o54bo121b2o174b2o5888bo9b$5610bo164b2o586bo5610b$5610bo164bobo585bo4803bo806b$5610bo179b2o390b2o74bo104bo4803b2o805b$5790b2o390b2o72bobo4907bobo805b$5606b3o3b3o642b2o100b3o3b3o5606b$6260b2o5712b$5610bo650b2o100bo5610b$5610bo649bo102bo5610b$5610bo752bo5610b$11974b$5717b2o6255b$5716b2o6256b$5718bo6255b$11974b$2008bo9965b$15b2o1990b2o9948b2o15b$11b2o2b2o1990bobo9947b2o2b2o11b$11b2o11948b2o11b$11974b$9960bo2013b$5782b2o406b2o3768b2o2012b$5782b2o174b2o54b2o174b2o3767bobo2012b$5850bobo105b2o54b2o5958b$5851b2o289bo5831b$5851bo290b2o5830b$861bo5279bobo5830b$20b2o6bo831b2o11083bo6b2o20b$20b2o5bobo830bobo5253bobo5825bobo5b2o20b$9bo17bo2bo5805bo59bo219b2o5825bo2bo17bo9b$9bo18b2o5805b2o60bo219bo5826b2o18bo4b3o2b$9bo5825bobo55bo6bo171b5o5030bo856bo4bo2bob$5610bo281bo3b3o2bo169b2obobo286bo4743b2o860bo4b$5610bo280bo9bo168bo3bo288bo4742bobo860bo3bo$5610bo179b2o99bo4b4ob2o166b3ob2o107b2o179bo5605bo3bo$5790b2o98bo5b4obo168b2ob2o5b2o100b2o16b2o5767bo4b$5606b3o3b3o276bo5bo2bo171bo2bo3b3o119b2o156b3o3b3o5602bobob$5892b4o176b4o3bo2bo117bo5773b$5610bo282b2o176bob2obo2b3o281bo5610b$5610bo271b2o187b3o2bo3b2o281bo5610b$2b3o5605bo166b2o105bo186b3obo287bo5610b$bo2bo5771b2o103b3o22b4o6064b$4bo5773bo103bo21b8o6062b$o3bo5899b5ob4o6060b$o3bo2063bo3834b2o2b2obo2bo156b2o5902b$4bo2062b2o3841b3o157b2o5902b$bobo2063bobo3832b2o6bo6063b$15b2o5886bo3b3o6047b2o15b$11b2o2b2o5887b2o6051b2o2b2o11b$11b2o5891bo3995bo2060b2o11b$5903bo3996b2o2072b$9899bobo2072b$5782b2o114b2o20bobo151b2o114b2o5782b$5782b2o114b2o21b2o35b2o54b2o58b2o6bo107b2o5782b$5921bo36b2o54b2o66b2o5890b$921bo5159bobo5890b$920b2o11052b$920bobo5123bobo5925b$20b2o6bo5867bo149b2o5897bo6b2o20b$20b2o5bobo5865b2o150bo5896bobo5b2o20b$9bo17bo2bo5864bobo117bo5031bo895bo2bo17bo9b$9bo18b2o5984bobo5030b2o895b2o18bo9b$9bo5952bo39bo5bo5bobo5029bobo915bo9b$5610bo350bobo40bo2bo3b2o350bo5610b$5610bo349bo38bo4bo8bo7b2o117b2o221bo5610b$5610bo179b2o98b2o68bo2b3o32bo15bobo2b2ob2o58b2o57b2o39b2o179bo5610b$5790b2o98b2o68b2o3b2o31bo8b2o10b2obo59b2o56bo41b2o5790b$5606b3o3b3o346b2ob2o32bo5bo2b2o2b2o8bo337b3o3b3o5606b$5960b2ob2o34bo3bo8bob3ob3o5953b$5610bo226b2o121bo2bo36bo18bo343bo5610b$5610bo225b2o122bo2bo399bo5610b$5610bo227bo121b2o401bo5610b$11974b$2128bo9845b$2127b2o9845b$2127bobo3828b2o54b2o5958b$5869bo88b2o54b2o5958b$5868bo6105b$15b2o5851b3o3969bo2116b2o15b$11b2o2b2o9823b2o2115b2o2b2o11b$11b2o9826bobo2119b2o11b$5968bobo138bo5864b$5969b2o139bo5863b$5782b2o114b2o69bo104b2o32b3o79b2o5782b$981bo4800b2o114b2o174b2o114b2o5782b$980b2o10992b$980bobo5015bobo5973b$5998b2o5974b$5966b2o31bo6b2o5966b$20b2o6bo5937b2o38b2o4979bo957bo6b2o20b$20b2o5bobo10957b2o955bobo5b2o20b$9bo17bo2bo10955bobo954bo2bo17bo9b$9bo18b2o11914b2o18bo9b$9bo6070b2o5882bo9b$5610bo470b2o280bo5610b$5610bo469bo282bo5610b$5610bo179b2o390b2o179bo5610b$5790b2o390b2o5790b$5606b3o3b3o282b2o460b3o3b3o5606b$5896b2o6076b$5610bo287bo464bo5610b$5610bo752bo5610b$2188bo3421bo752bo5610b$2187b2o9785b$2187bobo9784b$11974b$5958b2o54b2o5958b$5958b2o54b2o3764bo2193b$9780b2o2192b$15b2o9762bobo2175b2o15b$11b2o2b2o11940b2o2b2o11b$11b2o11948b2o11b$11974b$1041bo10932b$1040b2o4740b2o114b2o174b2o114b2o5782b$1040bobo4739b2o114b2o174b2o114b2o5782b$11974b$11974b$10927bo1046b$5966b2o38b2o4919b2o1040b3o2b$20b2o6bo5937b2o38b2o4918bobo1016bo6b2o15bo2bob$20b2o5bobo11914bobo5b2o15bo4b$9bo17bo2bo5989b2o5921bo2bo17bo4bo3bo$9bo18b2o5991b2o5921b2o18bo4bo3bo$9bo6010bo5943bo4bo4b$5610bo752bo5606bobob$5610bo752bo5610b$5610bo179b2o165b2o223b2o179bo5610b$5790b2o164b2o224b2o5790b$2b3o5601b3o3b3o343bo400b3o3b3o5606b$bo2bo11969b$4bo2243bo3361bo752bo5610b$o3bo2242b2o3361bo752bo5610b$o3bo2242bobo3360bo752bo5610b$4bo11969b$bobo11970b$9720bo2253b$5958b2o54b2o3704b2o2252b$5958b2o54b2o3703bobo2252b$11974b$15b2o11940b2o15b$11b2o2b2o11940b2o2b2o11b$11b2o1088bo10859b2o11b$1100b2o10872b$1100bobo10871b$5782b2o114b2o174b2o114b2o5782b$5782b2o114b2o174b2o114b2o5782b$10867bo1106b$10867b2o1105b$10866bobo1105b$11974b$20b2o6bo5931b2o5983bo6b2o20b$20b2o5bobo5931b2o5981bobo5b2o20b$9bo17bo2bo5929bo5982bo2bo17bo9b$9bo18b2o11914b2o18bo9b$9bo11954bo9b$5610bo406b2o344bo5610b$5610bo405b2o345bo5610b$5610bo179b2o226bo163b2o179bo5610b$5790b2o390b2o5790b$2308bo3297b3o3b3o744b3o3b3o5606b$2307b2o9665b$2307bobo3300bo752bo5610b$5610bo752bo5610b$5610bo752bo5610b$9660bo2313b$9660b2o2312b$5809bo3849bobo2312b$5808bo149b2o54b2o5958b$5808b3o147b2o54b2o5958b$11974b$15b2o1144bo10795b2o15b$11b2o2b2o1143b2o5007bo5787b2o2b2o11b$11b2o1147bobo5007bo5790b2o11b$6168b3o5803b$11974b$5782b2o114b2o174b2o114b2o4615bo1166b$5782b2o114b2o174b2o114b2o4615b2o1165b$10806bobo1165b$11974b$5900b2o6072b$5901b2o6071b$20b2o6bo5871bo6044bo6b2o20b$20b2o5bobo11914bobo5b2o20b$9bo17bo2bo11912bo2bo17bo9b$9bo18b2o6047b2o5865b2o18bo9b$9bo6066b2o5886bo9b$5610bo467bo284bo5610b$5610bo752bo5610b$2368bo3241bo179b2o390b2o179bo5610b$2367b2o3421b2o390b2o5790b$2367bobo3236b3o3b3o744b3o3b3o5606b$11974b$5610bo752bo5610b$5610bo752bo3236bo2373b$5610bo752bo3236b2o2372b$9599bobo2372b$11974b$11974b$5958b2o54b2o5958b$1221bo4736b2o54b2o5958b$1220b2o10752b$15b2o1203bobo10734b2o15b$11b2o2b2o11940b2o2b2o11b$11b2o11948b2o11b$10747bo1226b$10747b2o1225b$5898b2o174b2o4670bobo1225b$5785bo112b2o174b2o5893b3o2b$5784b3o53b2o351bo5775bo2bob$5783bo57b2o344bo5bo5775bo4b$5781bob4o53bo345bo5b3o5774bo3bo$5780b4ob2o399bobo5780bo3bo$20b2o6bo5750bob2o2b2o399b2o4b3o5750bo6b2o15bo4b$20b2o5bobo5749bo2bo2b2ob3o346b2o42b3o9bo5750bobo5b2o16bobob$9bo17bo2bo5749bo4bo2b3o345b2o5805bo2bo17bo9b$9bo18b2o5754b7o347bo5805b2o18bo9b$9bo5775bob4o6173bo9b$2b3o2423bo3181bo175bo2bo573bo5610b$bo2bo2422b2o3181bo176b2o574bo5610b$4bo2422bobo3180bo752bo5610b$o3bo5773b2o414b2o5778b$o3bo5601b3o3b3o163b2o414b2o163b3o3b3o5606b$4bo9535bo2433b$bobo5606bo752bo3176b2o2432b$5610bo752bo3175bobo2432b$5610bo752bo5610b$11974b$11974b$1281bo4500b2o406b2o5782b$1280b2o4500b2o174b2o54b2o174b2o5782b$1280bobo4675b2o54b2o5958b$11974b$15b2o11940b2o15b$11b2o2b2o10670bo1269b2o2b2o11b$11b2o10674b2o1272b2o11b$10686bobo1285b$11974b$5780b2o116b2o174b2o5898b$5781b2o115b2o174b2o147bo5750b$5780bo443b2o5748b$6223b2o5749b$5790b2o390b2o5790b$5790b2o390b2o13b2o5775b$20b2o6bo5716bo450b2o5747bo6b2o20b$20b2o5bobo5713b2o453bo5745bobo5b2o20b$9bo17bo2bo5713b2o6197bo2bo17bo9b$9bo18b2o2458bo9455b2o18bo9b$9bo2477b2o9475bo9b$2487bobo3120bo752bo5610b$5610bo752bo5610b$5610bo752bo5610b$9480bo2493b$5606b3o3b3o744b3o3b3o3112b2o2492b$9479bobo2492b$5610bo752bo5610b$5610bo752bo5610b$5610bo752bo5610b$1341bo10632b$1340b2o10632b$1340bobo4439b2o406b2o5782b$5782b2o174b2o54b2o174b2o5782b$5958b2o54b2o5958b$10627bo1346b$15b2o6133bo4476b2o1328b2o15b$11b2o2b2o6133bobo4473bobo1328b2o2b2o11b$11b2o5726b3o408b2o5809b2o11b$5739bo6234b$5740bo6233b$5828bo69b2o174b2o5898b$5826bobo69b2o174b2o5898b$5827b2o398b3o5744b$6229bo5744b$5790b2o390b2o44bo5745b$5790b2o390b2o5790b$20b2o6bo11916bo6b2o20b$20b2o5bobo2518bo9395bobo5b2o20b$9bo17bo2bo2516b2o9394bo2bo17bo9b$9bo18b2o2517bobo9394b2o18bo9b$9bo11954bo9b$5610bo752bo5610b$5610bo752bo3056bo2553b$5610bo752bo3056b2o2552b$9419bobo2552b$5606b3o3b3o744b3o3b3o5606b$11974b$5610bo752bo5610b$1401bo4208bo752bo5610b$1400b2o4208bo752bo5610b$1400bobo10571b$11974b$5782b2o406b2o5782b$5782b2o174b2o54b2o174b2o4375bo1406b$5958b2o54b2o4551b2o1405b$10566bobo1405b$15b2o5782b3o6155b2o15b$11b2o2b2o5782bo6157b2o2b2o11b$11b2o5787bo6160b2o6b3o2b$11969bo2bob$11969bo4b$5898b2o174b2o91b3o5799bo3bo$5898b2o174b2o93bo5799bo3bo$6168bo5800bo4b$11970bobob$5790b2o390b2o5790b$2608bo3181b2o390b2o5790b$20b2o6bo2578b2o9336bo6b2o20b$2b3o15b2o5bobo2577bobo9334bobo5b2o20b$bo2bo4bo17bo2bo11912bo2bo17bo9b$4bo4bo18b2o11914b2o18bo9b$o3bo4bo9350bo2603bo9b$o3bo5605bo752bo2996b2o2612b$4bo5605bo752bo2995bobo2612b$bobo5606bo752bo5610b$11974b$5606b3o3b3o744b3o3b3o5606b$1461bo10512b$1460b2o4148bo752bo5610b$1460bobo4147bo752bo5610b$5610bo283b2o467bo5610b$5894bobo6077b$5896b2o4609bo1466b$5782b2o111bo294b2o4315b2o1465b$5782b2o109bobo62b2o54b2o65b3o106b2o4314bobo1465b$5859b3o30b2o64b2o54b2o5958b$5859bo32b3o186bobo5890b$15b2o5843bo219bo5876b2o15b$11b2o2b2o6063bo3bo5872b2o2b2o11b$11b2o11948b2o11b$6080b2o2bo22b3o5864b$6109bo5864b$6108bo5865b$11974b$11974b$2668bo3403b2o5900b$2667b2o3121b2o98b2o180b2o8b2o98b2o5790b$2667bobo3120b2o98b2o190b2o98b2o5790b$20b2o6bo11916bo6b2o20b$20b2o5bobo11914bobo5b2o20b$9bo17bo2bo9269bo2642bo2bo17bo9b$9bo18b2o9270b2o2642b2o18bo9b$9bo6063bo3225bobo2662bo9b$5610bo460bo2bo288bo5610b$5610bo459b2o291bo5610b$5610bo458bo3bo289bo5610b$1521bo4548bo2bo5900b$1520b2o4084b3o3b3o456b2o286b3o3b3o5606b$1520bobo10451b$5610bo752bo5610b$5610bo752bo5610b$5610bo752bo4083bo1526b$10447b2o1525b$10446bobo1525b$5782b2o114b2o19b3o152b2o114b2o5782b$5782b2o114b2o19bo42bo111b2o114b2o5782b$5920bo41bo127bo5883b$5961bo128bobo5881b$15b2o5939b2o3b2o46bo80b2o5865b2o15b$11b2o2b2o5939b2o3b5o41b4o36b3o5907b2o2b2o11b$11b2o5951bobo44bo37bo5911b2o11b$5888bo74b2ob2o40bo3bo4bo30bo5925b$5886bobo75bo2bo41bobo5bo5956b$5887b2o75b2ob2o41bo6bo5956b$2728bo3236bobo6006b$2727b2o3237bo6007b$2727bobo9244b$5790b2o98b2o190b2o98b2o5790b$5790b2o98b2o190b2o98b2o5790b$20b2o6bo5925b2o62b2o3220bo2704bo6b2o20b$20b2o5bobo5924b2o62b2o3220b2o2702bobo5b2o20b$9bo17bo2bo9208bobo2701bo2bo17bo9b$9bo18b2o11914b2o18bo9b$9bo11954bo9b$5610bo752bo5610b$1581bo4028bo752bo5610b$1580b2o4028bo752bo5610b$1580bobo4375b2o54b2o5958b$5606b3o3b3o343b2o54b2o343b3o3b3o5606b$11974b$5610bo752bo4023bo1586b$5610bo752bo4023b2o1585b$5610bo752bo4022bobo1585b$11974b$11974b$5782b2o114b2o174b2o114b2o5782b$5782b2o114b2o174b2o114b2o5782b$11969b3o2b$11969bo2bob$15b2o11940b2o10bo4b$11b2o2b2o5949b2o38b2o5949b2o2b2o6bo3bo$11b2o5953b2o38b2o5953b2o6bo3bo$11969bo4b$2788bo9181bobob$2787b2o9185b$2787bobo9184b$11974b$2b3o11969b$bo2bo5785b2o390b2o2996bo2793b$4bo5785b2o390b2o2996b2o2792b$o3bo15b2o6bo9150bobo2763bo6b2o20b$o3bo15b2o5bobo11914bobo5b2o20b$4bo4bo17bo2bo11912bo2bo17bo9b$bobo5bo18b2o11914b2o18bo9b$9bo1631bo10322bo9b$1640b2o3968bo752bo5610b$1640bobo3967bo752bo5610b$5610bo752bo5610b$5958b2o54b2o5958b$5606b3o3b3o343b2o54b2o118bo224b3o3b3o3959bo1646b$6135b2o4190b2o1645b$5610bo523b2o227bo3962bobo1645b$5610bo752bo5610b$5610bo362bo389bo5610b$5834bo137bo6001b$5832b2o138b3o5999b$5782b2o49b2o63b2o174b2o114b2o5782b$5782b2o114b2o174b2o114b2o5782b$11974b$11974b$15b2o11940b2o15b$11b2o2b2o5949b2o5989b2o2b2o11b$11b2o2835bo3117b2o5993b2o11b$2847b2o9125b$2847bobo9124b$11974b$11974b$9120bo2853b$9120b2o2852b$5790b2o390b2o2935bobo2852b$5790b2o390b2o5790b$20b2o6bo11916bo6b2o20b$20b2o5bobo11914bobo5b2o20b$9bo17bo2bo1670bo10241bo2bo17bo9b$9bo18b2o1670b2o10242b2o18bo9b$9bo1690bobo10261bo9b$5610bo752bo5610b$5610bo752bo5610b$5610bo752bo3903bo1706b$5958b2o54b2o4251b2o1705b$5606b3o3b3o343b2o54b2o343b3o3b3o3898bobo1705b$11974b$5610bo752bo5610b$5610bo752bo5610b$5610bo752bo5610b$11974b$11974b$5782b2o114b2o174b2o114b2o5782b$5782b2o114b2o174b2o114b2o5782b$11974b$11974b$15b2o2891bo9048b2o15b$11b2o2b2o2890b2o9048b2o2b2o11b$11b2o2894bobo9051b2o11b$11974b$11974b$9060bo2913b$9060b2o2912b$9059bobo2912b$11974b$5790b2o390b2o5790b$5790b2o390b2o5790b$20b2o6bo1732bo10183bo6b2o20b$20b2o5bobo1730b2o10182bobo5b2o20b$9bo17bo2bo1729bobo10180bo2bo17bo9b$9bo18b2o11914b2o18bo9b$9bo11954bo9b$5610bo752bo3843bo1766b$5610bo752bo3843b2o1765b$5610bo752bo3842bobo1765b$5958b2o54b2o5958b$5606b3o3b3o343b2o54b2o343b3o3b3o5606b$11974b$5610bo752bo5610b$5610bo752bo5610b$5610bo752bo5610b$11969b3o2b$11969bo2bob$5782b2o114b2o174b2o114b2o5777bo4b$5782b2o114b2o174b2o114b2o5777bo3bo$2968bo9000bo3bo$2967b2o9000bo4b$15b2o2950bobo8987b2o11bobob$11b2o2b2o11940b2o2b2o11b$11b2o11948b2o11b$9000bo2973b$2b3o8995b2o2972b$bo2bo8994bobo2972b$4bo11969b$o3bo11969b$o3bo11969b$4bo1816bo10152b$bobo1816b2o10152b$20b2o6bo1791bobo10122bo6b2o20b$20b2o5bobo11914bobo5b2o20b$9bo17bo2bo11912bo2bo17bo9b$9bo18b2o10117bo1796b2o18bo9b$9bo10137b2o1815bo9b$5610bo752bo3782bobo1825b$5610bo752bo5610b$5610bo752bo5610b$5958b2o54b2o5958b$5606b3o3b3o343b2o54b2o343b3o3b3o5606b$11974b$5610bo752bo5610b$5610bo752bo5610b$5610bo581bo170bo5610b$6190bo2bo5780b$6190bo3bo5779b$3028bo2869b2o174b2o113bo4bo5779b$3027b2o2869b2o174b2o112b7o5779b$3027bobo3157b2o2bo2bo5779b$5788bo399bo3b4o5778b$15b2o5772b2o397bo5bo5762b2o15b$11b2o2b2o6172bo2b2o2746bo3016b2o2b2o11b$11b2o5771b3o395bo8b2o2747b2o3019b2o11b$5779b3o3bo2bo393bo2756bobo3032b$5786b3o393bo5791b$5787bo6186b$11974b$1881bo10092b$1880b2o10092b$1880bobo10091b$5778b2o414b2o5778b$20b2o6bo5749b2o414b2o5749bo6b2o20b$20b2o5bobo10057bo1856bobo5b2o20b$9bo17bo2bo10056b2o1854bo2bo17bo9b$9bo18b2o10056bobo1855b2o18bo9b$9bo11954bo9b$5610bo752bo5610b$5610bo752bo5610b$5610bo171b2o406b2o171bo5610b$5782b2o174b2o54b2o174b2o5782b$5606b3o3b3o343b2o54b2o343b3o3b3o5606b$11974b$5610bo752bo5610b$5610bo752bo5610b$5610bo752bo5610b$3088bo8885b$3087b2o8885b$3087bobo2808b2o174b2o5898b$5898b2o174b2o5898b$5808bo6165b$5807b2o3071bo3093b$15b2o5773b2o15bobo372b2o2696b2o3075b2o15b$11b2o2b2o5773b2o390b2o2695bobo3075b2o2b2o11b$11b2o11948b2o11b$6160bo5813b$6160b2o5812b$1941bo4217bobo5812b$1940b2o10032b$1940bobo10031b$11974b$11974b$10027bo1946b$20b2o6bo9998b2o1916bo6b2o20b$20b2o5bobo9996bobo1915bobo5b2o20b$9bo17bo2bo11912bo2bo17bo9b$9bo18b2o11914b2o18bo9b$9bo11954bo9b$5610bo752bo5610b$5610bo752bo5610b$5610bo171b2o406b2o171bo5610b$5782b2o174b2o54b2o138bo35b2o5782b$5606b3o3b3o343b2o54b2o136b2o205b3o3b3o5606b$6153b2o5814b3o2b$5610bo752bo5605bo2bob$3148bo2461bo752bo5605bo4b$3147b2o2461bo213bo65b3o470bo5605bo3bo$3147bobo2675b2o63bo2bo6075bo3bo$5824b2o63bo3bo6075bo4b$5868bo21bo2b2o184b3o5888bobob$5867b2o23bo2927bo3153b$5867bobo20b2o2928b2o3152b$5889b3o8b2o170b2o8bo2736bobo3152b$2b3o10b2o5773b2o97b3o8b2o170b2o3bo2b2ob2o97b2o5773b2o15b$bo2bo6b2o2b2o5773b2o284bo5bo17bo81b2o5773b2o2b2o11b$4bo6b2o6063b3o21b2o5859b2o11b$o3bo1996bo4097bobo5872b$o3bo1995b2o9972b$4bo1995bobo3898bo6072b$bobo5898bo6071b$5900b3o6071b$9967bo2006b$9967b2o2005b$5902b2o166b2o3894bobo2005b$20b2o6bo5873b2o166b2o5873bo6b2o20b$20b2o5bobo11914bobo5b2o20b$9bo17bo2bo11912bo2bo17bo9b$9bo18b2o11914b2o18bo9b$9bo5946bo6007bo9b$5610bo344bobob2o402bo5610b$5610bo343b2o5bo401bo5610b$5610bo171b2o114b2o174b2o114b2o171bo5610b$5782b2o114b2o54bo6bo112b2o114b2o5782b$5606b3o3b3o340b2o3bo52b2o344b3o3b3o5606b$3208bo2747bo4bo51b3obo5956b$3207b2o2401bo346b2o3bo49bo2bob2o344bo5610b$3207bobo2400bo345bo4b2o49b3o348bo5610b$5610bo345bob4o48b2ob3o2b2o343bo5610b$5928bo26b2ob2o7bo41bob5ob2o5955b$5927b2o27bo10bo40b2o2b2o2b4o2740bo3213b$5927bobo27bo9bo41b2o7b2o2740b2o3212b$6013b2ob2o2741bobo3212b$6015bo5958b$6015bo24bo5933b$15b2o5773b2o98b2o148b2o40b2o98b2o5773b2o15b$11b2o2b2o2044bo3728b2o98b2o147bobo40b2o98b2o5773b2o2b2o11b$11b2o2047b2o3892b2o62b2o5941b2o11b$2060bobo3891b2o62b2o5954b$11974b$11974b$9907bo2066b$9907b2o2065b$9906bobo2065b$11974b$5958b2o54b2o5958b$20b2o6bo5929b2o54b2o5929bo6b2o20b$20b2o5bobo11914bobo5b2o20b$9bo17bo2bo11912bo2bo17bo9b$9bo18b2o11914b2o18bo9b$9bo11954bo9b$5610bo752bo5610b$5610bo752bo5610b$5610bo171b2o114b2o174b2o114b2o171bo5610b$3268bo2513b2o114b2o174b2o114b2o5782b$3267b2o2337b3o3b3o744b3o3b3o5606b$3267bobo8704b$5610bo752bo5610b$5610bo355b2o38b2o355bo5610b$5610bo355b2o38b2o355bo2336bo3273b$8700b2o3272b$8699bobo3272b$11974b$11974b$11974b$2121bo9852b$15b2o2103b2o3668b2o98b2o190b2o98b2o5773b2o15b$11b2o2b2o2103bobo3667b2o98b2o190b2o98b2o5773b2o2b2o11b$11b2o11948b2o11b$6127bo5846b$6128bo3718bo2126b$6126b3o3718b2o2125b$9846bobo2125b$11974b$5841bo138bobo5991b$5840bo139b2o5992b$5840b3o115b2o21bo32b2o5958b$20b2o6bo5929b2o54b2o5929bo6b2o20b$20b2o5bobo11914bobo5b2o20b$9bo17bo2bo5965bobo5944bo2bo17bo9b$9bo18b2o5967b2o5945b2o18bo9b$9bo5987bo5966bo9b$5610bo752bo5610b$3328bo2281bo483bo268bo5605b3o2b$3327b2o2281bo171b2o114b2o174b2o16b2o96b2o171bo5605bo2bob$3327bobo2452b2o114b2o174b2o17b2o95b2o5777bo4b$5606b3o3b3o744b3o3b3o5601bo3bo$11969bo3bo$5610bo273bo478bo2276bo3328bo4b$5610bo274b2o79b2o38b2o355bo2276b2o3328bobob$5610bo273b2o80b2o38b2o355bo2275bobo3332b$11974b$11974b$2b3o11969b$bo2bo2176bo9792b$4bo2175b2o9792b$o3bo2175bobo9791b$o3bo10b2o5773b2o98b2o190b2o98b2o5773b2o15b$4bo6b2o2b2o5773b2o98b2o190b2o98b2o5773b2o2b2o11b$bobo7b2o9774bo2173b2o11b$9787b2o2185b$9786bobo2185b$11974b$11974b$11974b$11974b$11974b$5958b2o54b2o5958b$20b2o6bo5929b2o54b2o5929bo6b2o20b$20b2o5bobo11914bobo5b2o20b$9bo17bo2bo11912bo2bo17bo9b$9bo18b2o11914b2o18bo9b$9bo3378bo8575bo9b$3387b2o2221bo752bo5610b$3387bobo2220bo752bo5610b$5610bo171b2o114b2o174b2o114b2o171bo5610b$5782b2o114b2o174b2o114b2o5782b$5606b3o3b3o744b3o3b3o2212bo3393b$8580b2o3392b$5610bo752bo2215bobo3392b$5610bo752bo5610b$5610bo752bo5610b$11974b$2241bo9732b$2240b2o9732b$2240bobo9731b$11974b$11974b$15b2o5773b2o390b2o3543bo2229b2o15b$11b2o2b2o5773b2o390b2o3543b2o2228b2o2b2o11b$11b2o9713bobo2232b2o11b$11974b$11974b$11974b$11974b$11974b$11974b$11974b$5958b2o54b2o5958b$20b2o6bo5929b2o54b2o5929bo6b2o20b$20b2o5bobo11914bobo5b2o20b$9bo17bo2bo3417bo8494bo2bo17bo9b$9bo18b2o3417b2o8495b2o18bo9b$9bo3437bobo8514bo9b$5610bo752bo5610b$5610bo752bo5610b$5610bo171b2o114b2o174b2o114b2o171bo2156bo3453b$5782b2o114b2o174b2o114b2o2328b2o3452b$5606b3o3b3o744b3o3b3o2151bobo3452b$11974b$5610bo752bo5610b$5610bo570b2o180bo5610b$2301bo3308bo569bo2bo179bo5610b$2300b2o9672b$2300bobo3877bobo5791b$11974b$11974b$9667bo2306b$9667b2o2305b$15b2o9649bobo2288b2o15b$11b2o2b2o11940b2o2b2o11b$11b2o11948b2o11b$11974b$11974b$11974b$11974b$11974b$11974b$11974b$5958b2o54b2o5958b$20b2o6bo3479bo2449b2o54b2o5929bo6b2o20b$20b2o5bobo3477b2o8435bobo5b2o20b$9bo17bo2bo3476bobo8433bo2bo17bo4b3o2b$9bo18b2o11914b2o18bo4bo2bob$9bo6182bo5771bo4bo4b$5610bo579bo2bo169bo2096bo3508bo3bo$5610bo579bo3bo168bo2096b2o3507bo3bo$5610bo287b2o174b2o113bo4bo168bo2095bobo3507bo4b$5898b2o174b2o112b7o5775bobob$5606b3o3b3o572b2o2bo2bo164b3o3b3o5606b$5788bo399bo3b4o5778b$2361bo3248bo178b2o397bo5bo168bo5610b$2b3o2355b2o3248bo578bo2b2o169bo5610b$bo2bo2355bobo3247bo173b3o395bo8b2o170bo5610b$4bo5774b3o3bo2bo393bo5791b$o3bo5781b3o393bo5791b$o3bo5782bo3819bo2366b$4bo9602b2o2365b$bobo9602bobo2365b$11974b$15b2o11940b2o15b$11b2o2b2o5761b2o414b2o5761b2o2b2o11b$11b2o5765b2o414b2o5765b2o11b$11974b$11974b$11974b$11974b$11974b$11974b$3568bo2213b2o406b2o5782b$3567b2o2213b2o174b2o54b2o174b2o5782b$20b2o6bo3538bobo2388b2o54b2o5929bo6b2o20b$20b2o5bobo11914bobo5b2o20b$9bo17bo2bo11912bo2bo17bo9b$9bo18b2o8370bo3543b2o18bo9b$9bo6351b2o2037b2o3562bo9b$8399bobo3572b$6362b2o5610b$5898b2o174b2o280bobo5615b$5898b2o174b2o281b2ob3o5611b$2421bo3386bo548b3o2bo5611b$2420b2o3385b2o550b3o5612b$2420bobo3367b2o15bobo372b2o176b2o5612b$5790b2o390b2o5790b$11974b$6160bo3386bo2426b$6160b2o3385b2o2425b$6159bobo3384bobo2425b$11974b$11974b$11974b$15b2o11940b2o15b$11b2o2b2o11940b2o2b2o11b$11b2o11948b2o11b$11974b$11974b$11974b$11974b$3628bo8345b$3627b2o8345b$3627bobo2152b2o406b2o5782b$5666b2o114b2o174b2o54b2o138bo35b2o5782b$20b2o6bo5636b2o291b2o54b2o136b2o5791bo6b2o20b$20b2o5bobo5637bo485b2o2185bo3603bobo5b2o20b$9bo17bo2bo8309b2o3601bo2bo17bo9b$9bo18b2o8309bobo3602b2o18bo9b$9bo5814bo65b3o408b2o5661bo9b$5825b2o63bo2bo408b2o5670b$5824b2o63bo3bo407bo5672b$2481bo3386bo21bo2b2o184b3o5892b$2480b2o3385b2o23bo6081b$2480bobo3384bobo20b2o6082b$5889b3o8b2o170b2o8bo5891b$5790b2o97b3o8b2o170b2o3bo2b2ob2o97b2o5790b$5790b2o284bo5bo17bo81b2o3303bo2486b$6076b3o21b2o3385b2o2485b$6099bobo3384bobo2485b$11974b$5901bo6072b$5902bo6071b$5900b3o6071b$11974b$15b2o11940b2o15b$11b2o2b2o5885b2o166b2o5885b2o2b2o11b$11b2o5889b2o166b2o5889b2o11b$11974b$11974b$3688bo8285b$3687b2o2267bo6017b$3687bobo2265bobob2o6013b$5726b2o226b2o5bo6012b$5725b2o55b2o114b2o174b2o114b2o5777b3o2b$5727bo54b2o114b2o54bo6bo112b2o114b2o2088bo3688bo2bob$20b2o6bo5926b2o3bo52b2o2265b2o3663bo6b2o15bo4b$20b2o5bobo5926bo4bo51b3obo2261bobo3662bobo5b2o15bo3bo$9bo17bo2bo5926b2o3bo49bo2bob2o222b2o5700bo2bo17bo4bo3bo$9bo18b2o5926bo4b2o49b3o227b2o5700b2o18bo4bo4b$9bo5946bob4o48b2ob3o2b2o221bo5722bo5bobob$2541bo3386bo26b2ob2o7bo41bob5ob2o5955b$2540b2o3385b2o27bo10bo40b2o2b2o2b4o5954b$2540bobo3384bobo27bo9bo41b2o7b2o5954b$2b3o6008b2ob2o5956b$bo2bo6010bo5958b$4bo6010bo24bo3386bo2546b$o3bo5785b2o98b2o148b2o40b2o98b2o3243b2o2545b$o3bo5785b2o98b2o147bobo40b2o98b2o3242bobo2545b$4bo5949b2o62b2o5954b$bobo5950b2o62b2o5954b$11974b$11974b$11974b$11974b$11974b$15b2o11940b2o15b$11b2o2b2o5941b2o54b2o5941b2o2b2o11b$11b2o5945b2o54b2o5945b2o11b$3748bo8225b$3747b2o8225b$3747bobo8224b$5786b2o6186b$5785b2o6187b$5787bo2432bo3753b$5782b2o114b2o174b2o114b2o2028b2o3752b$5782b2o114b2o174b2o114b2o2027bobo3752b$20b2o6bo6152b2o5762bo6b2o20b$20b2o5bobo6152b2o5760bobo5b2o20b$9bo17bo2bo6150bo5761bo2bo17bo9b$9bo18b2o2571bo3364b2o38b2o5936b2o18bo9b$9bo2590b2o3364b2o38b2o5956bo9b$2600bobo9371b$11974b$11974b$9367bo2606b$9367b2o2605b$9366bobo2605b$5790b2o98b2o190b2o98b2o5790b$5790b2o98b2o190b2o98b2o5790b$11974b$6127bo5846b$6128bo5845b$6126b3o5845b$11974b$11974b$5841bo138bobo5991b$15b2o5823bo139b2o5975b2o15b$11b2o2b2o3791bo2031b3o115b2o21bo32b2o5941b2o2b2o11b$11b2o3794b2o2149b2o54b2o5945b2o11b$3807bobo8164b$5846b2o148bobo5975b$5845b2o150b2o5975b$5847bo149bo2162bo3813b$8160b2o3812b$6094bo2064bobo3812b$5782b2o114b2o174b2o16b2o27b2o67b2o5782b$5782b2o114b2o174b2o17b2o27b2o66b2o5782b$20b2o6bo6092bo5823bo6b2o20b$20b2o5bobo2631bo9282bobo5b2o20b$9bo17bo2bo2629b2o3222bo6058bo2bo17bo9b$9bo18b2o2630bobo3222b2o79b2o38b2o5936b2o18bo9b$9bo5874b2o80b2o38b2o5956bo9b$11974b$9307bo2666b$9307b2o2665b$9306bobo2665b$11974b$11974b$5790b2o98b2o190b2o98b2o5790b$5790b2o98b2o190b2o98b2o5790b$11974b$11974b$11974b$11974b$11974b$11974b$3868bo8105b$15b2o3850b2o8088b2o15b$11b2o2b2o3850bobo2088b2o54b2o5941b2o2b2o11b$11b2o5893b2o50b2o54b2o5945b2o11b$5905b2o6067b$5907bo2192bo3873b$8100b2o3867b3o2b$8099bobo3867bo2bob$6061b2o5906bo4b$6062b2o5905bo3bo$5782b2o114b2o161bo12b2o114b2o5777bo3bo$2721bo3060b2o114b2o174b2o114b2o5777bo4b$20b2o6bo2691b2o9223bo6b2o16bobob$20b2o5bobo2690bobo9221bobo5b2o20b$9bo17bo2bo11912bo2bo17bo9b$9bo18b2o11914b2o18bo9b$2b3o4bo9237bo2716bo9b$bo2bo9242b2o2725b$4bo9241bobo2725b$o3bo11969b$o3bo11969b$4bo11969b$bobo11970b$5790b2o390b2o5790b$5790b2o390b2o5790b$11974b$11974b$11974b$11974b$3928bo8045b$3927b2o8045b$3927bobo8044b$15b2o5949b2o5989b2o15b$11b2o2b2o5941b2o5b2o47b2o5941b2o2b2o11b$11b2o5945b2o7bo46b2o2024bo3920b2o11b$8040b2o3932b$8039bobo3932b$6001b2o5971b$6002b2o5970b$6001bo5972b$2781bo9192b$2780b2o3000b2o114b2o174b2o114b2o5782b$2780bobo2999b2o114b2o174b2o114b2o5782b$20b2o6bo11916bo6b2o20b$20b2o5bobo11914bobo5b2o20b$9bo17bo2bo9156bo2755bo2bo17bo9b$9bo18b2o6151b2o3004b2o2755b2o18bo9b$9bo6170bo2bo3002bobo2775bo9b$11974b$6180bobo5791b$11974b$11974b$11974b$11974b$11974b$11974b$11974b$11974b$3988bo7985b$3987b2o7985b$3987bobo7984b$6026b2o5946b$6025b2o5947b$15b2o6010bo1952bo3976b2o15b$11b2o2b2o5941b2o54b2o1964b2o3975b2o2b2o11b$11b2o5945b2o54b2o1963bobo3979b2o11b$5941b2o6031b$5942b2o6030b$5941bo6032b$2841bo9132b$2840b2o9132b$2840bobo9131b$5782b2o114b2o174b2o114b2o5782b$5782b2o114b2o174b2o114b2o5782b$20b2o6bo9098bo2817bo6b2o20b$20b2o5bobo9097b2o2815bobo5b2o20b$9bo17bo2bo9095bobo2814bo2bo17bo9b$9bo18b2o11914b2o18bo9b$9bo11954bo9b$11974b$11974b$11974b$11974b$11974b$11974b$11974b$11974b$4048bo7925b$4047b2o7925b$4047bobo7924b$6086b2o5886b$6085b2o5887b$6087bo1832bo4053b$7920b2o4052b$15b2o7902bobo4035b2o15b$11b2o2b2o5864b2o75b2o54b2o5941b2o2b2o6b3o2b$11b2o5869b2o74b2o54b2o5945b2o6bo2bob$5881bo6087bo4b$2901bo9067bo3bo$2900b2o9067bo3bo$2900bobo9066bo4b$11970bobob$11974b$5782b2o114b2o174b2o114b2o2875bo2906b$5782b2o114b2o174b2o108bo4b2obo2874b2o2905b$2b3o15b2o6bo6155b2o3bo2b2o2872bobo2876bo6b2o20b$bo2bo15b2o5bobo6154b5o3b2o5750bobo5b2o20b$4bo4bo17bo2bo5747b5o405bo2bobo5749bo2bo17bo9b$o3bo4bo18b2o5746b2o3bobob4o396bobobobobo5750b2o18bo9b$o3bo4bo5766b2o5bo5bo395b3obobobo5770bo9b$4bo5773bob4o2b2o2b2o395b2o3bo5781b$bobo5777bo3bo2bob2o3bo6178b$5773bo12b2o3b2o2bo377b3o5798b$5773b3o10bob2ob2o2bo3b3o6172b$5772bob3o8bo2b7o377bo3bo5797b$5769b2o5b2o7bob7o378bo3bo5797b$4108bo1663bo2b2obo6bo3bo405bo5778b$4107b2o1663b3o4bo9bo383b3o18bo5779b$4107bobo1662b3o4b2o9b2o402bo2bo5776b$5776b4o10bo355b2o47b3ob3o5772b$5776b3o9bobo354b2o49bo3b2o5772b$5764bo11b2o11bo357bo47b3o2b3o1657bo4113b$5762b2o432bobobo1659b2o4112b$5763b2o432b2o1660bobo4112b$5821b2o375bo5775b$15b2o5765b2o38b2o366b2o5765b2o15b$11b2o2b2o5765b2o37bo136b2o54b2o174b2o22bo5742b2o2b2o11b$11b2o2948bo2996b2o54b2o199b2o5744b2o11b$2960b2o3252b2o5758b$2960bobo9011b$11974b$11974b$9007bo2966b$9007b2o2965b$5898b2o174b2o2930bobo2965b$5898b2o174b2o5898b$20b2o6bo11916bo6b2o20b$20b2o5bobo11914bobo5b2o20b$9bo17bo2bo5759b2o390b2o5759bo2bo17bo9b$9bo18b2o5760b2o390b2o5760b2o18bo9b$9bo11954bo9b$11974b$11974b$11974b$11974b$4168bo7805b$4167b2o1640bo6164b$4167bobo1637bobo6164b$5808b2o396b2o5766b$6205b2o5767b$6207bo1592bo4173b$6159bo1640b2o4172b$6159bobo1637bobo4172b$5761b2o396b2o5813b$5762b2o6210b$5761bo6212b$15b2o3004bo2760b2o406b2o5765b2o15b$11b2o2b2o3003b2o2760b2o174b2o54b2o174b2o5765b2o2b2o11b$11b2o3007bobo2935b2o54b2o5945b2o11b$11974b$11974b$8947bo3026b$8947b2o3025b$8946bobo3025b$11974b$5898b2o174b2o5898b$5898b2o174b2o5898b$20b2o6bo11916bo6b2o20b$20b2o5bobo11914bobo5b2o20b$9bo17bo2bo5759b2o390b2o5759bo2bo17bo9b$9bo18b2o5760b2o390b2o5760b2o18bo9b$9bo11954bo9b$11974b$11974b$4228bo7745b$4227b2o7745b$4227bobo1988b3o5753b$6220bo5753b$6219bo5754b$7740bo4233b$7740b2o4232b$5758b3o1978bobo4232b$5758bo6215b$5759bo6214b$11969b3o2b$3081bo8887bo2bob$3080b2o8887bo4b$15b2o3063bobo2699b2o406b2o5765b2o10bo3bo$11b2o2b2o5765b2o174b2o54b2o174b2o5765b2o2b2o6bo3bo$11b2o5945b2o54b2o5945b2o6bo4b$8887bo3082bobob$23b2o8862b2o3060b2o23b$22bo2bo8860bobo3059bo2bo22b$23b2o11924b2o23b$2b3o11969b$bo2bo11969b$4bo5893b2o174b2o5898b$o3bo14b2o5877b2o174b2o5877b2o19b$o3bo10b2o2b2o11932b2o2b2o15b$4bo10b2o11940b2o15b$bobo5bo5780b2o390b2o5780bo9b$9bo5780b2o390b2o5780bo9b$9bo11954bo9b$4288bo7685b$4287b2o7630bo54b$20bo4266bobo1868b3o5758b2o32bo20b$19bobo6138bo5757bobo31bobo19b$19bobo6137bo5792bobo19b$20bo7659bo4272bo20b$59bo7620b2o4292b$58b2o5758b3o1858bobo4292b$58bobo5757bo6155b$5819bo6154b$11974b$3141bo8832b$3140b2o8832b$3140bobo8831b$11974b$15b2o5765b2o406b2o5765b2o15b$11b2o2b2o5765b2o174b2o54b2o174b2o2635bo3129b2o2b2o11b$11b2o5945b2o54b2o2811b2o3132b2o11b$8826bobo3145b$23b2o11924b2o23b$22bo2bo11922bo2bo22b$23b2o11924b2o23b$11974b$11974b$6079b3o5892b$19b2o5873b3obo181b2o5871b2o19b$15b2o2b2o5879bo177bo3b2o5869b2o2b2o15b$15b2o5877b2o5bo170b2o4bobob2o5873b2o15b$9bo5780b2o104b2o3bo170b2o3b2o3b2o98b2o5780bo9b$9bo4338bo1441b2o99b3o6bo177b2o102b2o5780bo9b$9bo4337b2o1542bobo5965bo104bo9b$4347bobo1540bo2bo204b3o5758b2o113b$5890bobo207bo5757bobo113b$20bo5869b3o206bo5853bo20b$19bobo5847bo1750bo4331bobo19b$19bobo97bo5747bobo1750b2o4330bobo19b$20bo97b2o5748b2o8b3o1738bobo4331bo20b$118bobo5757bo204b2o5889b$5879bo22b2o166b2o5902b$5902b2o166b2o27bo5874b$3201bo2897bobo5872b$3200b2o2897b2o5873b$3200bobo8771b$11974b$11974b$6014bo2752bo3206b$15b2o5765b2o114b2o113bobo58b2o114b2o2575b2o3188b2o15b$11b2o2b2o5765b2o114b2o113bobo58b2o114b2o2574bobo3188b2o2b2o11b$11b2o5999b3o5946b2o11b$5959b2o50bo2b2o5958b$23b2o5933b2obob3o50bo5932b2o23b$22bo2bo5933bo2bo51bobo5931bo2bo22b$23b2o5934bo7bo44bo3bo5932b2o23b$5959bo3bo4bo42bo6bo5955b$5967bo3b2o37b2o4b3o5955b$5957bo4bob3o2b2o2bo24bo12bob5o5956b$19b2o5936bo5b3o8bo23bo5954b2o19b$15b2o2b2o5928bo18bo6b3o5975b2o2b2o15b$15b2o4391bo1537bo11bo10bo2b2o5983b2o15b$9bo4397b2o1381b2o98b2o53bo4b2o6bo11b2o110b2o98b2o5615bo164bo9b$9bo4397bobo1380b2o98b2o53b2o4bo5b2o2bo76b3o41b2o98b2o5615b2o163bo9b$9bo5936b2o3bo5b5o36bo19b2o20bo5757bobo163bo9b$5938bo8bo2bob3o3b2o38bo19bo20bo5934b$5939bo7b2o4bo2b3o1601bo4413b$20bo158bo5757bo15bo1606b2o4391bo20b$19bobo156b2o5758b2o14bobo1602bobo4390bobo19b$19bobo156bobo5756b2o16bo5996bobo19b$20bo5916bobo6013bo20b$5937b2o6035b$3261bo2676bo19b2o54b2o5958b$3260b2o2696b2o54b2o5953b3o2b$3260bobo8706bo2bob$11969bo4b$11969bo3bo$8707bo3261bo3bo$8707b2o3260bo4b$8706bobo3261bobob$15b2o5765b2o114b2o174b2o114b2o5765b2o15b$11b2o2b2o5765b2o114b2o174b2o114b2o5765b2o2b2o11b$11b2o11948b2o11b$2b3o11969b$bo2bo18b2o11924b2o23b$4bo17bo2bo5940b2o38b2o5940bo2bo22b$o3bo18b2o5941b2o38b2o5941b2o23b$o3bo11969b$4bo11969b$bobo11970b$19b2o4447bo1384bo6099b2o19b$15b2o2b2o4446b2o1382b2o5886bo213b2o2b2o15b$15b2o4450bobo1382b2o5885b2o216b2o15b$9bo5780b2o390b2o5554bobo223bo9b$9bo5780b2o194bo195b2o5780bo9b$9bo5977bo137bo1374bo4463bo9b$239bo5745b3o138b2o1372b2o4472b$238b2o5885b2o1372bobo4472b$20bo217bobo11712bo20b$19bobo5960bo5969bobo19b$19bobo5959bo5970bobo19b$20bo3300bo2659b3o5969bo20b$3320b2o8652b$3320bobo2635b2o54b2o5958b$5958b2o54b2o5958b$11974b$8647bo3326b$8647b2o3325b$8646bobo3325b$11974b$11974b$15b2o5765b2o114b2o174b2o114b2o5765b2o15b$11b2o2b2o5765b2o114b2o174b2o114b2o5765b2o2b2o11b$11b2o11948b2o11b$11974b$23b2o11924b2o23b$22bo2bo5940b2o38b2o5940bo2bo22b$23b2o5941b2o38b2o5941b2o23b$11974b$4528bo7445b$4527b2o7150bo294b$19b2o4506bobo7149b2o272b2o19b$15b2o2b2o11657bobo272b2o2b2o15b$15b2o11940b2o15b$9bo5780b2o390b2o1256bo4523bo9b$9bo289bo5490b2o390b2o1256b2o4522bo9b$9bo288b2o7139bobo4522bo9b$298bobo11673b$11974b$20bo11932bo20b$19bobo3359bo8570bobo19b$19bobo3358b2o8570bobo19b$20bo3359bobo8570bo20b$11974b$5958b2o54b2o5958b$5958b2o54b2o2571bo3386b$8587b2o3385b$8586bobo3385b$11974b$11974b$11974b$11974b$15b2o5765b2o114b2o174b2o114b2o5765b2o15b$11b2o2b2o5765b2o114b2o174b2o114b2o5765b2o2b2o11b$11b2o11948b2o11b$11974b$23b2o11924b2o23b$22bo2bo11922bo2bo22b$23b2o4563bo7360b2o23b$4587b2o7030bo354b$4587bobo7029b2o353b$11618bobo353b$19b2o11932b2o19b$15b2o2b2o7359bo4572b2o2b2o15b$15b2o342bo7020b2o4575b2o15b$9bo348b2o5430b2o390b2o1195bobo4582bo9b$9bo348bobo5429b2o390b2o5780bo9b$9bo11954bo9b$11974b$3441bo8532b$20bo3419b2o8511bo20b$19bobo3418bobo8509bobo19b$19bobo11930bobo14b3o2b$20bo11932bo15bo2bob$8527bo3441bo4b$5958b2o54b2o2511b2o3440bo3bo$5958b2o54b2o2510bobo3440bo3bo$11969bo4b$11970bobob$11974b$11974b$11974b$2b3o11969b$bo2bo10b2o5765b2o114b2o174b2o114b2o5765b2o15b$4bo6b2o2b2o5765b2o114b2o174b2o114b2o5765b2o2b2o11b$o3bo6b2o11948b2o11b$o3bo11969b$4bo18b2o4623bo7300b2o23b$bobo18bo2bo4621b2o6910bo388bo2bo22b$23b2o4622bobo6909b2o388b2o23b$6181b3o5374bobo413b$5793bo386bo3bo5789b$5791b2o387b2ob2o1135bo4653b$19b2o398bo5372b2o385b2ob2obo1134b2o4631b2o19b$15b2o2b2o397b2o5758b2o5b2o1132bobo4631b2o2b2o15b$15b2o401bobo5757b2o3bob2o5770b2o15b$9bo5780b2o392bo5779bo9b$9bo5780b2o6172bo9b$9bo3491bo8462bo9b$3500b2o8472b$3500bobo8471b$20bo11932bo20b$19bobo11930bobo19b$19bobo8445bo3484bobo19b$20bo5769bo2676b2o3484bo20b$5789b3o2674bobo3505b$5788b5o165b2o54b2o5958b$5787b3ob2o165b2o54b2o5958b$5787b2ob2o6182b$5789bo6184b$11974b$11974b$6183bo5790b$6182b3o5789b$15b2o5881b2o174b2o105b2o2bo5771b2o15b$11b2o2b2o5881b2o174b2o105bo3bo5771b2o2b2o11b$11b2o4695bo1472bob2o5776b2o11b$4707b2o1071b2o399b2o9b2o5305bo474b$23b2o4682bobo1070b2o8b2o400b2o5305b2o448b2o23b$22bo2bo5764b2o5706bobo447bo2bo22b$23b2o11924b2o23b$7260bo4713b$479bo6780b2o4712b$478b2o5298b3o410bobo1065bobo4712b$19b2o457bobo5297bo2bo410b2o5759b2o19b$15b2o2b2o5755bo5bo409bo5760b2o2b2o15b$15b2o5759bobo4bo6173b2o15b$9bo3551bo2214b3o2bobo6180bo9b$9bo3550b2o2220bo5b2o404b2o5768bo9b$9bo3550bobo2224b2o405b2o5768bo9b$5789bo6184b$11974b$20bo8386bo3545bo20b$19bobo6157b2o2226b2o3543bobo19b$19bobo6158b2o2224bobo3543bobo19b$20bo6158bo5773bo20b$5782b2o406b2o5782b$5782b2o174b2o54b2o174b2o5782b$5958b2o54b2o5958b$11974b$11974b$11974b$11974b$11974b$11974b$15b2o4751bo1129b2o174b2o5881b2o15b$11b2o2b2o4750b2o1129b2o174b2o5363bo517b2o2b2o11b$11b2o4754bobo6669b2o520b2o11b$11438bobo533b$23b2o5765b2o390b2o5765b2o23b$22bo2bo5764b2o390b2o1016bo4747bo2bo22b$23b2o514bo6660b2o4747b2o23b$538b2o5358b2o1299bobo4772b$538bobo5357b2o6074b$6076bobo5895b$19b2o5876bo177b2obo5874b2o19b$15b2o2b2o3600bo2260bo13bobo7b3o165b2o2b2o5873b2o2b2o15b$15b2o3603b2o2226b2o30b2ob2o10bo9bo3bo163b2o7b3o5872b2o15b$9bo3610bobo2224b2o35bo6b2o2bo2b2o5bo2bo165b2o8bo5879bo9b$9bo5839bo30bo3bo6b2ob2ob3o5bo2bo166bo6bobo5879bo9b$9bo5871b3o11bo2bo7bo175b2o5880bo9b$5896b2ob2o3b2o2441bo3621b3o2b$5896b5o175bo42b2o2226b2o3620bo2bob$20bo5877b3o174bo44b2o2224bobo3604bo15bo4b$19bobo6054bo42bo5832bobo14bo3bo$19bobo11930bobo14bo3bo$20bo11932bo15bo4b$5782b2o114b2o174b2o114b2o5778bobob$5782b2o114b2o58b2o54b2o58b2o114b2o5782b$5958b2o54b2o5958b$11974b$2b3o11969b$bo2bo11969b$4bo11969b$o3bo4823bo1258bo5886b$o3bo4822b2o1256bobo5291bo594b$4bo10b2o4810bobo1256b2o5291b2o576b2o15b$bobo7b2o2b2o11361bobo576b2o2b2o11b$11b2o11948b2o11b$5881bo1258bo4833b$23b2o574bo5190b2o89bobo6b2o190b2o98b2o956b2o4807b2o23b$22bo2bo572b2o5190b2o89b2o7b2o190b2o98b2o955bobo4806bo2bo22b$23b2o573bobo11348b2o23b$11974b$11974b$3681bo8292b$19b2o3659b2o2226b2o6043b2o19b$15b2o2b2o3659bobo2224b2o6044b2o2b2o15b$15b2o5892bo223bobo5821b2o15b$9bo6123b2o5829bo9b$9bo6124bo2152bo3676bo9b$9bo6049b2o2226b2o3675bo9b$6060b2o2224bobo3685b$5843bobo213bo5914b$20bo5823b2o120bo5986bo20b$19bobo5822bo120b3o5984bobo19b$19bobo5942b2obo5984bobo19b$20bo5946b2o5984bo20b$5782b2o114b2o67b2o40bo64b2o114b2o5782b$5782b2o114b2o67b2o40bo64b2o114b2o5782b$5964bo42bo5966b$5964b2o41b2o5965b$5956b2o7bobo38bob2o6b2o5956b$4888bo1067b2o7bo2bo36b2ob2o6b2o5956b$4887b2o1077b2o38b3o3bo5306bo654b$4887bobo1117bo5b2o5304b2o653b$6012b2o5304bobo653b$15b2o11940b2o15b$11b2o2b2o7063bo4876b2o2b2o11b$11b2o646bo5296bo1123b2o4879b2o11b$658b2o5294b2o1123bobo4892b$23b2o633bobo5129b2o98b2o62b2o126b2o98b2o5765b2o23b$22bo2bo5764b2o98b2o190b2o98b2o5764bo2bo22b$23b2o5931bo61b2o5929b2o23b$3741bo2212b2o62b2o5954b$3740b2o8232b$3740bobo8231b$19b2o11932b2o19b$15b2o2b2o11932b2o2b2o15b$15b2o8210bo3729b2o15b$9bo8217b2o3735bo9b$9bo5948b2o54b2o2210bobo3735bo9b$9bo5948b2o54b2o5948bo9b$11974b$11974b$20bo11932bo20b$19bobo11930bobo19b$19bobo11930bobo19b$20bo11932bo20b$5782b2o114b2o174b2o114b2o5782b$5782b2o114b2o174b2o114b2o5782b$11974b$4948bo7025b$4947b2o6310bo714b$4947bobo1016b2o38b2o5251b2o713b$5966b2o38b2o5250bobo713b$11974b$7020bo4953b$15b2o702bo6300b2o4935b2o15b$11b2o2b2o701b2o6299bobo4935b2o2b2o11b$11b2o705bobo11240b2o11b$11974b$23b2o5765b2o98b2o190b2o98b2o5765b2o23b$22bo2bo3775bo1988b2o98b2o190b2o98b2o5764bo2bo22b$23b2o3775b2o8147b2o23b$3800bobo8171b$11974b$11974b$19b2o8146bo3785b2o19b$15b2o2b2o8146b2o3784b2o2b2o15b$15b2o8149bobo3788b2o10b3o2b$9bo11954bo4bo2bob$9bo5948b2o54b2o5948bo4bo4b$9bo5948b2o54b2o5948bo4bo3bo$11969bo3bo$11969bo4b$20bo11932bo16bobob$19bobo11930bobo19b$19bobo11930bobo19b$20bo11932bo20b$2b3o5777b2o114b2o174b2o114b2o5782b$bo2bo5003bo773b2o114b2o174b2o114b2o5782b$4bo5002b2o6190bo774b$o3bo5002bobo6189b2o773b$o3bo11193bobo773b$4bo6142bo5826b$bobo6141bobo812bo5013b$779bo5366b2o812b2o5012b$778b2o6179bobo5012b$15b2o761bobo11176b2o15b$11b2o2b2o5804bo6135b2o2b2o11b$11b2o5808bobo6137b2o11b$3861bo1959b2o6151b$23b2o3835b2o1928b2o390b2o5765b2o23b$22bo2bo3834bobo1927b2o390b2o5764bo2bo22b$23b2o11924b2o23b$11974b$8107bo3866b$8107b2o3865b$19b2o8085bobo3844b2o19b$15b2o2b2o11932b2o2b2o15b$15b2o11940b2o15b$9bo11954bo9b$9bo5948b2o54b2o5948bo9b$9bo5948b2o54b2o5948bo9b$11974b$11974b$20bo11932bo20b$19bobo11930bobo19b$19bobo11930bobo19b$20bo5047bo6884bo20b$5067b2o713b2o114b2o174b2o114b2o4947bo834b$5067bobo712b2o114b2o174b2o114b2o4947b2o833b$11138bobo833b$11974b$6900bo5073b$839bo6060b2o5072b$838b2o6059bobo5072b$838bobo11133b$11974b$15b2o11940b2o15b$11b2o2b2o3904bo8035b2o2b2o11b$11b2o3907b2o8039b2o11b$3920bobo8051b$23b2o5765b2o390b2o5765b2o23b$22bo2bo5764b2o390b2o5764bo2bo22b$23b2o8022bo3901b2o23b$8047b2o3925b$8046bobo3925b$11974b$19b2o11932b2o19b$15b2o2b2o11932b2o2b2o15b$15b2o11940b2o15b$9bo11954bo9b$9bo5948b2o54b2o5948bo9b$9bo5948b2o54b2o5948bo9b$11974b$11974b$20bo11932bo20b$19bobo5106bo6823bobo19b$19bobo5105b2o654bo5295bo872bobo19b$20bo5106bobo652bobo5294b2o872bo20b$5782bobo113b2o174b2o5002bobo893b$5783b3o112b2o174b2o5898b$5782b2o2bo402b2o649bo5133b$899bo4881bo402b3obob2o648b2o5132b$898b2o4881bobo403bo2bo648bobo5132b$898bobo4880bo3bo396bo7bo5783b$5779bo6bo394bo4bo3bo5783b$5779b3o4b2o389b2o3bo5791b$3981bo1798b5obo12bo376bo2b2o2b3obo4bo5781b$15b2o3963b2o1817bo375bo8b3o5bo5764b2o15b$11b2o2b2o3963bobo2189b3o6bo18bo5756b2o2b2o11b$11b2o6163b2o2bo10bo11bo5757b2o11b$6178b2o11bo6b2o4bo5769b$23b2o6163bo2b2o5bo4b2o1782bo3961b2o23b$22bo2bo5752b2o19bo388b5o5bo3b2o1783b2o3959bo2bo22b$23b2o5754bo19bo390b2o3b3obo2bo1783bobo3960b2o23b$6191b3o2bo4b2o5771b$6196bo5772b3o2b$6193bobo5773bo2bob$19b2o6173bo5758b2o14bo4b$15b2o2b2o6189bobo5740b2o2b2o10bo3bo$15b2o6194b2o5744b2o10bo3bo$9bo5772b2o406b2o19bo5752bo4bo4b$9bo5772b2o174b2o54b2o174b2o5772bo5bobob$9bo5948b2o54b2o5948bo9b$5756bobo6215b$5188bo567b2o6216b$2b3o15bo5166b2o568bo5261bo933bo20b$bo2bo14bobo5165bobo5829b2o931bobo19b$4bo14bobo10996bobo931bobo19b$o3bo15bo11932bo20b$o3bo5893b2o174b2o704bo5193b$4bo954bo4938b2o174b2o704b2o5192b$bobo954b2o5819bobo5192b$958bobo11013b$5790b2o390b2o5790b$5790b2o390b2o5790b$4041bo7932b$4040b2o7932b$4040bobo7931b$15b2o11940b2o15b$11b2o2b2o11940b2o2b2o11b$11b2o5741b2o2171bo4033b2o11b$5753b2o2172b2o4045b$23b2o5730bo407bo1762bobo4020b2o23b$22bo2bo6136bo5785bo2bo22b$23b2o6137b3o5784b2o23b$6213b2o5759b$6214b2o5758b$5815bo397bo5760b$19b2o5795bo6136b2o19b$15b2o2b2o5793b3o6136b2o2b2o15b$15b2o11940b2o15b$9bo5772b2o406b2o5772bo9b$9bo5772b2o174b2o54b2o174b2o5772bo9b$9bo5238bo709b2o54b2o5948bo9b$5247b2o5710bo1014b$5247bobo5709b2o1013b$20bo10937bobo992bo20b$19bobo11930bobo19b$19bobo6698bo5231bobo19b$20bo998bo5700b2o5231bo20b$1018b2o4878b2o174b2o643bobo5252b$1018bobo4877b2o174b2o5898b$11974b$11974b$4101bo1644b2o42b2o390b2o42b2o5746b$4100b2o1644b2o42b2o390b2o42b2o5746b$4100bobo7871b$11974b$11974b$15b2o5797b2o2051bo4089b2o15b$11b2o2b2o5796b2o2052b2o4088b2o2b2o11b$11b2o5802bo2050bobo4092b2o11b$11974b$23b2o11924b2o23b$22bo2bo6127b2o5793bo2bo22b$23b2o6129b2o5793b2o23b$6153bo5820b$11974b$11974b$19b2o11932b2o19b$15b2o2b2o11932b2o2b2o15b$15b2o11940b2o15b$9bo5298bo473b2o406b2o5772bo9b$9bo5297b2o473b2o174b2o54b2o174b2o4707bo1064bo9b$9bo5297bobo648b2o54b2o4883b2o1063bo9b$10898bobo1073b$11974b$20bo6639bo5292bo20b$19bobo1057bo5580b2o5290bobo19b$19bobo1056b2o5579bobo5290bobo19b$20bo1057bobo4810bobo6059bo20b$5894bo6079b$5890bo2bo184b2o5894b$4161bo1729bob2o179b3ob2o5894b$4160b2o1729bob3o4b2o171b6o5895b$4160bobo1583b2o42b2o99bo3bo4b2o170b3o107b2o42b2o5746b$5746b2o42b2o99bo3bo185bo100b2o42b2o5746b$5894bo185b3o5891b$5874b2o204bo2bo1723bo4166b$5873b2o206b3o1723b2o4165b$15b2o5858bo206bo1723bobo4148b2o15b$11b2o2b2o11940b2o2b2o11b$11b2o11948b2o11b$5890bo202b2o5879b$23b2o5864bo204b2o5853b2o18b3o2b$22bo2bo5863bo12b2o166b2o21bo5854bo2bo17bo2bob$23b2o5877b2o166b2o5877b2o18bo4b$11969bo3bo$11969bo3bo$11969bo4b$19b2o11932b2o15bobob$15b2o2b2o5347bo6584b2o2b2o15b$15b2o5350b2o590bo4879bo1117b2o15b$9bo5357bobo412b2o114b2o58bobo113b2o114b2o4647b2o1123bo9b$2b3o4bo5772b2o114b2o58bobo113b2o114b2o4646bobo1123bo9b$bo2bo4bo5949bo6004bo9b$4bo5956b2o51bo585bo5373b$o3bo1134bo4814bo2b2ob3o46bo3b2o585b2o5372b$o3bo15bo1117b2o4817b3obo46b2ob2obo584bobo5351bo20b$4bo14bobo1116bobo4820bo44b4o2b2o5938bobo19b$bobo15bobo5933bo2b3o3bo41b3obob2o5938bobo19b$20bo5934b8o39bo3b2o2b4o5939bo20b$4221bo1740bo12bo24b2obo4b2obob2ob2o5956b$4220b2o1752bobo20bo2b2ob2o4bo3b3o5958b$4220bobo1774bo2b2ob2o7b3o9bo5949b$5997bo3bo2bo7b3o5b2o2b3o5947b$5746b2o42b2o98b2o110b2o9b2o2bo5b5o54b2o98b2o42b2o5746b$5746b2o42b2o98b2o42b2o76b2o2bo6bo3b2o53b2o98b2o42b2o1519bo4226b$5933b2o19b2o18bobo35bo2bo6bobo1722b2o4225b$5935bo19bo19bo39bo3b2o2b4o9bo1709bobo4225b$5954bo60b2o3bo4bo8b2o5938b$15b2o6000b3o15b2o5920b2o15b$11b2o2b2o6000b3o15bo5921b2o2b2o11b$11b2o6022bo67bo5857b2o11b$6036bo65bo5871b$23b2o6009b3o65b3o5844b2o23b$22bo2bo5932b2o54b2o5932bo2bo22b$23b2o5933b2o54b2o5933b2o23b$5875bo6098b$5876bo6097b$5428bo445b3o6097b$19b2o5406b2o5350bo1173b2o19b$15b2o2b2o5406bobo5349b2o1172b2o2b2o15b$15b2o10761bobo1176b2o15b$9bo5772b2o114b2o174b2o114b2o5772bo9b$9bo5772b2o114b2o174b2o114b2o348bo5423bo9b$9bo1189bo5340b2o5422bo9b$1198b2o5339bobo5432b$1198bobo10773b$20bo5945b2o38b2o5945bo20b$19bobo5944b2o38b2o5944bobo19b$19bobo4259bo7670bobo19b$20bo4259b2o7671bo20b$4280bobo7691b$6121bo5852b$6119bobo5852b$6120b2o1565bo4286b$5746b2o42b2o98b2o190b2o98b2o42b2o1459b2o4285b$5746b2o42b2o98b2o96bo93b2o98b2o42b2o1458bobo4285b$5847bo138b2o5986b$5847bobo137b2o5985b$5847b2o6125b$15b2o11940b2o15b$11b2o2b2o5973bo5966b2o2b2o11b$11b2o5978b2o5968b2o11b$5990b2o5982b$23b2o11924b2o23b$22bo2bo5932b2o54b2o5932bo2bo22b$23b2o5933b2o54b2o5933b2o23b$5488bo6485b$5487b2o5230bo1254b$5487bobo5229b2o1253b$19b2o10697bobo1232b2o19b$15b2o2b2o11932b2o2b2o15b$15b2o6463bo5476b2o15b$9bo1249bo4522b2o114b2o174b2o114b2o288b2o5482bo9b$9bo1248b2o4522b2o114b2o174b2o114b2o287bobo5482bo9b$9bo1248bobo10703bo9b$11974b$11974b$20bo4320bo1624b2o38b2o5945bo20b$19bobo4318b2o1624b2o38b2o5944bobo19b$19bobo4318bobo7609bobo19b$20bo11932bo20b$11974b$7627bo4346b$7627b2o4345b$7626bobo4345b$5746b2o42b2o390b2o42b2o5746b$5746b2o42b2o390b2o42b2o5746b$11974b$11974b$11974b$15b2o11940b2o10b3o2b$11b2o2b2o11940b2o2b2o6bo2bob$11b2o11948b2o6bo4b$11969bo3bo$23b2o11924b2o18bo3bo$22bo2bo5522bo409b2o54b2o5932bo2bo17bo4b$23b2o5522b2o409b2o54b2o4643bo1289b2o19bobob$5547bobo5109b2o1313b$10658bobo1313b$11974b$2b3o14b2o6399bo5532b2o19b$bo2bo10b2o2b2o1298bo5100b2o5531b2o2b2o15b$4bo10b2o1301b2o5099bobo5535b2o15b$o3bo4bo1308bobo4461b2o114b2o174b2o114b2o5772bo9b$o3bo4bo5772b2o114b2o174b2o114b2o5772bo9b$4bo4bo11954bo9b$bobo4397bo7572b$4400b2o7572b$20bo4379bobo7550bo20b$19bobo11930bobo19b$19bobo11930bobo19b$20bo7546bo4385bo20b$7567b2o4405b$7566bobo4405b$11974b$11974b$5746b2o42b2o390b2o42b2o5746b$5746b2o42b2o390b2o42b2o5746b$11974b$11974b$11974b$15b2o11940b2o15b$11b2o2b2o11940b2o2b2o11b$11b2o11948b2o11b$5608bo6365b$23b2o5582b2o4990bo1349b2o23b$22bo2bo5581bobo348b2o54b2o4583b2o1347bo2bo22b$23b2o5933b2o54b2o4582bobo1348b2o23b$11974b$6360bo5613b$1379bo4980b2o5612b$19b2o1357b2o4979bobo5591b2o19b$15b2o2b2o1357bobo10572b2o2b2o15b$15b2o11940b2o15b$9bo5772b2o114b2o174b2o114b2o5772bo9b$9bo4451bo1320b2o114b2o174b2o114b2o5772bo9b$9bo4450b2o7502bo9b$4460bobo7511b$11974b$20bo11932bo20b$19bobo7485bo4444bobo19b$19bobo5769bo1715b2o4443bobo19b$20bo5769b3o388bo1324bobo4444bo20b$5789b2ob2o385bobo5792b$5794bo385b2o5792b$5787b2obo4bo6178b$5788bobo4bo6178b$5746b2o41bo4bo387b2o42b2o5746b$5746b2o434b2o42b2o5746b$11974b$11974b$11974b$15b2o5768b3o6169b2o15b$11b2o2b2o5651bo116bo2bo6168b2o2b2o11b$11b2o5654b2o115bo2b2o4750bo1421b2o11b$5667bobo114b2o4753b2o1433b$23b2o6157b3o4353bobo1408b2o23b$22bo2bo5762bo169b2o54b2o166b3o5763bo2bo22b$23b2o5764b2o167b2o54b2o166bo2bo114bo5648b2o23b$1439bo4348b2o393b3o114b2o5672b$1438b2o4743b2o114bobo5672b$1438bobo10533b$19b2o11932b2o19b$15b2o2b2o11932b2o2b2o15b$15b2o4504bo7435b2o15b$9bo4510b2o1376b2o174b2o5888bo9b$9bo4510bobo1375b2o174b2o5888bo9b$9bo11954bo9b$6192b2o5780b$5790b2o390b2o8b2o1253bo4526b$20bo5769b2o390b2o1263b2o4504bo20b$19bobo7424bobo4503bobo19b$19bobo11930bobo19b$20bo11932bo20b$11974b$6193b3o5778b$6192bo3bo5777b$6191bo3b2o5777b$5746b2o443bo4bo29b2o5746b$5746b2o443bo3bo30b2o5741b3o2b$11969bo2bob$6193b2o5774bo4b$5728bo6240bo3bo$15b2o5710b2o4750bo1477b2o10bo3bo$11b2o2b2o5710bobo4749b2o1476b2o2b2o6bo4b$11b2o10465bobo1480b2o7bobob$11974b$23b2o5757b2o406b2o48bo5708b2o23b$22bo2bo1473bo4282b2o174b2o54b2o174b2o48b2o5706bo2bo22b$2b3o18b2o1473b2o4458b2o54b2o223bobo5707b2o23b$bo2bo1493bobo10473b$4bo11969b$o3bo11969b$o3bo14b2o4560bo7371b2o19b$4bo10b2o2b2o4559b2o7371b2o2b2o15b$bobo11b2o4563bobo7374b2o15b$9bo5888b2o174b2o5888bo9b$9bo5888b2o174b2o5888bo9b$9bo7377bo4576bo9b$7387b2o4585b$5790b2o390b2o1202bobo4585b$20bo5769b2o390b2o5769bo20b$19bobo11930bobo19b$19bobo11930bobo19b$20bo11932bo20b$11974b$5785bo6188b$5784b2o6188b$5784bobo6187b$11974b$11974b$6183bo5790b$6183b2o4234bo1554b$6182bobo4234b2o1553b$15b2o10401bobo1536b2o15b$11b2o2b2o11940b2o2b2o11b$11b2o11948b2o11b$1559bo10414b$23b2o1533b2o4222b2o406b2o5757b2o23b$22bo2bo1532bobo4221b2o174b2o54b2o174b2o5756bo2bo22b$23b2o5933b2o54b2o5933b2o23b$11974b$4641bo7332b$4640b2o7332b$19b2o4619bobo7310b2o19b$15b2o2b2o11932b2o2b2o15b$15b2o11940b2o15b$9bo5888b2o174b2o1251bo4636bo9b$9bo5888b2o174b2o1251b2o4635bo9b$9bo7316bobo4635bo9b$11974b$5790b2o390b2o5790b$20bo5769b2o390b2o5769bo20b$19bobo5874b2o6054bobo19b$19bobo5873b3o6054bobo19b$20bo5824bo50bob2o5b2o166b3o5877bo20b$5844b2o51bo2b2o3b3o165b2o5899b$5844bobo36bo12b3o8bo172b3o3b3o5885b$5882bobo4b2o4bo4b2o2b2o161b2o7b6obob6o5883b$5889bobo3bo8b2o161bobo5bob5o4b2ob2o5883b$5884bo6bo3bo2bo6bo5bobo153bob2ob4o2bo2bo4b2o3bo31bo5850b$5884bo3bob2o4bobo7bo5b2o154bo2b7o3bo3b6o32b2o4234bo1614b$5880bo3bo2b2o23bo156b3o5bo4bo5b3o31bobo4234b2o1613b$5884bo3b2o240bo4227bobo1613b$5880bo3b2o242b2o5844b$15b2o5864b2obo244b2o5826b2o15b$11b2o2b2o1602bo4263bo6073b2o2b2o11b$11b2o1605b2o10341b2o11b$1618bobo4227bo6125b$23b2o5757b2o65b2o47b2o174b2o114b2o5757b2o23b$22bo2bo5756b2o64b2o48b2o58b2o54b2o58b2o114b2o5756bo2bo22b$23b2o4676bo1256b2o54b2o5933b2o23b$4700b2o7272b$4700bobo7271b$11974b$19b2o11932b2o19b$15b2o2b2o7246bo4685b2o2b2o15b$15b2o7250b2o4688b2o15b$9bo7256bobo4695bo9b$9bo6080bo5873bo9b$9bo6081bo5872bo9b$6089b3o5882b$5790b2o98b2o190b2o98b2o5790b$20bo5769b2o98b2o190b2o98b2o5769bo20b$19bobo5856bo26bo6046bobo19b$19bobo5855bo26b2o6046bobo19b$20bo5856b3o24bobo6046bo20b$11974b$11969b3o2b$6063bo5905bo2bob$6063b2o4234bo1669bo4b$5966bo95bobo4234b2o1668bo3bo$5965b3o4330bobo1668bo3bo$5964b5o6000bo4b$5963b3ob2o6001bobob$1679bo4283b2ob2o6006b$15b2o1661b2o4285bo5991b2o15b$11b2o2b2o1661bobo10276b2o2b2o11b$2b3o6b2o11948b2o11b$bo2bo6002bo5966b$4bo18b2o4736bo1020b2o114b2o106b3o65b2o114b2o5757b2o23b$o3bo17bo2bo4734b2o1020b2o114b2o105b2o2bo64b2o114b2o5756bo2bo22b$o3bo18b2o4735bobo1242bo3bo5939b2o23b$4bo6000bob2o5965b$bobo5952b2o47b2o9b2o5956b$5956b2o8b2o48b2o1189bo4766b$19b2o5945b2o1239b2o4744b2o19b$15b2o2b2o7185bobo4744b2o2b2o15b$15b2o11940b2o15b$9bo11954bo9b$9bo5944b3o58bobo5946bo9b$9bo5944bo2bo58b2o5946bo9b$5952bo5bo57bo5957b$5790b2o98b2o60bobo4bo122b2o98b2o5790b$20bo5769b2o98b2o60b3o2bobo122b2o98b2o5769bo20b$19bobo5936bo59b2o5932bobo19b$19bobo5996b2o5932bobo19b$20bo11932bo20b$11974b$10239bo1734b$10239b2o1733b$10238bobo1733b$11974b$5958b2o54b2o5958b$1739bo4218b2o54b2o5958b$1738b2o10234b$1738bobo10233b$15b2o11940b2o15b$11b2o2b2o11940b2o2b2o11b$11b2o4808bo7139b2o11b$4820b2o7152b$23b2o4795bobo959b2o114b2o174b2o114b2o5757b2o23b$22bo2bo5756b2o114b2o174b2o114b2o5756bo2bo22b$23b2o11924b2o23b$7147bo4826b$7147b2o4825b$5966b2o38b2o1138bobo4825b$19b2o5945b2o38b2o5945b2o19b$15b2o2b2o11932b2o2b2o15b$15b2o11940b2o15b$9bo11954bo9b$9bo11954bo9b$9bo11954bo9b$11974b$5790b2o390b2o5790b$20bo5769b2o390b2o5769bo20b$19bobo11930bobo19b$19bobo11930bobo19b$20bo10158bo1773bo20b$10179b2o1793b$10178bobo1793b$11974b$11974b$1799bo10174b$1798b2o4158b2o54b2o5958b$1798bobo4157b2o54b2o5958b$11974b$11974b$15b2o4864bo7075b2o15b$11b2o2b2o4863b2o7075b2o2b2o11b$11b2o4867bobo7078b2o11b$11974b$23b2o5757b2o114b2o174b2o114b2o5757b2o23b$22bo2bo5756b2o114b2o174b2o114b2o895bo4860bo2bo22b$23b2o7062b2o4860b2o23b$7086bobo4885b$11974b$11974b$19b2o11932b2o19b$15b2o2b2o11932b2o2b2o15b$15b2o6133bo5806b2o15b$9bo6141bo5812bo9b$9bo6139b3o5812bo9b$9bo11954bo9b$11974b$5790b2o26bo363b2o5790b$20bo5769b2o25bo364b2o5769bo20b$19bobo5795b3o4299bo1832bobo14b3o2b$19bobo10097b2o1831bobo14bo2bob$20bo10097bobo1832bo15bo4b$11969bo3bo$11969bo3bo$1859bo10109bo4b$1858b2o10110bobob$1858bobo10113b$5958b2o54b2o5958b$5958b2o54b2o5958b$2b3o4936bo7032b$bo2bo4935b2o7032b$4bo10b2o4923bobo7014b2o15b$o3bo6b2o2b2o11940b2o2b2o11b$o3bo6b2o11948b2o11b$4bo7022bo4946b$bobo19b2o5757b2o114b2o174b2o114b2o835b2o4920b2o23b$22bo2bo5756b2o114b2o174b2o114b2o834bobo4919bo2bo22b$23b2o11924b2o23b$11974b$11974b$11974b$19b2o11932b2o19b$15b2o2b2o11932b2o2b2o15b$15b2o11940b2o15b$9bo11954bo9b$9bo11954bo9b$9bo11954bo9b$11974b$5790b2o390b2o3875bo1914b$20bo5769b2o390b2o3875b2o1892bo20b$19bobo10036bobo1891bobo19b$19bobo11930bobo19b$20bo11932bo20b$1919bo10054b$1918b2o10054b$1918bobo10053b$11974b$11974b$5001bo956b2o54b2o5958b$5000b2o956b2o54b2o5958b$5000bobo6971b$11974b$15b2o11940b2o15b$11b2o2b2o6950bo4989b2o2b2o11b$11b2o6954b2o4992b2o11b$5782bo1183bobo5005b$23b2o5756b2o115b2o174b2o115bo5757b2o23b$22bo2bo5755bobo114b2o174b2o113b2obo5755bo2bo22b$23b2o5754bobobo399b3o2bo3bo5756b2o23b$5777bob2ob2o402bo5bo5781b$5776bo410bobob2o5781b$5777b2o405bo4bobobo5780b$19b2o5770bo393b3obobobo5759b2o19b$15b2o2b2o5770bo395b2o3bo5760b2o2b2o15b$15b2o5774bo6165b2o15b$9bo6164bo5789bo9b$9bo6163b3o5788bo9b$9bo6162bobobo3822bo1964bo9b$6172bobobo3822b2o1973b$6173b3o19b2o3801bobo1973b$20bo5757b2o394bo19bo3bo5754bo20b$19bobo5756b2o414bo5bo5751bobo19b$19bobo1957bo4215b2obobo5751bobo19b$20bo1957b2o4216bo4bo5751bo20b$1978bobo4215bo4bo5772b$6196bo4bo5772b$6197b3o5774b$5061bo6912b$5060b2o720b2o406b2o5782b$5060bobo719b2o174b2o54b2o174b2o23bo5758b$5958b2o54b2o197bobo5758b$6214b2o5758b$6907bo5066b$15b2o6890b2o5048b2o15b$11b2o2b2o5736bo1152bobo5048b2o2b2o11b$11b2o5740bobo6205b2o11b$5753b2o6219b$23b2o5873b2o174b2o5873b2o23b$22bo2bo5872b2o174b2o5872bo2bo22b$23b2o11924b2o23b$11974b$5790b2o390b2o5790b$5790b2o390b2o5790b$19b2o11932b2o19b$15b2o2b2o11932b2o2b2o15b$15b2o11940b2o15b$9bo9929bo2024bo9b$9bo9929b2o2023bo9b$9bo9928bobo2023bo4b3o2b$11969bo2bob$11969bo4b$20bo2018bo9913bo15bo3bo$19bobo2016b2o9912bobo14bo3bo$19bobo2016bobo9911bobo14bo4b$20bo6138bobo5791bo16bobob$6159b2o5813b$5121bo1038bo5813b$5120b2o6852b$2b3o5115bobo6851b$bo2bo5777b2o33bobo370b2o5782b$4bo5777b2o34b2o138b2o54b2o174b2o5782b$o3bo5813bo139b2o54b2o831bo5126b$o3bo6842b2o5125b$4bo6841bobo5125b$bobo11b2o11940b2o15b$11b2o2b2o11940b2o2b2o11b$11b2o11948b2o11b$11974b$23b2o5873b2o174b2o5873b2o23b$22bo2bo5872b2o174b2o5872bo2bo22b$23b2o11924b2o23b$11974b$5790b2o390b2o5790b$5790b2o390b2o5790b$19b2o5728b2o6202b2o19b$15b2o2b2o5728bobo4127bo2073b2o2b2o15b$15b2o5732bo4129b2o2076b2o15b$9bo9868bobo2083bo9b$9bo11954bo9b$9bo6208b2o5744bo9b$2099bo4117bobo5754b$2098b2o4119bo5754b$20bo2077bobo9852bo20b$19bobo5707b3o510b3o5707bobo19b$19bobo11930bobo19b$20bo5160bo545bo5bo506bo5bo5706bo20b$5180b2o545bo5bo506bo5bo5727b$5180bobo544bo5bo506bo5bo5727b$11974b$5729b3o510b3o5729b$5782b2o406b2o595bo5186b$5782b2o174b2o54b2o174b2o595b2o5185b$5958b2o54b2o770bobo5185b$11974b$11974b$15b2o11940b2o15b$11b2o2b2o11940b2o2b2o11b$11b2o11948b2o11b$11974b$23b2o5873b2o174b2o5873b2o23b$22bo2bo5872b2o174b2o5872bo2bo22b$23b2o11924b2o23b$11974b$5790b2o17b2o371b2o5790b$5790b2o17bobo370b2o3635bo2154b$19b2o5788bo4009b2o2132b2o19b$15b2o2b2o9797bobo2132b2o2b2o15b$15b2o11940b2o15b$9bo6148b2o5804bo9b$9bo2149bo3997bobo5804bo9b$9bo2148b2o3999bo5804bo9b$2158bobo9813b$11974b$20bo11932bo20b$19bobo5219bo487b3o510b3o5707bobo19b$19bobo5218b2o6710bobo19b$20bo5219bobo484bo5bo506bo5bo5706bo20b$5727bo5bo506bo5bo5727b$5727bo5bo506bo5bo5727b$6727bo5246b$5729b3o510b3o482b2o5245b$5782b2o406b2o534bobo5245b$5782b2o174b2o54b2o174b2o5782b$5958b2o54b2o5958b$11974b$11974b$15b2o11940b2o15b$11b2o2b2o11940b2o2b2o11b$11b2o11948b2o11b$6080b2o5892b$23b2o5866bo188b3o5866b2o23b$22bo2bo5864b3o187b3o5865bo2bo22b$23b2o5844b2o18b2obo189bo5866b2o23b$5869bobo28b2o170b2o4b2o3679bo2214b$5790b2o77bo30b2o170b2o4bob3o99b2o3575b2o2213b$5790b2o287b4o99b2o3574bobo2213b$19b2o6058b2o5872b2o19b$15b2o2b2o6077b2o5853b2o2b2o10b3o2b$15b2o2202bo3678bobo196bobo5857b2o10bo2bob$9bo2208b2o3679b2o198bo5864bo4bo4b$9bo2208bobo3678bo6064bo4bo3bo$9bo11954bo4bo3bo$6083bo5885bo4b$5301bo780bobo5885bobob$20bo5279b2o600b2o166b2o12bo5868bo20b$19bobo5278bobo426b3o170b2o166b2o11bo15bobo140b3o5707bobo19b$19bobo6077b2o5851bobo19b$2b3o15bo5706bo5bo366bo139bo5bo5706bo20b$bo2bo5722bo5bo506bo5bo420bo5306b$4bo5722bo5bo506bo5bo420b2o5305b$o3bo5872bobo786bobo5305b$o3bo5724b3o146b2o76b3o283b3o5729b$4bo5777b2o94bo19b2o56b4o53b3o58b2o114b2o5782b$bobo5778b2o114b2o55bo4bo52b3o58b2o114b2o5782b$5956b3o2bo6012b$5955bo2bo2bo46bo2bo5962b$5955b2o2b3o46bo2b2o5b2o5954b$15b2o5938bo2b3o51bob6o5937b2o15b$11b2o2b2o5939b4o48bo3bo2bo2bo5938b2o2b2o11b$11b2o5995bo4b3ob2o5942b2o11b$5966b3o41b3o3b2o5956b$23b2o5904b2o6018b2o23b$22bo2bo5903bobo65b3o3699bo2248bo2bo22b$23b2o5904bo67b3o3699b2o2248b2o23b$5998bo3699bobo2273b$5790b2o98b2o106bo83b2o98b2o5790b$5790b2o98b2o105b3o38b2o42b2o98b2o5790b$19b2o2258bo3674b2o41b3o18b2o17bobo5913b2o19b$15b2o2b2o2257b2o3674b2o62bobo18bo5913b2o2b2o15b$15b2o2261bobo3741bobo5932b2o15b$9bo6009bo5bo5938bo9b$9bo6010bo5943bo9b$9bo5351bo6602bo9b$5360b2o6612b$5360bobo658bobo5950b$20bo5937b2o54b2o5937bo20b$19bobo5707b3o226b2o54b2o226b3o5707bobo19b$19bobo6585bo5344bobo19b$20bo5706bo5bo506bo5bo360b2o5344bo20b$5727bo5bo506bo5bo359bobo5365b$5727bo5bo506bo5bo5727b$11974b$5729b3o510b3o5729b$5782b2o114b2o174b2o114b2o5782b$5782b2o114b2o174b2o114b2o5782b$11974b$11974b$11974b$15b2o5949b2o38b2o5949b2o15b$11b2o2b2o5949b2o38b2o5949b2o2b2o11b$11b2o11948b2o11b$9639bo2334b$23b2o9614b2o2308b2o23b$22bo2bo9612bobo2307bo2bo22b$23b2o11924b2o23b$11974b$2339bo3450b2o390b2o5790b$2338b2o3450b2o390b2o5790b$19b2o2317bobo3783bobo5826b2o19b$15b2o2b2o6104b2o5826b2o2b2o15b$15b2o6108bo5831b2o15b$9bo5411bo6542bo9b$9bo5410b2o560bo5981bo9b$9bo5410bobo419bobo137bobo5979bo9b$5842b2o138b2o5990b$5843bo6130b$20bo5937b2o54b2o531bo5405bo20b$19bobo5707b3o226b2o36bo17b2o226b3o302b2o5403bobo19b$19bobo5972bobo549bobo5403bobo19b$20bo5706bo5bo261b2o243bo5bo5706bo20b$5727bo5bo506bo5bo5727b$5727bo5bo506bo5bo5727b$11974b$5729b3o510b3o5729b$5782b2o114b2o174b2o114b2o5782b$5782b2o114b2o174b2o114b2o5782b$11974b$11974b$11974b$15b2o5949b2o38b2o5949b2o15b$11b2o2b2o5949b2o38b2o3571bo2377b2o2b2o11b$11b2o9566b2o2380b2o11b$9578bobo2393b$23b2o11924b2o23b$22bo2bo11922bo2bo22b$23b2o2374bo9549b2o23b$2398b2o9569b3o2b$2398bobo3389b2o390b2o5785bo2bob$5790b2o390b2o5785bo4b$19b2o11932b2o14bo3bo$15b2o2b2o5460bo6471b2o2b2o10bo3bo$15b2o5463b2o6475b2o10bo4b$9bo5470bobo6481bo5bobob$9bo11954bo9b$9bo11954bo9b$6487bo5486b$2b3o6482b2o5485b$bo2bo15bo5937b2o54b2o470bobo5464bo20b$4bo14bobo5707b3o226b2o54b2o226b3o5707bobo19b$o3bo14bobo11930bobo19b$o3bo15bo5706bo5bo506bo5bo5706bo20b$4bo5722bo5bo506bo5bo5727b$bobo5723bo5bo506bo5bo5727b$11974b$5729b3o510b3o5729b$5782b2o114b2o174b2o114b2o5782b$5782b2o114b2o174b2o114b2o5782b$11974b$11974b$9519bo2454b$15b2o9502b2o2436b2o15b$11b2o2b2o9501bobo2436b2o2b2o11b$11b2o11948b2o11b$11974b$23b2o2434bo9489b2o23b$22bo2bo2432b2o9488bo2bo22b$23b2o2433bobo9488b2o23b$11974b$5790b2o390b2o5790b$5541bo248b2o390b2o5790b$19b2o5519b2o6411b2o19b$15b2o2b2o5519bobo6410b2o2b2o15b$15b2o11940b2o15b$9bo11954bo9b$9bo6417bo5536bo9b$9bo6417b2o5535bo9b$6426bobo5545b$11974b$20bo5937b2o54b2o5937bo20b$19bobo5707b3o226b2o54b2o226b3o5707bobo19b$19bobo11930bobo19b$20bo5706bo5bo506bo5bo5706bo20b$5727bo5bo506bo5bo5727b$5727bo5bo506bo5bo5727b$11974b$5729b3o510b3o5729b$5782b2o114b2o174b2o114b2o5782b$5782b2o114b2o174b2o114b2o5782b$9459bo2514b$9459b2o2513b$9458bobo2513b$15b2o11940b2o15b$11b2o2b2o11940b2o2b2o11b$11b2o2506bo9441b2o11b$2518b2o3661b3o5790b$23b2o2493bobo3264b2o393bo2bo5765b2o23b$22bo2bo5758bo394bo5bo5762bo2bo22b$23b2o5758bo3b3o388bo4bobo5763b2o23b$5601bo181bo2b5o387bobo2b3o5788b$5600b2o181b2o5b2o387bo5794b$5600bobo186b2o6183b$19b2o5762b2o6168b2o19b$15b2o2b2o11932b2o2b2o15b$15b2o5769bo580bo5589b2o15b$9bo5773b3o400b3o178b2o5595bo9b$9bo6175bo2bo177bobo5595bo9b$9bo6175b2o2bo5774bo9b$6188b2o5784b$5782b2o6190b$20bo5761b2o174b2o54b2o169bo5767bo20b$19bobo5707b3o226b2o54b2o167b2o57b3o5707bobo19b$19bobo6162b2o5766bobo19b$20bo5706bo5bo506bo5bo5706bo20b$5727bo5bo506bo5bo5727b$5727bo5bo59bo446bo5bo5727b$5794b2o6178b$5729b3o61b2o447b3o5729b$5898b2o174b2o3323bo2574b$5898b2o174b2o3323b2o2573b$9398bobo2573b$11974b$5790b2o390b2o5790b$15b2o2562bo3210b2o390b2o5773b2o15b$11b2o2b2o2561b2o9377b2o2b2o11b$11b2o2565bobo9380b2o11b$11969b3o2b$23b2o11924b2o18bo2bob$22bo2bo5635bo6286bo2bo17bo4b$23b2o5635b2o6287b2o18bo3bo$5660bobo6306bo3bo$11969bo4b$11970bobob$19b2o6286bo5645b2o19b$15b2o2b2o6286b2o5644b2o2b2o15b$15b2o6289bobo5648b2o15b$2b3o4bo11954bo9b$bo2bo4bo11954bo9b$4bo4bo11954bo9b$o3bo11969b$o3bo5777b2o406b2o5782b$4bo15bo5761b2o174b2o54b2o174b2o5761bo20b$bobo15bobo5707b3o226b2o54b2o226b3o5707bobo19b$19bobo11930bobo19b$20bo5706bo5bo506bo5bo5706bo20b$5727bo5bo506bo5bo5727b$5727bo5bo506bo5bo5727b$9339bo2634b$5729b3o510b3o3094b2o2633b$5898b2o174b2o3262bobo2633b$5898b2o174b2o5898b$11974b$2639bo9334b$2638b2o3150b2o390b2o5790b$15b2o2621bobo3149b2o390b2o5773b2o15b$11b2o2b2o11940b2o2b2o11b$11b2o11948b2o11b$5721bo6252b$23b2o5695b2o6227b2o23b$22bo2bo5694bobo6225bo2bo22b$23b2o11924b2o23b$11974b$6247bo5726b$6247b2o5725b$19b2o6225bobo5704b2o19b$15b2o2b2o11932b2o2b2o15b$15b2o11940b2o15b$9bo11954bo9b$9bo11954bo9b$9bo11954bo9b$11974b$5782b2o406b2o44bo5737b$20bo5761b2o174b2o54b2o174b2o45bo5715bo20b$19bobo5936b2o54b2o222bo5713bobo19b$19bobo6213bo2bo5713bobo19b$20bo6213bo4bo5713bo20b$6235bob2o3040bo2694b$6236b2o3041b2o2693b$9278bobo2693b$6234b3o5737b$5898b2o174b2o158b2ob2o5735b$2699bo3198b2o174b2o159bo2bo5735b$2698b2o3536bobo5735b$2698bobo9273b$5790b2o390b2o5790b$15b2o5773b2o390b2o5773b2o15b$11b2o2b2o11940b2o2b2o11b$11b2o11948b2o11b$11974b$23b2o5759bo6164b2o23b$22bo2bo5757b2o6163bo2bo22b$23b2o5758bobo6163b2o23b$11974b$11974b$6184bo5789b$19b2o6163b2o5767b2o19b$15b2o2b2o6162bobo5767b2o2b2o15b$15b2o11940b2o15b$9bo11954bo9b$9bo11954bo9b$9bo11954bo9b$6125bo5848b$5782b2o339b2o65b2o5782b$20bo5761b2o174b2o54b2o108b2o64b2o5761bo20b$19bobo5936b2o54b2o5936bobo19b$19bobo9197bo2732bobo19b$20bo5832bo3365b2o2732bo20b$5854b2o3362bobo2753b$5853b2o6119b$11974b$2759bo9214b$2758b2o3138b2o174b2o5898b$2758bobo3137b2o174b2o5898b$11974b$11947b3o24b$5790b2o390b2o5762bo4bo17b3o2b$15b2o5773b2o390b2o5767bo5b2o10bo2bob$11b2o2b2o5882bo6044bo2bobo7b2o2b2o6bo4b$11b2o5831bo49b3obobo173b2o5868bo2bobobo9b2o6bo3bo$5843b2o50b4ob2o3b3o166bo5869bo7bo16bo3bo$5843bobo54bo2b5o6037bo5bo17bo4b$26b2o5861b2o3b2o3bo3bo162bo2bo5bo5872b3o19bobob$25bo2bo5853b3o3bo2bobo5bo4b5o157bo2bo6bo5872bo24b$26b2o5856bo2bo6b3o11bo156bo5bo4b2o13bo32bo5824b2o23b$5882bob2o2b3o3bo10bobo158b2obobo5bo3b2o6b2ob2o30b2o5823b2o23b$2b3o5877bob2obo3b3o11b2o5bobo151bo4bobob2obo2b2o6bo2bo30bobo5822bo2bo22b$bo2bo5879bob2o4bo20b2o152b8obobo11b2o5857bobo22b$4bo10b2o5872bo23bo155b9o5871bobo5b2o15b$o3bo10b2o5867b3o2bo180bo5886b2o15b$o3bo4bo12b3o5855bo4bo6078bo9b$4bo4bo12bo2bo5854bo4bo6063bo14bo9b$bobo5bo10b2o4b3o5852bo2bo6063b2obo12bo9b$18bob3o11925bo2bo22b$17bo3b2o6bo5752b2o114b2o174b2o114b2o5756b3o23b$18bobobo5759b2o114b2o58b2o54b2o58b2o114b2o2967bo2789b2o2bo20b$19bob2o5bo5929b2o54b2o3143b2o2791bobo19b$23b2ob2o9130bobo2791bobo19b$72bo11880bo20b$71b2o11901b$71bobo2745bo9154b$2818b2o9154b$2818bobo9153b$11896bo77b$11896b2o76b$6091bo5803bobo76b$6092bo5881b$5790b2o98b2o190b2o6b3o89b2o5790b$15b2o5773b2o98b2o12bo177b2o98b2o5773b2o15b$11b2o2b2o5886b2o6052b2o2b2o11b$11b2o5864bo25bobo6055b2o11b$5876bo6097b$5876b3o6095b$26b2o6036bo5881b2o26b$25bo2bo5937bo97b2o5879bo2bo25b$26b2o5937b2o96bobo5880b2o26b$5964bo2bo6006b$5964bobo6007b$5964bo2bo6006b$15b2o5b2o5940bo2bo5982b2o5b2o15b$15b2o5b2o5941bobo5982b2o5b2o15b$9bo5954b3o5997bo9b$9bo8b2o5987bo5946b2o8bo9b$9bo7bo2bo5985b3o5944bo2bo7bo9b$17bobo5985b2o2bo3089bo2854bobo17b$18bo5763b2o114b2o105b2ob2o64b2o114b2o2907b2o2854bo18b$5782b2o114b2o108b3o63b2o114b2o2906bobo2873b$132bo5873bob2o5964b$131b2o5872bo2bo5965b$131bobo2745bo3076b2o50bo7b2o5956b$2878b2o3076b2o8b2o37bobo8b2o5956b$2878bobo3085b2o38bo5967b$11836bo137b$5954b3o5879b2o136b$5954b3o5878bobo136b$5953b4o6017b$5951b2obo61bobo5955b$5951b2ob2o61b2o5955b$5790b2o159b5o2b2o57bo164b2o5790b$15b2o5773b2o160b3o227b2o5773b2o15b$11b2o2b2o5935bo65b2o5937b2o2b2o11b$11b2o6005b2o5941b2o11b$11974b$11974b$26b2o11918b2o26b$25bo2bo11916bo2bo25b$26b2o11918b2o26b$11974b$5958b2o54b2o5958b$5958b2o54b2o5958b$15b2o5b2o11926b2o5b2o15b$15b2o5b2o11926b2o5b2o15b$9bo11954bo9b$9bo8b2o9019bo2914b2o8bo9b$9bo7bo2bo9018b2o2912bo2bo7bo9b$17bobo9018bobo2913bobo17b$18bo173bo5589b2o114b2o174b2o114b2o5763bo18b$191b2o5589b2o114b2o174b2o114b2o5782b$191bobo2745bo9034b$2938b2o9034b$2938bobo9033b$5966b2o38b2o5768bo197b$5966b2o38b2o5768b2o196b$11775bobo196b$11974b$11969b3o2b$11969bo2bob$11969bo4b$11969bo3bo$5790b2o390b2o5785bo3bo$15b2o5773b2o390b2o5773b2o10bo4b$11b2o2b2o11940b2o2b2o7bobob$11b2o11948b2o11b$11974b$11974b$2b3o21b2o11918b2o26b$bo2bo20bo2bo11916bo2bo25b$4bo21b2o11918b2o26b$o3bo11969b$o3bo5953b2o54b2o5958b$4bo5953b2o54b2o5958b$bobo11b2o5b2o11926b2o5b2o15b$15b2o5b2o8955bo2970b2o5b2o15b$9bo8969b2o2983bo9b$9bo8b2o8958bobo2973b2o8bo9b$9bo7bo2bo231bo11700bo2bo7bo9b$17bobo231b2o11701bobo17b$18bo232bobo2745bo2782b2o114b2o174b2o114b2o5763bo18b$2998b2o2782b2o114b2o174b2o114b2o5782b$2998bobo8973b$11716bo257b$11716b2o256b$11715bobo256b$11974b$11974b$11974b$6151bo5822b$6152bo5821b$6150b3o5821b$11974b$5790b2o390b2o5790b$15b2o5773b2o25bo364b2o5773b2o15b$11b2o2b2o5799bo6140b2o2b2o11b$11b2o5803b3o6142b2o11b$11974b$11974b$26b2o11918b2o26b$25bo2bo11916bo2bo25b$26b2o11918b2o26b$11974b$5958b2o54b2o5958b$5958b2o54b2o2903bo3054b$15b2o5b2o8895b2o3029b2o5b2o15b$15b2o5b2o8894bobo3029b2o5b2o15b$9bo302bo11651bo9b$9bo8b2o291b2o11641b2o8bo9b$9bo7bo2bo290bobo2745bo8893bo2bo7bo9b$17bobo3038b2o8894bobo17b$18bo3039bobo2721b2o114b2o174b2o114b2o5763bo18b$5782b2o114b2o174b2o114b2o5464bo317b$11656b2o316b$11655bobo316b$11974b$11974b$11974b$11974b$11974b$11974b$11974b$11974b$11974b$5790b2o390b2o5790b$15b2o5773b2o390b2o5773b2o15b$11b2o2b2o11940b2o2b2o11b$11b2o11948b2o11b$11974b$11974b$26b2o11918b2o26b$25bo2bo11916bo2bo25b$26b2o11918b2o26b$8859bo3114b$5958b2o54b2o2843b2o3113b$5958b2o54b2o2842bobo3113b$15b2o5b2o348bo11577b2o5b2o15b$15b2o5b2o347b2o11577b2o5b2o15b$9bo361bobo2745bo8844bo9b$9bo8b2o3098b2o8834b2o8bo9b$9bo7bo2bo3097bobo2659b3o6170bo2bo7bo9b$17bobo5760b4o405b3o5404bo357bobo17b$18bo5760bo4bo113b2o174b2o113b3o5404b2o357bo18b$5780b3o2bo112b2o174b2o5519bobo376b$5779bo2bo2bo398bo2bo5786b$5779b2o2b3o398bo2b2o5b2o5778b$5779bo2b3o403bob6o5778b$5780b4o400bo3bo2bo2bo5774b3o2b$6184bo4b3ob2o5774bo2bob$5790b3o393b3o3b2o5775bo4b$11969bo3bo$6173b3o5793bo3bo$6173b3o5793bo4b$6174bo5795bobob$6174bo5799b$6173b3o5798b$15b2o5761b2o393b3o18b2o5761b2o15b$2b3o6b2o2b2o5761b2o414bobo5760b2o2b2o11b$bo2bo6b2o6185bobo5760b2o11b$4bo6190bo5bo5772b$o3bo6191bo5777b$o3bo21b2o11918b2o26b$4bo20bo2bo8770bo3145bo2bo25b$bobo22b2o6169bobo2599b2o3145b2o26b$5782b2o406b2o2606bobo3173b$432bo5349b2o174b2o54b2o174b2o16b2o5764b$431b2o5525b2o54b2o5958b$15b2o5b2o407bobo2745bo3027b2o5741b2o5b2o15b$15b2o5b2o3154b2o3027bo5742b2o5b2o15b$9bo3168bobo8783bo9b$9bo8b2o11516bo417b2o8bo9b$9bo7bo2bo11515b2o415bo2bo7bo9b$17bobo11515bobo416bobo17b$18bo5879b2o174b2o5879bo18b$5898b2o174b2o5898b$11974b$11974b$5790b2o390b2o5790b$5790b2o390b2o5790b$11974b$11974b$5812b3o6159b$5812bo6161b$5813bo6160b$11974b$11974b$6154b3o5817b$15b2o6139bo5800b2o15b$11b2o2b2o6138bo5801b2o2b2o11b$11b2o11948b2o11b$11974b$6158bo2580bo3234b$26b2o6130bobo2578b2o3205b2o26b$25bo2bo6129b2o2578bobo3204bo2bo25b$26b2o464bo11453b2o26b$491b2o5289b2o406b2o5782b$491bobo2745bo2542b2o36bo137b2o54b2o174b2o5782b$3238b2o2578bobo137b2o54b2o5958b$15b2o5b2o3214bobo2578b2o6129b2o5b2o15b$15b2o5b2o11452bo473b2o5b2o15b$9bo11466b2o486bo9b$9bo8b2o11455bobo476b2o8bo9b$9bo7bo2bo11932bo2bo7bo9b$17bobo5873bo6060bobo17b$18bo5874bo6061bo18b$5893bo182bobo5895b$6079bo5894b$5890bobo7b2o170b2o2bob3obo5891b$5790b2o97bo2bo2bo4b2o170b2o5bo2bo99b2o5790b$5790b2o98bobo3b2o185bo98b2o5790b$5872b3o20b2o183bob3o5889b$5872bo211bo5889b$5873bo205b3ob3o5888b$6080bo3bo5889b$6081b3o5890b$6082bo11b3o5877b$6096bo5877b$6095bo5878b$15b2o5885b2o166b2o5885b2o15b$11b2o2b2o5885b2o166b2o5885b2o2b2o11b$11b2o8666bo3281b2o11b$8679b2o3293b$8678bobo3293b$26b2o524bo11393b2o26b$25bo2bo522b2o11392bo2bo25b$26b2o523bobo2745bo8646b2o26b$3298b2o2482b2o114b2o59bo114b2o114b2o5782b$3298bobo2481b2o114b2o60bo113b2o114b2o5782b$6011b5o5400bo557b$15b2o5b2o5935b2o48bo5b2o5399b2o532b2o5b2o15b$15b2o5b2o5931b3ob2o47b2o3bob2o5398bobo532b2o5b2o15b$9bo5945bo4bo52bob2o5947bo9b$9bo8b2o5934b2o6b2o44bobobo3bo5937b2o8bo9b$9bo7bo2bo5934bob3ob2obo42b2ob2obobo5937bo2bo7bo9b$17bobo5934bo5bo3bo36bo5b2o5bo5939bobo17b$18bo5935bo2bobo4bo32b2o10bo5945bo18b$5955bo7bo32bo6bo5965b3o2b$5957b3obo34bob2o4b2o5963bo2bob$5997bo4bob2o16b2o5945bo4b$5790b2o98b2o40b3o68b2o18bo58b2o98b2o5785bo3bo$5790b2o98b2o40bo88b2obo3b2o52b2o98b2o5785bo3bo$5933bo20b2o63b2o3bobobo5940bo4b$5954b2o59bo2bo5bobo5943bobob$6014bo3b2ob3obo5948b$6015bobo3bo12b3o5937b$6016b4o16bo5937b$2b3o6012b3o15bo5938b$bo2bo11969b$4bo6032bo5936b$o3bo10b2o5941b2o54b2o20bo2582bo3337b2o15b$o3bo6b2o2b2o5941b2o54b2o20bo2582b2o3336b2o2b2o11b$4bo6b2o8605bobo3340b2o11b$bobo608bo11361b$611b2o11361b$26b2o583bobo2745bo8586b2o26b$25bo2bo3329b2o8585bo2bo25b$26b2o3330bobo8585b2o26b$5782b2o114b2o174b2o114b2o5164bo617b$5782b2o114b2o174b2o114b2o5164b2o616b$11355bobo616b$15b2o5b2o11926b2o5b2o15b$15b2o5b2o11926b2o5b2o15b$9bo5956b2o38b2o5956bo9b$9bo8b2o5946b2o38b2o5946b2o8bo9b$9bo7bo2bo11932bo2bo7bo9b$17bobo11934bobo17b$18bo11936bo18b$11974b$6121bo5852b$6122b2o5850b$5790b2o98b2o190b2o37b2o59b2o5790b$5790b2o98b2o190b2o98b2o5790b$5986bo5987b$5847bo137bo5988b$5845b2o138b3o5986b$5846b2o6126b$11974b$5992bo5981b$5993bo2565bo3414b$5991b3o2565b2o3413b$15b2o5941b2o54b2o2542bobo3396b2o15b$11b2o2b2o655bo5285b2o54b2o5941b2o2b2o11b$11b2o658b2o5425bo5862b2o11b$671bobo2745bo2678bobo5873b$3418b2o2678b2o5874b$26b2o3390bobo8525b2o26b$25bo2bo11267bo648bo2bo25b$26b2o5852bo5415b2o648b2o26b$5782b2o94bobo17b2o174b2o114b2o5103bobo676b$5782b2o95b2o17b2o174b2o114b2o5782b$11974b$15b2o5b2o11926b2o5b2o15b$15b2o5b2o11926b2o5b2o15b$9bo5956b2o38b2o5956bo9b$9bo8b2o5946b2o38b2o5946b2o8bo9b$9bo7bo2bo11932bo2bo7bo9b$17bobo11934bobo17b$18bo11936bo18b$11974b$11974b$11974b$5790b2o98b2o190b2o98b2o5790b$5790b2o98b2o190b2o98b2o5790b$11974b$11974b$11974b$11974b$8499bo3474b$8499b2o3473b$8498bobo3473b$732bo11241b$15b2o714b2o5225b2o54b2o5941b2o15b$11b2o2b2o714bobo2745bo2478b2o54b2o5941b2o2b2o11b$11b2o3465b2o8481b2o11b$3478bobo8493b$11236bo737b$26b2o11208b2o708b2o26b$25bo2bo11206bobo707bo2bo25b$26b2o11918b2o26b$5782b2o114b2o174b2o114b2o5782b$5782b2o114b2o174b2o114b2o5782b$11974b$15b2o5b2o11926b2o5b2o15b$15b2o5b2o11926b2o5b2o15b$9bo11954bo9b$9bo8b2o11934b2o8bo4b3o2b$9bo7bo2bo11932bo2bo7bo4bo2bob$17bobo11934bobo12bo4b$18bo11936bo13bo3bo$11969bo3bo$11969bo4b$11970bobob$5790b2o390b2o5790b$5790b2o390b2o5790b$11974b$2b3o11969b$bo2bo8434bo3534b$4bo8434b2o3533b$o3bo8433bobo3533b$o3bo787bo11181b$4bo786b2o11181b$bobo787bobo2745bo8434b$15b2o3521b2o2418b2o54b2o5941b2o15b$11b2o2b2o3521bobo2417b2o54b2o5941b2o2b2o11b$11b2o11163bo784b2o11b$11176b2o796b$11175bobo796b$26b2o11918b2o26b$25bo2bo11916bo2bo25b$26b2o11918b2o26b$5782b2o114b2o174b2o114b2o5782b$5782b2o114b2o174b2o114b2o5782b$11974b$15b2o5b2o11926b2o5b2o15b$15b2o5b2o11926b2o5b2o15b$9bo5781bo6172bo9b$9bo8b2o5771b2o6161b2o8bo9b$9bo7bo2bo5770b3o6159bo2bo7bo9b$17bobo5772b2o6160bobo17b$18bo5768bo393bo5773bo18b$6182b2o5790b$6182b2o5790b$11974b$6181bo5792b$6182b2o5790b$5785b3o2591bo3594b$5784bo2bo2591b2o3593b$5784bo3bo2589bobo3593b$852bo4930bo6190b$851b2o4929b2ob3o395bo5790b$851bobo2745bo2183bo399b2o5789b$3598b2o2183b2o3bo393bo2bo5788b$3598bobo2183bo398bobo5788b$15b2o5941b2o54b2o166bo2bo4930bo840b2o15b$11b2o2b2o5941b2o54b2o166bo2bo4930b2o839b2o2b2o11b$11b2o5776bobo390bobo4930bobo843b2o11b$5790b2o391b3o5788b$5790bo6183b$26b2o11918b2o26b$25bo2bo11916bo2bo25b$26b2o11918b2o26b$5898b2o174b2o5898b$5898b2o174b2o5898b$11974b$15b2o5b2o6168b2o5756b2o5b2o15b$15b2o5b2o5766b2o390b2o8b2o5756b2o5b2o15b$9bo5780b2o390b2o5780bo9b$9bo8b2o11934b2o8bo9b$9bo7bo2bo6172b3o5757bo2bo7bo9b$17bobo5762b2o409b3o5758bobo17b$18bo5762b2o410b4o5758bo18b$5783bo411bob2o5775b$6194b2ob2o5775b$6190b2o2b5o5775b$6185b2o8b3o2121bo3654b$6186b2o9bo2121b2o3653b$6185bo2132bobo3653b$912bo11061b$911b2o11061b$911bobo2745bo8314b$3658b2o8314b$3658bobo8313b$11056bo917b$5782b2o406b2o4864b2o916b$15b2o5765b2o174b2o54b2o174b2o4863bobo899b2o15b$11b2o2b2o5941b2o54b2o5941b2o2b2o11b$11b2o11948b2o11b$11974b$11974b$26b2o11918b2o26b$25bo2bo11916bo2bo25b$26b2o11918b2o26b$5898b2o174b2o5898b$5898b2o174b2o5898b$11969b3o2b$15b2o5b2o11926b2o5b2o10bo2bob$15b2o5b2o5766b2o390b2o5766b2o5b2o10bo4b$9bo5780b2o390b2o5780bo4bo3bo$9bo8b2o5822b2o55b2o6053b2o8bo4bo3bo$9bo7bo2bo5820b2o55bob2o5b2o6044bo2bo7bo4bo4b$17bobo5823bo54bobo2b6o166bo5878bobo13bobob$18bo5864b2o7b3o8bobo160bo8bo5879bo18b$5882b5o2bobo10bob3o158bob2o5bob3o5895b$5881bo4b2obobo7b2o2b2ob2o156b5o6b2o2bo45b2o2132bo3714b$2b3o5876b2obob2obo3b2o9bo4bo153b2o2b2o5bob5o6b3o36b2o2131b2o3713b$bo2bo5880bo6b2o9b2ob3o154bo2bo13b3o4bo37bo2132bobo3713b$4bo967bo4910bo9bobo7b2o159bobo14b2o4bo5886b$o3bo966b2o4911b3o7bo9b2o8bo150bo22b2obo5882b$o3bo966bobo2745bo2165b2o18bo9b2o156bo3b3o11b2o5881b$4bo3713b2o2194b2o158bo5899b$bobo3714bobo2352bo5900b$10996bo977b$10996b2o976b$10995bobo976b$5782b2o114b2o174b2o114b2o5782b$15b2o5765b2o114b2o58b2o54b2o58b2o114b2o5765b2o15b$11b2o2b2o5941b2o54b2o5941b2o2b2o11b$11b2o11948b2o11b$11974b$11974b$26b2o11918b2o26b$25bo2bo11916bo2bo25b$26b2o11918b2o26b$11974b$11974b$11974b$15b2o5b2o11926b2o5b2o15b$15b2o5b2o5766b2o98b2o10b2o178b2o9bo88b2o5766b2o5b2o15b$9bo5780b2o98b2o9b2o179b2o7bobo88b2o5780bo9b$9bo8b2o5883bo188b2o5860b2o8bo9b$9bo7bo2bo11932bo2bo7bo9b$17bobo11934bobo17b$18bo5856bo189b2o2132bo3755bo18b$5875bobo188b2o2131b2o3773b$5875b2o188bo2132bobo3773b$1032bo4929b3o6009b$1031b2o4929bo6011b$1031bobo2745bo2182b3o6009b$3778b2o8194b$3778bobo2182bo43bo5966b$5963b3o40bobo4927bo1037b$5965b3o37b2ob2o117bobo4806b2o1036b$5965b2o39bo2bo117b2o4806bobo1036b$6006bo3bo117bo5845b$6006bo5967b$5782b2o114b2o174b2o114b2o5782b$15b2o5765b2o65bobo46b2o174b2o114b2o5765b2o15b$11b2o2b2o5833b2o6105b2o2b2o11b$11b2o5837bo6110b2o11b$5955bo60b2o5956b$5955bo10b2o38bo9b2o5956b$26b2o5938b2o38b2o5938b2o26b$25bo2bo5925bobo5988bo2bo25b$26b2o5926bobo5989b2o26b$11974b$11974b$6018bo5955b$15b2o5b2o5992b2obo5930b2o5b2o15b$15b2o5b2o5766b2o98b2o124b2o64b2o98b2o5766b2o5b2o15b$9bo5780b2o98b2o124bo65b2o98b2o5780bo9b$9bo8b2o5997b2o5935b2o8bo9b$9bo7bo2bo5997bo2120bo3813bo2bo7bo9b$17bobo8119b2o3813bobo17b$18bo8119bobo3814bo18b$1092bo10881b$1091b2o10881b$1091bobo2745bo8134b$3838b2o8134b$3838bobo2117b2o54b2o5958b$5958b2o54b2o4860bo1097b$10876b2o1096b$10875bobo1096b$11974b$11974b$11974b$11974b$5782b2o114b2o174b2o114b2o5782b$15b2o5765b2o114b2o174b2o114b2o5765b2o15b$11b2o2b2o11940b2o2b2o11b$11b2o11948b2o11b$11974b$5966b2o38b2o5966b$26b2o5938b2o38b2o5938b2o26b$25bo2bo11916bo2bo20b3o2b$26b2o11918b2o21bo2bob$11969bo4b$11969bo3bo$11969bo3bo$15b2o5b2o11926b2o5b2o10bo4b$15b2o5b2o5766b2o98b2o190b2o98b2o5766b2o5b2o11bobob$9bo5780b2o98b2o190b2o98b2o1895bo3884bo9b$9bo8b2o8059b2o3873b2o8bo9b$9bo7bo2bo8057bobo3872bo2bo7bo9b$2b3o12bobo1132bo10801bobo17b$bo2bo13bo1132b2o10802bo18b$4bo1146bobo2745bo8074b$o3bo3893b2o8074b$o3bo3893bobo8073b$4bo10811bo1157b$bobo5954b2o54b2o4800b2o1156b$5958b2o54b2o4799bobo1156b$11974b$11974b$11974b$11974b$11974b$11974b$5782b2o114b2o174b2o114b2o5782b$15b2o5765b2o114b2o174b2o114b2o5765b2o15b$11b2o2b2o11940b2o2b2o11b$11b2o11948b2o11b$11974b$11974b$26b2o11918b2o26b$25bo2bo11916bo2bo25b$26b2o11918b2o26b$11974b$11974b$6153bo5820b$15b2o5b2o6127bobo1865bo3930b2o5b2o15b$15b2o5b2o5766b2o360b2o28b2o1835b2o3929b2o5b2o15b$9bo5780b2o390b2o1834bobo3943bo9b$9bo8b2o1192bo10741b2o8bo9b$9bo7bo2bo1190b2o4602bo6137bo2bo7bo9b$17bobo1191bobo2745bo1855bobo6136bobo17b$18bo3939b2o1855b2o6138bo18b$3958bobo8013b$10756bo1217b$10756b2o1216b$10755bobo1216b$5958b2o54b2o5958b$5958b2o54b2o5958b$11974b$11974b$11974b$11974b$11974b$11974b$5782b2o114b2o174b2o114b2o5782b$15b2o5765b2o114b2o174b2o114b2o5765b2o15b$11b2o2b2o11940b2o2b2o11b$11b2o11948b2o11b$11974b$11974b$26b2o11918b2o26b$25bo2bo11916bo2bo25b$26b2o11918b2o26b$11974b$7959bo4014b$7959b2o4013b$15b2o5b2o7934bobo3989b2o5b2o15b$15b2o5b2o1248bo4517b2o390b2o5766b2o5b2o15b$9bo1261b2o4517b2o390b2o5780bo9b$9bo8b2o1251bobo2745bo7934b2o8bo9b$9bo7bo2bo3997b2o7933bo2bo7bo9b$17bobo3998bobo7933bobo17b$18bo10677bo1258bo18b$10696b2o1276b$10695bobo1276b$11974b$11974b$5958b2o54b2o5958b$5958b2o54b2o5958b$11974b$11974b$5780bo6193b$5779bobo6192b$5779bob5o6188b$5779b3ob2obo403bo5783b$5777b2obob2o114b2o174b2o113bo5784b$15b2o5763b3obo113b2o174b2o5881b2o15b$11b2o2b2o5766b2o404b2o5766b2o2b2o11b$11b2o5764bo2bob3o2bo401b2ob3o5766b2o6b3o2b$5781bo2b3o402bo4bo5774bo2bob$5780bob2o402b2o6b2o5773bo4b$26b2o5752bo404bob2ob3obo5751b2o21bo3bo$25bo2bo5751bobo7b3o392bo3bo5bo5749bo2bo20bo3bo$26b2o5753bo403bo4bobo2bo1703bo4046b2o21bo4b$6186bo7bo1704b2o4069bobob$6188bob3o1705bobo4073b$1332bo10641b$15b2o5b2o1307b2o10617b2o5b2o15b$2b3o10b2o5b2o1307bobo2745bo7870b2o5b2o15b$bo2bo4bo4068b2o1698b2o414b2o5768bo9b$4bo4bo8b2o4058bobo1697b2o414b2o5758b2o8bo9b$o3bo4bo7bo2bo10615bo1316bo2bo7bo9b$o3bo12bobo10616b2o1316bobo17b$4bo13bo10616bobo1317bo18b$bobo11970b$11974b$11974b$5782b2o406b2o5782b$5782b2o174b2o54b2o174b2o5782b$5958b2o54b2o5958b$11974b$11974b$11974b$11974b$11974b$11974b$5898b2o174b2o5898b$15b2o5881b2o174b2o5881b2o15b$11b2o2b2o11940b2o2b2o11b$11b2o11948b2o11b$5790b2o390b2o5790b$5790b2o390b2o5790b$26b2o5783b2o2026bo4106b2o26b$25bo2bo5782bobo2025b2o4104bo2bo25b$26b2o5783bo2026bobo4105b2o26b$1392bo10581b$1391b2o10581b$1391bobo2745bo2016b2o5816b$15b2o5b2o4114b2o2015bobo5792b2o5b2o15b$15b2o5b2o4114bobo2016bo5792b2o5b2o15b$9bo10566bo1387bo9b$9bo8b2o10556b2o1376b2o8bo9b$9bo7bo2bo10554bobo1375bo2bo7bo9b$17bobo11934bobo17b$18bo11936bo18b$6157bo5816b$6156bo5817b$6156b3o5815b$5782b2o406b2o5782b$5782b2o174b2o54b2o174b2o5782b$5821bo136b2o54b2o5958b$5822bo6151b$5820b3o6151b$11974b$11974b$11974b$11974b$6080bo5893b$15b2o5874b2o187b2o5875b2o15b$11b2o2b2o5872b3o190bo5874b2o2b2o11b$11b2o5876b2o9b2o170b2o6b2o5879b2o11b$5790b2o79b2o15b2o10b2o170b2o3b2ob2o100b2o1595bo4194b$5790b2o79bobo15bob2o185b4o100b2o1595b2o4193b$26b2o5843bo18b3o3bobo179b3ob2o1694bobo4165b2o26b$25bo2bo1423bo4438bo5b2o180b2ob2o5861bo2bo25b$26b2o1423b2o4444bo180b3o3bo5861b2o26b$1451bobo2745bo1878bob3o13b2o5876b$4198b2o1880bo14bobo5876b$4198bobo1879bo2bo13bo5876b$15b2o5b2o10492bo1433b2o5b2o15b$15b2o5b2o6057b3o4432b2o1432b2o5b2o15b$9bo5892b2o166b2o4443bobo1446bo9b$9bo8b2o5882b2o166b2o5882b2o8bo9b$9bo7bo2bo11932bo2bo7bo9b$17bobo11934bobo17b$18bo11936bo18b$11974b$11974b$11974b$5782b2o114b2o58bo115b2o114b2o5782b$5782b2o114b2o56b4o114b2o114b2o5782b$5955bo2bobo52bo5960b$5954b3o50b2o4b5o5956b$5954bo4bo46bobo5b2o5958b$5952b3o3b2o6014b$5958b3o3bo44b4ob2o2bo5955b$5959b2ob5o39bo2b4o3b2o5956b$5959b5ob3o43bo5957b3o2b$5954b2o3b2ob5o6002bo2bob$15b2o5937b3o2bo4bo5992b2o10bo4b$11b2o2b2o5914b2o22b3o39bo2bo1718bo4237b2o2b2o6bo3bo$11b2o5918bobo22b2o38bo3bo1718b2o4240b2o6bo3bo$5790b2o98b2o39bo65bobo82b2o98b2o1534bobo4248bo4b$1512bo4277b2o98b2o106bo20b2o61b2o98b2o5786bobob$26b2o1483b2o4441b2o63b2o7b2o5916b2o26b$25bo2bo1482bobo2745bo1694b2o62bobo6bo8b2o5907bo2bo25b$26b2o4230b2o1757bo2bo3bob2o7bobo5908b2o26b$2b3o4253bobo1762b2o12bo5936b$bo2bo6016bo2b2o4430bo1517b$4bo6014bobo4434b2o1516b$o3bo10b2o5b2o5996bo4434bobo1492b2o5b2o15b$o3bo10b2o5b2o11926b2o5b2o15b$4bo4bo5948b2o54b2o5948bo9b$bobo5bo8b2o5938b2o54b2o5938b2o8bo9b$9bo7bo2bo11932bo2bo7bo9b$17bobo11934bobo17b$18bo11936bo18b$11974b$11974b$11974b$5782b2o114b2o174b2o114b2o5782b$5782b2o114b2o174b2o114b2o5782b$11974b$11974b$11974b$5966b2o38b2o5966b$5966b2o38b2o5966b$11974b$11974b$7659bo4314b$15b2o7642b2o4296b2o15b$11b2o2b2o7641bobo4296b2o2b2o11b$11b2o1559bo10388b2o11b$1571b2o4217b2o98b2o190b2o38bobo57b2o5790b$1571bobo2745bo1470b2o98b2o190b2o39b2o57b2o5790b$26b2o4290b2o1803bo5822b2o26b$25bo2bo4289bobo7624bo2bo25b$26b2o5956bo4411bo1549b2o26b$5844bobo137bobo4409b2o1576b$5844b2o138b2o4409bobo1576b$5845bo6128b$15b2o5b2o11926b2o5b2o15b$15b2o5b2o5970bo5955b2o5b2o15b$9bo5948b2o32bobo19b2o5948bo9b$9bo8b2o5938b2o33b2o19b2o5938b2o8bo9b$9bo7bo2bo11932bo2bo7bo9b$17bobo6077bo5856bobo17b$18bo6077bo5858bo18b$6096b3o5875b$11974b$11974b$5782b2o97bo16b2o174b2o114b2o5782b$5782b2o98bo15b2o174b2o114b2o5782b$5880b3o6091b$11974b$11974b$5966b2o38b2o5966b$5966b2o38b2o5966b$7599bo4374b$7599b2o4373b$7598bobo4373b$15b2o1615bo10324b2o15b$11b2o2b2o1614b2o10324b2o2b2o11b$11b2o1618bobo2745bo7581b2o11b$4378b2o1410b2o98b2o190b2o98b2o5790b$4378bobo1409b2o98b2o190b2o98b2o5790b$26b2o10308bo1609b2o26b$25bo2bo10307b2o1607bo2bo25b$26b2o10307bobo1608b2o26b$11974b$11974b$11974b$15b2o5b2o11926b2o5b2o15b$15b2o5b2o11926b2o5b2o15b$9bo5948b2o54b2o5948bo9b$9bo8b2o5938b2o54b2o5938b2o8bo9b$9bo7bo2bo11932bo2bo7bo9b$17bobo11934bobo17b$18bo11936bo18b$11974b$11974b$11974b$5782b2o114b2o174b2o114b2o5782b$5782b2o114b2o174b2o114b2o5782b$11974b$11974b$11969b3o2b$7539bo4429bo2bob$7539b2o4377b2o49bo4b$7538bobo4376bobo49bo3bo$1692bo10226bo49bo3bo$1691b2o10276bo4b$1691bobo2745bo7530bobob$59b2o4377b2o7534b$3b2o54bobo4376bobo7533b$3b2o6b2o46bo5730b2o390b2o4092bo1684b2o11b$2bo2bo5b2o5777b2o390b2o4092b2o1683b2o11b$2bo2bo10269bobo1696b$3bo2bobo11965b$4bo3b2o11964b$9b2o11963b$9b2o11963b$6b2o11966b$11974b$11974b$5958b2o54b2o5958b$5958b2o54b2o5958b$11974b$11974b$11974b$11974b$11974b$11974b$5782b2o114b2o174b2o114b2o5782b$5782b2o114b2o174b2o114b2o5782b$11974b$7479bo4494b$7479b2o4377b2o114b$7478bobo4376bobo114b$1752bo10106bo114b$1751b2o10221b$1751bobo2745bo7474b$119b2o4377b2o1681bo5792b$119bobo4376bobo1679bobo5791b$119bo6059b2o4035bo1757b$5786bo393bob2o4032b2o1756b$11b2o5771b2ob2o391bo2bo4031bobo1743b2o11b$11b2o5774b2o392b2o5778b2o11b$5783bo3bobo6184b$11974b$5784bo6189b$5785b3o6186b$5786b2o6186b$5781b2o402b3o5786b$6187bo5786b$5781bobo401b3o5786b$5782b2o174b2o54b2o5958b$5958b2o54b2o170bo5787b$6184b3o5787b$5791bo390b3o5789b$5792b2o389b2o5789b$5791b2o6181b$11974b$11974b$5898b2o174b2o5898b$5898b2o174b2o1343bo4554b$7419b2o4377b2o174b$6194bo1223bobo4376bobo174b$1812bo3977b2o390b2o10bo5604bo174b$1811b2o3977b2o390b2o5790b$1811bobo2745bo1221bo411bobo5778b$179b2o4377b2o1220b2o411bobo5778b$179bobo4376bobo1219bobo6191b$179bo9976bo1817b$10156b2o1816b$6187bo3967bobo1816b$6187b2o5785b$11b2o6173bobo5772b2o11b$11b2o11948b2o11b$11974b$11974b$11974b$11974b$11974b$11974b$11974b$5782b2o406b2o5782b$5782b2o174b2o54b2o174b2o5782b$5958b2o54b2o5958b$11974b$11974b$11974b$11974b$11974b$7359bo4614b$5898b2o174b2o1283b2o4377b2o234b$5898b2o174b2o1282bobo4376bobo234b$1872bo9866bo234b$1871b2o10101b$1871bobo2745bo1170b2o49bo57b2o281b2o5790b$239b2o4377b2o1170b2o48b2o56bobo281b2o5790b$239bobo4376bobo1219bobo55b3o2b3o6068b$239bo5653b2o7b2ob2o170bo4018bo1877b$5894b2o10bo170b2o4017b2o1876b$5886bo4bobo173b2o3b2o3bobo47bo3967bobo1876b$5880b3o3bo2b3o16b2o156bo2b2o3bo3b2o7b2o38b2o5845b$5886bo2b3o2bo13b2o156b2ob2o4b3o7b2o2bo36bobo5845b$5893b2o166bobo5b2o13bo5bo5883b$11b2o5879b3o10b4o152b2o3bobo7b2o6bo2b2o2bo5869b2o11b$11b2o5878b2o11bob3o153bo3bo10b2o5b3ob2ob2o5868b2o11b$5892b2o10bo3bo168b2o10bo2bo5881b$5904b3o170bo11b2obo5881b$5915bobo160bo11b2o5882b$5916b2o6056b$5916bo6057b$11974b$11974b$5782b2o114b2o174b2o114b2o5782b$5782b2o114b2o58b2o54b2o58b2o114b2o5782b$5958b2o54b2o5958b$11974b$11974b$11974b$7299bo4674b$7299b2o4377b2o294b$7298bobo4376bobo294b$1932bo9746bo294b$1931b2o10041b$1931bobo2745bo1221bo6072b$299b2o4377b2o1220b2o6072b$299bobo4376bobo1109b2o98b2o8bobo179b2o98b2o5790b$299bo5490b2o98b2o190b2o10bo87b2o3852bo1937b$6095bo3940b2o1936b$6067bo25b3o3939bobo1936b$6067b2o5905b$6066bobo5905b$5874bo6099b$5873bo87b3o6010b$5873b3o84bo2bo6010b$11b2o5947bo2bo5997b2o11b$11b2o5948b4o5996b2o11b$5963b2o41b3o5965b$5965bo41bo5966b$5964bo42b3o5964b$5964bo6009b$6127bo5846b$6125b2o5847b$6126b2o5846b$5782b2o114b2o174b2o114b2o5782b$5782b2o114b2o174b2o114b2o5782b$5851bo6122b$5852b2o6120b$5851b2o163b2o1221bo4734b$5966b2o38b2o8b2o1221b2o4377b2o354b$5966b2o38b2o1230bobo4376bobo354b$1992bo9626bo354b$1991b2o9981b$1991bobo2745bo7234b$359b2o4377b2o7234b$359bobo4376bobo1277bo5955b$359bo5657bobo3956bo1997b$5790b2o98b2o124bo3bo61b2o98b2o3792b2o1996b$5790b2o98b2o124bo3bo61b2o98b2o3791bobo1996b$6016bo5957b$6017b3o5954b$11974b$11974b$11974b$11974b$11974b$11b2o11948b2o11b$11b2o5945b2o54b2o5945b2o11b$5958b2o54b2o5958b$11974b$11974b$11974b$11974b$11974b$11974b$5782b2o114b2o174b2o114b2o5782b$5782b2o114b2o174b2o114b2o5782b$7179bo4794b$7179b2o4377b2o414b$7178bobo4376bobo414b$2052bo3913b2o38b2o5551bo414b$2051b2o3913b2o38b2o5966b$2051bobo2745bo7174b$419b2o4377b2o7174b$419bobo4376bobo7173b$419bo9496bo2057b$9916b2o2056b$9915bobo2056b$5790b2o98b2o190b2o98b2o5790b$5790b2o98b2o190b2o98b2o5790b$11974b$11974b$11974b$11974b$11974b$11974b$11974b$11b2o11948b2o11b$11b2o5945b2o54b2o5945b2o11b$5958b2o54b2o5958b$11974b$11974b$11974b$11974b$11974b$11974b$5782b2o114b2o174b2o114b2o927bo4854b$5782b2o114b2o174b2o114b2o927b2o4377b2o474b$7118bobo4376bobo474b$2112bo9386bo474b$2111b2o9861b$2111bobo2745bo7114b$479b2o4377b2o7114b$479bobo4376bobo7113b$479bo9376bo2117b$9856b2o2116b$9855bobo2116b$11974b$6154bo5819b$5790b2o363bo26b2o5790b$5790b2o361b3o26b2o5790b$11974b$11974b$5814bo6159b$5813bo6160b$5813b3o6158b$11974b$11974b$11b2o11948b2o11b$11b2o5945b2o54b2o5945b2o11b$5958b2o54b2o5958b$11974b$11974b$11974b$11974b$7059bo4914b$7059b2o4377b2o534b$5782b2o114b2o174b2o114b2o866bobo4376bobo534b$2172bo3609b2o114b2o174b2o114b2o5247bo534b$2171b2o9801b$2171bobo2745bo7054b$539b2o4377b2o7054b$539bobo4376bobo7053b$539bo9256bo2177b$9796b2o2176b$9795bobo2176b$11974b$11974b$11974b$11974b$5790b2o390b2o5790b$5790b2o390b2o5790b$11974b$11974b$11974b$11974b$11974b$11974b$11974b$11b2o11948b2o11b$11b2o5945b2o54b2o5945b2o11b$5958b2o54b2o5958b$11974b$11974b$6999bo4974b$6999b2o4377b2o594b$6998bobo4376bobo594b$2232bo9146bo594b$2231b2o3549b2o114b2o174b2o114b2o5782b$2231bobo2745bo802b2o114b2o174b2o114b2o5782b$599b2o4377b2o6994b$599bobo4376bobo6993b$599bo9136bo2237b$9736b2o2236b$9735bobo2236b$11974b$11974b$11974b$11974b$11974b$11974b$11974b$11974b$11974b$11974b$11974b$11974b$6183bo5790b$6183b2o5789b$6182bo2bo5788b$11b2o6170bobo5775b2o11b$11b2o5945b2o54b2o166bo2bo5775b2o11b$5958b2o54b2o166bo2bo5788b$6182bobo754bo5034b$6183b3o753b2o4377b2o654b$5790bo1147bobo4376bobo654b$2292bo3496b3o5527bo654b$2291b2o3495bo2b2o6181b$2291bobo2745bo748b2ob2o6181b$659b2o4377b2o747b3o108b2o174b2o5898b$659bobo4376bobo747b2obo106b2o174b2o5898b$659bo5129bo2bo3883bo2297b$5780b2o7bo402b2o3482b2o2296b$5780b2o8bobo389b2o8b2o3481bobo2296b$5791bo390b2o5790b$11974b$6193b3o5778b$6193b3o5778b$6193b4o5777b$5779bobo413bob2o5775b$5779b2o413b2ob2o5775b$5780bo409b2o2b5o5775b$6195b3o5776b$5778b2o417bo5776b$5778b2o6194b$11974b$11974b$11974b$11974b$11974b$11974b$11b2o5769b2o406b2o5769b2o11b$11b2o5769b2o174b2o54b2o174b2o687bo5081b2o11b$5958b2o54b2o863b2o4377b2o714b$6878bobo4376bobo714b$2352bo8906bo714b$2351b2o9621b$2351bobo2745bo6874b$719b2o4377b2o6874b$719bobo4376bobo6873b$719bo5178b2o174b2o3540bo2357b$5898b2o174b2o3540b2o2356b$9615bobo2356b$11974b$5790b2o390b2o5790b$5790b2o390b2o5790b$11974b$11974b$11974b$11974b$11974b$11974b$11974b$11974b$11974b$5729b3o510b3o5729b$11974b$5727bo5bo506bo5bo5727b$5727bo5bo506bo5bo5727b$5727bo5bo506bo5bo5727b$11974b$5729b3o510b3o574bo5154b$11b2o5769b2o406b2o627b2o4377b2o761b2o11b$11b2o5769b2o174b2o54b2o174b2o626bobo4376bobo761b2o11b$2412bo3545b2o54b2o5183bo774b$2411b2o9561b$2411bobo2745bo6814b$779b2o4377b2o6814b$779bobo4376bobo6813b$779bo8776bo2417b$9556b2o2416b$5898b2o174b2o3479bobo2416b$5898b2o174b2o5898b$11974b$11974b$5790b2o390b2o5790b$5790b2o390b2o5790b$11974b$11974b$6190b2o5782b$6189bobo5782b$6191bo5782b$11974b$11974b$5787b2o50bobo6132b$5787bobo50b2o6132b$5729b3o55bo52bo401b3o5729b$11974b$5727bo5bo506bo5bo5727b$5727bo5bo393bobo110bo5bo5727b$5727bo5bo393b2o111bo5bo512bo5214b$6128bo630b2o4377b2o834b$5729b3o510b3o513bobo4376bobo834b$11b2o2459bo3309b2o406b2o4947bo821b2o11b$11b2o2458b2o3309b2o174b2o54b2o174b2o5769b2o11b$2471bobo2745bo738b2o54b2o5958b$839b2o4377b2o6754b$839bobo4376bobo6753b$839bo8656bo2477b$9496b2o2476b$9495bobo2476b$11974b$5898b2o174b2o5898b$5898b2o174b2o5898b$11974b$11974b$5790b2o390b2o5790b$5790b2o390b2o5790b$6073b2o55b2o5842b$5898bo166b2o6bobo53bobo5842b$5897bo167bo2b2o3bobo55bo5842b$5899bo7bo160bob2ob2o4b2o5893b$5896bo2bo6bobo164b2obobob2o6b4o5882b$5847b2o45b2ob2o6b2o2bo153bo2b2obobo2bo5b2ob3ob2o3bo5881b$5847bobo34b2o8b2o9bo3bo154bo2b3o5bo4bo6bo3b2o5881b$5847bo37b2o4b2o5b2o8b2o155b3obo7bo2bo7b2o5884b$5884b2o5b2o14b3o159bo8bobo5893b$5729b3o150b3o10bo162bo8b3o9bo8b3o151b3o5729b$5882bo12bo4b2o156bobo26b2o5885b$5727bo5bo148bo12bo3bo158b2o180bo5bo452bo5274b$5727bo5bo166b2o338bo5bo452b2o4377b2o894b$5727bo5bo506bo5bo451bobo4376bobo894b$2532bo8546bo894b$2531b2o3196b3o510b3o5729b$11b2o2518bobo2745bo502b2o114b2o174b2o114b2o5769b2o11b$11b2o886b2o4377b2o502b2o114b2o58b2o54b2o58b2o114b2o5769b2o11b$899bobo4376bobo677b2o54b2o5958b$899bo8536bo2537b$9436b2o2536b$9435bobo2536b$11974b$11974b$11974b$11974b$11974b$11974b$11974b$5790b2o88bobo7b2o178b2o10b2o98b2o5790b$5790b2o88b2o8b2o177bobo10b2o98b2o5790b$5881bo189bo5902b$11974b$11974b$5907b2o187bobo5875b$5907bobo187b2o5875b$5907bo189bo5876b$6006bo2b2o5963b$6010b2o5962b$6009b2o5963b$5729b3o510b3o394bo5334b$6005b2o2b2o628b2o4377b2o954b$5727bo5bo231b3o43bo228bo5bo391bobo4376bobo954b$2592bo3134bo5bo231bobo37b4o231bo5bo4772bo954b$2591b2o3134bo5bo230bo2bo39bo2bo229bo5bo5727b$2591bobo2745bo624b3o6007b$959b2o4377b2o389b3o232b3o275b3o5729b$11b2o946bobo4376bobo441b2o114b2o65bo2bo105b2o114b2o5769b2o11b$11b2o946bo4822b2o114b2o65bo108b2o114b2o3184bo2584b2o11b$5968bo3407b2o2596b$9375bobo2596b$5956b2o8bo6007b$5956b2o9bo38b2o9b3o5954b$5966b2o38b2o5966b$6017b3o5954b$6017b2o5955b$11974b$11974b$5955bo6018b$5954bobo6017b$5790b2o162bob2o224b2o5790b$5790b2o165bo224b2o5790b$5954bobo6017b$5955bo6018b$11974b$11974b$11974b$11974b$11974b$6579bo5394b$5958b2o54b2o563b2o4377b2o1014b$5729b3o226b2o54b2o226b3o333bobo4376bobo1014b$2652bo8306bo1014b$2651b2o3074bo5bo506bo5bo5727b$2651bobo2745bo327bo5bo506bo5bo5727b$1019b2o4377b2o327bo5bo506bo5bo5727b$1019bobo4376bobo6573b$1019bo4709b3o510b3o3071bo2657b$11b2o5769b2o114b2o174b2o114b2o3124b2o2643b2o11b$11b2o5769b2o114b2o174b2o114b2o3123bobo2643b2o11b$11974b$11974b$11974b$5966b2o38b2o5966b$5966b2o38b2o5966b$11974b$11974b$11974b$11974b$11974b$11974b$5790b2o390b2o5790b$5790b2o390b2o5790b$11974b$11974b$11974b$11974b$11974b$6519bo5454b$6519b2o4377b2o1074b$6518bobo4376bobo1074b$2712bo3245b2o54b2o4883bo1074b$2711b2o3016b3o226b2o54b2o226b3o5729b$2711bobo2745bo6514b$1079b2o4377b2o267bo5bo506bo5bo5727b$1079bobo4376bobo266bo5bo506bo5bo5727b$1079bo4647bo5bo506bo5bo3009bo2717b$9256b2o2716b$5729b3o510b3o3010bobo2716b$11b2o5769b2o114b2o174b2o114b2o5769b2o11b$11b2o5769b2o114b2o174b2o114b2o5769b2o11b$11974b$11974b$11974b$11974b$11974b$11974b$11974b$11974b$11974b$5820bobo6151b$5820b2o6152b$5790b2o29bo360b2o5790b$5790b2o390b2o5790b$11974b$6156bobo5815b$6157b2o5815b$6157bo301bo5514b$6459b2o4377b2o1134b$6458bobo4376bobo1134b$2772bo8066bo1134b$2771b2o9201b$2771bobo2745bo438b2o54b2o5958b$1139b2o4377b2o209b3o226b2o54b2o226b3o5729b$1139bobo4376bobo6453b$1139bo4587bo5bo506bo5bo2949bo2777b$5727bo5bo506bo5bo2949b2o2776b$5727bo5bo506bo5bo2948bobo2776b$11974b$5729b3o510b3o5729b$11b2o5769b2o114b2o174b2o114b2o5769b2o11b$11b2o5769b2o114b2o174b2o114b2o5769b2o11b$11974b$11974b$11974b$11974b$11974b$11974b$11974b$11974b$11974b$11974b$11974b$5790b2o390b2o5790b$5790b2o390b2o5790b$11974b$6399bo5574b$6399b2o4377b2o1194b$6398bobo4376bobo1194b$2832bo7946bo1194b$2831b2o9141b$2831bobo2745bo6394b$1199b2o4377b2o6394b$1199bobo4376bobo377b2o54b2o5958b$1199bo4529b3o226b2o54b2o226b3o2891bo2837b$9136b2o2836b$5727bo5bo506bo5bo2888bobo2836b$5727bo5bo506bo5bo5727b$5727bo5bo458b3o45bo5bo5727b$6189bo2bobo5779b$5729b3o50b2o404b2obo50b3o5729b$11b2o5771bo113b2o174b2o111b2o4bobo5765b2o11b$11b2o5771bo113b2o174b2o111b2o2b3ob2o5764b2o11b$6186b2o2bo3b3o5777b$5780b2ob2o401b2obob2o2bo5778b$5779b2ob2o404bo5bo5779b$5779bo2bo3bo403b2o5782b$5779bob3o2b2o394bo8b3o5780b$5778b2o4bo2b2o393bo8b3o5780b$5779b3obob3o394bo5791b$5780b2ob4o6187b$5782b2o6190b$11974b$11974b$11974b$5778b2o414b2o143bo5634b$5778b2o414b2o143b2o4377b2o1254b$6338bobo4376bobo1254b$2892bo7826bo1254b$2891b2o9081b$2891bobo2745bo6334b$1259b2o4377b2o6334b$1259bobo4376bobo6333b$1259bo4522b2o406b2o2884bo2897b$5782b2o174b2o54b2o174b2o2884b2o2896b$5729b3o226b2o54b2o226b3o2830bobo2896b$5756bo6217b$5727bo5bo21bo484bo5bo5727b$5727bo5bo21b3o482bo5bo5727b$5727bo5bo506bo5bo5727b$11974b$5729b3o490bo19b3o5729b$11b2o5885b2o174b2o147bo5737b2o11b$11b2o5885b2o174b2o145b3o5737b2o11b$11974b$11974b$5790b2o390b2o5790b$5790b2o390b2o5790b$11974b$11974b$11974b$11974b$11974b$11974b$6279bo5694b$6279b2o4377b2o1314b$6278bobo4376bobo1314b$2952bo7706bo1314b$2951b2o9021b$2951bobo2745bo6274b$1319b2o4377b2o6274b$1319bobo4376bobo114bo6158b$1319bo4496b2o3198bo2957b$5815b2o3199b2o2956b$5782b2o406b2o2823bobo2956b$5782b2o174b2o54b2o174b2o5782b$5729b3o226b2o54b2o137bo88b3o5729b$6151b2o5821b$5727bo5bo418b2o86bo5bo5727b$5727bo5bo506bo5bo5727b$5727bo5bo506bo5bo5727b$11974b$5729b3o510b3o5729b$11b2o5885b2o174b2o5885b2o11b$11b2o5885b2o174b2o5885b2o11b$11974b$11974b$5790b2o390b2o5790b$5790b2o390b2o5790b$11974b$11974b$11974b$11974b$11974b$10598b2o1374b$10597bobo1374b$3012bo3203bo4382bo1374b$3011b2o3203b2o5756b$3011bobo3201bobo5756b$1379b2o10593b$1379bobo10592b$1379bo4382bo3193bo3017b$5761b2o3193b2o3016b$5761bobo3191bobo3016b$11974b$5782b2o406b2o5782b$5782b2o174b2o54b2o174b2o5782b$5958b2o54b2o5958b$11974b$11974b$11974b$11974b$11974b$11974b$11b2o5885b2o174b2o5885b2o11b$11b2o5885b2o174b2o5885b2o11b$11974b$11974b$5790b2o390b2o5790b$5790b2o390b2o5790b$11974b$11974b$11974b$10538b2o1434b$10537bobo1434b$3072bo3083bo4382bo1434b$3071b2o3083b2o5816b$3071bobo3081bobo5816b$1439b2o10533b$1439bobo10532b$1439bo4382bo3073bo3077b$5821b2o3073b2o3076b$5821bobo3071bobo3076b$11974b$11974b$11974b$5782b2o406b2o5782b$5782b2o174b2o54b2o174b2o5782b$5958b2o54b2o5958b$11974b$11974b$11974b$11974b$11974b$11974b$11b2o11948b2o11b$11b2o6066b3o5879b2o11b$6081bo5892b$6072b2o4bob2o5892b$5790b2o103b3o174b2o4bobo101b2o5790b$5790b2o102bo3bo179b2o102b2o5790b$5893bo7bo179b2o5891b$5892b2obob3obo177bo3b2o4393b2o1494b$5892b2obobo3bo175b3o4397bobo1494b$3132bo2759bo3bo184b3o12bo4382bo1494b$3131b2o2760b4o184bo14b2o5876b$3131bobo2760bo186b3o11bobo5876b$1499b2o4580b3o5890b$1499bobo4580bo5891b$1499bo4382bo19b2o166b2o2764bo3137b$5881b2o19b2o166b2o2764b2o3136b$5881bobo2951bobo3136b$5875bo6098b$5876b2o6096b$5875b2o6097b$11974b$11974b$5782b2o114b2o174b2o17bo96b2o5782b$5782b2o114b2o58b2o114b2o15b2o97b2o5782b$5958b2o52bobo77b2o5880b$6008bo4bo2b2o5956b$6007b2o6bobo5956b$5957b2o47b2o4bo2bob2o5955b$5953bo2bo2bo46b2o9b2o5955b$5951b2ob4obo47b5obob2o5957b$5951bo2b2o2bo3b3o43bo2bo5962b$11b2o5938b2o9bo2bo42bo2bo5949b2o11b$11b2o5950bob2o9bo22bo5961b2o11b$5948b2o18bob3o3bo20bo2bo22b2o5949b$5948b2o13b4obo7bo20b3o5974b$5790b2o98b2o56bo2bo10bo3b2o29b3o20bo61b2o98b2o5790b$5790b2o98b2o42bobo12bo2bo10bo2bo62bo52b2o98b2o4234b2o1554b$5935b2o11bo4bo9bo2bo52b2o3bo4bo4387bobo1554b$3192bo2742bo13bo3b2o9b3o51bobo5bobo7bo4382bo1554b$3191b2o2759b2o64b2o4bobo9b2o5936b$3191bobo2746bo11bo65b2o4b2o9bobo5936b$1559b2o4379bobo76b3o2bo5949b$1559bobo4378b2o77b3o5952b$1559bo7216bo3197b$8776b2o3196b$5958b2o54b2o2759bobo3196b$5958b2o54b2o5958b$11974b$11974b$11974b$11974b$11974b$11974b$5782b2o114b2o174b2o114b2o5782b$5782b2o114b2o174b2o114b2o5782b$11974b$11974b$11974b$5966b2o38b2o5966b$5966b2o38b2o5966b$5855bo6118b$5854bo6119b$11b2o5841b3o6104b2o11b$11b2o11948b2o11b$11974b$5982bobo138bo4234b2o1614b$5790b2o191b2o139bo57b2o4173bobo1614b$3252bo2537b2o191bo138b3o57b2o4175bo1614b$3251b2o8721b$3251bobo8720b$1619b2o4363bobo5987b$1619bobo4362b2o5988b$1619bo4365bo2730bo3257b$8716b2o3256b$8715bobo3256b$11974b$5958b2o54b2o5958b$5958b2o54b2o5958b$11974b$11974b$11974b$11974b$11974b$11974b$5782b2o114b2o174b2o114b2o5782b$5782b2o114b2o174b2o114b2o5782b$11974b$11974b$11974b$5966b2o38b2o5966b$5966b2o38b2o5966b$11974b$11974b$11b2o11948b2o11b$11b2o10285b2o1661b2o11b$10297bobo1674b$3312bo6986bo1674b$3311b2o2477b2o390b2o5790b$3311bobo2476b2o390b2o5790b$1679b2o10293b$1679bobo10292b$1679bo6976bo3317b$8656b2o3316b$8655bobo3316b$11974b$11974b$11974b$5958b2o54b2o5958b$5958b2o54b2o5958b$11974b$11974b$11974b$11974b$11974b$11974b$5782b2o114b2o174b2o114b2o5782b$5782b2o114b2o174b2o114b2o5782b$11974b$11974b$11974b$11974b$11974b$11974b$10238b2o1734b$11b2o10224bobo1721b2o11b$11b2o3359bo6866bo1721b2o11b$3371b2o8601b$3371bobo8600b$1739b2o4049b2o390b2o5790b$1739bobo4048b2o390b2o5790b$1739bo6856bo3377b$8596b2o3376b$8595bobo3376b$11974b$11974b$11974b$11974b$11974b$5958b2o54b2o5958b$5958b2o54b2o5958b$11974b$11974b$11974b$11974b$11974b$11974b$5782b2o114b2o174b2o114b2o5782b$5782b2o114b2o174b2o114b2o5782b$11974b$11974b$11974b$5795bo6178b$5794bo4383b2o1794b$5794b3o4380bobo1794b$3432bo6746bo1794b$11b2o3418b2o2748b2o5778b2o11b$11b2o3418bobo2746bo5780b2o11b$1799b2o4378bo2bo5791b$1799bobo4378bobo5791b$1799bo3990b2o389b2o2353bo3437b$5790b2o389b2o2353b2o3436b$8535bobo3436b$11974b$11974b$11974b$11974b$11974b$11974b$11974b$5958b2o54b2o5958b$5958b2o54b2o5958b$11974b$11974b$11974b$11974b$11974b$11974b$5782b2o114b2o174b2o114b2o5782b$5782b2o114b2o174b2o114b2o5782b$11974b$11974b$10118b2o1854b$10117bobo1854b$3492bo6626bo1854b$3491b2o8481b$3491bobo8480b$11b2o1846b2o10100b2o11b$11b2o1846bobo10099b2o11b$1859bo6616bo3497b$8476b2o3496b$8475bobo3496b$11974b$11974b$11974b$11974b$11974b$11974b$11974b$11974b$11974b$5958b2o54b2o5958b$5958b2o54b2o5958b$11974b$11974b$11974b$11974b$11974b$11974b$5782b2o114b2o174b2o114b2o5782b$5782b2o114b2o174b2o114b2o5782b$10058b2o1914b$10057bobo1914b$3552bo6506bo1914b$3551b2o8421b$3551bobo8420b$1919b2o10053b$1919bobo10052b$11b2o1906bo6496bo3544b2o11b$11b2o8403b2o3543b2o11b$8415bobo3556b$11974b$11974b$11974b$11974b$11974b$11974b$11974b$11974b$11974b$11974b$11974b$5958b2o54b2o5958b$5958b2o54b2o5958b$11974b$11974b$11974b$11974b$11974b$6191bo5782b$5898b2o174b2o114b4o3804b2o1974b$5898b2o174b2o113bobo2bo3802bobo1974b$3612bo2167bo412b3o3803bo1974b$3611b2o2167bo5bo403bo4bo5778b$3611bobo2165b3o5bo402b2o3b3o5776b$1979b2o3804bobo397bo3b3o5782b$1979bobo3797b3o4b2o395b5ob2o5783b$1979bo3800bo9b3o389b3ob5o2165bo3617b$6183b5ob2o3b2o2160b2o3616b$11b2o6172bo4bo2b3o2159bobo3603b2o11b$11b2o6179b3o5766b2o11b$6192b2o5780b$11974b$11974b$5778b2o414b2o5778b$5778b2o414b2o5778b$11974b$11974b$11974b$11974b$11974b$11974b$5782b2o406b2o5782b$5782b2o174b2o54b2o174b2o5782b$5958b2o54b2o5958b$11974b$11974b$11974b$11974b$9938b2o2034b$9937bobo2034b$3672bo2225b2o174b2o3863bo2034b$3671b2o2225b2o174b2o5898b$3671bobo8300b$2039b2o9933b$2039bobo3748b2o390b2o5790b$2039bo3750b2o17b3o370b2o2112bo3677b$5809bo2486b2o3676b$5810bo2484bobo3676b$11974b$11b2o11948b2o11b$11b2o6144b3o5801b2o11b$6159bo5814b$6158bo5815b$11974b$11974b$11974b$11974b$11974b$11974b$11974b$11974b$6155bo5818b$5782b2o371bobo32b2o5782b$5782b2o174b2o54b2o139b2o33b2o5782b$5958b2o54b2o5958b$11974b$5823bo6150b$5821bobo4054b2o2094b$5822b2o4053bobo2094b$3732bo6146bo2094b$3731b2o2346b3o5892b$3731bobo8240b$2099b2o3790b2o188bo5892b$2099bobo3788b2obo185b4o5891b$2099bo3769b3o20bo7b2o170b2o5b5o2152bo3737b$5790b2o77bo21b3o6b2o170b2o4bo3b2o98b2o2052b2o3736b$5790b2o78bo20b3o185b3o100b2o2051bobo3736b$5889b2ob2o6080b$5898bo6075b$5899b2o196b3o5874b$11b2o5885b2o199bo5861b2o11b$11b2o6085bo5862b2o11b$11974b$11974b$6083b2o5889b$5902b2o166b2o9bobo5890b$5902b2o166b2o10bo5891b$11974b$11974b$11974b$11974b$11974b$11974b$5782b2o114b2o56b3o55bo59b2o114b2o5782b$5782b2o114b2o56bo2bo53b4o57b2o114b2o5782b$5956b2ob2o47bo7bo5957b$5960bo46bo3bo3b3o3800b2o2154b$5953bo2b2ob2o46b5o3b4o3798bobo2154b$3792bo2161bob4o48bo6bo3bo3799bo2154b$3791b2o2215b3o2bobo5958b$3791bobo2217bobobob2o5955b$2159b2o3805b3o43bo3bo5957b$2159bobo9812b$2159bo3769b3o2244bo3797b$5929bo67b3o2176b2o3796b$5930bo67bo2176bobo3796b$5790b2o98b2o106bo83b2o98b2o5790b$5790b2o98b2o105b3o82b2o98b2o5790b$5954b2o62b2o17b3o5934b$5954b2o62bo2bo2bo14bo5934b$6020bo3bo13bo5935b$11b2o6007b4o5937b2o11b$11b2o6010bo5937b2o11b$6023bo5950b$6022bo5951b$6021b2o5951b$5958b2o54b2o5958b$5958b2o54b2o5958b$11974b$11974b$11974b$11974b$11974b$11974b$5782b2o114b2o174b2o114b2o5782b$5782b2o114b2o174b2o114b2o3566b2o2214b$9757bobo2214b$3852bo5906bo2214b$3851b2o8121b$3851bobo2112b2o38b2o5966b$2219b2o3745b2o38b2o5966b$2219bobo9752b$2219bo5896bo3857b$8116b2o3856b$8115bobo3856b$11974b$11974b$5790b2o98b2o190b2o98b2o5790b$5790b2o98b2o190b2o40bo57b2o5790b$6125b2o5847b$6124b2o5848b$11974b$11b2o5970bo5977b2o11b$11b2o5831bo137bo5978b2o11b$5842b2o138b3o5989b$5843b2o6129b$11974b$5958b2o35bo18b2o5958b$5958b2o36bo17b2o5958b$5994b3o5977b$11974b$11974b$6095bo5878b$6095bobo5876b$6095b2o3601b2o2274b$5782b2o114b2o174b2o114b2o3505bobo2274b$3912bo1869b2o114b2o174b2o114b2o3507bo2274b$3911b2o1970bo6090b$3911bobo1967bobo6090b$2279b2o3601b2o6090b$2279bobo3684b2o38b2o5966b$2279bo3686b2o38b2o2048bo3917b$8056b2o3916b$8055bobo3916b$11974b$11974b$11974b$11974b$5790b2o98b2o190b2o98b2o5790b$5790b2o98b2o190b2o98b2o5790b$11974b$11974b$11974b$11b2o11948b2o11b$11b2o11948b2o11b$11974b$11974b$11974b$5958b2o54b2o5958b$5958b2o54b2o5958b$11974b$11974b$11974b$9638b2o2334b$9637bobo2334b$3972bo5666bo2334b$3971b2o1809b2o114b2o174b2o114b2o5782b$3971bobo1808b2o114b2o174b2o114b2o5782b$2339b2o9633b$2339bobo9632b$2339bo5656bo3977b$7996b2o3976b$7995bobo3976b$11974b$11974b$11974b$11974b$11974b$11974b$5790b2o390b2o5790b$5790b2o390b2o5790b$11974b$11974b$11974b$11b2o11948b2o11b$11b2o11948b2o11b$11974b$11974b$11974b$5958b2o54b2o5958b$5958b2o54b2o5958b$11974b$9578b2o2394b$9577bobo2394b$4032bo5546bo2394b$4031b2o7941b$4031bobo7940b$2399b2o3381b2o114b2o174b2o114b2o5782b$2399bobo3380b2o114b2o174b2o114b2o5782b$2399bo5536bo4037b$7936b2o4036b$7935bobo4036b$11974b$11974b$11974b$11974b$6181b3o5790b$6180bo3bo5789b$6179bo3b2o5789b$6179bo4bo5789b$6179bo3bo5790b$11974b$6181b2o5791b$11974b$11974b$11b2o11948b2o11b$11b2o11948b2o11b$11974b$11974b$11974b$5958b2o54b2o5958b$5958b2o54b2o3502b2o2454b$9517bobo2454b$4092bo5426bo2454b$4091b2o7881b$4091bobo7880b$2459b2o9513b$2459bobo9512b$2459bo3438b2o174b2o1800bo4097b$5898b2o174b2o108b3o1689b2o4096b$6184bo1690bobo4096b$6184b2obo4b2o5780b$5784b3o398bobo4b2o5780b$5783bo3bo398b2o5786b$5780bo7bo394b2o5789b$5780bob3obob2o391b2o3bo5787b$5780bo3bobob2o396b3o5785b$5785bo3bo392b3o5789b$5785b4o395bo5789b$5787bo394b3o5789b$6182b3o5789b$6183bo5790b$5778b2o414b2o5778b$5778b2o414b2o5778b$11974b$11974b$11b2o11948b2o11b$11b2o11948b2o11b$11974b$11974b$5782b2o406b2o3266b2o2514b$5782b2o174b2o54b2o174b2o3265bobo2514b$4152bo1805b2o54b2o3443bo2514b$4151b2o7821b$4151bobo7820b$2519b2o3650b2o5801b$2519bobo3648bobo5801b$2519bo3652bo1643bo4157b$7816b2o4156b$5898b2o174b2o1739bobo4156b$5806b2o90b2o174b2o5898b$5806bobo6165b$5806bo6167b$5790b2o390b2o5790b$5790b2o390b2o5790b$11974b$11974b$11974b$11974b$11974b$11974b$11974b$11974b$11974b$11974b$11974b$11974b$11b2o11948b2o11b$11b2o6067bobo5878b2o11b$6079bo4bo3313b2o2574b$6079bo4bo3312bobo2574b$4212bo1569b2o295b2o109b2o3207bo2574b$4211b2o1569b2o174b2o54b2o174b2o5782b$4211bobo1744b2o54b2o63b2o2b2o5889b$2579b2o3310bo187b2o2b2o26b2o5861b$2579bobo3308b3o186b3obo26bobo5861b$2579bo3310bo2bo186bo31bo1643bo4217b$5892b2o187bo1674b2o4216b$5826bo65bo1862bobo4216b$5827bo38b2o21b2o6083b$5825b3o38bobo20b4o6081b$5866bo23bo2bo6080b$5891bo6082b$5900b2o170bo69bo5831b$5790b2o98bobo7b2o169bo10b2o57bo40b2o5790b$5790b2o98b2o178b2o10b2o57b3o38b2o5790b$6070b2obo5900b$11974b$6072bo5901b$11974b$5902bo6071b$5901bobo6070b$5901bobo6070b$5901b2o6071b$5901b3o6070b$11974b$11974b$11974b$11b2o9325b2o2621b2o11b$11b2o9324bobo2621b2o11b$4272bo5066bo2634b$4271b2o7701b$4271bobo1508b2o114b2o174b2o114b2o5782b$2639b2o3141b2o114b2o151b2o21b2o114b2o5782b$2639bobo3370bo37bobo5921b$2639bo3316bo54b3o38bo1643bo4277b$5956bo5bo51bo1681b2o4276b$5955b3o5bo47b4obo1678bobo4276b$5926b2o33bobo47b2ob4o5956b$5926bobo26b3o4b2o47b2o2b2obo5955b$5926bo29bo9b3o38b3ob2o2bo2bo5955b$6007b3o2bo4bo5956b$6007b7o5960b$6007b4obo5961b$6008bo2bo5962b$5790b2o98b2o117b2o71b2o98b2o5790b$5790b2o98b2o190b2o98b2o5790b$5954b2o62b2o5954b$5954b2o62b2o5954b$11974b$11974b$11974b$11974b$11974b$11974b$5958b2o54b2o5958b$5958b2o54b2o5958b$9278b2o2694b$9277bobo2694b$11b2o4319bo4946bo2681b2o11b$11b2o4318b2o7628b2o11b$4331bobo7640b$2699b2o9273b$2699bobo3080b2o114b2o174b2o114b2o5782b$2699bo3082b2o114b2o174b2o114b2o1444bo4337b$7636b2o4336b$7635bobo4336b$11974b$5966b2o38b2o5966b$5966b2o38b2o5966b$11974b$11974b$11974b$11974b$11974b$11974b$5790b2o98b2o190b2o98b2o5790b$5790b2o98b2o190b2o98b2o5790b$11974b$11974b$11974b$11974b$11974b$11974b$11974b$11974b$5839bobo116b2o54b2o3202b2o2754b$5839b2o117b2o54b2o3201bobo2754b$4392bo1447bo3378bo2754b$4391b2o7581b$11b2o4378bobo1605bo5961b2o11b$11b2o2746b2o3236bobo137bobo5821b2o11b$2759bobo3236b2o138b2o5834b$2759bo3378bo1437bo4397b$5782b2o114b2o174b2o114b2o1384b2o4396b$5782b2o114b2o69bo104b2o114b2o1383bobo4396b$5969bobo6002b$5969b2o6003b$11974b$5886bo79b2o38b2o5966b$5887bo78b2o38b2o5966b$5885b3o6086b$11974b$6083b2o5889b$6085bo5888b$6083bo2bo5887b$6083bobo5888b$5790b2o98b2o191b2o97b2o5790b$5790b2o98b2o191b2o97b2o5790b$11974b$11974b$11974b$11974b$11974b$11974b$9158b2o2814b$9157bobo2814b$4452bo1505b2o54b2o3143bo2814b$4451b2o1505b2o54b2o5958b$4451bobo7520b$2819b2o9153b$11b2o2806bobo9139b2o11b$11b2o2806bo4696bo4444b2o11b$7516b2o4456b$7515bobo4456b$5782b2o114b2o174b2o114b2o5782b$5782b2o114b2o174b2o114b2o5782b$11974b$11974b$11974b$11974b$11974b$11974b$11974b$11974b$11974b$11974b$11974b$5790b2o390b2o5790b$5790b2o390b2o5790b$11974b$11974b$11974b$11974b$9098b2o2874b$9097bobo2874b$4512bo4586bo2874b$4511b2o7461b$4511bobo1444b2o54b2o5958b$2879b2o3077b2o54b2o5958b$2879bobo9092b$2879bo4576bo4517b$11b2o7443b2o4503b2o11b$11b2o7442bobo4503b2o11b$11974b$11974b$5782b2o114b2o174b2o114b2o5782b$5782b2o114b2o174b2o114b2o5782b$11974b$11974b$11974b$11974b$11974b$6188b2o5784b$5781b2o404bo4bo5781b$5779b3ob2o401bo5bo4b2o5775b$5779b3obo7bo394b2ob2obo3bo2bo5774b$5777b2o4bo2bo3bo4bo380b4o15b2obo4bo5770b$5777bo5bo3bo2b2o3b2o379b2ob2o8bo6bobo5bo5769b$5777bobo4bo3bo2bo4b2o376bo2bo2b2o7bo7b3o2b3o5769b$5778b2o4bo3b2ob6o377b3o3bo7bo10bo5774b$5787bo4b3o378bo2bo2bo6b2o5786b$6173bobo12bo5785b$6174b2o10b2o2850b2o2934b$9037bobo2934b$4572bo4466bo2934b$4571b2o7401b$4571bobo7400b$2939b2o2841b2o406b2o5782b$2939bobo2840b2o174b2o54b2o174b2o5782b$2939bo3018b2o54b2o1380bo4577b$7396b2o4576b$7395bobo4576b$11b2o6189bo5758b2o11b$11b2o6189b2o5757b2o11b$6201bobo5770b$11974b$5796bo101b2o174b2o5898b$5776bo20b2o99b2o174b2o5898b$5775b2o19b2o6176b$5775bobo6196b$5790b2o390b2o5790b$5790b2o380bo9b2o5790b$6170b2o5802b$6171b2o5801b$11974b$11974b$11974b$11974b$11974b$11974b$11974b$8978b2o2994b$8977bobo2994b$4632bo4346bo2994b$4631b2o7341b$4631bobo7340b$2999b2o8973b$2999bobo8972b$2999bo2782b2o406b2o1144bo4637b$5782b2o174b2o54b2o174b2o1144b2o4636b$5958b2o54b2o1319bobo4636b$6142bo5831b$6142b2o5830b$11b2o6128bobo5817b2o11b$11b2o11948b2o11b$11974b$5836bo59bo6077b$5835b2o60bo6076b$5835bobo55bo6bo171b5o5897b$5892bo3b3o2bo169b2obobo5897b$5891bo9bo168bo3bo5899b$5790b2o99bo4b4ob2o166b3ob2o107b2o5790b$5790b2o98bo5b4obo168b2ob2o5b2o100b2o5790b$5891bo5bo2bo171bo2bo3b3o5892b$5892b4o176b4o3bo2bo5891b$5893b2o176bob2obo2b3o5892b$5882b2o187b3o2bo3b2o5892b$5884bo186b3obo5898b$5881b3o22b4o6064b$5882bo21b8o6062b$5904b5ob4o3004b2o3054b$5903b2o2b2obo2bo156b2o2845bobo3054b$4692bo1217b3o157b2o2847bo3054b$4691b2o1209b2o6bo6063b$4691bobo1209bo3b3o6064b$3059b2o2843b2o6068b$3059bobo2842bo6069b$3059bo2843bo1372bo4697b$7276b2o4696b$5782b2o114b2o20bobo151b2o114b2o1083bobo4696b$5782b2o114b2o21b2o35b2o54b2o58b2o6bo107b2o5782b$5921bo36b2o54b2o66b2o5890b$6081bobo5890b$11974b$11b2o6033bobo5912b2o11b$11b2o5883bo149b2o5913b2o11b$5895b2o150bo5926b$5895bobo117bo5958b$6014bobo5957b$5962bo39bo5bo5bobo5957b$5961bobo40bo2bo3b2o5961b$5960bo38bo4bo8bo7b2o5951b$5790b2o98b2o68bo2b3o32bo15bobo2b2ob2o58b2o98b2o5790b$5790b2o98b2o68b2o3b2o31bo8b2o10b2obo59b2o98b2o5790b$5961b2ob2o32bo5bo2b2o2b2o8bo5952b$5960b2ob2o34bo3bo8bob3ob3o5953b$5960bo2bo36bo18bo5954b$5960bo2bo6010b$5960b2o6012b$8858b2o3114b$8857bobo3114b$4752bo4106bo3114b$4751b2o1205b2o54b2o5958b$4751bobo1115bo88b2o54b2o5958b$3119b2o2747bo6105b$3119bobo2746b3o6103b$3119bo4096bo4757b$7216b2o4756b$5968bobo138bo1105bobo4756b$5969b2o139bo5863b$5782b2o114b2o69bo104b2o32b3o79b2o5782b$5782b2o114b2o174b2o114b2o5782b$11974b$5998bobo5973b$5998b2o5974b$11b2o5953b2o31bo6b2o5953b2o11b$11b2o5953b2o38b2o5953b2o11b$5856bo6117b$5857b2o6115b$5856b2o6116b$11974b$11974b$6112bo5861b$5790b2o98b2o190b2o26b2o70b2o5790b$5790b2o98b2o190b2o27b2o69b2o5790b$11974b$11974b$11974b$8798b2o3174b$8797bobo3174b$4812bo3986bo3174b$4811b2o7161b$4811bobo7160b$3179b2o2777b2o54b2o5958b$3179bobo2776b2o54b2o5958b$3179bo3976bo4817b$7156b2o4816b$7155bobo4816b$11974b$11974b$11974b$5782b2o114b2o174b2o114b2o5782b$5782b2o114b2o174b2o114b2o5782b$11974b$11974b$11974b$11b2o5953b2o38b2o5953b2o11b$11b2o5953b2o38b2o5953b2o11b$11974b$11974b$11974b$11974b$11974b$11974b$5790b2o98b2o190b2o98b2o5790b$5790b2o98b2o190b2o98b2o5790b$11974b$8738b2o3234b$8737bobo3234b$4872bo3866bo3234b$4871b2o7101b$4871bobo7100b$3239b2o8733b$3239bobo8732b$3239bo2718b2o54b2o1080bo4877b$5958b2o54b2o1080b2o4876b$7095bobo4876b$11974b$11974b$11974b$11974b$11974b$5782b2o114b2o174b2o114b2o5782b$5782b2o114b2o174b2o114b2o5782b$11974b$11974b$11974b$11b2o11948b2o11b$11b2o11948b2o11b$11974b$11974b$11974b$11974b$11974b$11974b$5790b2o390b2o5790b$5790b2o390b2o2494b2o3294b$8677bobo3294b$4932bo3746bo3294b$4931b2o7041b$4931bobo7040b$3299b2o8673b$3299bobo8672b$3299bo3736bo4937b$5809bo1226b2o4936b$5808bo149b2o54b2o1019bobo4936b$5808b3o147b2o54b2o5958b$11974b$11974b$6169bo5804b$6170bo5803b$6168b3o5803b$11974b$5782b2o114b2o174b2o114b2o5782b$5782b2o114b2o174b2o114b2o5782b$11974b$11974b$11974b$11b2o11948b2o11b$11b2o11948b2o11b$11974b$11974b$11974b$11974b$11974b$8618b2o3354b$5790b2o390b2o2433bobo3354b$4992bo797b2o390b2o2435bo3354b$4991b2o6981b$4991bobo6980b$3359b2o8613b$3359bobo8612b$3359bo3616bo4997b$6976b2o4996b$6975bobo4996b$11974b$5958b2o54b2o5958b$5958b2o54b2o5958b$11974b$11974b$11974b$11974b$11974b$11974b$5898b2o174b2o5898b$5898b2o174b2o5898b$5784b3o401bo5785b$5784bo2bo404b3o5779b$5784b2o400bobo5785b$11b2o5767b3o2bo400b2o3bo3bo5765b2o11b$11b2o5766bo3bobo3bo392bo4bo4bobo5766b2o11b$5779bo5bo3bo392bo10bo5780b$5780b2obobo3bo392bo5791b$5784bob2o2bo6183b$5787bo2bo2767b2o3414b$5786bo2bo2767bobo3414b$5052bo734b2o2770bo3414b$5051b2o6921b$5051bobo724b2o414b2o5778b$3419b2o2357b2o414b2o5778b$3419bobo8552b$3419bo3496bo5057b$6916b2o5056b$6915bobo5056b$11974b$11974b$5782b2o406b2o5782b$5782b2o174b2o54b2o174b2o5782b$5958b2o54b2o5958b$11974b$11974b$11974b$11974b$11974b$11974b$5898b2o174b2o5898b$5898b2o174b2o148bo5749b$6222bobo5749b$6223b2o5749b$5790b2o390b2o5790b$11b2o5777b2o390b2o5777b2o11b$11b2o5731bo6216b2o11b$5744bobo6227b$5744b2o2752b2o3474b$8497bobo3474b$5112bo3386bo3474b$5111b2o6861b$5111bobo6860b$3479b2o8493b$3479bobo8492b$3479bo3376bo5117b$20b3o6833b2o5116b$20bo6834bobo5116b$21bo11952b$11974b$11974b$11946b3o25b$5782b2o406b2o5756bo25b$5782b2o174b2o54b2o174b2o5755bo26b$5958b2o54b2o5958b$11974b$6150bobo5821b$6150b2o5822b$5740b2o409bo5822b$5740bobo6231b$5740bo6233b$5826bobo69b2o174b2o5898b$5827b2o69b2o174b2o5898b$5827bo399b2o5745b$6226bobo5745b$5790b2o390b2o44bo5745b$5790b2o390b2o5790b$8438b2o3534b$8437bobo3534b$5172bo3266bo3534b$5171b2o6801b$5171bobo6800b$3539b2o8433b$3539bobo8432b$3539bo3256bo5177b$80b3o6713b2o5176b$80bo5648b3o510b3o550bobo5176b$81bo11892b$5727bo5bo506bo5bo5727b$5727bo5bo506bo5bo5727b$5727bo5bo506bo5bo5639b3o85b$11888bo85b$5729b3o510b3o5642bo86b$5782b2o406b2o5782b$5782b2o174b2o54b2o174b2o5782b$5958b2o54b2o5958b$11974b$5800b2o6172b$5800bobo6171b$5800bo6173b$11974b$11974b$5898b2o174b2o91b2o5805b$5898b2o174b2o90bobo5805b$6168bo5805b$11974b$5790b2o390b2o2194b2o3594b$5790b2o390b2o2193bobo3594b$5232bo3146bo3594b$5231b2o6741b$5231bobo6740b$3599b2o8373b$3599bobo8372b$3599bo3136bo5237b$140b3o6593b2o5236b$140bo6594bobo5236b$141bo11832b$5729b3o510b3o5729b$11974b$5727bo5bo506bo5bo5579b3o145b$5727bo5bo506bo5bo5581bo145b$5727bo5bo160b2o344bo5bo5580bo146b$5894b2o6078b$5729b3o164bo345b3o5729b$5782b2o110b3o293b2o5782b$5782b2o109bobo62b2o54b2o174b2o5782b$5860b2o32b2o62b2o54b2o65b3o5890b$5860bobo30bo186bo3bo5889b$5860bo32bo6080b$5891bo187bo5894b$6080b5o5889b$6083bo23b2o5865b$6106bobo5865b$6108bo5865b$11974b$8318b2o3654b$6072b2o2243bobo3654b$5292bo497b2o98b2o180b2o8b2o98b2o2135bo3654b$5291b2o497b2o98b2o190b2o98b2o5790b$5291bobo6680b$3659b2o8313b$3659bobo8312b$3659bo3016bo5297b$200b3o5869bo603b2o5296b$200bo5870bobo601bobo5296b$201bo5871b2o5899b$6070b2obo5900b$6070bo2bo5900b$5729b3o339b2o169b3o5521b3o205b$11768bo205b$5727bo5bo506bo5bo5520bo206b$5727bo5bo506bo5bo5727b$5727bo5bo506bo5bo5727b$11974b$5729b3o510b3o5729b$5782b2o114b2o20b2o152b2o114b2o5782b$5782b2o114b2o20bobo151b2o114b2o5782b$5920bo41b2o126bobo5881b$5958b3ob2o126b2o5882b$5957b6o128bo5882b$5956b3o50b2o36b2o5925b$5965bo41b2o2bo34bobo5925b$5886bobo75b3o41bob2o5bo30bo5925b$5887b2o75bo2bo37b2o3bo6bo5956b$5887bo77b3o49bo2240b2o3714b$5966bo2290bobo3714b$5352bo2906bo3714b$5351b2o6621b$5351bobo436b2o98b2o190b2o98b2o5790b$3719b2o2069b2o98b2o190b2o98b2o5790b$3719bobo2232b2o62b2o5954b$3719bo2234b2o62b2o596bo5357b$260b3o6353b2o5356b$260bo6354bobo5356b$261bo11712b$11974b$11974b$11706b3o265b$5958b2o54b2o5692bo265b$5729b3o226b2o54b2o226b3o5462bo266b$11974b$5727bo5bo506bo5bo5727b$5727bo5bo506bo5bo5727b$5727bo5bo506bo5bo5727b$11974b$5729b3o510b3o5729b$5782b2o114b2o174b2o114b2o5782b$5782b2o114b2o174b2o114b2o5782b$11974b$11974b$11974b$5966b2o38b2o5966b$5966b2o38b2o5966b$8198b2o3774b$8197bobo3774b$5412bo2786bo3774b$5411b2o6561b$5411bobo6560b$3779b2o8193b$3779bobo2008b2o390b2o5790b$3779bo2010b2o390b2o372bo5417b$320b3o6233b2o5416b$320bo6234bobo5416b$321bo11652b$11974b$11974b$11646b3o325b$11648bo325b$11647bo326b$5958b2o54b2o5958b$5729b3o226b2o54b2o117bobo106b3o5729b$6134b2o5838b$5727bo5bo400bo105bo5bo5727b$5727bo5bo506bo5bo5727b$5727bo5bo239bo266bo5bo5727b$5833bobo137bobo5998b$5729b3o101b2o138b2o267b3o5729b$5782b2o50bo63b2o174b2o114b2o5782b$5782b2o114b2o174b2o114b2o5782b$6005bo5968b$6003bo5970b$6004bo2bo5966b$5966b2o2170b2o3834b$5966b2o38b2o2129bobo3834b$5472bo2666bo3834b$5471b2o6501b$5471bobo6500b$3839b2o8133b$3839bobo8132b$3839bo2656bo5477b$380b3o5407b2o390b2o312b2o5476b$380bo5409b2o390b2o311bobo5476b$381bo11592b$11974b$11974b$11586b3o385b$11588bo385b$11587bo386b$11974b$11974b$5958b2o54b2o5958b$5729b3o226b2o54b2o226b3o5729b$11974b$5727bo5bo506bo5bo5727b$5727bo5bo506bo5bo5727b$5727bo5bo506bo5bo5727b$11974b$5729b3o510b3o5729b$5782b2o114b2o174b2o114b2o5782b$5782b2o114b2o174b2o114b2o5782b$11974b$8078b2o3894b$8077bobo3894b$5532bo2546bo3894b$5531b2o6441b$5531bobo6440b$3899b2o8073b$3899bobo8072b$3899bo2536bo5537b$440b3o5993b2o5536b$440bo5994bobo5536b$441bo5348b2o390b2o5790b$5790b2o390b2o5790b$11974b$11526b3o445b$11528bo445b$11527bo446b$11974b$11974b$11974b$11974b$5958b2o54b2o5958b$5729b3o226b2o54b2o226b3o5729b$11974b$5727bo5bo506bo5bo5727b$5727bo5bo506bo5bo5727b$5727bo5bo506bo5bo5727b$11974b$5729b3o510b3o5729b$5782b2o114b2o174b2o114b2o5782b$5782b2o114b2o174b2o114b2o1826b2o3954b$8017bobo3954b$5592bo2426bo3954b$5591b2o6381b$5591bobo6380b$3959b2o1824bo6188b$3959bobo1822b2o404bo5783b$3959bo1815b2o6bo2bo404bo184bo5597b$500b3o5272bo4b2obo407b2o183b2o5596b$500bo5272bo7bo3bo392bo4b2o12bo177bobo5596b$501bo5271bo2bo3bobobobo5bo4b3o376b2ob2obo2b2ob2o7bo5776b$5769bo6b2obo6bo4b2o5b2o375b2o4b2o4bo2bo7bo5775b$5768bo5bobo6b3o4b2o5b2o375bo3bo2b4o5b3o3b2o5776b$5768b3o5bo7b2o5bobo3bobo375b3ob2o2b2o2b3o3b2ob2o5268b3o505b$5792b2o4b4o374bo5bo12bo5272bo505b$5793bo3bo2b2o5665bo506b$5797bob2o6173b$5797b3o6174b$11974b$11974b$11974b$5782b2o406b2o5782b$5782b2o174b2o54b2o174b2o5782b$5729b3o226b2o54b2o226b3o5729b$11974b$5727bo5bo506bo5bo5727b$5727bo5bo506bo5bo5727b$5727bo5bo506bo5bo5727b$11974b$5729b3o510b3o1713b2o4014b$5898b2o174b2o1881bobo4014b$5652bo245b2o174b2o100bo1782bo4014b$5651b2o521b2o5798b$5651bobo521b2o5797b$4019b2o1769b2o390b2o5790b$4019bobo1768b2o390b2o5790b$4019bo1782bo513bo5657b$560b3o5240b2o511b2o5656b$560bo5241b2o511bobo5656b$561bo11412b$11974b$11974b$11406b3o565b$11408bo565b$11407bo566b$11974b$11974b$11974b$11974b$11974b$11974b$11974b$5782b2o406b2o5782b$5782b2o174b2o54b2o174b2o5782b$5729b3o226b2o54b2o226b3o5729b$11974b$5727bo5bo506bo5bo5727b$5727bo5bo506bo5bo5727b$5727bo5bo506bo5bo1651b2o4074b$7897bobo4074b$5712bo16b3o510b3o1654bo4074b$5711b2o185b2o174b2o5898b$5711bobo184b2o174b2o5898b$4079b2o7893b$4079bobo7892b$4079bo1710b2o390b2o72bo5717b$620b3o5167b2o390b2o72b2o5716b$620bo5634bobo5716b$621bo11352b$11974b$11974b$11346b3o625b$11348bo625b$11347bo626b$11974b$11974b$11974b$11974b$11974b$11974b$11974b$11974b$11974b$5782b2o406b2o5782b$5782b2o174b2o54b2o174b2o5782b$5958b2o54b2o5958b$11974b$7838b2o4134b$7837bobo4134b$7839bo4134b$11974b$11974b$4139b2o1634bo122b2o174b2o5898b$4139bobo1632b2o122b2o174b2o5898b$4139bo1634bobo6197b$680b3o11291b$680bo5109b2o390b2o5790b$681bo5108b2o390b2o9bo5780b$6193b2o5779b$6192bobo5779b$11286b3o685b$11288bo685b$11287bo686b$11974b$11974b$11974b$11974b$11974b$11974b$11974b$11974b$11974b$11974b$11974b$5782b2o406b2o5782b$5782b2o174b2o54b2o174b2o5782b$5958b2o54b2o1762b2o4194b$7777bobo4194b$7779bo4194b$11974b$11974b$4199b2o1634bo6138b$4199bobo1632b2o280bo5857b$4199bo1634bobo237b2o38b2o5858b$740b3o5155b3o173b2o39b2o5857b$740bo5150b2o3b2ob2o6073b$741bo5149b2obo2b2o234bo5840b$5790b2o70bo29b4obo2bo168bo4bo58b2o47b2o5790b$5790b2o71b2o27b2obobobobo165bo2bo2bobo3bo52bobo47b2o5790b$5862b2o30b2obobobo164bo3bob2obo2bob2o5144b3o745b$5896bo3bo165bo2bo3b2o2b2ob2o5146bo745b$6078bo3bo5144bo746b$6078b5ob4o5886b$5881b3o180b2o16b2o3bo3b3o5880b$5880bo3bo178bo2b2o10bobobo2b2o5887b$5880bo3bo177b3o3bo8bo5bo5890b$5881b3o19b2o158bo4b2o7bo2b2ob2o5889b$5902bo2bo5bo152b3obob2o6bo4b2o5889b$5902bob3obo3bo154b2ob2o8bo2bo5890b$5903b2ob3o158b2ob2o8b3o5891b$5911bo156b2o11bo5892b$5905b5o145bobo5916b$5904b5o146b2o5917b$6056bo5917b$11974b$5782b2o114b2o174b2o114b2o1526b2o4254b$5782b2o114b2o21bobo34b2o54b2o58b2o114b2o1525bobo4254b$5922b2o34b2o54b2o1703bo4254b$5922bo6051b$11974b$4259b2o1634bo6078b$4259bobo1632b2o6078b$4259bo1634bobo6077b$800b3o11171b$800bo11173b$801bo5158b2obo109bo5900b$5959bo3bo109b2o5899b$5958bo113bobo5899b$5790b2o98b2o66bo3b2o2b2o114b2o98b2o4982b3o805b$5790b2o98b2o66b3o6b2o113b2o98b2o4984bo805b$5966b2o5199bo806b$5966bo6007b$11974b$5960b2o48b3o5961b$5959bo50bo2bo5960b$5960b2o47bo3bo86bo5873b$6009b3o2bo86bo5872b$6010b4o85b3o5872b$5958b2o6014b$5958b2o6014b$5868bo138bobo5964b$5867bo139b2o5965b$5867b3o138bo5965b$11974b$7658b2o4314b$5969bobo1685bobo4314b$5782b2o114b2o70b2o102b2o114b2o1467bo4314b$5782b2o114b2o70bo103b2o114b2o5782b$11974b$4319b2o7653b$4319bobo7652b$4319bo1646b2o38b2o5966b$860b3o5103b2o38b2o5966b$860bo11113b$861bo11112b$11974b$11974b$11106b3o865b$11108bo865b$5790b2o390b2o4923bo866b$5790b2o390b2o5790b$11974b$11974b$11974b$11974b$11974b$11974b$11974b$11974b$5958b2o54b2o5958b$5958b2o54b2o5958b$11974b$11974b$7598b2o4374b$7597bobo4374b$7599bo4374b$11974b$5782b2o114b2o174b2o114b2o5782b$4379b2o1401b2o114b2o174b2o114b2o5782b$4379bobo7592b$4379bo7594b$920b3o11051b$920bo5045b2o38b2o5966b$921bo5044b2o38b2o5966b$11974b$11974b$11046b3o925b$11048bo925b$11047bo926b$11974b$5790b2o390b2o5790b$5790b2o390b2o5790b$11974b$11974b$11974b$11974b$11974b$11974b$11974b$11974b$5958b2o54b2o5958b$5958b2o54b2o5958b$7538b2o4434b$7537bobo4434b$7539bo4434b$11974b$11974b$4439b2o7533b$4439bobo1340b2o114b2o174b2o114b2o5782b$4439bo1342b2o114b2o174b2o114b2o5782b$980b3o10991b$980bo10993b$981bo10992b$11974b$11974b$10986b3o985b$10988bo985b$10987bo986b$11974b$11974b$11974b$5790b2o390b2o5790b$5790b2o390b2o5790b$11974b$11974b$11974b$6160bo5813b$6161bo5812b$6159b3o5812b$11974b$11974b$5808bo149b2o54b2o1462b2o4494b$5807bo150b2o54b2o1461bobo4494b$5807b3o1669bo4494b$11974b$11974b$4499b2o7473b$4499bobo7472b$4499bo7474b$1040b3o4739b2o114b2o174b2o114b2o5782b$1040bo4741b2o114b2o174b2o114b2o5782b$1041bo10932b$11974b$11974b$10926b3o1045b$10928bo1045b$10927bo1046b$11974b$11974b$11974b$11974b$11974b$5790b2o390b2o5790b$5790b2o390b2o5790b$11974b$11974b$11974b$11974b$11974b$11974b$7418b2o4554b$7417bobo4554b$5958b2o54b2o1403bo4554b$5958b2o54b2o5958b$11974b$4559b2o7413b$4559bobo7412b$4559bo7414b$1100b3o10871b$1100bo10873b$1101bo4796b2o174b2o5898b$5786b2o110b2o174b2o5898b$5782b3ob2o6186b$5781b6o5079b3o1105b$5780b3o402b2o4681bo1105b$5789bo393b2o2bo4679bo1106b$5788b3o393bob2o5bo5780b$5788bo2bo389b2o3bo6bo5780b$5789b3o401bo5780b$5790bo6183b$11974b$11974b$11974b$11974b$5778b2o414b2o5778b$5778b2o414b2o5778b$11974b$11974b$11974b$7358b2o4614b$7357bobo4614b$7359bo4614b$5782b2o406b2o5782b$5782b2o174b2o54b2o174b2o5782b$4619b2o1337b2o54b2o5958b$4619bobo7352b$4619bo7354b$1160b3o10811b$1160bo10813b$1161bo10812b$11974b$5898b2o174b2o5898b$5898b2o174b2o4730b3o1165b$6224bo4583bo1165b$6225b2o4580bo1166b$5790b2o390b2o40b2o5748b$5790b2o390b2o5790b$11974b$5744bo6229b$5742b2o6230b$5743b2o6229b$11974b$11974b$11974b$11974b$11974b$11974b$11974b$7298b2o4674b$7297bobo4674b$7299bo4674b$11974b$11974b$4679b2o1101b2o106b3o297b2o5782b$4679bobo1100b2o106b3o65b2o54b2o174b2o5782b$4679bo1210bo2bo64b2o54b2o5958b$1220b3o4668b3o6080b$1220bo4670b2o6081b$1221bo4927bo5824b$6149bobo5822b$6149b2o5823b$6082bo4663b3o1225b$6081b3o4664bo1225b$5829bo250b2o2bo4662bo1226b$5827bobo252b3o5889b$5828b2o70b2o170b2o5900b$5790b2o98b2o8b2o170b2o108b2o5790b$5790b2o98b2o290b2o5790b$11974b$11974b$6074bo5899b$6072b2o5900b$5901b3o169b2o5899b$5900bo3bo6069b$5899bo3b2o6069b$5899bo4bo6069b$5899bo3bo166b2o5902b$6070b2o1166b2o4734b$5901b2o1334bobo4734b$7239bo4734b$11974b$11974b$4739b2o7233b$4739bobo1273b3o5956b$4739bo1042b2o114b2o114b4o56b2o114b2o5782b$1280b3o4499b2o114b2o113bo4bo55b2o114b2o5782b$1280bo4731bo2b3o5956b$1281bo4730bo2bo2bo5955b$5963bobo46b3o2b2o5955b$5965bo47b3o2bo5955b$5961bo3bo48b4o4668b3o1285b$5956bo4bo4726bo1285b$5956bo4bo2bo40b3o4679bo1286b$5956bo5b3o6009b$11974b$11974b$11974b$5790b2o98b2o190b2o98b2o5790b$5790b2o98b2o190b2o98b2o5790b$5954b2o62b2o5954b$5954b2o62b2o5954b$11974b$11974b$11974b$11974b$11974b$7178b2o4794b$5958b2o54b2o1161bobo4794b$5958b2o54b2o1163bo4794b$11974b$11974b$4799b2o7173b$4799bobo7172b$4799bo7174b$1340b3o10631b$1340bo4441b2o114b2o174b2o114b2o5782b$1341bo4440b2o114b2o174b2o114b2o5782b$11974b$11974b$10626b3o1345b$5966b2o38b2o4620bo1345b$5966b2o38b2o4619bo1346b$11974b$11974b$6284bo5689b$6285b2o5687b$6284b2o5688b$11974b$5790b2o98b2o190b2o98b2o5790b$5684bo105b2o98b2o190b2o98b2o5790b$5682b2o6290b$5683b2o6289b$11974b$11974b$11974b$6130bo987b2o4854b$6131b2o984bobo4854b$6130b2o987bo4854b$5958b2o54b2o5958b$5958b2o17bo36b2o5958b$4859b2o977bo138bobo5994b$4859bobo974b2o139b2o5995b$4859bo977b2o6135b$1400b3o10571b$1400bo4600bo5972b$1401bo4597bobo5972b$5782b2o114b2o100b2o72b2o114b2o5782b$5782b2o114b2o174b2o114b2o5782b$10566b3o1405b$6089bo4478bo1405b$6089bobo4475bo1406b$5966b2o38b2o81b2o5883b$5966b2o38b2o5966b$11974b$5889bo6084b$5887bobo6084b$5888b2o6084b$11974b$11974b$5790b2o98b2o190b2o98b2o5790b$5790b2o98b2o190b2o98b2o5790b$11974b$11974b$11974b$7058b2o4914b$7057bobo4914b$7059bo4914b$11974b$11974b$4919b2o1037b2o54b2o5958b$4919bobo1036b2o54b2o5958b$4919bo7054b$1460b3o10511b$1460bo10513b$1461bo10512b$11974b$11974b$5782b2o114b2o174b2o114b2o4314b3o1465b$5782b2o114b2o174b2o114b2o4316bo1465b$10507bo1466b$11974b$11974b$11974b$11974b$11974b$11974b$11974b$11974b$11974b$11974b$5790b2o390b2o5790b$5790b2o390b2o5790b$11974b$6998b2o4974b$6997bobo4974b$6999bo4974b$11974b$11974b$4979b2o6993b$4979bobo6992b$4979bo978b2o54b2o5958b$1520b3o4435b2o54b2o5958b$1520bo10453b$1521bo10452b$11974b$11974b$10446b3o1525b$10448bo1525b$5782b2o114b2o174b2o114b2o4255bo1526b$5782b2o114b2o174b2o114b2o5782b$11974b$11974b$11974b$11974b$11974b$6344bo5629b$6345b2o5627b$6344b2o5628b$11974b$11974b$5624bo6349b$5622b2o6350b$5623b2o1313b2o5034b$6937bobo5034b$6939bo5034b$11974b$11974b$5039b2o6933b$5039bobo6932b$5039bo6934b$1580b3o10391b$1580bo4377b2o54b2o5958b$1581bo4376b2o54b2o5958b$11974b$11974b$10386b3o1585b$10388bo1585b$10387bo1586b$11974b$5898b2o174b2o108bo5789b$5787b3o108b2o174b2o107bo5790b$5789bo392bo2bo5788b$5780b2o4bob2o391b2o9b2o5780b$5780b2o4bobo392bo10b2o5780b$5786b2o393bo3bo3bo5784b$5789b2o391b3o5bo5783b$5787bo3b2o395b3o5783b$5785b3o6186b$5789b3o6182b$5789bo6184b$5789b3o6182b$5789b3o1086b2o5094b$5790bo1086bobo5094b$5778b2o414b2o683bo5094b$5778b2o414b2o5778b$11974b$5099b2o6873b$5099bobo6872b$5099bo6874b$1640b3o10331b$1640bo10333b$1641bo4140b2o406b2o5782b$5782b2o174b2o54b2o174b2o5782b$5958b2o54b2o5958b$10326b3o1645b$10328bo1645b$10327bo1646b$11974b$11974b$11974b$5898b2o174b2o5898b$5898b2o174b2o5898b$11974b$11974b$5790b2o390b2o5790b$5790b2o390b2o5790b$11974b$11974b$11974b$6073b3o5898b$5740bobo328b2ob2o8bo733b2o5154b$5740b2o328bo6bo5b4o730bobo5154b$5741bo328bo5b2o2bob4obo731bo5154b$5894b3o173b2o7bo7b2o5885b$5894bobo180bobo3bob3o5886b$5159b2o731bo3bo175bo4bo2bobo2b2o149bobo5735b$5159bobo730bob2o2bo175b2o161b2o5735b$5159bo732bo3bo340bo5736b$1700b3o4191b2o6078b$1700bo4199bo6073b$1701bo4192bo5bo6073b$5894bo4bo6074b$5782b2o113b3o174b2o114b2o5782b$5782b2o174b2o54b2o58b2o114b2o4074b3o1705b$5958b2o54b2o4252bo1705b$10267bo1706b$5889bobo6082b$5889b2o6083b$5890bo6083b$11974b$11974b$6087bobo5884b$6088b2o5884b$6088bo5885b$5831bo6142b$5790b2o40bo57b2o190b2o98b2o5790b$5790b2o38b3o57b2o190b2o98b2o220bo5569b$6405b2o5567b$6404b2o5568b$6137bo620b2o5214b$6136bo620bobo5214b$5564bo571b3o620bo5214b$5562b2o6410b$5563b2o6409b$5219b2o6753b$5219bobo6752b$5219bo6754b$1760b3o10211b$1760bo10213b$1761bo10212b$11974b$11974b$10206b3o1765b$5782b2o114b2o174b2o114b2o4016bo1765b$5782b2o114b2o64b2o108b2o114b2o4015bo1766b$5963b2obo40b2o5965b$5962b3obo39bo2bo5964b$5956b2o7b3o41bo6b2o5956b$5956b2o4b3obo37bo3bo7b2o5956b$6008bo5965b$6004b4o6bo5959b$6007b2o6bo5958b$6013b3o5958b$11974b$11974b$5965b2o6007b$5790b2o98b2o190b2o98b2o5790b$5790b2o98b2o73b3o114b2o98b2o5790b$5954b2o10bo51b2o678b2o5274b$5954b2o62b2o677bobo5274b$6699bo5274b$11974b$11974b$5279b2o6693b$5279bobo6692b$5279bo6694b$1820b3o4135b2o54b2o5958b$1820bo4137b2o54b2o5958b$1821bo10152b$11974b$11974b$10146b3o1825b$10148bo1825b$10147bo1826b$5782b2o114b2o174b2o114b2o5782b$5782b2o114b2o174b2o114b2o5782b$11974b$11974b$11974b$5966b2o38b2o5966b$5966b2o38b2o5966b$11974b$11974b$11974b$11974b$11974b$11974b$5790b2o98b2o190b2o98b2o454b2o5334b$5790b2o98b2o190b2o98b2o453bobo5334b$6639bo5334b$11974b$5680bobo6291b$5339b2o339b2o6292b$5339bobo339bo6292b$5339bo6634b$1880b3o10091b$1880bo4415bobo5675b$1881bo4076b2o54b2o281b2o5675b$5958b2o54b2o281bo5676b$11974b$10086b3o1885b$10088bo1885b$10087bo1886b$11974b$11974b$5782b2o114b2o174b2o114b2o5782b$5782b2o114b2o174b2o114b2o5782b$5829bobo6142b$5829b2o6143b$5830bo6143b$11974b$6084b2o5888b$6147bobo5824b$6148b2o5824b$5889b2o257bo5825b$5888bo6085b$5887bo2bo687b2o5394b$5888bobo573bo112bobo5394b$5790b2o97b2o291b2o281b2o112bo5394b$5790b2o97b2o291b2o280b2o5508b$11974b$5399b2o6573b$5399bobo102bo6469b$5399bo102b2o6470b$1940b3o3560b2o6469b$1940bo10033b$1941bo10032b$11974b$5958b2o54b2o5958b$5958b2o54b2o4010b3o1945b$10028bo1945b$10027bo1946b$11974b$11974b$11974b$11974b$5782b2o114b2o174b2o114b2o5782b$5782b2o114b2o174b2o114b2o5782b$11974b$11974b$11974b$11974b$11974b$11974b$11974b$6518b2o5454b$6517bobo5454b$6519bo5454b$11974b$5790b2o390b2o5790b$5459b2o329b2o390b2o5790b$5459bobo6512b$5459bo6514b$2000b3o9971b$2000bo9973b$2001bo9972b$11974b$11974b$9966b3o2005b$5958b2o54b2o3952bo2005b$5958b2o54b2o3951bo2006b$11974b$11974b$11974b$11974b$11974b$11974b$5782b2o114b2o174b2o114b2o5782b$5782b2o114b2o174b2o114b2o5782b$11974b$11974b$11974b$11974b$11974b$6458b2o5514b$6457bobo5514b$6459bo5514b$11974b$11974b$5519b2o6453b$5519bobo6452b$5519bo6454b$2060b3o3557bobo6351b$2060bo3559b2o6352b$2061bo3559bo6352b$11974b$11974b$6356bobo3547b3o2065b$6357b2o3549bo2065b$6357bo3549bo2066b$5958b2o54b2o5958b$5958b2o54b2o5958b$11974b$11974b$11974b$11974b$11974b$11974b$5782b2o114b2o174b2o114b2o5782b$5782b2o114b2o174b2o114b2o5782b$11974b$11974b$11974b$6398b2o5574b$6397bobo5574b$6399bo5574b$11974b$11974b$5579b2o943bo5449b$5579bobo943b2o5447b$5579bo944b2o5448b$2120b3o9851b$2120bo9853b$2121bo3322bo6529b$5442b2o6530b$5443b2o6529b$9846b3o2125b$9848bo2125b$9847bo2126b$11974b$11974b$5958b2o54b2o5958b$5958b2o54b2o5958b$11974b$11974b$11974b$6356bo5617b$6356b2o5616b$6355bobo5616b$5898b2o174b2o5898b$5898b2o174b2o5898b$5610bo11bo561b3o176bo5610b$5610bo10b2o564bo4b2o169bo5610b$5610bo10bobo558bo4bo4b2o169bo5610b$5784b3o394bo4bo5787b$5606b3o3b3o169bobo395bo176b3o3b3o5606b$5779b3o2bobo394b4obo5787b$5610bo174b2ob2o391bo4b2o175bo5610b$5610bo175bobo393bo3bo176bo5610b$5610bo176bo393b2ob2o177bo5610b$2180b3o3999bobo5789b$2180bo4002bo5790b$2181bo9792b$5778b2o414b2o5778b$5778b2o414b2o5778b$9786b3o2185b$9788bo2185b$9787bo2186b$11974b$11974b$11974b$5782b2o406b2o5782b$5782b2o174b2o54b2o174b2o5782b$5958b2o54b2o5958b$11974b$6296bo5677b$6296b2o5676b$6295bobo5676b$11974b$11974b$5682bo215b2o174b2o5898b$5681b2o215b2o174b2o5898b$5610bo70bobo679bo5610b$5610bo752bo5610b$5610bo135bo43b2o390b2o179bo5610b$5746bobo41b2o390b2o5790b$5606b3o3b3o131b2o611b3o3b3o5606b$11974b$5610bo752bo5610b$2240b3o3367bo621bo130bo5610b$2240bo3369bo619bobo130bo5610b$2241bo3989b2o5741b$11974b$11974b$9726b3o2245b$9728bo2245b$9727bo2246b$11974b$11974b$11974b$11974b$11974b$5782b2o406b2o5782b$5782b2o174b2o54b2o174b2o5782b$5958b2o54b2o220bo5737b$6236b2o5736b$6235bobo5736b$11974b$11974b$5742bo81bobo6147b$5741b2o82b2o6147b$5741bobo81bo72b2o174b2o5898b$5898b2o174b2o5898b$5610bo752bo5610b$5610bo531bobo218bo5610b$5610bo179b2o350b2o38b2o179bo5610b$5790b2o351bo38b2o5790b$5606b3o3b3o744b3o3b3o5606b$2300b3o9671b$2300bo3309bo752bo220bo5389b$2301bo3308bo752bo221b2o5387b$5610bo752bo220b2o5388b$11974b$9666b3o2305b$5384bo4283bo2305b$5382b2o4283bo2306b$5383b2o6589b$11974b$11974b$11974b$11974b$11974b$11974b$5782b2o392bo13b2o5782b$5782b2o174b2o54b2o160b2o12b2o5782b$5958b2o54b2o159bobo5796b$11974b$11974b$5802bo6171b$5801b2o6171b$5801bobo6170b$11974b$5898b2o174b2o5898b$5898b2o174b2o5898b$5610bo623b2o127bo5610b$5610bo624b2o126bo5610b$5610bo179b2o390b2o50bo128bo5610b$2360b3o3427b2o390b2o5790b$2360bo3245b3o3b3o744b3o3b3o5606b$2361bo3381b2o6229b$5610bo131b2o619bo5610b$5610bo133bo618bo5610b$5610bo752bo3242b3o2365b$9608bo2365b$9607bo2366b$6078bo5895b$6077b3o5894b$6077bo2bo5893b$6075b2o2b3o5892b$6075b3o2bo5893b$6074b2o2b2o5894b$5891bo182b3o5897b$5889b6o179bob4o36bo5857b$5889b2o2b2o179b2o2b2o36b2o5856b$5782b2o291b2o38bobo72b2o5782b$5782b2o109bo64b2o54b2o174b2o5782b$5889b2o2bo64b2o54b2o5958b$5862bo26b2o3bo188bo5890b$5861b2o30bo190bo5889b$5861bobo27bobo188b3o5889b$5892bo6081b$11974b$11974b$6174b2o5798b$6175b2o5797b$5610bo563bo188bo5610b$2420b3o3187bo289b2o461bo5610b$2420bo3189bo179b2o98b2o10bo179b2o98b2o179bo5610b$2421bo3368b2o11b2o85b2o8b3o179b2o98b2o5790b$5606b3o3b3o187b2o98bo456b3o3b3o5606b$5804bo95bo2bo6070b$5610bo752bo3182b3o2425b$5610bo289bobo460bo3184bo2425b$5610bo752bo3183bo2426b$11974b$11974b$11974b$11974b$11974b$11974b$11974b$6056bo5917b$6056b2o5916b$6055bobo5916b$11974b$5782b2o114b2o174b2o114b2o5782b$5782b2o114b2o22bo85b3o63b2o114b2o5782b$5921b2o84bo3bo5962b$5921bobo36b3o48bo5962b$5960bo2bo42bo9b2o5956b$5884bobo73b2o44b2ob2o5b2o5956b$5885b2o69b3o2bo48bo5963b$5885bo69bo3bobo3bo148b2o5858b$5955bo5bo3bo149b2o5857b$5956b2obobo3bo117bo30bo5859b$2480b3o3477bob2o2bo115bobo5889b$2480bo3129bo352bo2bo115bobo278bo5610b$2481bo3128bo252b2o97bo2bo117b2o278bo5610b$5610bo179b2o70b2o26b2o71b2o41bo75b3o97b2o179bo5610b$5790b2o72bo25b2o114b3o173b2o5790b$5606b3o3b3o339b2o50b3o9b2o339b3o3b3o276bo2841b3o2485b$5954b2o62b2o625b2o2841bo2485b$5610bo752bo280b2o2841bo2486b$5610bo752bo5610b$5610bo752bo5610b$5324bo6649b$5322b2o6650b$5323b2o6649b$5958b2o54b2o5958b$5958b2o54b2o5958b$11974b$11974b$11974b$11974b$11974b$11974b$5782b2o114b2o174b2o114b2o5782b$5782b2o114b2o174b2o114b2o5782b$11974b$11974b$11974b$5966b2o38b2o46b2o5918b$5966b2o38b2o47b2o5917b$6054bo5919b$2540b3o9431b$2540bo9433b$2541bo3381b2o6049b$5610bo311b2o439bo5610b$5610bo313bo438bo5610b$5610bo179b2o390b2o179bo3062b3o2545b$5790b2o390b2o3244bo2545b$5606b3o3b3o744b3o3b3o3059bo2546b$11974b$5610bo752bo5610b$5610bo752bo5610b$5610bo752bo5610b$11974b$11974b$11974b$5958b2o54b2o5958b$5958b2o54b2o5958b$11974b$11974b$5835bo6138b$5834bo6139b$5834b3o6137b$11974b$5782b2o114b2o174b2o114b2o5782b$5782b2o114b2o102bobo69b2o67bo46b2o5782b$6003b2o139bo5829b$5994b2o7bo138b3o5829b$5995b2o5977b$5994bo11b2o5966b$2600b3o3403b2o5966b$2600bo9373b$2601bo3381b2o5989b$5982b2o5990b$5984bo5989b$5610bo752bo3002b3o2605b$5610bo752bo3004bo2605b$5610bo179b2o390b2o179bo3003bo2606b$5790b2o390b2o5790b$5606b3o3b3o744b3o3b3o5606b$11974b$5610bo752bo5610b$5610bo752bo5610b$5610bo752bo5610b$11974b$11974b$11974b$5958b2o54b2o5958b$5958b2o54b2o5958b$11974b$11974b$11974b$11974b$11974b$11974b$5782b2o114b2o174b2o114b2o5782b$5782b2o114b2o34b2o138b2o114b2o5782b$5935b2o6037b$5934bo6039b$2660b3o9311b$2660bo9313b$2661bo3381b2o5929b$6042b2o5930b$6044bo5929b$9306b3o2665b$9308bo2665b$5610bo752bo2943bo2666b$5610bo752bo5610b$5610bo179b2o390b2o179bo340bo5269b$5790b2o390b2o521b2o5267b$5606b3o3b3o744b3o3b3o336b2o5268b$11974b$5610bo752bo5610b$5264bo345bo752bo5610b$5262b2o346bo752bo5610b$5263b2o6709b$11974b$11974b$5958b2o54b2o5958b$5958b2o54b2o5958b$11974b$11974b$11974b$11974b$11974b$5874b2o6098b$5782b2o91b2o21b2o174b2o114b2o5782b$5782b2o90bo23b2o174b2o114b2o5782b$2720b3o9251b$2720bo9253b$2721bo3381b2o5869b$6102b2o5870b$6104bo5869b$5784bo3461b3o2725b$5782b4o405bo3056bo2725b$5775b2o4b6o403bob2o3053bo2726b$5774bo2bo3bo4b2o393b2o6b2o2b2o5779b$5610bo160bo3bobo17b2o382bo3bo4bobo4bo167bo5610b$5610bo158b2o5b2o5bo9b2ob2o379b2o4bo3b3o5b2o166bo5610b$5610bo159b2o3bo8b2o7bo4bo378bo5bob2ob2o4b2o167bo5610b$5773b2o18bo3b3o377bo2b2o3b2o7bo5779b$5606b3o3b3o171bo7b2o4bo377bob2o5bobo169b3o3b3o5606b$5786b2o10bobo6173b$5610bo175b2o10b2o563bo5610b$5610bo752bo5610b$5610bo752bo5610b$11974b$11974b$5782b2o406b2o5782b$5782b2o174b2o54b2o174b2o5782b$5958b2o54b2o5958b$11974b$11974b$11974b$5814b2o6158b$5815b2o6157b$5814bo6159b$2780b3o3115b2o174b2o100bo5797b$2780bo3117b2o174b2o100bobo5795b$2781bo3381b2o11b2o5796b$6162b2o5810b$5790b2o372bo17b2o5790b$5790b2o10bo379b2o3002b3o2785b$5800bobo3385bo2785b$5801b2o3384bo2786b$11974b$11974b$11974b$5610bo752bo5610b$5610bo752bo5610b$5610bo752bo5610b$11974b$5606b3o3b3o744b3o3b3o5606b$11974b$5610bo752bo5610b$5610bo752bo5610b$5610bo752bo5610b$11974b$11974b$5782b2o406b2o5782b$5782b2o174b2o54b2o174b2o5782b$5958b2o54b2o5958b$11974b$5754b2o6218b$5755b2o6217b$5754bo6219b$2840b3o9131b$2840bo9133b$2841bo3056b2o174b2o147b2o5749b$5898b2o174b2o146b2o5750b$6224bo5749b$9126b3o2845b$5790b2o390b2o2944bo2845b$5790b2o390b2o2943bo2846b$11974b$11974b$11974b$11974b$11974b$5610bo752bo400bo5209b$5610bo752bo401b2o5207b$5610bo752bo400b2o5208b$11974b$5606b3o3b3o744b3o3b3o5606b$5204bo6769b$5202b2o406bo752bo5610b$5203b2o405bo752bo5610b$5610bo752bo5610b$11974b$11974b$5782b2o406b2o5782b$5765b3o14b2o174b2o54b2o174b2o5782b$5765bo192b2o54b2o5958b$5766bo6207b$11974b$2900b3o9071b$2900bo3300b3o5770b$2901bo3301bo5770b$6202bo5771b$5898b2o174b2o5898b$5898b2o174b2o2990b3o2905b$9068bo2905b$9067bo2906b$5790b2o390b2o5790b$5790b2o390b2o5790b$11974b$11974b$11974b$11974b$11974b$5610bo752bo5610b$5610bo752bo5610b$5610bo752bo5610b$11974b$5606b3o3b3o744b3o3b3o5606b$11974b$5610bo752bo5610b$5610bo752bo5610b$5610bo752bo5610b$11974b$5825b3o6146b$5782b2o41bo364b2o5782b$5782b2o42bo131b2o54b2o174b2o5782b$5958b2o54b2o5958b$2960b3o9011b$2960bo3180b3o5830b$2961bo2940bo240bo5830b$5903bo238bo5831b$5901bo2bo211bo5857b$6116bobo2887b3o2965b$6116b2o2890bo2965b$5896b2o5bo169bobo2931bo2966b$5895b3o173b2obob2o5896b$5862bo32b2o3bo169bo3bo5899b$5790b2o68bobo31b2o5b2o167bo3bo107b2o5790b$5790b2o69b2o32b2o4bo168bo2bo6bo101b2o5790b$5890bo7b2o171bo2bo5b2o5892b$5890bo10b2o170b3o3bo2bo5891b$5890bo180bo4bo3b2o5892b$6071b2o3bo3bo5893b$6072bob2o5898b$5610bo752bo5610b$5610bo752bo5610b$5610bo752bo5610b$5902b2o166b2o5902b$5606b3o3b3o287b2o166b2o287b3o3b3o5606b$11974b$5610bo752bo5610b$5610bo752bo5610b$5610bo274b3o475bo5610b$5885bo6088b$5886bo6087b$5782b2o114b2o174b2o114b2o5782b$3020b3o2759b2o114b2o58b2o54b2o58b2o114b2o5782b$3020bo2937b2o54b2o65b3o5890b$3021bo3061bo5890b$6047bo34bo5891b$6046bo5927b$6046b3o2897b3o3025b$5960b2o2986bo3025b$5960b3o2984bo3026b$5931bo19b2o5b2obo52b3o5957b$5932bo17b3o3b2o2bo54b2o5957b$5930b3o17bo8b3o12bo26b3o3b3o5964b$5952b2o2b2o4bo4b2o4bobo23b6obob6o7b2o5951b$5790b2o98b2o60b2o8bo3bobo30b2ob2o4b5obo5bobo59b2o98b2o5790b$5790b2o98b2o52bobo5bo6bo2bo3bo6bo24bo3b2o4bo2bo2b4ob2obo59b2o98b2o5790b$5944b2o5bo7bobo4b2obo3bo25b6o3bo3b7o2bo5952b$5945bo23b2o2bo3bo21b3o5bo4bo5b3o5953b$5968b2o3bo6000b$5972b2o3bo846bo5149b$5973bob2o848b2o5147b$5610bo363bo388bo460b2o5148b$5610bo752bo5610b$5610bo752bo5610b$5144bo813b2o54b2o5958b$5142b2o462b3o3b3o343b2o54b2o343b3o3b3o5606b$5143b2o6829b$5610bo752bo5610b$5610bo752bo5610b$5610bo752bo5610b$6108bo5865b$3080b3o3026b2o5863b$3080bo2701b2o114b2o174b2o32b2o80b2o5782b$3081bo2700b2o114b2o174b2o114b2o5782b$5999bo5974b$5860bo137bo5975b$5858b2o138b3o2885b3o3085b$5859b2o105b2o38b2o2880bo3085b$5966b2o38b2o2879bo3086b$5979bo5994b$5980bo5993b$5978b3o5993b$11974b$11974b$11974b$5790b2o390b2o5790b$5790b2o390b2o5790b$11974b$11974b$11974b$11974b$11974b$5610bo752bo5610b$5610bo752bo5610b$5610bo752bo5610b$5958b2o54b2o5958b$5606b3o3b3o343b2o54b2o343b3o3b3o5606b$11974b$5610bo752bo5610b$5610bo752bo5610b$3140b3o2467bo752bo5610b$3140bo8833b$3141bo8832b$5782b2o114b2o174b2o114b2o5782b$5782b2o114b2o174b2o114b2o5782b$8826b3o3145b$8828bo3145b$8827bo3146b$5966b2o38b2o5966b$5966b2o38b2o5966b$11974b$11974b$11974b$11974b$11974b$11974b$5790b2o390b2o5790b$5790b2o390b2o5790b$11974b$11974b$11974b$11974b$11974b$5610bo752bo5610b$5610bo752bo5610b$5610bo752bo5610b$5958b2o54b2o5958b$5606b3o3b3o343b2o54b2o343b3o3b3o5606b$11974b$3200b3o2407bo752bo5610b$3200bo2409bo752bo5610b$3201bo2408bo752bo5610b$11974b$11974b$5782b2o114b2o174b2o114b2o2574b3o3205b$5782b2o114b2o174b2o114b2o2576bo3205b$8767bo3206b$11974b$11974b$11974b$11974b$11974b$11974b$11974b$11974b$11974b$11974b$5790b2o390b2o5790b$5790b2o390b2o5790b$11974b$6884bo5089b$6885b2o5087b$6884b2o5088b$11974b$5610bo752bo5610b$5084bo525bo752bo5610b$5082b2o526bo752bo5610b$5083b2o873b2o54b2o5958b$3260b3o2343b3o3b3o343b2o54b2o343b3o3b3o5606b$3260bo8713b$3261bo2348bo752bo5610b$5610bo557bo194bo5610b$5610bo558b2o192bo5610b$6168b2o2536b3o3265b$8708bo3265b$5782b2o114b2o174b2o114b2o2515bo3266b$5782b2o16bo97b2o174b2o114b2o5782b$5798b2o6174b$5799b2o6173b$11974b$11974b$11974b$11974b$11974b$11974b$11974b$11974b$11974b$5790b2o390b2o5790b$5790b2o390b2o5790b$11974b$11974b$11974b$11974b$11974b$5610bo752bo5610b$5610bo752bo5610b$3320b3o2287bo752bo5610b$3320bo2637b2o54b2o5958b$3321bo2284b3o3b3o343b2o54b2o343b3o3b3o5606b$11974b$5610bo752bo5610b$5610bo752bo2282b3o3325b$5610bo752bo2284bo3325b$8647bo3326b$11974b$5782b2o114b2o174b2o114b2o5782b$5782b2o114b2o174b2o114b2o5782b$11974b$11974b$11974b$11974b$11974b$5782bo6191b$5782b2o6190b$5783b3o401b2o5785b$5775b2o6bo405bo5784b$5774b4o6b2o398b3o3bo5783b$5773bo4bo19bobo382b5o2bo5783b$5774b2ob3o5bo3b2o6bo2bo381b2o5b2o5783b$5775b2o2bo4bobo2b2o6bo2bo382b2o5789b$5776bo3b3obobo11b2o389b2o5783b$5777bobo3bobo6188b$5778bo408bo5786b$6188b3o5783b$11974b$3380b3o2227bo752bo5610b$3380bo2229bo752bo5610b$3381bo2228bo171b2o406b2o171bo5610b$5782b2o174b2o54b2o174b2o5782b$5606b3o3b3o343b2o54b2o343b3o3b3o5606b$8586b3o3385b$5610bo752bo2224bo3385b$5610bo752bo2223bo3386b$5610bo569bo182bo5610b$6178b2o5794b$5774bo404b2o5793b$5773b2o123b2o174b2o5898b$5773bobo122b2o174b2o5898b$5798bo6175b$5799b2o6173b$5790b2o6b2o382b2o10bo5779b$5790b2o390b2o10b2o5778b$6193bobo5778b$11974b$11974b$11974b$11974b$11974b$11974b$11974b$6944bo5029b$6945b2o5027b$6944b2o5028b$11974b$3440b3o8531b$3440bo1583bo6949b$3441bo1580b2o586bo752bo5610b$5023b2o585bo752bo5610b$5610bo171b2o406b2o171bo5610b$5782b2o174b2o54b2o174b2o2334b3o3445b$5606b3o3b3o343b2o54b2o343b3o3b3o2160bo3445b$8527bo3446b$5610bo752bo5610b$5610bo752bo5610b$5610bo223bo528bo5610b$5833b2o6139b$5833bobo62bo6075b$5897b4o173b2o5898b$5892bo7bo173b2o5898b$5891bo3bo3b3o170b3o59bo5839b$5891b5o3b4o171bo59b2o5838b$5790b2o100bo6bo3bo165bo5bob2obo52bobo46b2o5790b$5790b2o100b3o2bobo168bo6b2o3b2o100b2o5790b$5895bobobob2o165bobo10b2o5891b$5896bo3bo168bo5bo2b2o5894b$6072b3o5b2o5bo5886b$6076bo2bo6b3o5885b$5881b3o192bo11bo2b3o5880b$5882bo181b2o20b2o5886b$5882bo180bob2ob2o6b2o7bo5888b$5881b3o178b2o2b2ob2o6b2o5895b$5902b2o159bo6bobo8bo2bo5889b$5902bo2bo2bo155b4ob2ob2o7bobo5890b$3500b3o2401bo3bo156bo5b2o5901b$3500bo2403b4o158b2obobo9b2o5891b$3501bo2405bo6066b$5907bo146bobo5917b$5610bo295bo147b2o307bo5610b$5610bo294b2o148bo307bo2102b3o3505b$5610bo171b2o114b2o174b2o114b2o171bo2104bo3505b$5782b2o114b2o58b2o54b2o58b2o114b2o2275bo3506b$5606b3o3b3o307bobo33b2o54b2o343b3o3b3o5606b$5923b2o6049b$5610bo283bo28bo439bo5610b$5610bo282b2o468bo5610b$5610bo282bobo467bo5610b$11974b$11974b$5960bo113bo5899b$5959b4o111b2o5898b$5957bo5bo109bobo5898b$5956bo3bo6b2o6005b$5790b2o98b2o64bo5b2o2bo2bo112b2o98b2o5790b$5790b2o98b2o64b2obobo4bo2b2o111b2o98b2o5790b$5958b2o5bo2b2o6004b$5965b4o41b3o5961b$6010bo2bo5960b$6009bo3bo5960b$6014bo5959b$6010b3ob2o5958b$6014bo86bo5872b$6009bo3b2o87bo5871b$3560b3o2395b2o53bo86b3o5871b$3560bo2397b2o6014b$3561bo8412b$5867bo138bobo5965b$5866bo139b2o5966b$5866b3o138bo2398b3o3565b$5610bo752bo2044bo3565b$5610bo752bo2043bo3566b$5610bo171b2o114b2o70bobo101b2o114b2o171bo5610b$5782b2o114b2o71b2o101b2o114b2o5782b$5606b3o3b3o356bo387b3o3b3o5606b$11974b$5610bo509bo242bo5610b$5610bo355b2o38b2o110b2o243bo5610b$5610bo355b2o38b2o111b2o242bo5610b$11974b$11974b$5858bo6115b$5859b2o6113b$5858b2o6114b$11974b$5790b2o98b2o190b2o98b2o5790b$5790b2o98b2o190b2o98b2o5790b$11974b$11974b$11974b$11974b$11974b$11974b$3620b3o3381bo4969b$3620bo3384b2o4967b$3621bo2336b2o54b2o988b2o4968b$5958b2o54b2o5958b$11974b$4964bo3381b3o3625b$4962b2o3384bo3625b$4963b2o3382bo3626b$5610bo752bo5610b$5610bo752bo5610b$5610bo171b2o114b2o174b2o114b2o171bo5610b$5782b2o114b2o174b2o114b2o5782b$5606b3o3b3o744b3o3b3o5606b$11974b$5610bo752bo5610b$5610bo355b2o38b2o355bo5610b$5610bo355b2o38b2o355bo5610b$11974b$11974b$11974b$11974b$11974b$11974b$5790b2o98b2o190b2o98b2o5790b$5790b2o98b2o190b2o98b2o5790b$11974b$11974b$11974b$11974b$3680b3o8291b$3680bo8293b$3681bo8292b$11974b$5958b2o54b2o5958b$5958b2o54b2o2270b3o3685b$8288bo3685b$8287bo3686b$11974b$11974b$5610bo752bo5610b$5610bo752bo5610b$5610bo171b2o114b2o174b2o114b2o171bo5610b$5782b2o114b2o174b2o114b2o5782b$5606b3o3b3o744b3o3b3o5606b$11974b$5610bo752bo5610b$5610bo752bo5610b$5610bo752bo5610b$11974b$11974b$11974b$11974b$11974b$11974b$5790b2o390b2o5790b$5790b2o390b2o5790b$11974b$11974b$3740b3o8231b$3740bo8233b$3741bo2419bo5812b$6162bo5811b$6160b3o5811b$8226b3o3745b$5958b2o54b2o2212bo3745b$5807bo150b2o54b2o2211bo3746b$5806bo6167b$5806b3o6165b$11974b$11974b$5610bo752bo5610b$5610bo752bo5610b$5610bo171b2o114b2o174b2o114b2o171bo5610b$5782b2o114b2o174b2o114b2o5782b$5606b3o3b3o744b3o3b3o5606b$11974b$5610bo752bo5610b$5610bo752bo5610b$5610bo752bo5610b$11974b$11974b$11974b$11974b$11974b$11974b$5790b2o390b2o5790b$5790b2o390b2o5790b$3800b3o8171b$3800bo8173b$3801bo8172b$11974b$7064bo4909b$7065b2o1099b3o3805b$7064b2o1102bo3805b$8167bo3806b$5958b2o54b2o5958b$4904bo1053b2o54b2o5958b$4902b2o7070b$4903b2o7069b$11974b$11974b$5610bo752bo5610b$5610bo752bo5610b$5610bo171b2o114b2o174b2o114b2o171bo5610b$5782b2o114b2o174b2o114b2o5782b$5606b3o3b3o744b3o3b3o5606b$11974b$5610bo752bo5610b$5610bo752bo5610b$5610bo752bo5610b$5782bo6191b$5782b2o6190b$5783b3o401b2o5785b$5775b2o6bo405bo5784b$5774b4o6b2o398b3o3bo5783b$5773bo4bo19bobo382b5o2bo5783b$3860b3o1911b2ob3o5bo3b2o6bo2bo381b2o5b2o5783b$3860bo1914b2o2bo4bobo2b2o6bo2bo382b2o5789b$3861bo1914bo3b3obobo11b2o389b2o5783b$5777bobo3bobo6188b$5778bo408bo5786b$6188b3o1915b3o3865b$8108bo3865b$8107bo3866b$11974b$5782b2o406b2o5782b$5782b2o174b2o54b2o174b2o5782b$5958b2o54b2o5958b$11974b$11974b$11974b$6180bo5793b$5610bo567b2o183bo5610b$5610bo163bo404b2o182bo5610b$5610bo162b2o123b2o174b2o287bo5610b$5773bobo122b2o174b2o5898b$5606b3o3b3o183bo560b3o3b3o5606b$5799b2o6173b$5610bo179b2o6b2o382b2o10bo168bo5610b$5610bo179b2o390b2o10b2o167bo5610b$5610bo582bobo167bo5610b$11974b$11974b$11974b$11974b$3920b3o8051b$3920bo8053b$3921bo8052b$11974b$11974b$8046b3o3925b$8048bo3925b$8047bo3926b$11974b$5632b2o6340b$5631b2o6341b$5633bo148b2o406b2o5782b$5782b2o174b2o54b2o174b2o5782b$5958b2o54b2o5958b$6335b2o5637b$6336b2o5636b$6335bo5638b$5834bo6139b$5833b2o6139b$5833bobo62bo6075b$5897b4o173b2o5898b$5892bo7bo173b2o5898b$5891bo3bo3b3o170b3o59bo5839b$5891b5o3b4o171bo59b2o5838b$5790b2o100bo6bo3bo165bo5bob2obo52bobo46b2o5790b$5790b2o100b3o2bobo168bo6b2o3b2o100b2o5790b$5895bobobob2o165bobo10b2o5891b$5896bo3bo168bo5bo2b2o5894b$6072b3o5b2o5bo5886b$3980b3o2093bo2bo6b3o5885b$3980bo1900b3o192bo11bo2b3o5880b$3981bo1900bo181b2o20b2o5886b$5882bo180bob2ob2o6b2o7bo5888b$5881b3o178b2o2b2ob2o6b2o5895b$5902b2o159bo6bobo8bo2bo1901b3o3985b$5902bo2bo2bo155b4ob2ob2o7bobo1904bo3985b$5904bo3bo156bo5b2o1914bo3986b$5904b4o158b2obobo9b2o1041bo4849b$5692b2o213bo1217b2o4847b$5691b2o214bo146bobo1067b2o4848b$5693bo212bo147b2o5918b$5905b2o148bo5918b$4844bo937b2o114b2o174b2o114b2o5782b$4842b2o938b2o114b2o58b2o54b2o58b2o114b2o83b2o5697b$4843b2o1077bobo33b2o54b2o260b2o5696b$5923b2o350bo5698b$5894bo28bo6050b$5893b2o6079b$5893bobo6078b$11974b$11974b$5960bo113bo5899b$5959b4o111b2o5898b$5957bo5bo109bobo5898b$5956bo3bo6b2o6005b$5790b2o98b2o64bo5b2o2bo2bo112b2o98b2o5790b$5790b2o98b2o64b2obobo4bo2b2o111b2o98b2o5790b$5958b2o5bo2b2o6004b$4040b3o1922b4o41b3o5961b$4040bo1969bo2bo5960b$4041bo1967bo3bo5960b$6014bo5959b$6010b3ob2o5958b$6014bo86bo1824b3o4045b$6009bo3b2o87bo1825bo4045b$5958b2o53bo86b3o1824bo4046b$5958b2o6014b$5752b2o6220b$5751b2o114bo138bobo5965b$5753bo112bo139b2o5966b$5866b3o138bo5966b$11974b$6215b2o5757b$5782b2o114b2o70bobo101b2o114b2o24b2o5756b$5782b2o114b2o71b2o101b2o114b2o23bo5758b$5971bo6002b$11974b$6120bo5853b$5966b2o38b2o110b2o5854b$5966b2o38b2o111b2o5853b$11974b$11974b$5858bo6115b$5859b2o6113b$5858b2o6114b$11974b$5790b2o98b2o190b2o98b2o5790b$4100b3o1687b2o98b2o190b2o98b2o5790b$4100bo7873b$4101bo7872b$11974b$11974b$7866b3o4105b$7868bo4105b$7867bo4106b$11974b$5812b2o144b2o54b2o5958b$5811b2o145b2o54b2o5958b$5813bo6160b$11974b$11974b$6155b2o5817b$6156b2o5816b$6155bo5818b$5782b2o114b2o174b2o114b2o5782b$5782b2o114b2o174b2o114b2o5782b$11974b$11974b$11974b$5966b2o38b2o5966b$5966b2o38b2o5966b$11974b$11974b$11974b$11974b$11974b$4160b3o7811b$4160bo1629b2o98b2o190b2o98b2o5790b$4161bo1628b2o98b2o190b2o98b2o5790b$11974b$11974b$7806b3o4165b$7808bo4165b$7807bo4166b$11974b$5872b2o6100b$5871b2o6101b$5873bo84b2o54b2o5958b$5958b2o54b2o1168bo4789b$7185b2o4787b$6095b2o1087b2o4788b$6096b2o5876b$6095bo5878b$4784bo7189b$4782b2o7190b$4783b2o997b2o114b2o174b2o114b2o5782b$5782b2o114b2o174b2o114b2o5782b$11974b$11974b$11974b$11974b$11974b$11974b$11974b$11974b$4220b3o7751b$4220bo7753b$4221bo7752b$5790b2o390b2o5790b$5790b2o390b2o5790b$7746b3o4225b$7748bo4225b$7747bo4226b$11974b$5932b2o227bo5812b$5931b2o229bo5811b$5933bo226b3o5811b$11974b$5958b2o54b2o5958b$5807bo150b2o54b2o19b2o5937b$5806bo229b2o5936b$5806b3o226bo5938b$11974b$11974b$11974b$11974b$5782b2o114b2o174b2o114b2o5782b$5782b2o114b2o174b2o114b2o5782b$11974b$11974b$11974b$11974b$11974b$11974b$4280b3o7691b$4280bo7693b$4281bo7692b$11974b$11974b$5790b2o390b2o1502b3o4285b$5790b2o390b2o1504bo4285b$7687bo4286b$11974b$5992b2o5980b$5991b2o5981b$5993bo5980b$11974b$11974b$5975b2o5997b$5958b2o16b2o36b2o5958b$5958b2o15bo38b2o5958b$11974b$11974b$11974b$11974b$11974b$11974b$5782b2o114b2o174b2o114b2o5782b$5782b2o114b2o174b2o114b2o5782b$11974b$11974b$11974b$11974b$4340b3o7631b$4340bo7633b$4341bo7632b$11974b$11974b$7626b3o4345b$7628bo4345b$7627bo4346b$11974b$6052b2o5920b$6051b2o5921b$6053bo5920b$11974b$11974b$5915b2o6057b$5916b2o6056b$5915bo1328bo4729b$5958b2o54b2o1229b2o4727b$5958b2o54b2o1228b2o4728b$11974b$11974b$4724bo7249b$4722b2o7250b$4723b2o7249b$11974b$5782b2o114b2o174b2o114b2o5782b$5782b2o114b2o174b2o114b2o5782b$11974b$11974b$4400b3o7571b$4400bo7573b$4401bo7572b$11974b$11974b$7566b3o4405b$7568bo4405b$7567bo4406b$11974b$6112b2o5860b$6111b2o5861b$6113bo5860b$11974b$11974b$5855b2o6117b$5856b2o328b2o5786b$5855bo330bobo5785b$6188bo5785b$6186bobo5785b$5790bo167b2o54b2o169bo5788b$5789b3o166b2o54b2o169bobo5786b$5789b3o393bo5788b$6184bo5789b$5788b4o6182b$5788b5o6181b$5789bob2o6181b$11974b$5898b2o174b2o5898b$5898b2o174b2o5898b$4460b3o7511b$4460bo1319b2o6192b$4461bo1318b2o8b2o390b2o5790b$5790b2o390b2o5790b$11974b$7506b3o4465b$7508bo4465b$7507bo4466b$5780bo6193b$5781b2o389b2o5800b$5778b2ob2o388b2o5801b$5778b2obo391bo5800b$5778bo2bo6192b$5779b2o6193b$5795b2o6177b$5796b2o6176b$5795bo6178b$11974b$11974b$11974b$5782b2o406b2o5782b$5782b2o174b2o54b2o174b2o5782b$5958b2o54b2o5958b$11974b$11974b$11974b$11974b$11974b$11974b$4520b3o1375b2o174b2o5898b$4520bo1377b2o174b2o5898b$4521bo7452b$11974b$5790b2o390b2o5790b$5790b2o390b2o1262b3o4525b$7448bo4525b$7447bo4526b$11974b$6232b2o5740b$6231b2o5741b$6233bo5740b$11974b$11974b$5735b2o6237b$5736b2o6236b$5735bo6238b$11974b$11974b$11974b$7304bo4669b$7305b2o4667b$5782b2o406b2o1112b2o4668b$5782b2o174b2o54b2o174b2o5782b$5958b2o54b2o5958b$4664bo7309b$4662b2o7310b$4663b2o7309b$11974b$4580b3o7391b$4580bo7393b$4581bo1316b2o174b2o5898b$5898b2o174b2o5898b$11974b$7386b3o4585b$5790b2o390b2o1204bo4585b$5790b2o390b2o1203bo4586b$6192b3o5779b$6194bo5779b$6193bo5780b$11974b$11974b$5784b3o6187b$5784bo6189b$5785bo6188b$11974b$5843bo6130b$5841bobo6130b$5842b2o6130b$11974b$11974b$6125bo5848b$6125bobo5846b$5782b2o341b2o63b2o5782b$5782b2o174b2o54b2o174b2o5782b$5958b2o54b2o5958b$11974b$11974b$4640b3o7331b$4640bo7333b$4641bo7332b$11974b$5898b2o174b2o5898b$5898b2o174b2o1250b3o4645b$7328bo4645b$7327bo4646b$5790b2o277bo4bo57b3o47b2o5790b$5790b2o275b3o3bobo58bo47b2o5790b$5896bo170b2obo2bobo2b3o52bo5840b$5896b2o168bo2bo3b2o3bob2o5892b$5895bo2bo6b2o160bo10bo3bo5891b$5844b3o51bob2o4bo172b2obo3bo5bo5881b$5844bo51bo3bo7bo155b2o13bo3b3ob2o3bo5881b$5845bo36b3o4bo5bobobobo3bo2bo154bo2bo11b4o2b2o6bo5881b$5882b2o5b2o4bo6bob2o6bo150b2ob2o10bo4bo5890b$5883b2o5b2o4b3o6bobo5bo149bo2b3o9b6o5890b$5882bobo3bobo5b2o7bo5b3o150b2o2bobo7b2o3bo5890b$5880b4o4b2o178bob2o8bo2bo5890b$5880b2o2bo3bo179bobo9b3o5891b$5881b2obo171bo11b2o5904b$5882b3o170bo5918b$6055b3o5916b$11974b$11974b$5782b2o114b2o174b2o114b2o5782b$5782b2o114b2o58b2o54b2o58b2o114b2o5782b$5958b2o54b2o5958b$4700b3o7271b$4700bo7273b$4701bo7272b$11974b$11974b$7266b3o4705b$7268bo4705b$7267bo4706b$6072b3o5899b$6074bo5899b$5790b2o98b2o181bo8b2o98b2o5790b$5790b2o98b2o190b2o98b2o5790b$5879bo6094b$5877b2o25b3o6067b$5878b2o24bo6069b$5905bo105bo5962b$6010b3o5961b$6009bo2b2o85bo5874b$6009b3obo86b2o5872b$5966bo45b2o85b2o5873b$5965bobo6006b$5964bo3bo39bo5965b$5964bo2bo39bo5966b$5964bo2bo39b3o5964b$5964bobo1397bo4609b$7365b2o4607b$7364b2o4608b$11974b$5782b2o114b2o174b2o114b2o5782b$4604bo155b3o1019b2o114b2o174b2o114b2o5782b$4602b2o156bo7213b$4603b2o156bo7212b$5956b2o6016b$5956b2o8b2o38b2o5966b$5966b2o38b2o1198b3o4765b$7208bo4765b$7207bo4766b$4607b2o7365b$4607bobo1345bo6018b$4607bo1346b3o6017b$5953bo2b2o6016b$5790b2o160b3o2b2o223b2o5790b$5790b2o161bo3b3o222b2o1176b2o4612b$7359bobo4612b$5955bo1405bo4612b$11974b$11974b$11974b$11974b$11974b$11974b$5958b2o54b2o5958b$5958b2o54b2o5958b$11974b$11974b$11974b$11974b$11974b$4820b3o7151b$4820bo961b2o114b2o174b2o114b2o5782b$4821bo960b2o114b2o174b2o114b2o5782b$11974b$11974b$7146b3o4825b$5966b2o38b2o1140bo4825b$5966b2o38b2o1139bo4826b$4667b2o7305b$4667bobo7304b$4667bo7306b$11974b$11974b$7300b2o4672b$5790b2o390b2o1115bobo4672b$5790b2o390b2o1117bo4672b$11974b$11974b$11974b$11974b$11974b$11974b$11974b$11974b$5958b2o54b2o5958b$5958b2o54b2o5958b$11974b$11974b$11974b$4880b3o7091b$4880bo7093b$4881bo7092b$5782b2o114b2o174b2o114b2o5782b$5782b2o114b2o174b2o114b2o5782b$7086b3o4885b$7088bo4885b$7087bo4886b$4727b2o7245b$4727bobo7244b$4727bo7246b$11974b$11974b$7240b2o4732b$7239bobo4732b$7241bo4732b$5790b2o27bo362b2o5790b$5790b2o25b2o363b2o5790b$5818b2o6154b$11974b$11974b$6159bo5814b$6160b2o5812b$6159b2o5813b$11974b$11974b$5958b2o54b2o5958b$5958b2o54b2o1304bo4653b$7320bobo4651b$4940b3o2377b2o4652b$4940bo7033b$4941bo7032b$4658bo7315b$4656bobo7315b$4657b2o1123b2o114b2o174b2o114b2o834b3o4945b$5782b2o114b2o174b2o114b2o836bo4945b$7027bo4946b$4787b2o7185b$4787bobo7184b$4787bo7186b$11974b$11974b$7180b2o4792b$7179bobo4792b$7181bo4792b$11974b$11974b$5790b2o390b2o5790b$5790b2o390b2o5790b$11974b$11974b$11974b$11974b$11974b$11974b$11974b$11974b$5958b2o54b2o5958b$5000b3o955b2o54b2o5958b$5000bo6973b$5001bo6972b$11974b$11974b$6966b3o5005b$6968bo5005b$5781b3o114b2o174b2o891bo5006b$4847b2o932bo116b2o174b2o114b3o5781b$4847bobo929bobobo399b2o3b2ob2o5781b$4847bo929b3o2b2o399b2obo2b2o5783b$5777b2o405b4obo2bo5781b$5777b2o405b2obobobobo5780b$6186b2obobobo926b2o4852b$5781bo8b3o395bo3bo926bobo4852b$7121bo4852b$5779bo6194b$5780bo392b3o5798b$6172bo3bo5797b$6172bo3bo5797b$6173b3o19b2o5777b$5778b2o414bo2bo5bo5770b$5778b2o414bob3obo3bo5769b$6195b2ob3o5773b$6203bo5770b$6197b5o5772b$6196b5o5773b$11974b$11974b$5060b3o719b2o406b2o5782b$5060bo721b2o174b2o54b2o174b2o21bobo5758b$5061bo896b2o54b2o198b2o5758b$6214bo5759b$11974b$6906b3o5065b$5753bobo1152bo5065b$5753b2o1152bo5066b$4907b2o845bo6219b$4907bobo988b2o174b2o5898b$4907bo990b2o174b2o5898b$11974b$11974b$5790b2o390b2o876b2o4912b$5790b2o390b2o875bobo4912b$7061bo4912b$11974b$11974b$11974b$11974b$11974b$11974b$11974b$11974b$11974b$6160bo5813b$6159bo5814b$6159b3o5812b$11974b$5120b3o6851b$5120bo697bo6155b$5121bo660b2o35bo370b2o1068bo4713b$5782b2o33b3o138b2o54b2o174b2o1068bobo4711b$5958b2o54b2o1244b2o4712b$6846b3o5125b$6848bo5125b$4718bo2128bo5126b$4716bobo248b2o7005b$4717b2o248bobo7004b$4967bo7006b$5898b2o174b2o5898b$5898b2o174b2o5898b$7000b2o4972b$6999bobo4972b$5790b2o390b2o817bo4972b$5790b2o390b2o5790b$5750bo6223b$5749b2o6223b$5749bobo6222b$11974b$11974b$6218bo5755b$6218b2o5754b$6217bobo5754b$5730bo512bo5730b$5730bo512bo5730b$5730bo512bo5730b$11974b$5180b3o543b3o3b3o504b3o3b3o5726b$5180bo6793b$5181bo548bo512bo5730b$5730bo512bo5730b$5730bo51b2o406b2o51bo5730b$5782b2o174b2o54b2o174b2o594b3o5185b$5958b2o54b2o772bo5185b$6787bo5186b$5027b2o6945b$5027bobo6944b$5027bo6946b$11974b$11974b$5898b2o174b2o864b2o5032b$5898b2o174b2o863bobo5032b$6941bo5032b$11974b$5790b2o18bo371b2o5790b$5790b2o17b2o371b2o5790b$5809bobo6162b$11974b$11974b$6158bo5815b$6158b2o5814b$6157bobo5814b$11974b$11974b$5730bo512bo5730b$5730bo512bo5730b$5240b3o487bo512bo5730b$5240bo6733b$5241bo484b3o3b3o504b3o3b3o5726b$11974b$5730bo512bo5730b$5730bo512bo482b3o5245b$5730bo51b2o406b2o51bo484bo5245b$5782b2o174b2o54b2o174b2o535bo5246b$5087b2o869b2o54b2o5958b$5087bobo6884b$5087bo6886b$11974b$11974b$6080bo799b2o5092b$6080bo798bobo5092b$6081bo799bo5092b$5890b3o188b2o5891b$5870bo19bo2bo185bo3bo5890b$5869b2o19bo9b2o170b2o4bo5895b$5790b2o77bobo28b2o170b2o4bo4bo98b2o5790b$5790b2o102bo184b4o99b2o5790b$5890bo2bo186bo5893b$5899bo198bo5875b$5900bo197b2o5874b$5898b3o196bobo5874b$11974b$11974b$11974b$6082b3o5889b$5300b3o427bo171b2o166b2o11b2o15bo142bo5730b$5300bo429bo171b2o166b2o10bo16bo143bo5730b$5301bo428bo368b3o141bo5730b$11974b$5726b3o3b3o504b3o3b3o5726b$5878bo787b3o5305b$5730bo148bo363bo424bo531bo4773b$5730bo146b3o77bo285bo423bo532bobo4771b$5147b2o581bo51b2o114b2o56b3o54b2o59b2o114b2o51bo956b2o4772b$5147bobo632b2o114b2o55bo3b2o52b2obo57b2o114b2o5782b$5147bo808b5o6013b$4778bo1182bo45bo3bo6bo5955b$4776bobo1176b2o3bo46bob3o2bo3bo5955b$4777b2o1176b2o2b2o50bo3bob2o801b2o5152b$5957b2o49b3obo2bo2bo800bobo5152b$5967bo41b3obobobo803bo5152b$5967bo44bo3b2o5956b$5930bo36bo6006b$5929b2o67bo5975b$5929bobo65b3o5974b$11974b$5790b2o98b2o190b2o98b2o5790b$5790b2o98b2o105b3o38bo43b2o98b2o5790b$5954b2o42bo19b2o18b2o5934b$5954b2o62bobo16bobo5934b$6019b2o3bo5949b$6020b5o5949b$6021bob2o5949b$6022b2o5950b$5360b3o658b3o5950b$5360bo660b2o5951b$5361bo368bo227b2o54b2o227bo5730b$5730bo227b2o54b2o227bo5730b$5730bo512bo5730b$6606b3o5365b$5726b3o3b3o504b3o3b3o360bo5365b$6607bo5366b$5207b2o521bo512bo5730b$5207bobo520bo512bo5730b$5207bo522bo51b2o114b2o174b2o114b2o51bo5730b$5782b2o114b2o174b2o114b2o5782b$11974b$6760b2o5212b$6759bobo5212b$5966b2o38b2o753bo5212b$5966b2o38b2o5966b$11974b$11974b$11974b$11974b$11974b$11974b$5790b2o390b2o5790b$5790b2o333bo56b2o5790b$6126bo5847b$6124b3o5847b$11974b$11974b$5420b3o420bo138bobo5989b$5420bo421bo139b2o5990b$5421bo420b3o138bo5990b$11974b$5730bo227b2o54b2o227bo5730b$5730bo227b2o34bobo17b2o227bo302b3o5425b$5730bo264b2o246bo304bo5425b$5995bo551bo5426b$5267b2o457b3o3b3o504b3o3b3o5726b$5267bobo6704b$5267bo462bo512bo5730b$5730bo512bo5730b$5730bo51b2o114b2o174b2o114b2o51bo5730b$5782b2o114b2o174b2o114b2o508b2o5272b$6699bobo5272b$6701bo5272b$11974b$5966b2o38b2o5966b$5966b2o38b2o5966b$11974b$11974b$11974b$11974b$11974b$11974b$5790b2o390b2o5790b$5790b2o390b2o5790b$11974b$11974b$5480b3o6491b$5480bo6493b$5481bo6492b$11974b$11974b$6486b3o5485b$5730bo227b2o54b2o227bo244bo5485b$5730bo227b2o54b2o227bo243bo5486b$5327b2o401bo512bo5730b$5327bobo6644b$5327bo398b3o3b3o504b3o3b3o892bo4833b$7140bobo4831b$5730bo512bo896b2o4832b$5730bo512bo396b2o5332b$5730bo51b2o114b2o174b2o114b2o51bo395bobo5332b$4838bo943b2o114b2o174b2o114b2o449bo5332b$4836bobo7135b$4837b2o7135b$11974b$11974b$11974b$11974b$11974b$11974b$11974b$11974b$11974b$5790b2o390b2o5790b$5790b2o390b2o5790b$5540b3o6431b$5540bo6433b$5541bo6432b$11974b$11974b$6426b3o5545b$6428bo5545b$6427bo5546b$5387b2o341bo227b2o54b2o227bo5730b$5387bobo340bo227b2o54b2o227bo5730b$5387bo342bo512bo5730b$11974b$5726b3o3b3o504b3o3b3o5726b$6580b2o5392b$5730bo512bo335bobo5392b$5730bo512bo337bo5392b$5730bo51b2o114b2o174b2o114b2o51bo5730b$5782b2o114b2o174b2o114b2o5782b$11974b$11974b$11974b$11974b$11974b$11974b$6182bo5791b$5786bo394b3o5790b$5785b2o393b2o2bo5789b$5784b4o391b2o2b3o5788b$5783b2o3b3o387b3o3bo5789b$5600b3o181bo5bo6183b$5600bo189bo391bo5791b$5601bo182bo4bo6184b$5783b2o2bo6186b$5783b2obo6187b$5784b2o401bo178b3o5605b$6186b3o179bo5605b$6185b2o2bo177bo5606b$5447b2o740bo5784b$5447bobo332b2o404bo5785b$5447bo282bo51b2o174b2o54b2o168bo58bo5730b$5730bo227b2o54b2o168bobo56bo5730b$5730bo453b2o57bo5730b$6520b2o5452b$5726b3o3b3o504b3o3b3o271bobo5452b$5794bo726bo5452b$5730bo61bobo448bo5730b$5730bo62b2o448bo5730b$5730bo167b2o174b2o167bo5730b$5898b2o174b2o5898b$11974b$11974b$5790b2o390b2o5790b$5790b2o390b2o5790b$11974b$11974b$11974b$11974b$11974b$5660b3o6311b$5660bo6313b$5661bo6312b$11974b$11974b$6306b3o5665b$6308bo5665b$6307bo5666b$5507b2o6465b$5507bobo6464b$5507bo6466b$5782b2o406b2o5782b$5730bo51b2o174b2o54b2o174b2o51bo5730b$5730bo227b2o54b2o227bo216b2o5512b$5730bo512bo215bobo618bo4893b$6461bo618bobo4891b$5726b3o3b3o504b3o3b3o832b2o4892b$11974b$5730bo512bo5730b$4898bo831bo512bo5730b$4896bobo831bo167b2o174b2o167bo5730b$4897b2o999b2o174b2o5898b$11974b$11974b$5790b2o390b2o5790b$5790b2o390b2o5790b$11974b$11974b$11974b$5720b3o6251b$5720bo6253b$5721bo6252b$11974b$11974b$6246b3o5725b$6248bo5725b$6247bo5726b$5567b2o6405b$5567bobo6404b$5567bo6406b$11974b$11974b$5782b2o406b2o44bo163b2o5572b$5782b2o174b2o54b2o174b2o43bobo161bobo5572b$5958b2o54b2o221bo163bo5572b$6235bo3bo5734b$6235b2o2bo5734b$6235b4o5735b$11974b$11974b$6234b2o5738b$5898b2o174b2o159bobo5736b$5898b2o174b2o160b3o5735b$6236b2o5736b$11974b$5790b2o390b2o5790b$5790b2o390b2o5790b$11974b$11974b$11974b$11974b$5783b3o6188b$5783bo6190b$5784bo6189b$11974b$11974b$5627b2o554b3o5788b$5627bobo555bo5788b$5627bo556bo5789b$11974b$11974b$6340b2o5632b$6124bo214bobo5632b$5782b2o340bobo63b2o149bo5632b$5782b2o174b2o54b2o108b2o64b2o5782b$5958b2o54b2o5958b$11974b$5854bo6119b$5852bobo6119b$5853b2o6119b$11974b$11974b$5898b2o174b2o5898b$5898b2o174b2o5898b$11974b$11974b$5790b2o390b2o5790b$5790b2o390b2o5790b$5895bo6078b$5895bo2b3o173bo5899b$5843b3o49bo2bobo173b2o5898b$5843bo52bo3bo3b5o166b3o5896b$5844bo38bo11b5o3b2o162b2o6bo5898b$5883bo4b4obobob2o6b4o157b4o6b2o5896b$5882bobo3b2ob2ob2o11bo157bo4bo19bobo5881b$5687b2o195bo3bo3bo12b2o6bo152b2ob3o5bo3b2o6bo2bo30b3o5848b$5687bobo192b3o6b3o11b2o7bo152b2o2bo4bobo2b2o6bo2bo32bo5848b$5687bo194b2o2b2o24b3o153bo3b3obobo11b2o32bo5849b$5881b2o4b3o179bobo3bobo5896b$5881b2o3bob2o180bo5903b$5880b2ob3o394b2o5692b$5881b4o394bobo5692b$5882b2o397bo5692b$11974b$5782b2o114b2o174b2o114b2o5782b$5782b2o114b2o58b2o54b2o58b2o114b2o828bo4953b$5958b2o54b2o1004bobo4951b$7020b2o4952b$11974b$11974b$4958bo7015b$4956bobo7015b$4957b2o7015b$11974b$11974b$6090bo5883b$6091b2o5881b$5790b2o98b2o190b2o6b2o90b2o5790b$5790b2o98b2o190b2o98b2o5790b$5903b3o6068b$5878bo24bo6070b$5876b2o26bo6069b$5877b2o6095b$11974b$5747b2o314b3o5908b$5747bobo215b3o97bo5908b$5747bo216bo99bo5909b$5964bo2bo6006b$5965b2o6007b$5965b2o253b2o5752b$5964bo2bo251bobo5752b$5967bo253bo5752b$5964b2o6008b$6006b3o5965b$6006bo2bo5964b$5782b2o114b2o105bo3bo64b2o114b2o5782b$5782b2o114b2o106bo2b2o63b2o114b2o5782b$6008bo5965b$6006b2o5966b$5956b2o47b3o8b2o5956b$5956b2o8b2o37b3o8b2o5956b$5966b2o6006b$11974b$5955bo6018b$5954b3o6017b$5953bo3bo59bo5956b$5952bo65bo5955b$5951b2ob2o3bo56b3o5955b$5790b2o162b2o226b2o5790b$5790b2o159bo6b2o222b2o5790b$5952b2o64b2o5954b$6018b2o5954b$11974b$5807b2o6165b$5807bobo6164b$5807bo6166b$11974b$11974b$5958b2o54b2o144b2o5812b$5958b2o54b2o143bobo5812b$6161bo5812b$11974b$11974b$11974b$11974b$11974b$5782b2o114b2o174b2o114b2o5782b$5782b2o114b2o174b2o114b2o5782b$11974b$11974b$11974b$5966b2o38b2o5966b$5966b2o38b2o5966b$11974b$11974b$11974b$11974b$11974b$11974b$5790b2o390b2o5790b$5790b2o390b2o5790b$11974b$5867b2o6105b$5867bobo6104b$5867bo6106b$11974b$11974b$6100b2o5872b$6099bobo5872b$5958b2o54b2o85bo5872b$5958b2o54b2o5958b$11974b$11974b$11974b$11974b$11974b$6960bo5013b$5782b2o114b2o174b2o114b2o768bobo5011b$5782b2o114b2o174b2o114b2o768b2o5012b$11974b$11974b$5018bo6955b$5016bobo6955b$5017b2o6955b$11974b$11974b$6150bo5823b$6151b2o5821b$6150b2o5822b$11974b$5790b2o390b2o5790b$5790b2o26bo108b2o253b2o5790b$5816b2o109bobo6044b$5817b2o108bo6046b$11974b$11974b$6040b2o5932b$6039bobo5932b$6041bo5932b$11974b$5958b2o54b2o5958b$5958b2o54b2o5958b$11974b$11974b$11974b$11974b$11974b$11974b$5782b2o114b2o174b2o114b2o5782b$5782b2o114b2o174b2o114b2o5782b$11974b$11974b$11974b$11974b$11974b$11974b$11974b$11974b$11974b$11974b$5987b2o5985b$5790b2o195bobo192b2o5790b$5790b2o195bo194b2o5790b$11974b$11974b$5980b2o5992b$5979bobo5992b$5981bo5992b$11974b$11974b$11974b$5958b2o54b2o5958b$5958b2o54b2o5958b$11974b$11974b$11974b$11974b$11974b$11974b$5782b2o114b2o174b2o114b2o5782b$5782b2o114b2o174b2o114b2o5782b$11974b$11974b$11974b$11974b$11974b$11974b$11974b$11974b$6047b2o5925b$6047bobo5924b$6047bo5926b$11974b$11974b$5920b2o6052b$5919bobo6052b$5921bo6052b$11974b$11974b$11974b$11974b$11974b$5958b2o54b2o5958b$5958b2o54b2o5958b$11974b$11974b$11974b$6900bo5073b$6900bobo5071b$6900b2o5072b$5782b2o114b2o174b2o114b2o5782b$5782b2o114b2o174b2o114b2o5782b$5078bo6895b$5076bobo6895b$5077b2o6895b$11974b$11974b$11974b$6107b2o5865b$6107bobo5864b$6107bo5866b$6187bo5786b$6186b3o5785b$5860b2o323b2ob2o5784b$5859bobo323bo5788b$5861bo6112b$6187bo5786b$6187b2o5785b$6186bob2o5784b$5786b2o6186b$5786b2o6186b$5785bo6188b$5785b3o402bo5783b$5786bobo169b2o54b2o174b2o5782b$5786b2o170b2o54b2o5958b$5788bo6185b$5788bo6185b$5790bo389bobo5791b$6180b2o5792b$6181bo5792b$11974b$5898b2o174b2o5898b$5898b2o174b2o5898b$11974b$11974b$5790b2o390b2o5790b$5790b2o390b2o5790b$6167b2o5805b$6167bobo5804b$6167bo5806b$11974b$11974b$5800b2o6172b$5799bobo6172b$5801bo6172b$11974b$11974b$11974b$11974b$11974b$11974b$11974b$11974b$5782b2o406b2o5782b$5782b2o174b2o54b2o174b2o5782b$5958b2o54b2o5958b$11974b$11974b$11974b$11974b$11974b$11974b$5898b2o174b2o5898b$5898b2o174b2o5898b$11974b$11974b$5790b2o390b2o43b2o5745b$5790b2o390b2o43bobo5744b$6227bo5746b$11974b$11974b$5740b2o6232b$5739bobo6232b$5741bo6232b$11974b$11974b$11974b$11974b$11974b$11974b$11974b$11974b$11974b$11974b$5782b2o406b2o5782b$5782b2o174b2o54b2o174b2o5782b$5958b2o54b2o5958b$11974b$6840bo5133b$6840bobo5131b$6840b2o5132b$11974b$11974b$5138bo759b2o174b2o5898b$5136bobo759b2o174b2o121b2o5775b$5137b2o1059b2o5774b$6197bo5776b$5790b2o390b2o5790b$5790b2o390b2o5790b$5780b2o6192b$5779b2o6193b$5781bo6192b$11974b$11974b$11974b$11974b$11974b$11974b$11974b$11974b$11974b$11974b$11974b$5846bobo6125b$5847b2o6125b$5782b2o63bo342b2o5782b$5782b2o174b2o54b2o174b2o5782b$5958b2o54b2o5958b$6120bobo5851b$6120b2o5852b$6121bo5852b$11974b$11974b$6137b2o5835b$5898b2o238b2o5834b$5898b2o176bo60bo5836b$6072b5o4b2o5891b$6074b2o5bobo5890b$5790b2o48b2o57b2o281b2o5790b$5790b2o47b2o57bo4b3o165bo2b2ob4o101b2o5790b$5841bo52bo3bobo4b2o165b2o3b4o2bo5890b$5893b3o3b2o2bo3bo170bo5895b$5891b2o2bo9b2o6067b$5886bo4b3o6080b$5880b3o3bobo5bo13b2o179bo2bo5881b$5886bob2ob4o12bo2bo178bo3bo5880b$5895bo11bobo180bobo5881b$5891b2ob2o9bo2b2o159b2o20bo5882b$5890b2o2bo8b3o2b2o150b2o7b2o5903b$5891b3o9bo158bo6bobo5902b$5892bo10bobo156b2obo3bo2bo5901b$5904b2o10bo148b2o5907b$5917b2o145b2o2bo5905b$5916b2o150bobo5903b$6069bo5904b$11974b$5782b2o114b2o152bo21b2o114b2o5782b$5782b2o114b2o58b2o54b2o34b2o22b2o114b2o5782b$5958b2o54b2o35b2o5921b$11974b$11974b$11974b$6077b2o5895b$6078b2o5894b$6077bo5896b$11974b$6011b2o5961b$5900b2o111bo5960b$5899b2o107b3o3bo5959b$5790b2o98b2o9bo105b5o2bo67b2o98b2o5790b$5790b2o98b2o114b2o5b2o67b2o98b2o5790b$6007b2o5965b$6013b2o5959b$11974b$6011bo5962b$5961b3o48b3o5959b$5873bo87bo2bo6009b$5873bobo84bo2b2o6009b$5873b2o85b2o6012b$6014b2o5958b$5964bo49b2o5958b$5965b2o138bo5868b$5964b2o137bobo5868b$6104b2o5868b$11974b$6004bo5969b$6002b2o5970b$5782b2o114b2o103b2o69b2o114b2o5782b$5782b2o114b2o174b2o114b2o5782b$6780bo5193b$6780bobo5191b$6780b2o5192b$5966b2o38b2o5966b$5966b2o38b2o5966b$5198bo6775b$5196bobo6775b$5197b2o6775b$11974b$11974b$11974b$5790b2o390b2o5790b$5790b2o390b2o5790b$11974b$11974b$11974b$11974b$11974b$11974b$11974b$11974b$5958b2o54b2o5958b$5958b2o54b2o5958b$11974b$11974b$11974b$11974b$11974b$11974b$5782b2o114b2o174b2o114b2o5782b$5782b2o114b2o174b2o114b2o5782b$11974b$11974b$11974b$5966b2o38b2o5966b$5966b2o38b2o5966b$11974b$11974b$11974b$11974b$11974b$11974b$5790b2o390b2o5790b$5790b2o390b2o5790b$11974b$11974b$11974b$11974b$11974b$11974b$11974b$11974b$5958b2o54b2o5958b$5958b2o54b2o5958b$11974b$11974b$11974b$11974b$11974b$11974b$5782b2o114b2o174b2o114b2o5782b$5782b2o114b2o174b2o114b2o5782b$11974b$11974b$11974b$11974b$11974b$11974b$11974b$11974b$11974b$11974b$11974b$5790b2o390b2o5790b$5790b2o390b2o5790b$11974b$11974b$11974b$5813bo6160b$5813bobo6158b$5813b2o6159b$11974b$11974b$5958b2o54b2o149bo5808b$5958b2o54b2o147bobo5808b$6164b2o5808b$11974b$11974b$11974b$11974b$11974b$5782b2o114b2o174b2o114b2o528bo5253b$5782b2o114b2o174b2o114b2o528bobo5251b$6720b2o5252b$11974b$11974b$5258bo6715b$5256bobo6715b$5257b2o6715b$11974b$11974b$11974b$11974b$11974b$5790b2o390b2o5790b$5790b2o390b2o5790b$11974b$11974b$11974b$11974b$11974b$11974b$11974b$11974b$5958b2o54b2o5958b$5958b2o54b2o5958b$11974b$11974b$11974b$11974b$11974b$11974b$5782b2o114b2o174b2o114b2o5782b$5782b2o114b2o174b2o114b2o5782b$11974b$11974b$11974b$11974b$11974b$11974b$11974b$11974b$11974b$11974b$11974b$11974b$11974b$11974b$11974b$11974b$11974b$11974b$11974b$11974b$11974b$5958b2o54b2o5958b$5958b2o54b2o5958b$11974b$11974b$11974b$11974b$11974b$11974b$5782b2o114b2o174b2o114b2o5782b$5782b2o114b2o174b2o114b2o5782b$11974b$11974b$11974b$11974b$11974b$11974b$11974b$11974b$11974b$11974b$11974b$11974b$11974b$11974b$11974b$11974b$11974b$11974b$11974b$11974b$11974b$5958b2o54b2o5958b$5958b2o54b2o5958b$11974b$11974b$11974b$5780bo6193b$5779b3ob2o405bo469bo5313b$5779bo5bo405bo468bobo5311b$5778b4o4bo111b2o174b2o114bo469b2o5312b$5778bo7bo111b2o174b2o113b3o5782b$5778bo3b2o2b2o402b2o5782b$5318bo459bo5bobo402b2ob2o5780b$5316bobo460b2obo2bo407bo5780b$5317b2o868bo3bo2bo5779b$5779b2ob2o402bobo2b2obo5779b$5781bo8b3o392bo4bo3b2o5778b$6186bobo3b2o5780b$6187bob2obo5781b$6191bo5782b$11974b$11974b$11974b$5778b2o414b2o5778b$5778b2o414b2o5778b$11974b$11974b$11974b$11974b$11974b$11974b$5782b2o406b2o5782b$5782b2o174b2o54b2o174b2o5782b$5958b2o54b2o5958b$6216bo5757b$6217b2o5755b$6216b2o5756b$11974b$11974b$5752bo6221b$5750b2o146b2o174b2o5898b$5751b2o145b2o174b2o5898b$11974b$11974b$5790b2o390b2o5790b$5790b2o390b2o5790b$11974b$11974b$11974b$11974b$11974b$11974b$11974b$11974b$11974b$11974b$11974b$11974b$11974b$6157bo5816b$6157bobo5814b$6157b2o5815b$5782b2o406b2o5782b$5782b2o174b2o54b2o174b2o5782b$5821bo136b2o54b2o5958b$5819bobo6152b$5820b2o6152b$11974b$11974b$11974b$11974b$5898b2o174b2o5898b$5898b2o174b2o5898b$11974b$11974b$5790b2o390b2o5790b$5790b2o390b2o5790b$11974b$11974b$11974b$11974b$11974b$11974b$11974b$11974b$11974b$11974b$11974b$11974b$11974b$11974b$11974b$11974b$5782b2o229b3o174b2o5782b$5782b2o229b3o174b2o5782b$11974b$6008bo2bo5962b$5958b3o3bo43bo2b2o5b2o5954b$5961bobobo46bob6o580bo5373b$5961bo4bo41bo3bo2bo2bo581bobo5371b$5952b2o7bobo2b2o40bo4b3ob2o581b2o5372b$5957bo2bob2o2bo4bo38b3o3b2o5956b$5956bo2bo4b2o4bobo106b3o5892b$5378bo515b3obo58bobo3bo6bob2o23b3o80b2o5892b$5376bobo521bo48bo10bo9bobo2b3o19b3o78bo3b2o5890b$5377b2o515b2o5bo45b3o3bo6bobo7b2o26bo73b2o4bobob2o5890b$5790b2o104b2o3bo44bo5b4o3bo10b2o26bo73b2o3b2o3b2o98b2o5790b$5790b2o99b3o6bo44bo4b3ob3o3bobo34b3o78b2o102b2o5790b$5891bobo52bo4bobo2b2o3bo35b3o18b2o5954b$5890bo2bo54b2o3b2o2b2o6b2o51bobo5953b$5890bobo55bobo2bo3bo64bobo5949b$5890b3o61b3o62bo5bo5948b$5955bo64bo5953b$5939bo6034b$5937b2o6035b$5938b2o81bobo59b2o5889b$5902b2o54b2o54b2o54b2o5902b$5902b2o54b2o54b2o54b2o5902b$6039bo5934b$6040b2o5932b$6039b2o5933b$11974b$11974b$11974b$5782b2o114b2o174b2o114b2o5782b$5782b2o114b2o174b2o114b2o84bo5697b$6277b2o5695b$6276b2o5696b$11974b$5966b2o38b2o5966b$5692bo273b2o38b2o5966b$5690b2o6282b$5691b2o6281b$11974b$11974b$11974b$11974b$5790b2o98b2o190b2o98b2o5790b$5790b2o98b2o94bo95b2o98b2o5790b$5984bobo5987b$5938bo46b2o5987b$5939bo6034b$5937b3o6034b$5982bo5991b$5982bobo5989b$5982b2o46bo5943b$6029bo5944b$5958b2o54b2o13b3o5942b$5958b2o54b2o5958b$11974b$6097bo5876b$6097bobo5874b$6097b2o5875b$11974b$11974b$5782b2o97bo16b2o174b2o114b2o5782b$5782b2o95bobo16b2o174b2o114b2o5782b$5880b2o6092b$11974b$11974b$5966b2o38b2o5966b$5966b2o38b2o5966b$11974b$11974b$11974b$5853bo6120b$5851b2o6121b$5852b2o6120b$5790b2o98b2o190b2o98b2o5790b$5790b2o98b2o190b2o98b2o5790b$6125bo5848b$6126b2o5846b$6125b2o5847b$11974b$11974b$11974b$11974b$11974b$5958b2o54b2o5958b$5958b2o54b2o5958b$11974b$11974b$11974b$11974b$11974b$11974b$5782b2o406b2o5782b$5782b2o406b2o5782b$11974b$6540bo5433b$6540bobo5431b$6540b2o5432b$11974b$11974b$5438bo6535b$5436bobo6535b$5437b2o6535b$11974b$11974b$5790b2o390b2o5790b$5790b2o390b2o5790b$11974b$11974b$11974b$11974b$11974b$11974b$11974b$11974b$5958b2o54b2o5958b$5958b2o54b2o5958b$11974b$11974b$11974b$11974b$11974b$6336bo5637b$5782b2o406b2o145b2o5635b$5782b2o406b2o144b2o5636b$11974b$11974b$5632bo6341b$5630b2o6342b$5631b2o6341b$11974b$11974b$11974b$11974b$11974b$11974b$5790b2o390b2o5790b$5790b2o206bo183b2o5790b$5999bo5974b$5997b3o5974b$11974b$11974b$5970bo6003b$5969bo6004b$5969b3o6002b$11974b$5958b2o54b2o5958b$5958b2o54b2o5958b$11974b$11974b$11974b$11974b$11974b$11974b$5782b2o406b2o5782b$5782b2o406b2o5782b$11974b$11974b$11974b$11974b$11974b$6181b3o5790b$5793bo386bo3bo5789b$5791b2o387b2ob2o5789b$5792b2o385b2ob2obo5788b$6178b2o5b2o5787b$6178b2o3bob2o5787b$5790b2o392bo5789b$5790b2o6182b$11974b$11974b$11974b$11974b$11974b$11974b$11974b$11974b$5958b2o54b2o5958b$5958b2o54b2o5958b$11974b$11974b$11974b$11974b$11974b$11974b$5782b2o406b2o5782b$5782b2o406b2o288bo5493b$6480bobo5491b$6480b2o5492b$11974b$11974b$5498bo6475b$5496bobo6475b$5497b2o6475b$11974b$11974b$11974b$11974b$11974b$11974b$11974b$11974b$11974b$11974b$11974b$11974b$11974b$11974b$5958b2o54b2o5958b$5958b2o54b2o5958b$11974b$11974b$5957b2o6015b$5957bobo436bo5577b$5952b3o2b3o437b2o5575b$5951b2ob2o7b2o47bo383b2o5576b$5782b2o167bo10b2o47b2o177b2o5782b$5782b2o180bobo4bo38bobo3b2o3b2o167b2o5782b$5572bo375b2o16b3o2bo3b3o23b2o7b2o3bo3b2o2bo5950b$5570b2o376b2o13bo2b3o2bo28bo2b2o7b3o4b2ob2o5950b$5571b2o390b2o34bo5bo13b2o5bobo5945b$5949b4o10b3o32bo2b2o2bo6b2o7bobo3b2o5945b$5949b3obo11b2o30b2ob2ob3o5b2o10bo3bo5946b$5949bo3bo10b2o31bo2bo10b2o5961b$5951b3o43bob2o11bo5961b$5940bobo55b2o11bo5962b$5940b2o6032b$5941bo6032b$6058bo5915b$6059bo5914b$5958b2o54b2o41b3o5914b$5958b2o54b2o5958b$11974b$5910bo6063b$5909bo6064b$5909b3o6062b$11974b$11974b$11974b$11974b$11974b$11974b$11974b$5966b2o38b2o5966b$5966b2o27bo10b2o5966b$5994bo5979b$5994b3o5977b$5782b2o406b2o5782b$5782b2o406b2o5782b$5983bo5990b$5984bo5989b$5982b3o5989b$11974b$11974b$11974b$11974b$11974b$11974b$11974b$11974b$11974b$5958b2o54b2o5958b$5958b2o54b2o5958b$11974b$11974b$11974b$11974b$11974b$11974b$11974b$11974b$11974b$11974b$11974b$5966b2o38b2o5966b$5966b2o38b2o5966b$11974b$6420bo5553b$5782b2o406b2o228bobo5551b$5782b2o406b2o228b2o5552b$11974b$11974b$5558bo6415b$5556bobo6415b$5557b2o6415b$11974b$11974b$11974b$11974b$11974b$11974b$11974b$5958b2o54b2o5958b$5958b2o54b2o5958b$11974b$11974b$11974b$11974b$11974b$11974b$11974b$11974b$11974b$11974b$6456bo5517b$6457b2o5515b$6456b2o5516b$11974b$11974b$5512bo269b2o406b2o5782b$5510b2o270b2o406b2o5782b$5511b2o573bobo5885b$6087b2o5885b$6087bo5886b$11974b$11974b$5880bobo6091b$5880b2o6092b$5881bo6092b$6118bo5855b$6119bo5854b$6117b3o5854b$11974b$5958b2o54b2o5958b$5850bo107b2o54b2o5958b$5849bo6124b$5849b3o6122b$11974b$5786b2o6186b$5784b2obo6186b$5784b2o6188b$5786b2o395bo5790b$5788b2o393bo5790b$6182bobo5789b$5787bobo6184b$5788bo395b2o5788b$11974b$6184b2o5788b$11974b$11974b$11974b$11974b$11974b$6192b2o5780b$5790b2o390b2o8b2o5780b$5790b2o390b2o5790b$11974b$11974b$11974b$11974b$11974b$6193b3o5778b$6193b3o5778b$6193b2obo5777b$5958b2o54b2o176bob2o5778b$5957bob2o4bo48b2o177b2o5779b$5956b2o2bo3b2o6008b$5956b2o3b5o6008b$5956bobo2bo53b5o5954b$5956bobobobobo44b4obobo3b2o5952b$5956bobobob3o43bo5bo5b2o5952b$5957bo3b2o43b2o2b2o2b4obo5954b$5782b2o218bo3b2obo2bo3bo173b2o5782b$5782b2o190b3o25bo2b2o3b2o12bo165b2o5782b$5996b3o3bo2b2ob2obo10b3o5949b$5973bo3bo25b7o2bo8b3obo5948b$5973bo3bo26b7obo7b2o5b2o5945b$5954bo53bo3bo6bob2o2bo5948b$5955bo18b3o31bo9bo4b3o334bo5613b$5952bo2bo50b2o9b2o4b3o334bobo5611b$5948b3ob3o52bo10b4o338b2o5612b$5948b2o3bo53bobo9b3o5952b$5947b3o2b3o53bo11b2o11bo5940b$5618bo330bobobo80b2o5938b$5616bobo332b2o80b2o5939b$5617b2o171b2o159bo230b2o5790b$5790b2o166b2o54b2o166b2o5790b$5935bo22b2o54b2o5958b$5933b2o6039b$5934b2o6038b$11974b$11974b$11974b$11974b$11974b$11974b$11974b$11974b$11974b$5966b2o38b2o5966b$5966b2o38b2o5966b$11974b$11974b$5782b2o406b2o51bobo5728b$5782b2o406b2o52b2o5728b$6244bo271bo5457b$6517b2o5455b$5988bo527b2o5456b$5723bobo262bobo5983b$5723b2o263b2o5984b$5452bo271bo6249b$5450b2o6522b$5451b2o537bo155bobo5825b$5988bobo156b2o5825b$5989b2o156bo5826b$11974b$5790b2o390b2o5790b$5790b2o28bobo135b2o54b2o166b2o5790b$5820b2o136b2o54b2o5958b$5821bo6152b$6178bo5795b$6179bo5794b$6177b3o5794b$11974b$11974b$5790bo6183b$5789bo6184b$5789b3o338bo5843b$6129bo5844b$6129b3o5842b$5966b2o38b2o5966b$5966b2o38b2o5966b$5848bo6125b$5849bo6124b$5782b2o63b3o340b2o5782b$5782b2o406b2o5782b$11974b$11974b$11974b$11974b$11974b$11974b$11974b$11974b$11974b$11974b$11974b$5790b2o390b2o5790b$5790b2o166b2o54b2o166b2o5790b$5958b2o54b2o5958b$11974b$11974b$11974b$11974b$11974b$11974b$11974b$11974b$11974b$11974b$11974b$11974b$11974b$11974b$11974b$11974b$11974b$11974b$11974b$6300bo5673b$5455b2o843bobo5671b$5455bobo842b2o5672b$5455bo6518b$6093bo5880b$5678bo415b2o5878b$5676bobo414b2o417b2o5460b$5677b2o832bobo5460b$6513bo5460b$5875bo6098b$5873b2o83b2o54b2o5958b$5874b2o82b2o54b2o5958b$11974b$11974b$11974b$11974b$11974b$11974b$11974b$11974b$11974b$11974b$11974b$11974b$11974b$6303bobo5668b$6304b2o218bo5449b$6304bo219bobo5447b$6524b2o5448b$11974b$5515b2o146bobo6308b$5454bo60bobo145b2o6309b$5452bobo60bo148bo6309b$5453b2o6519b$11974b$6452b2o5520b$6451bobo5520b$6453bo5520b$11974b$11974b$11974b$5958b2o54b2o5958b$5958b2o54b2o5958b$11974b$11974b$11974b$11974b$11974b$11974b$6070bo5903b$6069bo5904b$6069b3o5902b$11974b$11974b$5908bo6065b$5909bo6064b$5907b3o6064b$11974b$11974b$5575b2o6397b$5575bobo6396b$5575bo6398b$11974b$11974b$6392b2o5580b$6391bobo5580b$6393bo5580b$11974b$11974b$11974b$11974b$11974b$5958b2o54b2o5958b$5958b2o54b2o5958b$11974b$11974b$11974b$11974b$11974b$11974b$11974b$11974b$11974b$11974b$11974b$11974b$11974b$11974b$5635b2o6337b$5635bobo6336b$5635bo6338b$6240bo5733b$6240bobo5731b$6240b2o90b2o5640b$6331bobo5640b$6153bo179bo5640b$5738bo415b2o5818b$5736bobo414b2o5819b$5737b2o6235b$11974b$5815bo6158b$5813b2o6159b$5814b2o6158b$5958b2o54b2o5958b$5958b2o54b2o5958b$11974b$11974b$11974b$11974b$11974b$11974b$11974b$11974b$11974b$11974b$11974b$6363bobo5608b$5695b2o667b2o98bo5509b$5695bobo666bo99bobo5507b$5695bo768b2o5508b$11974b$5603bobo6368b$5514bo88b2o667b2o5700b$5512bobo89bo666bobo5700b$5513b2o758bo5700b$11974b$11974b$11974b$11974b$11974b$11974b$11974b$11974b$11974b$11974b$11974b$11974b$11974b$11974b$11974b$11974b$11974b$11974b$11974b$11974b$11974b$5755b2o6217b$5755bobo6216b$5755bo6218b$11974b$11974b$6212b2o5760b$6211bobo5760b$6213bo5760b!