x = 13295, y = 28010, rule = B3/S23
4875bo8419b$4874b3o8418b$4873b2obo8418b$13295b$4873b2o8420b$4873bo2bo8418b$4873bo2bo8418b$4874bobo5b3o8410b$4882bo2bo8409b$4882bo8412b$4876bo5bo8412b$4861bo13b3o5bobo8409b$4860b3o12bob2o8416b$4859b2obo13b3o8416b$4859b3o14b2o8417b$4860b2o8433b$13295b$13295b$13295b$13295b$13295b$13295b$4859b3o8433b$4858bo2bo8433b$4861bo8433b$4844bobo14bo8433b$4839b2o3bo2bo10bobo8434b$4838b3o8454b$4837bo8457b$4839bo6bo13b3o8432b$4843bo2bo13bo2bo8431b$4838b2o2bo2bo14bo8434b$4838b2obo3bo14bo8434b$4840bo3bo16bobo20b3o8408b$4840bo2bo40bo2bo8407b$4884bo8410b$4884bo8410b$4885bobo8407b$13295b$4848bo8446b$4846b2o44b3o8400b$4847b2o42bo2bo8400b$4894bo8400b$4886bo7bo8400b$4853bo17bo13b3o3bobo8401b$4852b3o15b3o11b2obo8407b$4852bob2o14bob2o10b3o8408b$4853b3o15b3o11b2o8408b$4853b3o15b2o8422b$4853b2o8440b$13295b$13295b$13295b$13295b$13295b$4869b3o8423b$4869bo2bo8422b$4869bo8425b$4869bo8425b$4862b3o5bobo8422b$4861bo2bo8430b$4864bo8430b$4864bo5b3o8422b$4861bobo5bo2bo8422b$4872bo8422b$4872bo8422b$4869bobo22b3o8398b$4893bo2bo8398b$4896bo8398b$4896bo8398b$4893bobo8399b$13295b$13295b$4902b3o8390b$4902bo2bo8389b$4902bo8392b$4896bo5bo8392b$4863bo17bo13b3o5bobo8389b$4862b3o15b3o12bob2o8396b$4824b2o35b2obo14b2obo13b3o8396b$4824bob2o33b3o15b3o14b2o8397b$4826b2o33b3o16b2o8413b$4826b2o34b2o8431b$4823b2o8470b$13295b$4826b2o8467b$13295b$13295b$4879b3o8413b$4878bo2bo8413b$4881bo8413b$4816bo64bo8413b$4815bo56b3o3bobo8414b$4815b3o54bo2bo8419b$4872bo8422b$4872bo7b3o8412b$4873bobo4bo2bo8411b$4880bo8414b$4880bo8414b$4881bobo20b3o8388b$4904bo2bo8387b$4904bo8390b$4904bo8390b$4905bobo8387b$13295b$13295b$4912b3o8380b$4911bo2bo8380b$4914bo8380b$4906bo7bo8380b$4873bo17bo13b3o3bobo8381b$4872b3o15b3o11b2obo8387b$4872bob2o14bob2o10b3o8388b$4873b3o15b3o11b2o8388b$4873b3o15b2o8402b$4873b2o8420b$13295b$4831bo8463b$4830bobo8462b$4830bobo8462b$4831bo8463b$4889b3o8403b$4837bo51bo2bo8402b$4836b3o50bo8405b$4835b2obo50bo8405b$4835b3o44b3o5bobo8402b$4836b2o43bo2bo8410b$4884bo8410b$4884bo5b3o8402b$4881bobo5bo2bo8402b$4892bo8402b$4892bo8402b$4889bobo22b3o8378b$4913bo2bo8378b$4792bo123bo8378b$4790b2o124bo8378b$4791b2o120bobo8379b$13295b$13295b$4841b3o78b3o8370b$4826bo13bo2bo78bo2bo8369b$4825bobo15bo78bo8372b$4781bobo41bobo15bo72bo5bo8372b$4779bo4bo41bo13bobo40bo17bo13b3o5bobo8369b$4779bo4bo97b3o15b3o12bob2o8376b$4783b2o96b2obo14b2obo13b3o8376b$4881b3o15b3o14b2o8377b$4779b2o2b2o96b3o16b2o8393b$4779b2o2b2o33b3o61b2o8411b$4780bob3o32bo3bo8473b$4783bo38bo8472b$4782bo8512b$4817b2o3bo8472b$4819b3o8473b$4899b3o8393b$4847bo50bo2bo8393b$4846b3o52bo8393b$4846bob2o51bo8393b$4847b3o42b3o3bobo8394b$4847b2o43bo2bo8399b$4892bo8402b$4892bo7b3o8392b$4893bobo4bo2bo8391b$4900bo8394b$4900bo8394b$4901bobo20b3o8368b$4924bo2bo8367b$4924bo8370b$4924bo8370b$4925bobo8367b$13295b$13295b$4851b3o78b3o8360b$4851bo2bo76bo2bo8360b$4851bo82bo8360b$4789bobo59bo74bo7bo8360b$4790b2o60bobo38bo17bo13b3o3bobo8361b$4790bo36bo64b3o15b3o11b2obo8367b$4825bobo64bob2o14bob2o10b3o8368b$4826b2o65b3o15b3o11b2o8368b$4893b3o15b2o8382b$4803b3o87b2o8400b$4803bo2bo8488b$4803bo2bo8488b$13295b$4806b2o8487b$4760bo44bo2bo8486b$4759bo45bo2bo100b3o8383b$4759b3o43bo51bo51bo2bo8382b$4856b3o50bo8385b$4855b2obo50bo8385b$4855b3o44b3o5bobo8382b$4856b2o43bo2bo8390b$4904bo8390b$4904bo5b3o8382b$4901bobo5bo2bo8382b$4912bo8382b$4912bo8382b$4794bo114bobo22b3o8358b$4792b2o139bo2bo8358b$4793b2o141bo8358b$4936bo8358b$4933bobo8359b$13295b$13295b$4861b3o78b3o8350b$4860bo2bo78bo2bo8349b$4797bo65bo78bo8352b$4796bobo64bo72bo5bo8352b$4796bobo61bobo40bo17bo13b3o5bobo8349b$4797bo104b3o15b3o12bob2o8356b$4901b2obo14b2obo13b3o8356b$4901b3o15b3o14b2o8357b$4901b3o16b2o8373b$4902b2o8391b$13295b$13295b$13295b$13295b$13295b$4840bobo76b3o8373b$4841b2o24bo50bo2bo8373b$4841bo24b3o52bo8373b$4866bob2o51bo8373b$4867b3o42b3o3bobo8374b$4867b2o43bo2bo8379b$4912bo8382b$4912bo7b3o8372b$4913bobo4bo2bo8371b$4736bo80bo102bo8374b$4734b2o56bo25b2o100bo8374b$4735b2o54bobo23b2o102bobo20b3o8348b$4791bobo150bo2bo8347b$4792bo151bo8350b$4944bo8350b$4945bobo8347b$4729b2o8564b$4729b2o8564b$4731bo139b3o78b3o8340b$4729b3o139bo2bo76bo2bo8340b$4728bobo140bo82bo8340b$4729b2o37bo102bo74bo7bo8340b$4728bo39bobo101bobo38bo17bo13b3o3bobo8341b$4728bo39b2o142b3o15b3o11b2obo8347b$4726bo185bob2o14bob2o10b3o8348b$4913b3o15b3o11b2o8348b$4913b3o15b2o8362b$4913b2o8380b$13295b$4784b3o8508b$4784bo2bo8507b$4782bo4bo8507b$13295b$4782bo146b3o8363b$4783bo93bo51bo2bo8362b$4784b2obo88b3o50bo8365b$4785bo2bo86b2obo50bo8365b$4785b2o88b3o44b3o5bobo8362b$4786bo2bo86b2o43bo2bo8370b$4789bo134bo8370b$4785bo138bo5b3o8362b$4788bo132bobo5bo2bo8362b$4785b3o68bo75bo8362b$4857bo74bo8362b$4855b3o71bobo22b3o8338b$4953bo2bo8338b$4956bo8338b$4956bo8338b$4953bobo8339b$13295b$4735bobo35b2o8520b$4736b2o35b2o106b3o78b3o8330b$4736bo38bo57bo46bo2bo78bo2bo8329b$4748b3o22b2o56bobo49bo78bo8332b$4748bo2bo21b2o57b2o49bo72bo5bo8332b$4747bo3bo128bobo40bo17bo13b3o5bobo8329b$4747b2o26b2o145b3o15b3o12bob2o8336b$4748bobo24b2o144b2obo14b2obo13b3o8336b$4749b2o2bo167b3o15b3o14b2o8337b$4749bo2bo168b3o16b2o8353b$4749bo172b2o8371b$4704bo43b2ob2o8542b$4703bo45bobo13bobo8527b$4703b3o44bo14b2o8528b$4766bo8528b$13295b$4939b3o8353b$4887bo50bo2bo8353b$4760b2o124b3o52bo8353b$4760bobo123bob2o51bo8353b$4762b2o123b3o42b3o3bobo8354b$4761bo125b2o43bo2bo8359b$4759bobo170bo8362b$4738bo19b2o172bo7b3o8352b$4736b2o20b3o172bobo4bo2bo8351b$4737b2o201bo8354b$4940bo8354b$4941bobo20b3o8328b$4964bo2bo8327b$4964bo8330b$4964bo8330b$4742bo222bobo8327b$4741bobo8551b$4741bobo56bo8494b$4742bo58b2o88b3o78b3o8320b$4800b2o68bo20bo2bo76bo2bo8320b$4871b2o18bo82bo8320b$4870b2o19bo74bo7bo8320b$4892bobo38bo17bo13b3o3bobo8321b$4932b3o15b3o11b2obo8327b$4932bob2o14bob2o10b3o8328b$4933b3o15b3o11b2o8328b$4933b3o15b2o8342b$4784bobo146b2o8360b$4785b2o8508b$4785bo60bobo8446b$4847b2o8446b$4847bo8447b$13295b$4949b3o8343b$4897bo51bo2bo8342b$4896b3o50bo8345b$4680b2o213b2obo50bo8345b$4680b2o213b3o44b3o5bobo8342b$4682bo54bo158b2o43bo2bo8350b$4680b2o54bobo205bo8350b$4680b2o54bobo205bo5b3o8342b$4737bo203bobo5bo2bo8342b$4682b2o268bo8342b$4682b2o268bo8342b$4949bobo22b3o8318b$4973bo2bo8318b$4976bo8318b$4976bo8318b$4671b2obo59bo238bobo8319b$4669bo4bo59bobo8558b$4668bo5bo37bo21b2o8559b$4668bo43bobo186b3o78b3o8310b$4667b2ob2obo38b2o186bo2bo78bo2bo8309b$4667b2obo2bo229bo78bo8312b$4669b4o230bo72bo5bo8312b$4670b3o227bobo40bo17bo13b3o5bobo8309b$4942b3o15b3o12bob2o8316b$4667bo273b2obo14b2obo13b3o8316b$4665b2o274b3o15b3o14b2o8317b$4666b2o273b3o16b2o8333b$4816bo125b2o8351b$4732bo81bobo8478b$4731bobo81b2o69bo8408b$4731bobo150bobo8408b$4699bo32bo152b2o8408b$4699bo8595b$4698bobo258b3o8333b$4907bo50bo2bo8333b$4700b2o204b3o52bo8333b$4800bo105bob2o51bo8333b$4700b2o99bo105b3o42b3o3bobo8334b$4799b3o60bo44b2o43bo2bo8339b$4863bo88bo8342b$4861b3o88bo7b3o8332b$4953bobo4bo2bo8331b$4697b2o261bo8334b$4697b3o260bo8334b$4701bo259bobo20b3o8308b$4699b2o283bo2bo8307b$4691bob2o289bo8310b$4692b3o289bo8310b$4692bo3bobo286bobo8307b$4696bobo8596b$4697bo8597b$4727bo183b3o78b3o8300b$4726bobo182bo2bo76bo2bo8300b$4726bobo182bo82bo8300b$4727bo183bo74bo7bo8300b$4678bo32b2o199bobo38bo17bo13b3o3bobo8301b$4679b2o30bobo238b3o15b3o11b2obo8307b$4678b2o25bo7b2o237bob2o14bob2o10b3o8308b$4706bo4bobo239b3o15b3o11b2o8308b$4704b3o4bo241b3o15b2o8322b$4711bo2bo238b2o8340b$13295b$4713b2o8580b$13295b$13295b$13295b$4969b3o8323b$4641bo62bo212bo51bo2bo8322b$4641bobo58b2o212b3o50bo8325b$4641b2o39bo20b2o210b2obo50bo8325b$4680b2o147bobo83b3o44b3o5bobo8322b$4681b2o9bo137b2o84b2o43bo2bo8330b$4691bobo136bo68bobo62bo8330b$4636b2o53bobo206b2o62bo5b3o8322b$4636bob2o52bo29bo177bo60bobo5bo2bo8322b$4638b2o81bobo248bo8322b$4636b2o83bobo248bo8322b$4634b2o86bo246bobo22b3o8298b$4993bo2bo8298b$4634bobo177bo181bo8298b$4635bo179b2o179bo8298b$4814b2o60bo116bobo8299b$4877b2o8416b$4876b2o8417b$4921b3o78b3o8290b$4920bo2bo78bo2bo8289b$4923bo78bo8292b$4923bo72bo5bo8292b$4920bobo40bo17bo13b3o5bobo8289b$4962b3o15b3o12bob2o8296b$4961b2obo14b2obo13b3o8296b$4961b3o15b3o14b2o8297b$4961b3o16b2o8313b$4962b2o8331b$13295b$13295b$4685b2o8608b$4685b2o30bo8577b$4716bobo8576b$4716bobo260b3o8313b$4717bo209bo50bo2bo8313b$4926b3o52bo8313b$4926bob2o51bo8313b$4927b3o42b3o3bobo8314b$4927b2o43bo2bo8319b$4972bo8322b$4660bo311bo7b3o8312b$4644bo14b3o311bobo4bo2bo8311b$4645bo12b2o2bo317bo8314b$4643b3o13b5o316bo8314b$4659b2o2bo14bo302bobo20b3o8288b$4660bo2bo14bobo323bo2bo8287b$4660bobo15b2o165bo158bo8290b$4846bo157bo8290b$4844b3o68bo89bobo8287b$4916bo8378b$4612b3o299b3o8378b$4612bo2bo315b3o78b3o8280b$4616bo51bo262bo2bo76bo2bo8280b$4613b3o50b6o8b2o249bo82bo8280b$4666b2o2b2o8b2o249bo74bo7bo8280b$4650bo281bobo38bo17bo13b3o3bobo8281b$4649bo20bo159bo141b3o15b3o11b2obo8287b$4649b3o14b2o2bo38b2o117bobo141bob2o14bob2o10b3o8288b$4666b2o3bo35bo121b2o61bo80b3o15b3o11b2o8288b$4670bo36b3o180bobo80b3o15b2o8302b$4668bobo38b2o180b2o80b2o8320b$4669bo8625b$13295b$4603bobo105b2o8582b$4603b2o34bo2b2o67b2o8582b$4604bo38b2o8650b$4642b2o345b3o8303b$4937bo51bo2bo8302b$4638b2o2b2o58bobo231b3o50bo8305b$4644bo57b2o231b2obo50bo8305b$4638b4o61bo231b3o44b3o5bobo8302b$4640bo2bo292b2o43bo2bo8310b$4984bo8310b$4984bo5b3o8302b$4981bobo5bo2bo8302b$4992bo8302b$4675b2o315bo8302b$4631bo43b2o312bobo22b3o8278b$4630bobo380bo2bo8278b$4629bo3bo382bo8278b$4630bo2bo382bo8278b$4630bo2bo379bobo8279b$4631bobo8661b$13295b$4652b3o3bo282b3o78b3o8270b$4651bo2bo4b2o279bo2bo78bo2bo8269b$4651bo2bo3b2o283bo78bo8272b$4650bo2bo289bo72bo5bo8272b$4650bo2bo286bobo40bo17bo13b3o5bobo8269b$4654b2o203bo122b3o15b3o12bob2o8276b$4654b2o204b2o119b2obo14b2obo13b3o8276b$4652bo3bo202b2o68bo51b3o15b3o14b2o8277b$4655b2o273b2o49b3o16b2o8293b$4626bo30bo271b2o51b2o8311b$4624b2o26bo3bo8638b$4653b3o8639b$4629b2o19bo8644b$4628b2o18bobo8644b$4649b2o8644b$4670b2o47bobo121bobo153b3o8293b$4670b2o48b2o122b2o101bo50bo2bo8293b$4643b3o74bo123bo60bobo38b3o52bo8293b$4643bo2bo259b2o38bob2o51bo8293b$4643bo2bo259bo40b3o42b3o3bobo8294b$4644bo2bo299b2o43bo2bo8299b$4579bo58bo5b3o345bo8302b$4578bo60bo5b2o345bo7b3o8292b$4578b3o56b3o353bobo4bo2bo8291b$5000bo8294b$5000bo8294b$4678bo322bobo20b3o8268b$4677bo346bo2bo8267b$4677b3o344bo8270b$5024bo8270b$5025bobo8267b$4635bo8659b$4633b2o8660b$4613bo20b2o315b3o78b3o8260b$4611b2o11bo326bo2bo76bo2bo8260b$4612b2o9bobo325bo82bo8260b$4623bobo325bo74bo7bo8260b$4624bo327bobo38bo17bo13b3o3bobo8261b$4992b3o15b3o11b2obo8267b$4992bob2o14bob2o10b3o8268b$4993b3o15b3o11b2o8268b$4993b3o15b2o8282b$4993b2o8300b$13295b$13295b$13295b$13295b$13295b$4875bo133b3o8283b$4873bobo81bo51bo2bo8282b$4874b2o69bo10b3o50bo8285b$4943bobo9b2obo50bo8285b$4944b2o9b3o44b3o5bobo8282b$4956b2o43bo2bo8290b$5004bo8290b$5004bo5b3o8282b$5001bobo5bo2bo8282b$4619bo115bo123bo152bo8282b$4618bobo115bo123bo151bo8282b$4618bobo113b3o121b3o60bo87bobo22b3o8258b$4619bo302bo110bo2bo8258b$4920b3o113bo8258b$5036bo8258b$5033bobo8259b$4555bo8739b$4553b2o8740b$4554b2o405b3o78b3o8250b$4960bo2bo78bo2bo8249b$4963bo78bo8252b$4654bo308bo72bo5bo8252b$4652b2o306bobo40bo17bo13b3o5bobo8249b$4653b2o347b3o15b3o12bob2o8256b$5001b2obo14b2obo13b3o8256b$5001b3o15b3o14b2o8257b$4609bo391b3o16b2o8273b$4609bobo390b2o8291b$4587bo21b2o8684b$4587bobo8705b$4587b2o8706b$13295b$4614bo8680b$4613bobo403b3o8273b$4613bobo351bo50bo2bo8273b$4614bo351b3o52bo8273b$4966bob2o51bo8273b$4967b3o42b3o3bobo8274b$4967b2o43bo2bo8279b$5012bo8282b$5012bo7b3o8272b$5013bobo4bo2bo8271b$5020bo8274b$4888bobo129bo8274b$4889b2o130bobo20b3o8248b$4889bo68bobo83bo2bo8247b$4959b2o83bo8250b$4959bo84bo8250b$5045bobo8247b$13295b$13295b$4971b3o78b3o8240b$4749bo123bo97bo2bo76bo2bo8240b$4750b2o122b2o95bo82bo8240b$4749b2o122b2o60bo35bo74bo7bo8240b$4609bo326b2o34bobo38bo17bo13b3o3bobo8241b$4608bobo324b2o75b3o15b3o11b2obo8247b$4608bobo401bob2o14bob2o10b3o8248b$4609bo403b3o15b3o11b2o8248b$4529bo483b3o15b2o8262b$4529bobo481b2o8280b$4529b2o8764b$13295b$4566b3o8726b$4566bo2bo58bo8666b$4566bo2bo58bobo8664b$4628b2o399b3o8263b$4519bo49b2o406bo51bo2bo8262b$4517b6o45bo2bo404b3o50bo8265b$4517b2o2b2o45bo2bo12bobo388b2obo50bo8265b$4568bo15b2o389b3o44b3o5bobo8262b$4521bo63bo390b2o43bo2bo8270b$4517b2o2bo502bo8270b$4517b2o3bo501bo5b3o8262b$4521bo499bobo5bo2bo8262b$4519bobo510bo8262b$4520bo511bo8262b$4577b3o449bobo22b3o8238b$4579bo24bo448bo2bo8238b$4577b3o23bobo450bo8238b$4557bo45bobo450bo8238b$4555b2o21bo25bo448bobo8239b$4556b2o18b3o8716b$4574b3o8718b$4575b2o404b3o78b3o8230b$4904bo75bo2bo78bo2bo8229b$4905bo77bo78bo8232b$4903b3o68bo8bo72bo5bo8232b$4975bo4bobo40bo17bo13b3o5bobo8229b$4973b3o46b3o15b3o12bob2o8236b$5021b2obo14b2obo13b3o8236b$5021b3o15b3o14b2o8237b$5021b3o16b2o8253b$5022b2o8271b$13295b$4765bo123bo8405b$4763bobo121bobo8405b$4764b2o122b2o61bo8343b$4949bobo8343b$4528bo421b2o87b3o8253b$4529bo457bo50bo2bo8253b$4527b3o69bo386b3o52bo8253b$4598bobo385bob2o51bo8253b$4598bobo386b3o42b3o3bobo8254b$4599bo387b2o43bo2bo8259b$5032bo8262b$5032bo7b3o8252b$4603bobo427bobo4bo2bo8251b$4603b2o435bo8254b$4604bo435bo8254b$5041bobo20b3o8228b$4499bo564bo2bo8227b$4497b2o565bo8230b$4498b2o564bo8230b$5065bobo8227b$13295b$13295b$4493b3o495b3o78b3o8220b$4493bo2bo494bo2bo76bo2bo8220b$4493bo2bo494bo82bo8220b$4492b4o495bo74bo7bo8220b$4492b2o59bo438bobo38bo17bo13b3o3bobo8221b$4491bo61bobo476b3o15b3o11b2obo8227b$4492bo38bo21b2o477bob2o14bob2o10b3o8228b$4492bo38bobo60bo438b3o15b3o11b2o8228b$4531b2o60bobo437b3o15b2o8242b$4593bobo437b2o8260b$4594bo8700b$4918bo8376b$4919b2o8374b$4918b2o68bo8306b$4989b2o8304b$4988b2o59b3o8243b$4519b3o475bo51bo2bo8242b$4522bo473b3o50bo8245b$4519bo2bo472b2obo50bo8245b$4520b2o473b3o44b3o5bobo8242b$4520b2o474b2o43bo2bo8250b$4519bo2bo255bobo121bobo139bo8250b$4519bo259b2o122b2o139bo5b3o8242b$4521b2o256bo123bo60bobo74bobo5bo2bo8242b$4965b2o85bo8242b$4542bo422bo86bo8242b$4543b2o504bobo22b3o8218b$4542b2o529bo2bo8218b$5076bo8218b$5076bo8218b$4589bo483bobo8219b$4588bobo8704b$4579bo8bobo8704b$4578bo10bo411b3o78b3o8210b$4578b3o419bo2bo78bo2bo8209b$4500bobo500bo78bo8212b$4501b2o500bo72bo5bo8212b$4501bo498bobo40bo17bo13b3o5bobo8209b$5042b3o15b3o12bob2o8216b$4532b3o506b2obo14b2obo13b3o8216b$4532bo2bo505b3o15b3o14b2o8217b$4532bo2bo505b3o16b2o8233b$5042b2o8251b$4535b2o8758b$4534bo2bo8757b$4534bo2bo8757b$4467bo60bo5bo8760b$4466bo62bo8765b$4466b3o58b3o529b3o8233b$5007bo50bo2bo8233b$4999bo6b3o52bo8233b$4463bo534bobo5bob2o51bo8233b$4462b3o532bo2bo6b3o42b3o3bobo8234b$4461b2o2bo118bo413b2o7b2o43bo2bo8239b$4465bo117bobo348bo117bo8242b$4464bo118bobo346bobo117bo7b3o8232b$4460bo62bo60bo348b2o118bobo4bo2bo8231b$4460bobo58b2o537bo8234b$4460b2o39bo20b2o536bo8234b$4499b2o560bobo20b3o8208b$4500b2o582bo2bo8207b$5084bo8210b$5084bo8210b$4794bo123bo166bobo8207b$4795bo123bo8375b$4793b3o121b3o60bo8314b$4981bo29b3o78b3o8200b$4979b3o29bo2bo76bo2bo8200b$4558bo452bo82bo8200b$4556bobo452bo74bo7bo8200b$4557b2o453bobo38bo17bo13b3o3bobo8201b$5052b3o15b3o11b2obo8207b$5052bob2o14bob2o10b3o8208b$4994bo58b3o15b3o11b2o8208b$4993bobo57b3o15b2o8222b$4555bo436bo2bo57b2o8240b$4553b2o24bo413b2o8300b$4516bo37b2o22bobo8714b$4517bo60bobo8714b$4515b3o61bo8715b$13295b$5069b3o8223b$5017bo51bo2bo8222b$5016b3o50bo8225b$5015b2obo50bo8225b$5015b3o44b3o5bobo8222b$4482bo533b2o43bo2bo8230b$4471bo9b3o58bo521bo8230b$4469bobo8b2o2bo56b3o520bo5b3o8222b$4470b2o68b5o27bo488bobo5bo2bo8222b$4540b2ob3o25b3o498bo8222b$4541b2ob2o25bob2o497bo8222b$4480b2o61bo26b2o497bobo22b3o8198b$4481b3o86b2o521bo2bo8198b$4484bo85b2o524bo8198b$4482b3o89bo521bo8198b$4482b2o89b2o518bobo8199b$4571bobo373bobo8345b$4570bo2bo374b2o8345b$4435bobo44bobo12bo73bobo374bo72b3o78b3o8190b$4435b2o46b2o12bobo71b3o446bo2bo78bo2bo8189b$4436bo46bo13b2o72b2obo448bo78bo8192b$4494bo76bo2bo448bo72bo5bo8192b$4493b3o76bo447bobo40bo17bo13b3o5bobo8189b$4492bo2b2o565b3o15b3o12bob2o8196b$4492b3obo564b2obo14b2obo13b3o8196b$4495b2o311bo123bo128b3o15b3o14b2o8197b$4567b2o240b2o122b2o126b3o16b2o8213b$4491bo74bobo239b2o122b2o128b2o8231b$4490bo76bo8727b$4469bo20b3o8802b$4468bo8826b$4468b3o8824b$13295b$5079b3o8213b$5027bo50bo2bo8213b$4548bobo475b3o52bo8213b$4475bo73b2o475bob2o51bo8213b$4474bobo72bo477b3o42b3o3bobo8214b$4474bobo550b2o43bo2bo8219b$4475bo54bo541bo8222b$4531b2o23bo515bo7b3o8212b$4530b2o24bobo514bobo4bo2bo8211b$4556b2o522bo8214b$5080bo8214b$5081bobo20b3o8188b$5104bo2bo8187b$4523bo580bo8190b$4522bo581bo8190b$4522b3o580bobo8187b$4562b2o8731b$4561bobo8731b$4562bo468b3o78b3o8180b$5031bo2bo76bo2bo8180b$4415bo615bo82bo8180b$4414b3o126bo487bo74bo7bo8180b$4413bo2b2o94bo2b2o26bo488bobo38bo17bo13b3o3bobo8181b$4417bo98b2o24bobo527b3o15b3o11b2obo8187b$4417b2o96b2o555bob2o14bob2o10b3o8188b$4419bo124b2o417bo109b3o15b3o11b2o8188b$4416b4o50bo40b2o2b2o447bo108b3o15b2o8202b$4416b2o51bobo45bo26b2o416b3o108b2o8220b$4469bobo39b4o8780b$4470bo42bo2bo8778b$13295b$4556b3o8736b$4541b2o15bo8736b$4541b3o13bo531b3o8203b$4545bo25b2o464bo51bo2bo8202b$4543b2o27b2o250bo123bo87b3o50bo8205b$4571bo250bobo121bobo86b2obo50bo8205b$4404bo62bo118b2o235b2o122b2o86b3o44b3o5bobo8202b$4404bobo58b2o73bobo42bobo448b2o43bo2bo8210b$4404b2o39bo20b2o72bobo44bo496bo8210b$4443b2o96bo59bo482bo5b3o8202b$4444b2o155b2o478bobo5bo2bo8202b$4600bobo489bo8202b$4538b2o552bo8202b$4537bobo75b3o471bobo22b3o8178b$4538bo78bo495bo2bo8178b$4616bo499bo8178b$4630b2o484bo8178b$4433bo197b2o480bobo8179b$4433b2o30bo164bo8664b$4432bo2bo28bobo178b2o8648b$4433bobo28bobo177bobo394b3o78b3o8170b$4432bo2bo29bo180bo393bo2bo78bo2bo8169b$4432bo2bo224bo382bo78bo8172b$4432bobo88bo136b2o381bo72bo5bo8172b$4433b3o85bobo135bobo378bobo40bo17bo13b3o5bobo8169b$4522b2o558b3o15b3o12bob2o8176b$4674b3o404b2obo14b2obo13b3o8176b$4676bo404b3o15b3o14b2o8177b$4526bo148bo405b3o16b2o8193b$4524b2o163b2o391b2o8211b$4525b2o163b2o8603b$4689bo8605b$4704b2o8589b$4703bobo8589b$4705bo8589b$4491bobo39b2o184bo379b3o8193b$4491b2o39bobo184b2o326bo50bo2bo8193b$4431bo60bo40bo184bobo256bo68b3o52bo8193b$4430bobo545b2o66bob2o51bo8193b$4430bobo300b3o241b2o68b3o42b3o3bobo8194b$4431bo14bo288bo311b2o43bo2bo8199b$4445b3o12bo25b2o246bo357bo8202b$4444b2o2bo10bobo24bobo259b2o342bo7b3o8192b$4459bobo26b2o259b2o342bobo4bo2bo8191b$4448b2o10bo26bo260bo351bo8194b$4448b2o35bobo275b2o335bo8194b$4447bo2bo33b2o276bobo336bobo20b3o8168b$4446b3o35b3o43bo233bo72bobo121bobo160bo2bo8167b$4530b2o246bo59b2o122b2o160bo8170b$4379bobo58bobo86bobo246b2o58bo123bo161bo8170b$4379b2o60b2o334bobo345bobo8167b$4380bo60bo102b3o8748b$4546bo245b3o8500b$4545bo248bo256b3o78b3o8160b$4559b2o232bo257bo2bo76bo2bo8160b$4374b2o184b2o245b2o242bo82bo8160b$4374bobo182bo248b2o241bo74bo7bo8160b$4376b2o196b2o231bo244bobo38bo17bo13b3o3bobo8161b$4375bo59bo137bobo246b2o268b3o15b3o11b2obo8167b$4373bobo58bo140bo245bobo268bob2o14bob2o10b3o8168b$4372b2o39bo12bo7b3o152bo233bo269b3o15b3o11b2o8168b$4372b3o37bo12bobo161b2o246bo255b3o15b2o8182b$4412b3o10bobo160bobo246b2o254b2o8200b$4426bo409bobo8456b$4455bo147b3o8689b$4454bobo148bo8689b$4454bobo147bo8690b$4455bo162b2o8675b$4619b2o488b3o8183b$4618bo438bo51bo2bo8182b$4633b2o421b3o50bo8185b$4500bo131bobo420b2obo50bo8185b$4500bobo131bo420b3o44b3o5bobo8182b$4500b2o146bo407b2o43bo2bo8190b$4648b2o454bo8190b$4493bo153bobo454bo5b3o8182b$4494b2o605bobo5bo2bo8182b$4493b2o167b3o447bo8182b$4664bo447bo8182b$4663bo445bobo22b3o8158b$4357bo319b2o314bo139bo2bo8158b$4356b3o319b2o311bobo142bo8158b$4355b2o2bo317bo314b2o142bo8158b$4355b2ob2o61bo85bo184b2o439bobo8159b$4358b3o59bobo84b2o182bobo8601b$4356bob2o60bobo83bobo184bo8601b$4355bo2bo62bo285bo353b3o78b3o8150b$4358bo91bo9bo60b3o183b2o351bo2bo78bo2bo8149b$4355bobo91bobo8bobo60bo182bobo354bo78bo8152b$4356bo24bo67bobo8b2o60bo454bo85bo72bo5bo8152b$4382b2o66bo85b2o183b3o254bo81bobo40bo17bo13b3o5bobo8149b$4357b3o21b2o10b3o141b2o184bo252b3o123b3o15b3o12bob2o8156b$4356bob2o32bo2bo140bo185bo378b2obo14b2obo13b3o8156b$4357b2obo31bo2bo155b2o183b2o363b3o15b3o14b2o8157b$4391bo2bo155bobo184b2o362b3o16b2o8173b$4391bo2bo157bo183bo365b2o8191b$4395b2o169bo184b2o8542b$4395b2o169b2o182bobo8542b$4393bo3bo167bobo184bo8542b$4359bobo34b2o368bo8528b$4360b2o36bo181b3o183b2o8527b$4360bo32bo3bo13bo170bo182bobo351b3o8173b$4394b3o12b2o170bo485bo50bo2bo8173b$4410b2o183b2o183b3o283b3o52bo8173b$4596b2o184bo283bob2o51bo8173b$4595bo185bo285b3o42b3o3bobo8174b$4416bo193b2o183b2o270b2o43bo2bo8179b$4405b3o7bobo191bobo184b2o314bo8182b$4405bo2bo6bobo193bo183bo316bo7b3o8172b$4405bo2bo7bo208bo184b2o301bobo4bo2bo8171b$4342bo61b4o37bo179b2o182bobo308bo8174b$4341bo62b2o38bobo177bobo184bo308bo8174b$4341b3o59bo40bobo378bo295bobo20b3o8148b$4381bobo20bo40bo193b3o183b2o317bo2bo8147b$4381b2o21bo236bo182bobo317bo8150b$4382bo257bo503bo8150b$4654b2o183b3o303bobo8147b$4655b2o184bo8453b$4654bo185bo8454b$4669b2o183b2o215b3o78b3o8140b$4387bo280bobo184b2o214bo2bo76bo2bo8140b$4386bobo281bo183bo216bo82bo8140b$4386bobo295bo184b2o200bo74bo7bo8140b$4387bo296b2o182bobo135bobo63bobo38bo17bo13b3o3bobo8141b$4683bobo184bo136b2o103b3o15b3o11b2obo8147b$4884bo122bo104bob2o14bob2o10b3o8148b$4328bo369b3o183b2o227b3o15b3o11b2o8148b$4327b3o370bo182bobo227b3o15b2o8162b$4327b3o369bo413b2o8180b$4411bo301b2o183b3o8394b$4327b4o79bobo22bobo276b2o184bo8394b$4326b5o79bobo22b2o276bo185bo8395b$4326b2obo81bo24bo291b2o183b2o76bo8303b$4440bo286bobo184b2o76b2o8301b$4439bobo287bo183bo77b2o136b3o8163b$4327b2o110bobo301bo184b2o147bo51bo2bo8162b$4326bo113bo302b2o182bobo146b3o50bo8165b$4742bobo184bo145b2obo50bo8165b$4325bobo2bo612bo131b3o44b3o5bobo8162b$4325bob3obo425b3o183b2o131b2o43bo2bo8170b$4324b3ob2obo427bo182bobo179bo8170b$4325bobo47bo382bo365bo5b3o8162b$4325b3o48bo395b2o183b3o161bobo5bo2bo8162b$4326bo47b3o5bo390b2o184bo172bo8162b$4381bobo388bo185bo173bo8162b$4381bobo403b2o183b2o155bobo22b3o8138b$4382bo403bobo184b2o178bo2bo8138b$4788bo183bo183bo8138b$4802bo184b2o167bo8138b$4802b2o182bobo164bobo8139b$4801bobo184bo8306b$4334bo8960b$4332bobo71bo409b3o262b3o78b3o8130b$4333b2o44bo25bobo410bo261bo2bo78bo2bo8129b$4378bo26bobo409bo265bo78bo8132b$4357bo20b3o25bo424b2o250bo72bo5bo8132b$4356bo78bo396b2o246bobo40bo17bo13b3o5bobo8129b$4356b3o75bobo394bo155b3o132b3o15b3o12bob2o8136b$4434bobo409b2o139bo2bo130b2obo14b2obo13b3o8136b$4435bo409bobo138bo3bo130b3o15b3o14b2o8137b$4847bo138b4o131b3o16b2o8153b$4861bo125bo134b2o8171b$4861b2o8432b$4310bobo547bobo8432b$4310b2o34b2o8947b$4311bo33b3o527b3o144bo8272b$4345bo2bo528bo109b2ob2o31bo8271b$4345b2ob2o22b2o3b2o497bo110bob3o29b3o115b3o8153b$4345b2ob2o21bo2bo2b2o511b2o195bo50bo2bo8153b$4344b2ob2o22bo2bo516b2o193b3o52bo8153b$4345bo26b2o516bo195bob2o51bo8153b$4346b3o556b2o83bo96b3o42b3o3bobo8154b$4347bo63bo492bobo84bo95b2o43bo2bo8159b$4299bo110bo495bo82b3o140bo8162b$4298b3o109b3o507bo211bo7b3o8152b$4298b4o99bo518b2o211bobo4bo2bo8151b$4400bobo516bobo218bo8154b$4400bobo737bo8154b$4298b4o99bo532b3o204bobo20b3o8128b$4298b4o128bo505bo227bo2bo8127b$4300bo128bobo503bo228bo8130b$4429bobo517b2o213bo8130b$4430bo519b2o213bobo8127b$4949bo25bo8319b$4964b2o7b2o8320b$4963bobo8b2o115b3o78b3o8120b$4965bo125bo2bo76bo2bo8120b$4358b3o618bo111bo82bo8120b$4357bo2bo618b2o110bo74bo7bo8120b$4357b2obo617bobo111bobo38bo17bo13b3o3bobo8121b$4361b2o4b2o3b2o594b2o162b3o15b3o11b2obo8127b$4361b2o3bo2bo2b2o594b2o23b3o136bob2o14bob2o10b3o8128b$4360bo2bo2bo2bo600bo24bo137b3o15b3o11b2o8128b$4359bo7b2o599b3o23bo138b3o15b2o8142b$4331b3o13bobo9b3o605bobo163b2o8160b$4331bo2bo13b2o10bo607b2o8325b$4329bo4bo13bo6bo611bo8327b$4353bobo611bo8327b$4329bo24b2o40bo568bo8329b$4330bo64bobo8897b$4331b2obo60bobo751b3o8143b$4332bo2bo60bo601bo98bo51bo2bo8142b$4332b2o91bo572bo97b3o50bo8145b$4306bo26bo2bo87bobo571bo96b2obo50bo8145b$4307b2o27bo87bobo668b3o44b3o5bobo8142b$4306b2o24bo92bo568b3o3b3o93b2o43bo2bo8150b$4335bo11bobo794bo8150b$4332b3o12b2o649bo145bo5b3o8142b$4348bo649bo37bo104bobo5bo2bo8142b$4998bo38b2o113bo8142b$4343b3o690b2o114bo8142b$4342bo2bo803bobo22b3o8118b$4342b2o2bo826bo2bo8118b$4345b2o15b2o3b2o807bo8118b$4321b3o37bo2bo2b2o807bo8118b$4279bo41bo2bo17bo18bo2bo22bo785bobo8119b$4279bobo43bo14b2o20b2o21b2o8908b$4279b2o41b3o16b2o43b2o8907b$5101b3o78b3o8110b$5100bo2bo78bo2bo8109b$5103bo78bo8112b$4391bo711bo72bo5bo8112b$4390bobo707bobo40bo17bo13b3o5bobo8109b$4390bobo749b3o15b3o12bob2o8116b$4330bo60bo582bobo164b2obo14b2obo13b3o8116b$4330b2o88bo554b2o15b3o146b3o15b3o14b2o8117b$4329bo2bo86bobo553bo165b3o16b2o8133b$4312bobo15bobo86bobo568bo5bo145b2o8151b$4312b2o15bo2bo87bo526bo42bo5bo8298b$4313bo15bo2bo613b3o41bo5bo8298b$4329bobo613bo2b2o8345b$4330b3o616bo42b3o8300b$4949b2o8344b$4951bo207b3o8133b$4364b3o581b4o155bo50bo2bo8133b$4355bo4b2o3b2o581b2o156b3o52bo8133b$4354bobo749bob2o51bo8133b$4315bo38bobo750b3o42b3o3bobo8134b$4314bobo38bo751b2o43bo2bo8139b$4314bobo835bo8142b$4315bo836bo7b3o8132b$5153bobo4bo2bo8131b$5160bo8134b$5160bo8134b$4386bo774bobo20b3o8108b$4385bobo548bo247bo2bo8107b$4385bobo548bobo245bo8110b$4386bo549b2o50bo195bo8110b$4415bo572bo196bobo8107b$4414bobo571bo8306b$4414bobo8878b$4415bo568b3o3b3o59bo58b3o78b3o8100b$5050bobo58bo2bo76bo2bo8100b$4988bo62b2o58bo82bo8100b$4988bo122bo74bo7bo8100b$4924b3o61bo123bobo38bo17bo13b3o3bobo8101b$4927bo224b3o15b3o11b2obo8107b$4924bo2bo224bob2o14bob2o10b3o8108b$4254bobo93bo10bo563b2o226b3o15b3o11b2o8108b$4254b2o93bobo9bobo561b2o226b3o15b2o8122b$4255bo54bo38bobo9b2o561bo2bo225b2o8140b$4309bobo38bo573bo8370b$4309bobo614b2o8367b$4310bo8984b$13295b$13295b$4990bo178b3o8123b$4310bo70bo609bo125bo51bo2bo8122b$4309bo70bobo606b3o124b3o50bo8125b$4288bo20b3o68bobo732b2obo50bo8125b$4287bo93bo733b3o44b3o5bobo8122b$4287b3o120bo571b3o131b2o43bo2bo8130b$4409bobo752bo8130b$4409bobo568bo5bo177bo5b3o8122b$4410bo569bo5bo174bobo5bo2bo8122b$4980bo5bo185bo8122b$4961bo210bo8122b$4959bobo20b3o184bobo22b3o8098b$4960b2o231bo2bo8098b$5196bo8098b$5196bo8098b$4345bo847bobo8099b$4344bobo8948b$4305bo38bobo8948b$4304bobo38bo775b3o78b3o8090b$4304bobo626bo186bo2bo78bo2bo8089b$4305bo628bo188bo78bo8092b$4932b3o188bo72bo5bo8092b$5120bobo40bo17bo13b3o5bobo8089b$5162b3o15b3o12bob2o8096b$4376bo784b2obo14b2obo13b3o8096b$4375bobo783b3o15b3o14b2o8097b$4375bobo783b3o16b2o8113b$4376bo601bo183b2o8131b$4405bo572bo86bobo8227b$4404bobo571bo87b2o8227b$4404bobo659bo8228b$4405bo500bo67b3o3b3o8312b$4904b2o8389b$4905b2o71bo200b3o8113b$4230bo747bo148bo50bo2bo8113b$4229bo106bobo639bo147b3o52bo8113b$4229b3o104b2o788bob2o51bo8113b$4337bo789b3o42b3o3bobo8114b$4340bo786b2o43bo2bo8119b$4339bobo830bo8122b$4300bo38bobo830bo7b3o8112b$4299bobo38bo832bobo4bo2bo8111b$4299bobo878bo8114b$4300bo703bo175bo8114b$4286bo718b2o174bobo20b3o8088b$4284b2o718b2o198bo2bo8087b$4264bo20b2o917bo8090b$4262b2o107bo599b2o231bo8090b$4263b2o105bobo594bo2b2obo231bobo8087b$4370bobo593bob2o3b2o8320b$4371bo594bobob2obo8321b$4400bo566bo5bo157b3o78b3o8080b$4399bobo568bobo4bo153bo2bo76bo2bo8080b$4399bobo569bo5bo153bo82bo8080b$4400bo576bo153bo74bo7bo8080b$5132bobo38bo17bo13b3o3bobo8081b$5172b3o15b3o11b2obo8087b$5172bob2o14bob2o10b3o8088b$5173b3o15b3o11b2o8088b$5173b3o15b2o8102b$5173b2o8120b$4335bo8959b$4334bobo610bo8347b$4295bo38bobo611b2o8345b$4294bobo38bo611b2o8346b$4294bobo8998b$4295bo893b3o8103b$5137bo51bo2bo8102b$5136b3o50bo8105b$5135b2obo50bo8105b$4366bo714bo53b3o44b3o5bobo8102b$4365bobo714bo53b2o43bo2bo8110b$4365bobo712b3o101bo8110b$4366bo817bo5b3o8102b$4395bo484bo300bobo5bo2bo8102b$4394bobo483bobo86b2o221bo8102b$4394bobo483b2o310bo8102b$4206bo105bo82bo793bobo22b3o8078b$4204b2o105bo652b2o247bo2bo8078b$4205b2o104b3o650bob2o248bo8078b$4875b2o90b2o247bo8078b$4875bob2o88bobo243bobo8079b$4877b2o85bo3b2o8325b$4875b2o91bo8326b$4330bo542b2o266b3o78b3o8070b$4329bobo808bo2bo78bo2bo8069b$4290bo38bobo541bobo85bobo56bo122bo78bo8072b$4260bo28bobo38bo543bo86b2o55bobo122bo72bo5bo8072b$4260bobo26bobo670bo56b2o119bobo40bo17bo13b3o5bobo8069b$4238bo21b2o28bo891b3o15b3o12bob2o8076b$4238bobo940b2obo14b2obo13b3o8076b$4238b2o941b3o15b3o14b2o8077b$5181b3o16b2o8093b$4361bo820b2o8111b$4360bobo8932b$4360bobo8932b$4361bo8933b$4390bo8904b$4389bobo8903b$4389bobo807b3o8093b$4390bo569bo186bo50bo2bo8093b$4959bobo184b3o52bo8093b$4959bobo184bob2o51bo8093b$4960bo186b3o42b3o3bobo8094b$5147b2o43bo2bo8099b$5192bo8102b$5192bo7b3o8092b$4325bo867bobo4bo2bo8091b$4324bobo873bo8094b$4285bo38bobo873bo8094b$4284bobo38bo875bobo20b3o8068b$4284bobo937bo2bo8067b$4285bo938bo8070b$5095bo128bo8070b$4883bo212b2o127bobo8067b$4884bo210b2o8198b$4356bo525b3o8410b$4355bobo616bobo174b3o78b3o8060b$4355bobo617b2o174bo2bo76bo2bo8060b$4356bo618bo175bo82bo8060b$4180bo107bo96bo765bo74bo7bo8060b$4180bobo103b2o96bobo765bobo38bo17bo13b3o3bobo8061b$4180b2o105b2o95bobo805b3o15b3o11b2obo8067b$4385bo569bo236bob2o14bob2o10b3o8068b$4954bobo236b3o15b3o11b2o8068b$4954bobo236b3o15b2o8082b$4850bo104bo237b2o8100b$4848b2o8445b$4849b2o86bo8357b$4936bo96bobo8259b$4235bobo82bo615b3o95b2o8259b$4235b2o82bobo712bo8260b$4213bobo20bo43bo38bobo887b3o8083b$4213b2o64bobo38bo836bo51bo2bo8082b$4214bo64bobo874b3o50bo8085b$4280bo874b2obo50bo8085b$5155b3o44b3o5bobo8082b$5156b2o43bo2bo8090b$5204bo8090b$4351bo852bo5b3o8082b$4350bobo848bobo5bo2bo8082b$4350bobo859bo8082b$4351bo860bo8082b$4380bo828bobo22b3o8058b$4379bobo851bo2bo8058b$4379bobo854bo8058b$4380bo855bo8058b$5233bobo8059b$13295b$4947b2o8346b$4945bo215b3o78b3o8050b$4945b3o212bo2bo78bo2bo8049b$4947b2o214bo78bo8052b$4315bo847bo72bo5bo8052b$4314bobo843bobo40bo17bo13b3o5bobo8049b$4314bobo632b2o251b3o15b3o12bob2o8056b$4315bo633b2o160bo89b2obo14b2obo13b3o8056b$4897bo211bobo89b3o15b3o14b2o8057b$4898b2o210b2o89b3o16b2o8073b$4897b2o91bo211b2o8091b$4940bobo48bo8303b$4940b2o47b3o8303b$4346bo594bo8353b$4155bobo187bobo8947b$4155b2o188bobo8947b$4156bo189bo872b3o8073b$4375bo450b2o107b2o230bo50bo2bo8073b$4374bobo449bob2o105bobo228b3o52bo8073b$4374bobo451b2o107b2o227bob2o51bo8073b$4375bo452b2o83b2o21bo230b3o42b3o3bobo8074b$4825b2o86b2o19bobo230b2o43bo2bo8079b$4915bo17b2o114bo162bo8082b$4211bo616b2o83b2o18b3o114bo161bo7b3o8072b$4210bo702b2o133b3o162bobo4bo2bo8071b$4189bo20b3o1007bo8074b$4188bo726b2o303bo8074b$4188b3o119bo604b2o304bobo20b3o8048b$4309bobo932bo2bo8047b$4309bobo932bo8050b$4310bo933bo8050b$4814b3o428bobo8047b$4814bob3o86bobo14bo8372b$4905b2o14b3o8371b$4817bobo86bo13b5o246b3o78b3o8040b$4817bobo100b2ob3o245bo2bo76bo2bo8040b$4341bo476b2o101b2ob2o245bo82bo8040b$4340bobo580bo247bo74bo7bo8040b$4340bobo829bobo38bo17bo13b3o3bobo8041b$4341bo469bo400b3o15b3o11b2obo8047b$4370bo440bobo398bob2o14bob2o10b3o8048b$4369bobo439b2o400b3o15b3o11b2o8048b$4369bobo585bobo253b3o15b2o8062b$4370bo536bo50b2o253b2o8080b$4906bobo49bo8336b$4906bobo8386b$4907bo8387b$13295b$13295b$4135bo1093b3o8063b$4134b3o168bo818bobo50bo51bo2bo8062b$4133bo2b2o166bobo635bo182b2o49b3o50bo8065b$4137bo166bobo636b2o180bo49b2obo50bo8065b$4137b2o166bo636b2o60bo170b3o44b3o5bobo8062b$4139bo865b2o169b2o43bo2bo8070b$4136b4o864b2o218bo8070b$4136b2o1086bo5b3o8062b$5221bobo5bo2bo8062b$5232bo8062b$4336bo895bo8062b$4335bobo501bo389bobo22b3o8038b$4335bobo502bo412bo2bo8038b$4336bo501b3o415bo8038b$4365bo890bo8038b$4364bobo886bobo8039b$4364bobo696bo8231b$4124bo62bo177bo536bo161b2o8229b$4124bobo58b2o714bobo159b2o116b3o78b3o8030b$4124b2o39bo20b2o713bobo276bo2bo78bo2bo8029b$4163b2o737bo280bo78bo8032b$4164b2o660bo356bo72bo5bo8032b$4824bobo353bobo40bo17bo13b3o5bobo8029b$4825b2o76bo318b3o15b3o12bob2o8036b$4300bo601bo318b2obo14b2obo13b3o8036b$4299bobo579bo20b3o316b3o15b3o14b2o8037b$4299bobo578bo340b3o16b2o8053b$4300bo579b3o339b2o8071b$4153bo9141b$4153b2o9140b$4152bo2bo9139b$4153bobo9139b$4152bo2bo9139b$4152bo2bo175bo454bobo450b3o8053b$4152bobo175bobo453b2o399bo50bo2bo8053b$4153b3o174bobo454bo185bo212b3o52bo8053b$4331bo642bo211bob2o51bo8053b$4360bo421b3o187b3o212b3o42b3o3bobo8054b$4359bobo419bo2bo402b2o43bo2bo8059b$4359bobo419b2o2bo446bo8062b$4360bo423b2o111bo334bo7b3o8052b$4896bobo334bobo4bo2bo8051b$4781bo114bobo341bo8054b$4779b2o116bo242bo99bo8054b$4780b2o359bo99bobo20b3o8028b$4958bo180b3o122bo2bo8027b$4956bobo305bo8030b$4295bo661b2o61bo243bo8030b$4151bo142bobo721bobo244bobo8027b$4150bobo141bobo722b2o8274b$4150bobo142bo567b3o8429b$4151bo14bo695bo2bo325b3o78b3o8020b$4165b3o694bo3bo324bo2bo76bo2bo8020b$4164b2o2bo692b2obobo324bo82bo8020b$4853bo7b2ob2o325bo74bo7bo8020b$4168b2o684b2o6b3o327bobo38bo17bo13b3o3bobo8021b$4168b2o156bo526b2o377b3o15b3o11b2obo8027b$4167bo2bo154bobo904bob2o14bob2o10b3o8028b$4166b3o156bobo905b3o15b3o11b2o8028b$4326bo752bo153b3o15b2o8042b$4099bobo58bobo192bo507b2obo210bobo153b2o8060b$4099b2o60b2o191bobo506bobobo210b2o8215b$4100bo60bo192bobo509bo8428b$4355bo536bo8402b$4839bobo49bobo8401b$4840b2o49bobo8401b$4840bo26bo12bo11bo356b3o8043b$4865bobo12bo316bo51bo2bo8042b$4866b2o6b2o320b3o50bo8045b$4155bo718bob2o317b2obo50bo8045b$4154bo135bo586b2o316b3o44b3o5bobo8042b$4133bo12bo7b3o132bobo585bobo316b2o43bo2bo8050b$4132bo12bobo141bobo582bo3b2o364bo8050b$4132b3o10bobo142bo499bo87bo365bo5b3o8042b$4146bo644b2o448bobo5bo2bo8042b$4790b2o460bo8042b$4871bobo378bo8042b$4871b2o376bobo22b3o8018b$4849bobo20bo114bo285bo2bo8018b$4321bo437bo89b2o137b2o286bo8018b$4320bobo435b3o89bo136b2o287bo8018b$4320bobo434b2o2bo511bobo8019b$4321bo436b5o8532b$4350bo407b2o2bo94bo8437b$4349bobo407bo2bo93bobo342b3o78b3o8010b$4349bobo407bobo94bobo341bo2bo78bo2bo8009b$4350bo506bo29bo266bo48bo78bo8012b$4886bobo266b2o46bo72bo5bo8012b$4886bobo82bobo180b2o44bobo40bo17bo13b3o5bobo8009b$4887bo84b2o268b3o15b3o12bob2o8016b$4972bo60bobo205b2obo14b2obo13b3o8016b$5034b2o205b3o15b3o14b2o8017b$5034bo206b3o16b2o8033b$4285bo956b2o8051b$4141bo142bobo462bo8545b$4140bobo141bobo461bo8546b$4140bobo142bo462b3o8544b$4141bo9153b$13295b$5259b3o8033b$5207bo50bo2bo8033b$5206b3o52bo8033b$4075bo240bo775bobo111bob2o51bo8033b$4074bo240bobo775b2o112b3o42b3o3bobo8034b$4074b3o238bobo775bo113b2o43bo2bo8039b$4316bo935bo8042b$4345bo906bo7b3o8032b$4344bobo906bobo4bo2bo8031b$4344bobo503b2o408bo8034b$4345bo504b2o30bo377bo8034b$4881bobo377bobo20b3o8008b$4881bobo400bo2bo8007b$4131bo750bo401bo8010b$4129b2o1153bo8010b$4109bo20b2o1153bobo8007b$4107b2o9186b$4108b2o170bo525bo8488b$4136bo142bobo522bobo404b3o78b3o8000b$4135bobo141bobo523b2o40bo363bo2bo76bo2bo8000b$4135bobo142bo565bo364bo82bo8000b$4136bo687bo21b3o362bo74bo7bo8000b$4824b2o177bo208bobo38bo17bo13b3o3bobo8001b$4824b3o174bobo248b3o15b3o11b2obo8007b$4824b2o176b2o248bob2o14bob2o10b3o8008b$4824b2o427b3o15b3o11b2o8008b$4311bo460bo52bo427b3o15b2o8022b$4310bobo460bo52bobo424b2o8040b$4310bobo458b3o53bo8467b$4311bo8983b$4340bo829bo8124b$4339bobo476bo168bo180bobo8124b$4339bobo476bobo24b2o141bo180b2o8124b$4340bo477b2o25b2o30bo108b3o60bo219b3o8023b$4876bobo171bo166bo51bo2bo8022b$4833bo42bobo169b3o165b3o50bo8025b$4832b3o42bo337b2obo50bo8025b$4832b3o380b3o44b3o5bobo8022b$4725bo147b3o340b2o43bo2bo8030b$4723b2o107b4o36bo2bo388bo8030b$4275bo448b2o105b5o36b2o2bo387bo5b3o8022b$4131bo142bobo554b2obo40b2o384bobo5bo2bo8022b$4130bobo141bobo995bo8022b$4130bobo142bo596bo399bo8022b$4131bo700b2o36b2o397bobo22b3o7998b$4805bo25bo39b2o235bo184bo2bo7998b$4051bo753bo303bo186bo7998b$4049b2o753bobo23bobo2bo271b3o186bo7998b$4050b2o778bob3obo456bobo7999b$4306bo499b2o21b3ob2obo8458b$4305bobo522bobo8462b$4305bobo498b2o22b3o388b3o78b3o7990b$4306bo524bo388bo2bo78bo2bo7989b$4335bo887bo78bo7992b$4334bobo886bo72bo5bo7992b$4334bobo503b2o378bobo40bo17bo13b3o5bobo7989b$4105bo229bo467b2o35b2o420b3o15b3o12bob2o7996b$4105bobo695b3o455b2obo14b2obo13b3o7996b$4083bo21b2o700bo453b3o15b3o14b2o7997b$4083bobo719b2o454b3o16b2o8013b$4083b2o734bobo440b2o8031b$4820b2o8473b$4795b3o4bobo15bo8474b$4270bo523bo2bo4bobo8490b$4126bo142bobo526bo4bo8491b$4125bobo141bobo522b2o220bobo8276b$4125bobo142bo523b2o3bo217b2o260b3o8013b$4126bo672bo217bo209bo50bo2bo8013b$4797bo428b3o52bo8013b$4786bo8b3o19b2o407bob2o51bo8013b$4787b2o6b2o20bobo407b3o42b3o3bobo8014b$4786b2o7bo15bo7b2o406b2o43bo2bo8019b$4301bo494b2o14bo4bobo452bo8022b$4300bobo493bobo11b3o4bo365bobo86bo7b3o8012b$4300bobo492bo3bo17bo2bo60bo119bo182b2o87bobo4bo2bo8011b$4301bo494b2o84b2o118b2o180bo95bo8014b$4330bo488b2o60b2o118b2o60bo216bo8014b$4329bobo732b2o215bobo20b3o7988b$4329bobo503b2o226b2o239bo2bo7987b$4330bo504b2o467bo7990b$5304bo7990b$4699bo100bo6b2o496bobo7987b$4699bobo96bobo8bo8485b$4699b2o98b2o9bo8484b$4807bobo421b3o78b3o7980b$4808bo422bo2bo76bo2bo7980b$4265bo544bobo33bo384bo82bo7980b$4121bo142bobo543bobo33bobo382bo74bo7bo7980b$4120bobo141bobo544bo34b2o274bo109bobo38bo17bo13b3o3bobo7981b$4025bo94bobo142bo857b2o147b3o15b3o11b2obo7987b$4025bobo93bo1000b2o148bob2o14bob2o10b3o7988b$4025b2o775bobo468b3o15b3o11b2o7988b$4802b2o469b3o15b2o8002b$4780bobo20bo25b2o442b2o8020b$4780b2o46bo2bo8463b$4296bo484bo8513b$4295bobo530bobo8464b$4295bobo491bo8505b$4296bo491bobo8504b$4080bobo242bo462bobo498b3o8003b$4080b2o242bobo462bo447bo51bo2bo8002b$4058bobo20bo242bobo909b3o50bo8005b$4058b2o265bo909b2obo50bo8005b$4059bo1175b3o44b3o5bobo8002b$5236b2o43bo2bo8010b$5284bo8010b$5284bo5b3o8002b$5032bo248bobo5bo2bo8002b$5033bo258bo8002b$4260bo770b3o258bo8002b$4116bo142bobo1027bobo22b3o7978b$4115bobo141bobo1051bo2bo7978b$4115bobo142bo1055bo7978b$4116bo1199bo7978b$5313bobo7979b$5199bo8095b$5200bo8094b$4897bo119bo180b3o40b3o78b3o7970b$4291bo603bobo117bobo222bo2bo78bo2bo7969b$4290bobo603b2o118b2o61bo163bo78bo7972b$4290bobo491bo292bobo163bo72bo5bo7972b$4291bo491bobo292b2o160bobo40bo17bo13b3o5bobo7969b$4320bo462bobo496b3o15b3o12bob2o7976b$4319bobo462bo496b2obo14b2obo13b3o7976b$4319bobo352bobo604b3o15b3o14b2o7977b$4320bo353b2o605b3o16b2o7993b$4675bo606b2o8011b$13295b$13295b$4821bobo8471b$4821b2o8472b$4822bo315bo8156b$4000bobo252bo411b3o466bobo160b3o7993b$4000b2o109bo142bobo412bo108bo358b2o108bo50bo2bo7993b$4001bo108bobo141bobo410b3o107bo468b3o52bo7993b$4110bobo142bo500bo20b3o466bob2o51bo7993b$4111bo556bo86bo491b3o42b3o3bobo7994b$4666b3o86b3o489b2o43bo2bo7999b$4664b3o625bo8002b$4665b2o625bo7b3o7992b$5293bobo4bo2bo7991b$4056bo229bo1013bo7994b$4055bo229bobo1012bo7994b$4034bo20b3o227bobo491bo521bobo20b3o7968b$4033bo252bo491bobo543bo2bo7967b$4033b3o279bo462bobo543bo7970b$4314bobo462bo544bo7970b$4314bobo1008bobo7967b$4315bo8979b$13295b$5046bo204b3o78b3o7960b$5047b2o202bo2bo76bo2bo7960b$5046b2o203bo82bo7960b$5251bo74bo7bo7960b$5252bobo38bo17bo13b3o3bobo7961b$4250bo1041b3o15b3o11b2obo7967b$4106bo142bobo1040bob2o14bob2o10b3o7968b$4105bobo141bobo1041b3o15b3o11b2o7968b$4105bobo142bo962bo79b3o15b2o7982b$4106bo1107b2o77b2o8000b$4910bobo117bobo180b2o8080b$4911b2o118b2o8262b$4911bo119bo60bobo8200b$5093b2o8200b$4281bo392bo418bo8201b$4280bobo392b2o632b3o7983b$4280bobo391b2o98bo482bo51bo2bo7982b$4281bo491bobo480b3o50bo7985b$4310bo462bobo479b2obo50bo7985b$4277b3o29bobo462bo480b3o44b3o5bobo7982b$4276bo2bo29bobo944b2o43bo2bo7990b$4276b2o2bo29bo486bo506bo7990b$4279b2o453b3o59bo507bo5b3o7982b$4733bo2bo59b3o502bobo5bo2bo7982b$3976bo299bo456bo4bo412bobo158bo7982b$3975bo298b2o462bo413b2o158bo7982b$3975b3o297b2o366bo94b2o14bo397bo156bobo22b3o7958b$4643bobo89bob2o13b2o579bo2bo7958b$4245bo397b2o91bo16b2o581bo7958b$4101bo142bobo1089bo7958b$4100bobo141bobo1086bobo7959b$4100bobo142bo9049b$4101bo9193b$5261b3o78b3o7950b$4032bo710bobo514bo2bo78bo2bo7949b$4030b2o709bo4bo516bo78bo7952b$4010bo20b2o708bo4bo516bo72bo5bo7952b$4008b2o714b3o18b2o513bobo40bo17bo13b3o5bobo7949b$4009b2o716bo574b3o15b3o12bob2o7956b$4724b3o14b2o2b2o22bo531b2obo14b2obo13b3o7956b$4741b2o2b2o21bobo530b3o15b3o14b2o7957b$4305bo436bob3o21bobo530b3o16b2o7973b$4304bobo420b2o16bo23bo532b2o7991b$4304bobo420b2o15bo317bo8232b$4305bo754bobo8232b$5061b2o8232b$13295b$4720bo8574b$4720bo598b3o7973b$4714b2o17b3o531bo50bo2bo7973b$4714bob2o15b3o530b3o52bo7973b$4240bo476b2o14bo2bo492bo36bob2o51bo7973b$4096bo142bobo475bobo14b3o189bo119bo180bobo37b3o42b3o3bobo7974b$4095bobo141bobo472bo3b2o14b2o191bo119bo180b2o37b2o43bo2bo7979b$4095bobo142bo477bo206b3o117b3o60bo203bo7982b$4096bo188bo823bo202bo7b3o7972b$4286b2o819b3o203bobo4bo2bo7971b$4285b2o403bo20bobo606bo7974b$4688bobo20b2o607bo7974b$4689b2o21bo608bobo20b3o7948b$5344bo2bo7947b$5344bo7950b$4764bo579bo7950b$4706b2o55bobo579bobo7947b$4300bo405bobo16bo37bobo7bo8521b$4299bobo406b2o14b3o37bo6b2o8522b$4299bobo405bo16bo2bo44b2o393bo103b3o78b3o7940b$3952bo297bo49bo404bobo18b2o440bo102bo2bo76bo2bo7940b$3950b2o298bobo365b2o84b2o20bo439b3o102bo82bo7940b$3951b2o297b2o365bo2bo83b3o16b2o546bo74bo7bo7940b$4617bo2bo102b4o545bobo38bo17bo13b3o3bobo7941b$4617bo106bo2bo584b3o15b3o11b2obo7947b$4620bo104bo586bob2o14bob2o10b3o7948b$4618b3o103bo588b3o15b3o11b2o7948b$4235bo384b2o101b2o588b3o15b2o7962b$4091bo142bobo384bo100bo5bo584b2o7980b$4090bobo141bobo485b2o3b2o8566b$4006bo83bobo142bo487b2o8570b$4006bobo82bo521bo8681b$3984bo21b2o603b2o8682b$3984bobo625b2o8681b$3984b2o730bo612b3o7963b$4715b3o559bo51bo2bo7962b$4714bo2b2o557b3o50bo7965b$4714b3o558b2obo50bo7965b$4759bo515b3o44b3o5bobo7962b$4758bobo314bobo198b2o43bo2bo7970b$4758bobo315b2o246bo7970b$4290b2o3b2o417bo44bo316bo247bo5b3o7962b$4289bo2bo2b2o420bo603bobo5bo2bo7962b$4289bo2bo421bo3bo613bo7962b$4290b2o396bo26b2ob2o612bo7962b$4687b3o639bobo22b3o7938b$4686b2o2bo662bo2bo7938b$4686bo3bo551bobo111bo7938b$4686bob2o250bo119bo182b2o111bo7938b$4686b2o26b2o2b2o221b2o118b2o180bo109bobo7939b$4230bo483bo2b2o221b2o118b2o60bo8172b$4086bo142bobo485bo405b2o8170b$4085bobo141bobo481b2o407b2o157b3o78b3o7930b$4085bobo142bo472bobo574bo2bo78bo2bo7929b$4086bo600b2o2bo12b2o577bo78bo7932b$4687bobobo12bo578bo72bo5bo7932b$4690bo589bobo40bo17bo13b3o5bobo7929b$5322b3o15b3o12bob2o7936b$5321b2obo14b2obo13b3o7936b$5321b3o15b3o14b2o7937b$4689bobo11bo43bo573b3o16b2o7953b$4679bo10b2o12b2o41bobo4bo567b2o7971b$4628bo49b3o9bo7b2o47b2o4bobo425bo8113b$3926bo298bobo401b2o46bo2b2o16bo54bobo426b2o8111b$3926bobo296b2o58b2o3b2o336b2o47b4o19b3o51bo426b2o8112b$3926b2o298bo57bo2bo2b2o388bobo14bo5bo8591b$4284bo2bo392bo2bo14bo4bo8591b$4285b2o393b3o16bo2bo636b3o7953b$4679bobo19bo585bo50bo2bo7953b$4679bobo14bo589b3o52bo7953b$4679b3o13bo590bob2o51bo7953b$4695b3o589b3o42b3o3bobo7954b$5287b2o43bo2bo7959b$3981bobo241bo1106bo7962b$3981b2o98bo142bobo360bo744bo7b3o7952b$3959bobo20bo97bobo141bobo360bobo743bobo4bo2bo7951b$3959b2o119bobo142bo361b2o101b2o648bo7954b$3960bo120bo608bobo647bo7954b$4669b2o21bo648bobo20b3o7928b$4669bob2o17bobo671bo2bo7927b$4671b2o16bo674bo7930b$4671b2o16bobo399bo272bo7930b$4668b2o19bo402bo272bobo7927b$4688bo401b3o8202b$4671b2o76bo8545b$4748bobo540b3o78b3o7920b$4748bobo540bo2bo76bo2bo7920b$4280b2o3b2o462bo541bo82bo7920b$4279bo2bo2b2o1004bo74bo7bo7920b$4279bo2bo394b3o578bo33bobo38bo17bo13b3o3bobo7921b$4280b2o378bo19bo578bo72b3o15b3o11b2obo7927b$4660b2o15bo2bo275bo119bo180b3o72bob2o14bob2o10b3o7928b$4660b3o15b2o274bobo117bobo256b3o15b3o11b2o7928b$4660b2o16b2o275b2o118b2o61bo194b3o15b2o7942b$4660b2o15bo2bo455bobo194b2o7960b$4661bo15bo41bo417b2o8156b$4220bo441bobo14b2o39bo8574b$4076bo142bobo441bo54b3o8574b$4075bobo141bobo9073b$4075bobo142bo9074b$4076bo577bo694b3o7943b$4654bobo640bo51bo2bo7942b$4654b2o640b3o50bo7945b$4722bobo570b2obo50bo7945b$4669bo52b2o571b3o44b3o5bobo7942b$4201bo442bo23b3o52bo473bo98b2o43bo2bo7950b$3901bobo296bo441bobo23b3o524bobo146bo7950b$3901b2o297b3o440b2o99bo451b2o146bo5b3o7942b$3902bo765b4o71bobo595bobo5bo2bo7942b$4667b5o71bobo606bo7942b$4197bo77b2o3b2o385b2obo73bo607bo7942b$4196b3o75bo2bo2b2o1067bobo22b3o7918b$4195b2o2bo74bo2bo1095bo2bo7918b$4199bo75b2o391b2o706bo7918b$4198bo468bo708bo7918b$3957bo236bo1178bobo7919b$3956bo237bobo469bobo2bo8623b$3935bo20b3o235b2o366bobo101bob3obo8622b$3934bo627b2o101b3ob2obo628b3o78b3o7910b$3934b3o278bo347bo102bobo631bo2bo78bo2bo7909b$4071bo142bobo449b3o634bo78bo7912b$4070bobo141bobo450bo635bo72bo5bo7912b$4070bobo142bo1084bobo40bo17bo13b3o5bobo7909b$4071bo635bo634b3o15b3o12bob2o7916b$4706b3o396bo235b2obo14b2obo13b3o7916b$4208bobo495bob2o396b2o233b3o15b3o14b2o7917b$4206bo4bo424b3o66b2o398b2o234b3o16b2o7933b$4206bo4bo424bo2bo65b2o30bo604b2o7951b$4210b2o423bo3bo65b2o29b3o8556b$4635b4o70bo25b2o2bo8555b$4206b2o2b2o424bo71b2o25bo8559b$4206b2o2b2o494bobo26b3o8557b$4207bob3o493bo2bo26b2obo533bo8022b$4210bo59b2o3b2o429bobo27bob2o533b2o84b3o7933b$4209bo59bo2bo2b2o429b3o27b2o231bobo117bobo180b2o33bo50bo2bo7933b$4269bo2bo363b2ob2o65b2obo27bob2o229b2o118b2o214b3o52bo7933b$4270b2o364bob3o65bo2bo26b2ob2o229bo119bo60bobo152bob2o51bo7933b$4547bo159bo28b2ob2o411b2o153b3o42b3o3bobo7934b$4546b3o184bo4bo413bo154b2o43bo2bo7939b$4546bob2o184b2o616bo7942b$4545b2o92bo93b2o617bo7b3o7932b$4063b3o479b2o93bo9b2obo699bobo4bo2bo7931b$4063bo2bo478b2o91b3o7bo4bo706bo7934b$4062bo3bo482bo77b3o17bo5bo56bo649bo7934b$4062b2o484b2o76bo2bo17bo63b2o648bobo20b3o7908b$4063bobo140bo339bobo77b2obo16b2ob2obo57b2o672bo2bo7907b$4064b2o2bo136bobo337bo2bo81b2o14b2obo2bo731bo7910b$4064bo2bo137bobo338bobo81b2o16b4o732bo7910b$3876bo187bo141bo339b3o80bo2bo16b3o5bobo65bo484bobo172bobo7907b$3876b2o185b2ob2o478b2obo78bo29b2o64bo486b2o8082b$3876b3o185bobo479bo2bo78b3o15bo11bo65b3o484bo8083b$3876b2o187bo481bo81bo14b2o665b3o78b3o7900b$3876b2o767b2o664bo2bo76bo2bo7900b$3877bo1433bo82bo7900b$3878bobo1430bo74bo7bo7900b$3879bo811bo620bobo38bo17bo13b3o3bobo7901b$4265b2o3b2o419bobo658b3o15b3o11b2obo7907b$4264bo2bo2b2o278bo88b2o50b2o659bob2o14bob2o10b3o7908b$3870bo62bo235bobo44bobo45bo2bo283b2o86b2o712b3o15b3o11b2o7908b$3870bobo58b2o236b2o46b2o46b2o283b2o66b2o21bo711b3o15b2o7922b$3870b2o39bo20b2o236bo46bo400bobo18b3o711b2o7940b$3909b2o142bo566b2o16bobo86b2o8566b$3910b2o139b2o565bobo18b2o85bobo8566b$4052b2o564bo19bo88bo8567b$4618bo2bo16bo8656b$4636bo8658b$4620b2o747b3o7923b$5121bo195bo51bo2bo7922b$4201bo917bobo194b3o50bo7925b$4187bo12bobo328bo588b2o193b2obo50bo7925b$4186bo13bobo328bobo93bo687b3o44b3o5bobo7922b$4186b3o12bo329b2o75b2o16b3o687b2o43bo2bo7930b$4610bo15b4o734bo7930b$4611bo752bo5b3o7922b$4608bobo750bobo5bo2bo7922b$4609bo16b4o658bo83bo7922b$4611bobo12b4o355bo119bo180bobo83bo7922b$4611bobo14bo357bo119bo180b2o80bobo22b3o7898b$4612bo371b3o117b3o60bo225bo2bo7898b$3895bo364b2o3b2o451b2o448bo227bo7898b$3894b3o362bo2bo2b2o450bobo446b3o227bo7898b$3894bo2bo361bo2bo340bobo113bo673bobo7899b$3896b2o362b2o341b2o128bo8561b$3896bo707bo128b2o8560b$3893b2o837bobo586b3o78b3o7890b$3893b4o702b3o718bo2bo78bo2bo7889b$3894bo2bo700bo2bo15b3o127b3o573bo78bo7892b$3895bo702b2o2bo13bo3bo128bo573bo72bo5bo7892b$3894bo706b2o145bo571bobo40bo17bo13b3o5bobo7889b$3887bo5b2o726bo140b2o598b3o15b3o12bob2o7896b$3885bobo4bo5bo699bo17b5o52bo89b2o461bo134b2obo14b2obo13b3o7896b$3886b2o4b2o3b2o297bo399b2o19bo56bo26bo60bo464bo133b3o15b3o14b2o7897b$3893b2o183bo116bobo399b2o73b3o24b2o76b2o446b3o133b3o16b2o7913b$4079b2o114bobo502b2o74bobo583b2o7931b$4078b2o116bo420b2o159bo8516b$4617b2o173bo8502b$4617bo174b2o8501b$4192b3o421b2o173bobo8501b$4192bo2bo391bobo24b2obob3o44bobo8626b$4192bo2bo389bo4bo29b2o44b2o138b3o570b3o7913b$3907b2o236bo45b4o37bo333bo18bo4bo23bo2bo49bo140bo518bo50bo2bo7913b$3845bobo50bobo5bo2bo234bo46b2o40bo330bobo22b2o24b3o189bo518b3o52bo7913b$3845b2o52b2o4b3o236b3o43bo40b3o21b2o3b2o303b2o42bo211b2o503bob2o51bo7913b$3846bo52bo291bo62bo2bo2b2o323b2o2b2o17b3o211b2o503b3o42b3o3bobo7914b$3907bobo117bo163bo62bo2bo327b2o2b2o16bo2b2o209bo505b2o43bo2bo7919b$4027bobo225b2o329bob3o16bo3bo224b2o534bo7922b$3910bo116b2o560bo19bobo43bobo177bobo534bo7b3o7912b$3909b2o677bo66bo2bo178bo535bobo4bo2bo7911b$4606b2ob2o43bo3b2o25b3o163bo528bo7914b$4608bo45bo29bo3bo162b2o527bo7914b$3901bo948bobo281bobo244bobo20b3o7888b$3900bo753bo2b3o29bo445b2o267bo2bo7887b$3879bo20b3o260bo342bobo145b2o28b5o176b3o267bo268bo7890b$3878bo282b2o343b2o69b3o28b4o44b3o26bo181bo536bo7890b$3832b3o43b3o281b2o13b3o327bo69b3o28bobobo43b3o207bo538bobo7887b$3832b3o342b3o397bo2bo30bo268b2o8413b$3832bo2bo52bo242bo45bo2bo397b3o104b2o194b2o8412b$3833b3o51bobo240b3o45b3o397b2o105b2o193bo450b3o78b3o7880b$3833b2o52bobo240b3o45b2o505bo209b2o404bobo27bo2bo76bo2bo7880b$3888bo711bo11bo71b2o208bobo102bo119bo182b2o27bo82bo7880b$4130b4o465b3o10bo69b2obob3o206bo103b2o118b2o180bo28bo74bo7bo7880b$4129b5o464b2o2bo8bo76b2o220bo88b2o118b2o60bo150bobo38bo17bo13b3o3bobo7881b$4129b2obo465bo83bo2bo224b2o270b2o188b3o15b3o11b2obo7887b$4598b3o82b3o223bobo269b2o189bob2o14bob2o10b3o7888b$4598b2obo771b3o15b3o11b2o7888b$4130b2o118b2o3b2o342bob2o321b3o446b3o15b2o7902b$4129bo119bo2bo2b2o342b2o325bo446b2o7920b$4249bo2bo347bob2o321bo8369b$4128bobo2bo116b2o347b2ob2o77b2o256b2o8354b$4128bob3obo464b2ob2o76bobo257b2o8353b$4127b3ob2obo466bo79bo257bo8355b$4128bobo464bobo356b2o8339b$4128b3o68bobo394b2o355bobo433b3o7903b$4129bo70b2o394bo358bo284bo96bo51bo2bo7902b$4146bo53bo768bo271b2o93b3o50bo7905b$4094bo50b3o821b2o269b2o93b2obo50bo7905b$4092bobo49b2o2bo442bo376bobo364b3o44b3o5bobo7902b$4093b2o49b2ob2o417bo23b3o743b2o43bo2bo7910b$4147b3o415b3o22bob2o70bo318b3o398bo7910b$3883bo261bob2o415b2o2bo22bo2bo70b2o318bo398bo5b3o7902b$3882bobo259bo2bo436bo7b2o70b2o318bo396bobo5bo2bo7902b$3839bo42bobo252bo9bo36bo400b2o5bo405b2o392bo7902b$3840b2o41bo251bobo6bobo38b2o397b2o413b2o391bo7902b$3839b2o295b2o7bo38b2o60bo317b2o13bobo87bo328bo390bobo22b3o7878b$4247b2o316b3o12b2o86bo744bo2bo7878b$4146b3o97b2o320bo11bo87b3o745bo7878b$4145bob2o417b3o847bo7878b$4002bobo141b2obo416b2o845bobo7879b$4002b2o241b2o3b2o9043b$4003bo240bo2bo2b2o9043b$4244bo2bo318bobo12bo53bo705b3o78b3o7870b$4245b2o320b2o12bobo51bobo38b2o662bo2bo78bo2bo7869b$4567bo13b2o52b2o38bobo472bo192bo78bo7872b$3814bo40b2o20bo235bobo32bobo6bo420bo97bo474bo191bo72bo5bo7872b$3814bobo38b2o18b2o236b2o34b2o5bob2o322bo74bo19b3o569b3o188bobo40bo17bo13b3o5bobo7869b$3814b2o41bo18b2o236bo34bo8b2o321bo74b3o17bo2b2o801b3o15b3o12bob2o7876b$3855b2o300b3o321b3o71bo2b2o16b3obo800b2obo14b2obo13b3o7876b$3855b2o702bo19b2o800b3o15b3o14b2o7877b$4161b2o396b2o820b3o16b2o7893b$3857b2o301b3o398bo13bo806b2o7911b$3857b2o699b4o12bo742bo7977b$4558b2o14b3o741bo7976b$3878bo274bo981bo180b3o7976b$3877bobo272bo980bobo8159b$3877bobo251bo20b3o517b2o460b2o61bo8097b$3847bobo14bo13bo251bo540bobo521bobo201b3o7893b$3847b2o14b3o264b3o540bo522b2o149bo50bo2bo7893b$3848bo13b5o820bo658b3o52bo7893b$3862b2ob3o696bo2b2o118b2o657bob2o51bo7893b$3863b2ob2o271bo407bo20b2o116bobo658b3o42b3o3bobo7894b$3865bo272bobo406b2o18b2o778b2o43bo2bo7899b$4138bobo97b2o309bo151b3o688bo7902b$4139bo97bo2bo306b2o14b2o2b2o134bo688bo7b3o7892b$4238b2o307bo21bo132bo690bobo4bo2bo7891b$4215bo347b4o149b2o682bo7894b$4216bo332b2o14bo2bo148b2o681bo7894b$3849bo364b3o332b2o165bo539bo144bobo20b3o7868b$3848bobo880b2o521bobo167bo2bo7867b$3848bobo256bobo620bobo522b2o167bo7870b$3849bo258b2o622bo691bo7870b$4108bo637bo678bobo7867b$4556bo189b2o8547b$4536b3o16bobo187bobo8547b$4536bob3o13bo3bo792b3o78b3o7860b$4200bo354bo2bo201b3o588bo2bo76bo2bo7860b$3873bo324bobo338bobo13bo2bo36bo166bo588bo82bo7860b$3872bobo324b2o338bobo14bobo37bo48bo115bo589bo74bo7bo7860b$3872bobo665b2o52b3o46b2o130b2o575bobo38bo17bo13b3o3bobo7861b$3873bo770b2o130b2o614b3o15b3o11b2obo7867b$3978bo796bo616bob2o14bob2o10b3o7868b$3977bo555bo256b2o601b3o15b3o11b2o7868b$3977b3o553bobo253bobo601b3o15b2o7882b$4134bo398b2o256bo601b2o7900b$4133bobo474bobo192bo8489b$4133bobo97b2o375b2o193b2o8488b$4089bo44bo97bo2bo375bo192bobo357bo8130b$3789bobo296bo144b2o930b2o8128b$3789b2o297b3o367bo87b3o270b3o342b2o8129b$3790bo665b2o88bobo272bo587b3o7883b$3844bo612b2o87bo2bo270bo536bo51bo2bo7882b$3843bobo239bo367b3o91b3o284b2o520b3o50bo7885b$3843bobo238b3o366bo2bo90b3o285b2o518b2obo50bo7885b$3844bo238b2o2bo364bo3bo88bo2bo285bo520b3o44b3o5bobo7882b$4087bo364b3o2bo90bo300b2o480bo24b2o43bo2bo7890b$4086bo366b4o88bo302bobo481b2o70bo7890b$3845bo236bo46bo416b2o302bo297bobo180b2o71bo5b3o7882b$3844bo237bobo42b2o416b3o316bo284b2o250bobo5bo2bo7882b$3823bo20b3o235b2o23bo20b2o320bobo92b2o317b2o283bo60bobo199bo7882b$3822bo45bo236b2o343b2o92bobo2b2o312bobo345b2o199bo7882b$3822b3o42bobo236b2o343bo92bobo2b2o660bo197bobo22b3o7858b$3867bobo674b3o331b3o552bo2bo7858b$3868bo1011bo555bo7858b$4879bo556bo7858b$4893b2o538bobo7859b$4224b3o667b2o8399b$4096bobo30bo95b2o666bo8401b$4094bo4bo28bobo777b2o451b3o78b3o7850b$4094bo4bo28bobo94b3o2b2o675bobo450bo2bo78bo2bo7849b$4098b2o29bo95b2ob2o679bo453bo78bo7852b$4227bo695bo345bobo91bo72bo5bo7852b$4094b2o2b2o23bo799b2o345b2o88bobo40bo17bo13b3o5bobo7849b$4094b2o2b2o24bo797bobo345bo131b3o15b3o12bob2o7856b$3839bo255bob3o22b3o1276b2obo14b2obo13b3o7856b$3838bobo257bo838b3o461b3o15b3o14b2o7857b$3838bobo256bo841bo461b3o16b2o7873b$3839bo226b3o869bo463b2o7891b$4066bo2bo882b2o8341b$4068b2o143bobo737b2o8340b$4214b2o393bo342bo8342b$4064bo2bo146bo395b2o5bo349b2o8326b$4065b2o542b2o5bob2o346bobo8326b$3863bo204b2o460bobo56bo28b2o348bo450b3o7873b$3862bobo89bo112b3o151b3o306b2o56b3o26b3o362bo384bo50bo2bo7873b$3862bobo87b2o114bo439bobo20bo56bob2o390b2o382b3o52bo7873b$3863bo89b2o110b2ob2o149bo5bo282b2o79bo2bo28b2o358bobo382bob2o51bo7873b$4065b2ob2o24bo124bo5bo283bo80b2o28b3o744b3o42b3o3bobo7874b$4065bo3bo23bobo13bo109bo5bo364bo405b3o368b2o43bo2bo7879b$4065bo3bo23bobo12b3o887bo413bo7882b$3765bo300bo27bo12b2o2bo12bo96b3o237bobo149bo383bo182bo231bo7b3o7872b$3764bo342bo15bobo336b2o148bo398b2o165bobo232bobo4bo2bo7871b$3764b3o340b3o13bobo336bo149b3o397b2o165b2o239bo7874b$4107b2obo13bo886bo408bo7874b$4108bob2o914b2o393bobo20b3o7848b$4108b2o915bobo416bo2bo7847b$4109bob2o914bo416bo7850b$3834bo236bo36b2ob2o466bo461bo402bo7850b$3833bobo236bo35b2ob2o466bobo459b2o304bo97bobo7847b$3833bobo234b3o37bo468b2o459bobo121bo180bobo7947b$3821bo12bo269bobo1058bo180b2o7947b$3819b2o284b2o319bo628b3o105b3o60bo144b3o78b3o7840b$3799bo20b2o283bo319bo631bo169bo143bo2bo76bo2bo7840b$3797b2o626b3o628bo168b3o143bo82bo7840b$3798b2o1270b2o299bo74bo7bo7840b$4212b2o857b2o299bobo38bo17bo13b3o3bobo7841b$3858bo353b2o856bo341b3o15b3o11b2obo7847b$3857bobo1225b2o325bob2o14bob2o10b3o7848b$3857bobo1224bobo326b3o15b3o11b2o7848b$3858bo193bo44bo511b2o475bo326b3o15b2o7862b$4050b2o37bo6bo511bobo489bo312b2o7880b$4051b2o22bo12bobo5b3o510bo490b2o8193b$3748b3o323bo13bobo1008bobo8193b$3747bo2bo323b3o12bo29bo1165bo8009b$3751bo366bobo993b3o169bo8008b$3747b2o369bobo16bo978bo167b3o8008b$3747b2o3bo366bo18b2o975bo313b3o7863b$3752bo384b2o990b2o246bo51bo2bo7862b$3750bo1379b2o244b3o50bo7865b$3748b3o1378bo245b2obo50bo7865b$3748b2o79bo1314b2o229b3o44b3o5bobo7862b$3748bo79bobo1312bobo230b2o43bo2bo7870b$3749b2o77bobo1314bo278bo7870b$3749bobo77bo1329bo264bo5b3o7862b$3748bo3bo284b3o1119b2o260bobo5bo2bo7862b$3749b2o287bo467bo651bobo271bo7862b$4038b3o464bo926bo7862b$3928bo555bo20b3o665b3o253bobo22b3o7838b$3928bobo276b2o274bo118bo572bo277bo2bo7838b$3853bo74b2o277b2o274b3o114bobo571bo281bo7838b$3852bobo746b2o585b2o266bo7838b$3753bo98bobo1334b2o262bobo7839b$3751bobo99bo623bo126b2o582bo8106b$3752b2o724bo110bo13bobo587bobo7b2o8090b$4036bobo40b2o3b2o390b3o108b2o15bo589b2o6bobo176b3o78b3o7830b$4036bobo39bo2bo2b2o502b2o604bo9bo175bo2bo78bo2bo7829b$4078bo2bo32bo494bo608bo164bo78bo7832b$4039bo39b2o32bobo493b2o607b2o163bo72bo5bo7832b$4113bobo492bobo606bobo160bobo40bo17bo13b3o5bobo7829b$4114bo1307b3o15b3o12bob2o7836b$4554bobo66b3o606b3o186b2obo14b2obo13b3o7836b$4035bobo516b2o69bo608bo125bobo58b3o15b3o14b2o7837b$4036bo365b2o151bo68bo553bo54bo127b2o58b3o16b2o7853b$3733bobo59bo28bo577b2o234b2o539b2o66b2o112bo60b2o7871b$3733b2o60bobo25bobo578bo234b2o537b2o60bo7b2o8045b$3734bo39bo20b2o26bobo576b2o234bo602b2o4bo8047b$3775b2o47bo577b2o249b2o585b2o20b2o8031b$3769b2o881bobo606bobo8031b$3769bo634b2o248bo608bo8031b$3771b3o630b2o262bo608bo161b3o7853b$3768bo5bo268bobo622b2o607b2o108bo50bo2bo7853b$3769bo4bo269b2o6b3o147b2o463bobo606bobo107b3o52bo7853b$3770bo2bo74bo195bo7bo2bo17bo128b2o1182bob2o51bo7853b$3772bo74bobo206bo14b2o609b3o606b3o93b3o42b3o3bobo7854b$3767bo79bobo203b3o16b2o320bobo287bo608bo93b2o43bo2bo7859b$3766bo81bo545b2o287bo608bo139bo7862b$3766b3o626bo301b2o600bo6b2o124bo7b3o7852b$4074b2o3b2o617b2o600b2o5b2o124bobo4bo2bo7851b$4073bo2bo2b2o72bo543bo601b2o5bo133bo7854b$4073bo2bo32bo41bobo558b2o607b2o117bo7854b$4074b2o32bobo41b2o557bobo606bobo118bobo20b3o7828b$4020bo40bo46bobo602bo608bo141bo2bo7827b$4019bo41b2o46bo617bo608bo127bo7830b$3779b3o237b3o38bo2bo663b2o607b2o126bo7830b$3779bo2bo260bobo15bobo662bobo606bobo127bobo7827b$3781b2o260b2o15bo2bo9231b$3819bo224bo15bo2bo677b3o606b3o7942b$3777bo2bo37bobo239bobo680bo608bo38b3o78b3o7820b$3778b2o38bobo240b3o418bo259bo608bo39bo2bo76bo2bo7820b$3765bo15b2o36bo660b2o274b2o607b2o24bo82bo7820b$3764bobo13b3o120bobo554bo20b2o274b2o607b2o23bo74bo7bo7820b$3764bobo14bo121b2o553b2o296bo608bo26bobo38bo17bo13b3o3bobo7821b$3765bo12b2ob2o121bo131b3o420b2o310b2o659b3o15b3o11b2obo7827b$3778b2ob2o255bo731bobo659bob2o14bob2o10b3o7828b$3778bo3bo253b3o158b2o573bo660b3o15b3o11b2o7828b$3778bo3bo60bo353b2o292bo294bo422bo223b3o15b2o7842b$3779bo62bobo192bo454b2o69bo222b2o422bo160bo61b2o7860b$3842bobo190b3o453b2o70bobo219bobo420b3o159bobo7922b$3843bo189b3o527b2o804bo2bo7922b$4034b2o764b3o567b2o7923b$4069b2o3b2o726bo8492b$4068bo2bo2b2o725bo573b3o7917b$4068bo2bo32bo425bo284b2o632b3o7843b$4069b2o32bobo423bo286b2o579bo51bo2bo7842b$4103bobo423b3o283bo580b3o50bo7845b$3707bo2bo393bo308bobo29b3o382b2o362bo200b2obo50bo7845b$3707bob2o703b2o30bo382bobo360bobo200b3o44b3o5bobo7842b$3709b2o703bo31b3o382bo361b2o61bo139b2o43bo2bo7850b$4845bo408bobo187bo7850b$3814bo1030b2o408b2o187bo5b3o7842b$3711b2o100bobo1028bobo594bobo5bo2bo7842b$3711b2o100bobo231bo1404bo7842b$3760bo53bo231b3o10bo799b3o590bo7842b$3759bobo283bo2b2o10bo800bo587bobo22b3o7818b$3759bobo282b5o9b3o799bo612bo2bo7818b$3702bo57bo4bo278b5o395bobo427b2o600bo7818b$3702bobo58b2o282bo322bo73bobo428b2o599bo7818b$3702b2o39bo20b2o281bobo142b2o175bo504bo598bobo7819b$3741b2o95bo208b2obo141b2o175b3o75bo441b2o8404b$3742b2o93bobo208bobo837bobo424bo50bo7928b$3837bobo209b3o838bo422bobo49bobo33b3o78b3o7810b$3838bo210bobo114bobo735bo409b2o48bo2bo32bo2bo78bo2bo7809b$4047b4o116b2o274bobo458b2o459b2o36bo78bo7812b$4047b3o14b2o3b2o96bo276bo458bobo465bo31bo72bo5bo7812b$3996bo46bo4bo14bo2bo2b2o1300bo28bobo40bo17bo13b3o5bobo7809b$3690b3o301b2o48b2o17bo2bo32bo360bo457b3o450bo70b3o15b3o12bob2o7816b$3693bo301b2o46b2o19b2o32bobo358b3o458bo520b2obo14b2obo13b3o7816b$3690bo2bo404bobo357b2o2bo456bo521b3o15b3o14b2o7817b$3691b2o406bo359b5o469b2o506b3o16b2o7833b$3691b2o766b2o2bo470b2o506b2o7851b$3690bo2bo766bo2bo469bo8361b$3690bo760bobo6bobo485b2o8345b$3692b2o115bo20b3o46bo572b2o493bobo8345b$3808bobo18bo2bo45bo573bo496bo8345b$3727b3o78bobo22bo44b3o153bo928bo8331b$3726bo3bo24bo53bo19b2o203bobo926b2o494b3o7833b$3754bobo72b2o3bo177bo21b2o926bobo442bo50bo2bo7833b$3731bo22bobo77bo177bobo1391b3o52bo7833b$3726b5o24bo76bo179b2o493bo469b3o243bo182bob2o51bo7833b$3727bo102b3o672bobo30bobo438bo244b2o181b3o42b3o3bobo7834b$3830b2o355b2o261bo55b2o30b2o438bo244b2o182b2o43bo2bo7839b$3830bo356b2o260bo89bo452b2o458bo7842b$3727b2o102b2o595bo20b3o541b2o366bo90bo7b3o7832b$3727b2o102bobo593bo564bo367bobo90bobo4bo2bo7831b$3727bo102bo3bo592b3o577b2o350bo2bo97bo7834b$3726b2o103b2o224bo448bo499bobo351b2o98bo7834b$3721bo2b2obob3o324bobo445b2o502bo452bobo20b3o7808b$3719bobo8b2o324bobo370bo75b2o515bo342b3o116bo2bo7807b$3720b2o2bo2bo329bo36bo335bo591b2o183bobo274bo7810b$3725b3o365bobo332b3o590bobo184b2o274bo7810b$4093bobo1112bo60bobo213bobo7807b$3835bo258bo941b3o231b2o8023b$3833bobo1202bo231bo8024b$3834b2o1201bo373b3o78b3o7800b$5051b2o358bo2bo76bo2bo7800b$3699bo104bo1247b2o357bo82bo7800b$3700bo39bo62bobo1245bo359bo74bo7bo7800b$3698b3o39b2o61bobo1260b2o344bobo38bo17bo13b3o3bobo7801b$3732bobo7bo7bo53bo1260bobo384b3o15b3o11b2obo7807b$3733b2o5b2o7bobo594bo720bo384bob2o14bob2o10b3o7808b$3733bo6bo8bobo592b2o145b3o587bo371b3o15b3o11b2o7808b$3750bo46bo547b2o145bo588b2o370b3o15b2o7822b$3742b2o51b6o691b3o27bo557bobo245bobo122b2o7840b$3742b2o51b2o2b2o14bobo703b3o805b2o7964b$3815b2o703bo2b2o570b3o231bo7965b$3799bo16bo703bo3bo572bo258bo7938b$3795b2o2bo722bobo571bo258bobo7937b$3672bo60bo61b2o3bo169bo1139b2o242bo2bo7937b$3670b2o60bo66bo170bobo79bo466b2ob2o587b2o242b2o112b3o7823b$3671b2o38bo20b3o62bobo170b2o79bobo467bo588bo250bo55bo51bo2bo7822b$3710bo87bo252bobo436bobo632b2o234bo54b3o50bo7825b$3710b3o339bo36bo383bo16bobo631bobo234bo53b2obo50bo7825b$3721bo366bobo383bo651bo288b3o44b3o5bobo7822b$3720bobo365bobo376bo4b3o18bo27b4o615bo275b2o43bo2bo7830b$3665b2o53bobo366bo378bo52bobobo614b2o322bo7830b$3665b2o54bo133bo610b3o55bo614bobo322bo5b3o7822b$3667bo185b2o1606bobo5bo2bo7822b$3665b3o186b2o102b3o48bobo477bobo662b3o315bo7822b$3664bobo294bo47b2o479bo26b2o637bo315bo7822b$3665b2o291bo2bo25bobo20bo505bobo636bo313bobo22b3o7798b$3664bo294b2o26b2o527bo652b2o322bo2bo7798b$3664bo80bo213b2o27bo528bo652b2o67bo256bo7798b$3662bo81bobo211bo2bo1207bo67bobo256bo7798b$3744bobo211bo467bo757b2o52b2o253bobo7799b$3745bo214b2o462b2o757bobo8109b$4404bo20b2o758bo8109b$4402b2o93bobo699bo221b3o78b3o7790b$3783b3o617b2o93b2o699b2o219bo2bo78bo2bo7789b$3782bo2bo712bo699bobo150bo71bo78bo7792b$3782bo3bo1563bobo70bo72bo5bo7792b$3781b2obobo656bo769b3o7bo125bo2bo67bobo40bo17bo13b3o5bobo7789b$3781b2ob2o261bo396b2o61bo707bo8bo125b2o110b3o15b3o12bob2o7796b$3782b3o261bobo394b2o62bobo704bo7b3o60bo175b2obo14b2obo13b3o7796b$3806bo239bobo458b2o719b2o56bo68b3o103b3o15b3o14b2o7797b$3807bo40bobo122b3o71bo36bo1144b2o53b3o174b3o16b2o7813b$3805b3o41b2o232bobo1142bo233b2o7831b$3711b2o3b2o131bo123bobo107bobo1157b2o8050b$3710bo2bo2b2o65b2obo189bo107bo389bo767bobo8050b$3710bo2bo69bobobo184bo3bo496bo770bo8050b$3711b2o73bo686b3o782bo8036b$3972bo2b2o344bo88b3o845b2o8035b$4321b2o86bo3bo98b2o743bobo219b3o7813b$4323bo64b3o120bobo913bo50bo2bo7813b$3787bo185bo347b2o64bo3bo22bo97bo759b3o151b3o52bo7813b$3740bo33b3o8bobo185bo347bo87b5o860bo69bo81bob2o51bo7813b$3739bobo32bo2bo8b2o3bo180bo419bo17bo862bo71bo81b3o42b3o3bobo7814b$3739bobo31bo3bo12bo182bob2o346b2o62b5o895b2o54b3o81b2o43bo2bo7819b$3740bo32b2o15b3o174bo9bo345b2o63bo899b2o182bo7822b$3671bobo100bobo191bobo4bo434b2o875bo184bo7b3o7812b$3672b2o101b2o2bo186b3o441b2o1061bobo4bo2bo7811b$3672bo36bo65bo2bo192bobo414b2o20bo1069bo7814b$3707b2o66bo195b3o340bo73b2o19b2o935bo133bo7814b$3688bo19b2o64b2ob2o534bo74bo18b2obob3o930bobo133bobo20b3o7788b$3688bo86bobo535b3o71b2o24b2o929bo2bo156bo2bo7787b$3682b2o92bo265bo342b2obob3o14bo2bo76bo857b2o157bo7790b$3682bob2o355bobo347b2o15b3o77b2o861bo152bo7790b$3685b2o354bobo341bo2bo92bo5b2o862bo153bobo7787b$3685bobo298b2o54bo36bo306b3o93b2o21b3o843bo7943b$3682bo3b2o141bo156bobo89bobo400b2o24bo8787b$3640bo45bo19b2o3b2o116bobo108bo38bo8bo89bobo425bo924b3o78b3o7780b$3639bo65bo2bo2b2o116b2o107b2o40b2o4bobo90bo440b2o909bo2bo76bo2bo7780b$3637b2ob2o63bo2bo230b2o38b2o5b2o533b2o908bo82bo7780b$3636b5o38bobo24b2o279b2o531bo910bo74bo7bo7780b$3635b2o2bo39b2o307b2o545b2o895bobo38bo17bo13b3o3bobo7781b$3635bob4o39bo83bo223b2o425bobo116bobo715bobo217b3o15b3o11b2obo7787b$3635bo4bo121b2o652b2o118bo716b2o217bob2o14bob2o10b3o7788b$3635bo2b2o123b2o628bobo20bo133bo702bo219b3o15b3o11b2o7788b$3637b2o96bo658b2o154b2o921b3o15b2o7802b$3734bobo657bo154bobo921b2o7820b$3633bo59bo40bobo241bo9316b$3633bobo56b3o40bo242bobo583b3o8728b$3633b2o57bo2bo260bo21b2o586bo8728b$3694b2o260bobo606bo8729b$3694bo261b2o9bo491bo119b2o656bo8057b$3691b2o88b3o182bobo488bobo22bobo95b2o656b2o249b3o7803b$3691b4o271bobo425bo63b2o22b2o95bo657b2o198bo51bo2bo7802b$3692bo2bo124bo43bo102bo425bo89bo110b2o840b3o50bo7805b$3665b3o25bo127b2o42bo171bo334bo20b3o197bobo839b2obo50bo7805b$3692bo127b2o41b3o170bobo332bo223bo839b3o44b3o5bobo7802b$3665bobo23b2o343bobo332b3o235bo735b3o88b2o43bo2bo7810b$3668bo21bo5bo340bo36bo375bo158b2o873bo7810b$3664bo3bo21b2o3b2o376bobo372b2o158bobo873bo5b3o7802b$3691b2o8b2o3b2o365bobo257bo115b2o1030bobo5bo2bo7802b$3664bo2b2o31bo2bo2b2o366bo259bo288b3o866bo7802b$3700bo2bo628b3o290bo866bo7802b$3701b2o921bo864bobo22b3o7778b$3665bo972b2o873bo2bo7778b$3665bo255bo521b2o24b3o167b2o875bo7778b$3664bo255b3o369b3o148b2o24b3o166bo877bo7778b$3665bob2o250b2o2bo367bo2bo150bo23bo2bo180b2o858bobo7779b$3669bo17bo42bo560bo4bo146b3o24b3o179bobo8640b$3662bo4bo20bo40bobo564bo145bobo25b2o182bo8640b$3686b3o40bobo564b2o145b2o223bo772b3o78b3o7770b$3663bobo64bo188b2o372bob2o145bo225b2o770bo2bo78bo2bo7769b$3663b3o254b3o371bo147bo224bobo773bo78bo7772b$3789bo133bo516bo1002bo72bo5bo7772b$3656bo120bo12b2o129b3o38bo719b3o755bobo40bo17bo13b3o5bobo7769b$3655b3o119bo11b2o130b2o38bobo539bo180bo797b3o15b3o12bob2o7776b$3654b2o2bo118bo183bobo537bobo179bo797b2obo14b2obo13b3o7776b$3654bo3bo303bo534bo4b2o193b2o782b3o15b3o14b2o7777b$3646bo7bob2o20b2o241bobo108bo462bobo200b2o781b3o16b2o7793b$3644bobo7b2o22bobo123bobo115b2o107bobo462b2o199bo643bo140b2o7811b$3645b2o24bo8bo123b2o116bo108bobo678b2o627bo7953b$3672b2o4bobo124bo226bo36bo641bobo627bo7953b$3671b2o5b2o388bobo211bobo428bo8581b$3679b2o15b2o3b2o365bobo211b2o443bo8567b$3655b2o2bo20b2o13bo2bo2b2o232b3o131bo213bo147bo295b2o539bo8026b$3655bobobo20b2o13bo2bo39bo196bo2bo493bo293bobo540bo229b3o7793b$3658bo37b2o40bobo194bo2bo470bo20b3o834b3o177bo50bo2bo7793b$3738b2o670bo54b2o274b3o702b3o52bo7793b$3938b2o468b3o53bobo276bo702bob2o51bo7793b$3908bo28bo2bo524bo276bo704b3o42b3o3bobo7794b$3608bobo46bobo11bo235bo29bo2bo12bobo800b2o689b2o43bo2bo7799b$3608b2o48b2o12b2o51bo181b3o27bo15b2o802b2o733bo7802b$3609bo48bo7b2o56bobo227bo801bo735bo7b3o7792b$3666bo57bobo1044b2o720bobo4bo2bo7791b$3668b3o54bo1044bobo480bo246bo7794b$3665bo5bo1100bo478bobo246bo7794b$3666bo4bo230b2o466bo415bo465b2o247bobo20b3o7768b$3667bo2bo165bo41bo23bobo52bo410b2o416b2o736bo2bo7767b$3669bo101b3o60bobo42b2o23bo41b3o7bobo389bo20b2o414bobo736bo7770b$3664bo170b2o41b2o22bobo43bo7bobo387b2o101bobo1072bo7770b$3663bo237bo44b3o8bo389b2o101b2o348b3o722bobo7767b$3642bo20b3o235bobo22bo100bo422bo351bo8492b$3641bo259bo22b2o21bo78bobo772bo8493b$3641b3o256bo24b2o18b3o78bobo318bo467b2o518b3o113b3o78b3o7760b$3943b3o81bo36bo283b2o101bo364b2o633bo2bo76bo2bo7760b$3689bo254b2o117bobo281b2o102bobo361bo635bo82bo7760b$3688bobo372bobo385b2o377b2o619bo74bo7bo7760b$3649bo38bobo373bo764bobo620bobo38bo17bo13b3o3bobo7761b$3648bobo38bo1141bo660b3o15b3o11b2obo7767b$3648bobo1194bo646bob2o14bob2o10b3o7768b$3649bo279bo488bo41b2o383b2o646b3o15b3o11b2o7768b$3928bobo486bo41bobo382bobo646b3o15b2o7782b$3928bobo486b3o40bo1032b2o7800b$3929bo375bobo551b3o8433b$3720bo585b2o553bo8433b$3719bobo584bo553bo8434b$3719bobo83bo1068b2o8419b$3720bo82bobo1069b2o8418b$3804b2o710bobo355bo634b3o7783b$4517b2o370b2o566bo51bo2bo7782b$3767bo184bo557bobo4bo370bobo565b3o50bo7785b$3767bo12bo170bobo557b2o377bo564b2obo50bo7785b$3767bo11bo171bobo503b3o51bo392bo550b3o44b3o5bobo7782b$3779b3o170bo506bo444b2o550b2o43bo2bo7790b$4022bo235bo199bo444bobo598bo7790b$4021bobo233bo214b2o857bo172bo5b3o7782b$4021bobo233b3o213b2o443b3o410bo169bobo5bo2bo7782b$4022bo36bo385bo26bo447bo361bo48bo180bo7782b$3684bo28bobo229bo112bobo385b2o39b2o430bo363b2o227bo7782b$3683bobo27b2o229b3o111bobo362bo21b2o39bobo444b2o347b2o225bobo22b3o7758b$3644bo38bobo28bo195bo32b5o111bo364b2o62bo445b2o597bo2bo7758b$3643bobo38bo223bobo32b2ob3o474b2o77bo430bo602bo7758b$3584bo58bobo263b2o33b2ob2o553b2o444b2o586bo7758b$3583bo60bo279bo21bo554bobo443bobo583bobo7759b$3583b3o337bobo1023bo8345b$3923bobo590b3o444bo8331b$3924bo593bo444b2o496b3o78b3o7750b$3715bo801bo444bobo301bobo191bo2bo78bo2bo7749b$3714bobo1550b2o194bo78bo7752b$3714bobo627bo632b3o287bo195bo72bo5bo7752b$3715bo133bobo492bobo632bo480bobo40bo17bo13b3o5bobo7749b$3850b2o470bo21b2o632bo523b3o15b3o12bob2o7756b$3640bo209bo71bo399bobo667b2o507b2obo14b2obo13b3o7756b$3638b2o282bobo397b2o669b2o506b3o15b3o14b2o7757b$3618bo20b2o120b3o136bo21b2o1068bo508b3o16b2o7773b$3616b2o282bobo1104b2o493b2o7791b$3617b2o281b2o461bo642bobo8286b$4017bo343bobo62bobo579bo8286b$4016bobo343b2o62b2o594bo8272b$4016bobo408bo594b2o301b3o7967b$4017bo36bo966bobo8271b$3679bo373bobo1463b3o7773b$3678bobo372bobo980b3o428bo50bo2bo7773b$3639bo38bobo27bo345bo339bo643bo427b3o52bo7773b$3638bobo38bo27b3o682b2o643bo428bob2o51bo7773b$3638bobo65b2o2bo610bo71b2o656b2o414b3o42b3o3bobo7774b$3639bo66bo3bo177bo30bo402bo201b2o526b2o413b2o43bo2bo7779b$3706bob2o177bobo28bobo30bobo366b3o201b2o525bo460bo7782b$3706b2o178bo3bo27bobo31b2o1112b2o444bo7b3o7772b$3818bobo66bo2bo28bo32bo1112bobo445bobo4bo2bo7771b$3819b2o66bo2bo1176bo452bo7774b$3819bo68bobo1190bo438bo7774b$3906b3o1172b2o438bobo20b3o7748b$3707b2o2bo194bo2bo1170bobo461bo2bo7747b$3707bobobo43b3o150b2o1634bo7750b$3710bo1384b3o446bo7750b$3904bo2bo1189bo447bobo7747b$3905b2o327bo861bo8198b$3908b2o16bo305b2o876b2o8183b$3709bobo195b3o15bo307b2o876b2o358b3o78b3o7740b$3689bo20b2o196bo16b3o84bo448bo648bo187bo172bo2bo76bo2bo7740b$3688bo21bo194b2ob2o101bobo445bobo663b2o169bobo22bo149bo82bo7740b$3688b3o214b2ob2o101bobo425bo20b2o662bobo170b2o22bo149bo74bo7bo7740b$3905bo3bo13bobo86bo36bo387bobo686bo194bo150bobo38bo17bo13b3o3bobo7741b$3674bo230bo3bo14b2o122bobo387b2o700bo371b3o15b3o11b2obo7747b$3560bo112bobo230bo17bo123bobo1089b2o370bob2o14bob2o10b3o7748b$3558b2o74bo38bobo261b2o110bo1089bobo371b3o15b3o11b2o7748b$3559b2o72bobo38bo263b2o67b3o1503b3o15b2o7762b$3633bobo301bo71bo1144b3o356b2o7780b$3634bo372b3o509b2o635bo125bo8012b$3694bo218b3o603b2o634bo127bo8011b$3693bo218bob2o92bo1160b2o110b3o8011b$3693b3o169bo44bo95b3o310bobo848b2o8123b$3866bo46bo90b3o312b2o848bo8125b$3864b3o28bo15b2o39b2o51b2o290bobo20bo863b2o343b3o7763b$3614bo281bo54bo345b2o884bobo291bo51bo2bo7762b$3614bobo134bo142b3o55b2o344bo886bo290b3o50bo7765b$3592bo21b2o135bo1447bo275b2obo50bo7765b$3592bobo156bo1447b2o274b3o44b3o5bobo7762b$3592b2o782bobo23bo795bobo275b2o43bo2bo7770b$4377b2o22bo1122bo7770b$4377bo23b3o809b3o308bo5b3o7762b$5215bo305bobo5bo2bo7762b$3957b2o1255bo317bo7762b$3892bo64b2o1269b2o302bo7762b$3890b2o1337b2o84b3o211bobo22b3o7738b$3870bo20b2o151bo323bo859bo324bo2bo7738b$3669bo198b2o173bobo322bobo872b2o311bo7738b$3668bobo198b2o172bobo289bo32b2o872bobo311bo7738b$3629bo38bobo373bo291b2o906bo308bobo7739b$3628bobo38bo665b2o921bo8036b$3628bobo203bo1423b2o8035b$3629bo205bo678b2o741bobo221b3o78b3o7730b$3833b3o526bo26bo124b2o964bo2bo78bo2bo7729b$4362b2o24b3o881b3o208bo78bo7732b$4364bo26bo882bo208bo72bo5bo7732b$3990bo371b2o25b2o882bo206bobo40bo17bo13b3o5bobo7729b$3989b3o369bobo26bo896b2o233b3o15b3o12bob2o7736b$3857bo130b2o2bo369bo925b2o231b2obo14b2obo13b3o7736b$3856b3o155bo345bobo924bo233b3o15b3o14b2o7737b$3745b3o107b5o155b2o191bo149bo943b2o217b3o16b2o7753b$3725bo129b2ob3o153b2o192bobo147bobo940bobo218b2o7771b$3538bo187bo129b2ob2o127b2o218b2o1093bo7991b$3537b3o125bo58b3o131bo130b3o482bobo834bobo7981b$3536b2o2bo122b2o327bo482b2o835b2o7981b$3537b5o122b2o324b3o459bobo20bo836bo7982b$3537b2o2bo448b2o461b2o8840b$3538bo2bo911bo855bo229b3o7753b$3538bobo1766b3o177bo50bo2bo7753b$3990bobo46bo1265b5o176b3o52bo7753b$3664bo326b2o45bobo1264bo7bo172bob2o51bo7753b$3663bobo325bo46bobo346bo918bo5b3o172b3o42b3o3bobo7754b$3624bo38bobo373bo347bo908bo13bo4bo171b2o43bo2bo7759b$3623bobo38bo5bo1626b2o11bo2b2o217bo7762b$3623bobo42b2o625bo1000b2o12bo2b2o217bo7b3o7752b$3624bo44b2o208bo414bo89b2o123b2o799b3o220bobo4bo2bo7751b$3880b2o391bo20b3o86bobo123b2o799b3o227bo7754b$3528bo350b2o28bo362bo111bo1155bo7754b$3527bo61bobo318b2o360b3o1266bobo20b3o7728b$3527b3o59b2o318b2o1653bo2bo7727b$3567bobo20bo386bo1586bo7730b$3567b2o407bo1587bo7730b$3568bo172bo234b3o1586bobo7727b$3741bo9553b$3741bo9553b$3865bo1625b3o78b3o7720b$3865bo503bo1121bo2bo76bo2bo7720b$3863bo167b3o336bo938b2o180bo82bo7720b$3863b2o3bo161bo2bo334b3o938b2o180bo74bo7bo7720b$3863b2o2bo79b2o81b2obo1458bobo38bo17bo13b3o3bobo7721b$3556bo308b2o80b2o1583b3o15b3o11b2obo7727b$3555b3o793bo1180bob2o14bob2o10b3o7728b$3555b4o422bo367bobo18bobo1160b3o15b3o11b2o7728b$3659bo184b2o136b2o46b2o318b2o18b2o1161b3o15b2o7742b$3658bobo183b2o135b2o47b4o337bo1161b2o7760b$3555b4o60bo38bobo370bo2bo9260b$3555b4o59bobo38bo372bobo9260b$3557bo60bobo411bobo9260b$3619bo718bo40b2o123b2o8789b$4336b2o40bobo123b2o8789b$4034bo302b2o20bobo17bo1169b3o7743b$4031bo2bo298b3o23bo2bo1134bo51bo2bo7742b$4030b5o298bo2bo21bo3b2o1132b3o50bo7745b$4028bo2bo151bobo146bo3bo21bo1136b2obo50bo7745b$3736b2o123bo2bo164b2o152b2o147b3o2bo1157b3o44b3o5bobo7742b$3735bobo122b2o322bo148b4o21bo2b3o126bo1005b2o43bo2bo7750b$3639bo95b2o123bo497b2o131bo1052bo7750b$3639bobo223bo494b3o105bo20b3o1052bo5b3o7742b$3639b2o221bo467bobo27b3o106bo1071bobo5bo2bo7742b$3554bo307b2o466b2o135b3o1082bo7742b$3553bobo775bo44b2o1174bo7742b$3553bobo450bo370b2o1170bobo22b3o7718b$3554bo452bo10bobo355bo1196bo2bo7718b$3569bo435b3o10b2o371b2o1183bo7718b$3568b3o448bo370bobo1183bo7718b$3567bo2b2o820bo1180bobo7719b$3571bo72bo9bo184b2o565bo8888b$3571b2o71bobo6bobo183b2o430bo134b2o8887b$3573bo40bo29b2o7bobo239bo373b2o134bobo1093b3o78b3o7710b$3570b4o39bobo38bo238bobo353bo20b2o1228bo2bo78bo2bo7709b$3504bo58bo6b2o41bobo278b2o29bo321b2o171b3o1080bo78bo7712b$3502b2o60b2o48bo308bobo322b2o172bo76b2o1002bo72bo5bo7712b$3503b2o58b2o359b2o495bo77b2o999bobo40bo17bo13b3o5bobo7709b$3953bo481b2o1105b3o15b3o12bob2o7716b$3951b2o483b2o1103b2obo14b2obo13b3o7716b$3952b2o401b2o78bo1105b3o15b3o14b2o7717b$4354bobo93b2o1089b3o16b2o7733b$3731b2o622bo93bobo1090b2o7751b$3730bobo718bo8843b$3730b2o733bo8829b$3558bo906b2o8828b$3558bobo903bobo8828b$3536bo12bo8b2o9735b$3536bobo9bobo2008b3o7733b$3536b2o10bobo455b2o1499bo50bo2bo7733b$3549bo387b2o67b3o1497b3o52bo7733b$3937b2o65bobo2bo1496bob2o51bo7733b$4005b2o2b2o462bo1033b3o42b3o3bobo7734b$4005bobob3o461bo1033b2o43bo2bo7739b$3649bo184b2o171bo2bo330bobo129bo1078bo7742b$3648bobo183b2o172b2o332b2o1208bo7b3o7732b$3609bo38bobo691bo126b3o3b3o1075bobo4bo2bo7731b$3608bobo15b3o20bo843b2o1065bo7734b$3608bobo15bo2bo843bo19b2o1065bo7734b$3609bo15bo3bo709bo133bo1087bobo20b3o7708b$3625b4o530bo179bobo131bo1110bo2bo7707b$3626bo531bo180b2o1243bo7710b$4158b3o1423bo7710b$4350b2o1233bobo7707b$3614bobo732bobo8943b$3614b2o110b2o578bo43bo8944b$3615bo10b2ob2o94bobo577bo1205b3o78b3o7700b$3626bob3o94b2o578b3o1203bo2bo76bo2bo7700b$5511bo82bo7700b$5511bo74bo7bo7700b$3544bo1967bobo38bo17bo13b3o3bobo7701b$3543bobo83bo1922b3o15b3o11b2obo7707b$3543bobo84bo1921bob2o14bob2o10b3o7708b$3544bo83b3o359b2o357b3o1201b3o15b3o11b2o7708b$3990b2o359bo1201b3o15b2o7722b$3642bo602bo104bo1202b2o7740b$3641b3o264bobo334bobo116b2o101b3o8825b$3640bo2b2o184b2o78b2o312bo21b2o118b2o8928b$3478bo161b4o185b2o78bo313bobo138bo100bo5bo8823b$3478bobo123bo38bobo577b2o154b2o84bo5bo8823b$3478b2o123bobo37bo2bo731bobo84bo5bo16b2o8805b$3603bobo37b3o734bo107b2o1079b3o7723b$3604bo37bobo749bo72b3o1047bo51bo2bo7722b$3614bo27bobo749b2o1120b3o50bo7725b$3612b2o28b3o748bobo1119b2obo50bo7725b$3613b2o1900b3o44b3o5bobo7722b$4408b3o1105b2o43bo2bo7730b$4211b3o196bo1153bo7730b$3533bobo185b2o491bo194bo1154bo5b3o7722b$3533b2o185bobo488bo2bo208b2o1136bobo5bo2bo7722b$3511bobo20bo185b2o490b2o210b2o1146bo7722b$3511b2o699b2o209bo1148bo7722b$3512bo698bo2bo223b2o1129bobo22b3o7698b$3539bo671bo225bobo1153bo2bo7698b$3538bobo672b2o224bo1156bo7698b$3538bobo89bo352bo2bo466bo1142bo7698b$3539bo90bobo354bo465b2o1138bobo7699b$3630b2o351bo3bo464bobo8840b$3984b4o9307b$5521b3o78b3o7690b$3824b2o1694bo2bo78bo2bo7689b$3824b2o1697bo78bo7692b$4314bobo147bo1058bo72bo5bo7692b$3635bo499bo178b2o147bobo17b2o1035bobo40bo17bo13b3o5bobo7689b$3634bobo496b2o180bo147bobo17b2o1077b3o15b3o12bob2o7696b$3634bobo497b2o328bo1096b2obo14b2obo13b3o7696b$3635bo1925b3o15b3o14b2o7697b$5561b3o16b2o7713b$4282bo1279b2o7731b$4280b2o9013b$4224b3o54b2o9012b$3716b2o506bo2bo9067b$3715bobo506bo2bo9067b$3715b2o9578b$4227b2o1350b3o7713b$4226bo2bo1297bo50bo2bo7713b$3456b3o75bo691bo2bo1296b3o52bo7713b$3456bo2bo73bobo684bo5bo1299bob2o51bo7713b$3456bo2bo73bobo388bo296bo1305b3o42b3o3bobo7714b$3457bo2bo73bo390bo54b2o237b3o1305b2o43bo2bo7719b$3457b3o463b3o54b2o1590bo7722b$3458b2o2112bo7b3o7712b$5573bobo4bo2bo7711b$3819b2o1759bo7714b$3819b2o1759bo7714b$4459bo1121bobo20b3o7688b$3588bo41bo26bo800bobo17b2o1124bo2bo7687b$3588bobo38bobo23bobo557bo242bobo17b2o1124bo7690b$3588b2o39bobo24b2o555b2o244bo1144bo7690b$3630bo562bo20b2o1389bobo7687b$3448bo60bo681b2o9102b$3446b2o60bo683b2o9101b$3447b2o38bo20b3o2020b3o78b3o7680b$3486bo2044bo2bo76bo2bo7680b$3486b3o222b2o1818bo82bo7680b$3710bobo1818bo74bo7bo7680b$3710b2o1820bobo38bo17bo13b3o3bobo7681b$5572b3o15b3o11b2obo7687b$3605bobo573bo1390bob2o14bob2o10b3o7688b$3529bo75b2o574b2o1390b3o15b3o11b2o7688b$3528bobo75bo573bo2bo1389b3o15b2o7702b$3528bobo650bobo1389b2o7720b$3529bo523b4o123bo2bo9111b$3623bo428bo3bo123bo2bo9111b$3622b3o431bo123bobo107bo9004b$3621bo2b2o426bo2bo125b3o105bo9005b$3621b3o190b2o293bo179b3o9003b$3814b2o293bobo1477b3o7703b$4109b2o343bo1082bo51bo2bo7702b$4453bobo17b2o1061b3o50bo7705b$3621bo831bobo17b2o1060b2obo50bo7705b$3624bo631bo197bo1080b3o44b3o5bobo7702b$3621bo3bo630bobo1277b2o43bo2bo7710b$3622b2ob2o629b2o1326bo7710b$5584bo5b3o7702b$5581bobo5bo2bo7702b$5592bo7702b$3624bo81b2o1884bo7702b$3625b2o78bobo1881bobo22b3o7678b$3624b2o79b2o1906bo2bo7678b$5616bo7678b$3469bo468bo255bo1421bo7678b$3470b2o52bo414b2o252b3o1417bobo7679b$3469b2o52bobo412b2o252b2o2bo9098b$3523bobo9769b$3524bo445b2o224b2o1343b3o78b3o7670b$3611b2o357b2o224b2o1342bo2bo78bo2bo7669b$3611bob2o580bo2bo1344bo78bo7672b$3563b3o47b2o579b3o1346bo72bo5bo7672b$3566bo46b2o55bobo136b2o1729bobo40bo17bo13b3o5bobo7669b$3563b3o44b2o59b2o136b2o377bobo1391b3o15b3o12bob2o7676b$3671bo517b2o258bo1131b2obo14b2obo13b3o7676b$3613b2o574bo258bobo17b2o1111b3o15b3o14b2o7677b$3422bo62bo80b2o880bobo17b2o1111b3o16b2o7693b$3422bobo58b2o81b2o881bo1132b2o7711b$3422b2o39bo20b2o9809b$3461b2o53b3o9776b$3462b2o51bo2bo9776b$3519bo38bo44bo9691b$3515b2o39b2o44bo580bo9111b$3515b2o3bo36b2o43b3o96b2o479bo1416b3o7693b$3520bo179bobo458bo20b3o1362bo50bo2bo7693b$3518bo58b3o120b2o458bo1385b3o52bo7693b$3516b3o58bob3o578b3o1383bob2o51bo7693b$3451bo64b2o2029b3o42b3o3bobo7694b$3451b2o63bo63bobo1964b2o43bo2bo7699b$3450bo2bo63b2o61bobo2009bo7702b$3451bobo63bobo61b2o538bo2bo141bo1325bo7b3o7692b$3450bo2bo62bo3bo604bo138b2o1327bobo4bo2bo7691b$3450bo2bo63b2o565bobo34bo3bo139b2o1333bo7694b$3450bobo121bo509b2o36b4o1474bo7694b$3451b3o120bobo508bo1515bobo20b3o7668b$3574b2o228b2o1818bo2bo7667b$3804b2o1818bo7670b$4231bobo210bo1179bo7670b$3521bo709b2o210bobo17b2o1160bobo7667b$3519bobo710bo210bobo17b2o8830b$3520b2o65b3o854bo8850b$3587bobo1961b3o78b3o7660b$3587bo2bo1960bo2bo76bo2bo7660b$3588b3o49bo1910bo82bo7660b$3588b3o47bobo1910bo74bo7bo7660b$3586bo2bo49b2o1911bobo38bo17bo13b3o3bobo7661b$3589bo106b2o1894b3o15b3o11b2obo7667b$3485bo87bo12bo108bobo256bo1637bob2o14bob2o10b3o7668b$3483bobo86bobo12b2o106b2o255bobo1638b3o15b3o11b2o7668b$3484b2o86bobo11b3o364b2o1638b3o15b2o7682b$3464bo36bobo69bo12b2o2005b2o7700b$3463b3o35b2o82bobo2b2o9703b$3462b2o2bo35bo82bobo2b2o32bo9670b$3585b3o37bo9669b$3466b2o155b3o60bo273b2o9333b$3466b2o219bo272b2o9333b$3465bo2bo216b3o1921b3o7683b$3464b3o2090bo51bo2bo7682b$3799b2o1755b3o50bo7685b$3397bobo58bobo338b2o1754b2obo50bo7685b$3397b2o60b2o978bo1115b3o44b3o5bobo7682b$3398bo60bo978bobo17b2o1096b2o43bo2bo7690b$4438bobo17b2o1144bo7690b$4439bo1164bo5b3o7682b$3532bo2068bobo5bo2bo7682b$3532bobo624bo1452bo7682b$3532b2o623b2o1453bo7682b$4137bo20b2o1449bobo22b3o7658b$3453bo681b2o1496bo2bo7658b$3452bo238b2o443b2o1498bo7658b$3431bo20b3o113bo121bobo1943bo7658b$3430bo136bobo120b2o1941bobo7659b$3430b3o134bobo9725b$3568bo671bo9054b$3571bobo486bo179bobo1318b3o78b3o7650b$3571b2o486bo180b2o1318bo2bo78bo2bo7649b$3549bobo20bo486b3o1501bo78bo7652b$3549b2o640b4o1368bo72bo5bo7652b$3550bo639bo3bo1365bobo40bo17bo13b3o5bobo7649b$4194bo12bo1394b3o15b3o12bob2o7656b$4190bo2bo12bo1394b2obo14b2obo13b3o7656b$3534bobo257b2o410b3o1392b3o15b3o14b2o7657b$3535b2o257b2o1805b3o16b2o7673b$3535bo898bo1167b2o7691b$4433bobo17b2o8840b$4433bobo17b2o8840b$3653bobo778bo8860b$3654b2o9639b$3654bo9640b$5619b3o7673b$3514b3o450bobo1597bo50bo2bo7673b$3514bo2bo450b2o1596b3o52bo7673b$3513bo3bo168b2o280bo1597bob2o51bo7673b$3513b4o46bo121bobo1879b3o42b3o3bobo7674b$3514bo47bobo120b2o1880b2o43bo2bo7679b$3562bobo73bo1973bo7682b$3563bo75b2o1971bo7b3o7672b$3638b2o60bo1912bobo4bo2bo7671b$3701b2o1917bo7674b$3514b2ob2o181b2o1918bo7674b$3514bob3o2102bobo20b3o7648b$3373bo2270bo2bo7647b$3372bo2271bo7650b$3372b3o2269bo7650b$3517bo271b2o1854bobo7647b$3518bo270b2o9504b$3516b3o910bo8865b$4428bobo17b2o1121b3o78b3o7640b$3530bo602bo294bobo17b2o1121bo2bo76bo2bo7640b$3529b3o601bobo293bo1141bo82bo7640b$3528bo2b2o578bo21b2o1436bo74bo7bo7640b$3429bo98b4o579bobo1458bobo38bo17bo13b3o3bobo7641b$3427b2o102bobo577b2o1499b3o15b3o11b2obo7647b$3407bo20b2o101bo2bo2077bob2o14bob2o10b3o7648b$3405b2o124b3o2079b3o15b3o11b2o7648b$3406b2o122bobo148b2o1930b3o15b2o7662b$3499b2o29bobo14bo10bo121bobo532bobo1395b2o7680b$3501bo28b3o13bo10bobo120b2o354bo178b2o9078b$3502bo43b3o8bobo474b2o180bo9078b$3499bobo56bo476b2o9258b$3500bo9794b$3502bobo9790b$3502bobo678bo75bo2bo1366b3o7663b$3503bo37b2o7bo630b2o80bo1313bo51bo2bo7662b$3541bobo7bo630b2o75bo3bo1312b3o50bo7665b$3543bo5b3o708b4o1311b2obo50bo7665b$3494bobo44bobo2031b3o44b3o5bobo7662b$3494b2o44bo243b2o1790b2o43bo2bo7670b$3495bo22bo21bobo126bo114b2o1838bo7670b$3518bobo19bo129bo753bo1199bo5b3o7662b$3518b2o19bo128b3o752bobo17b2o1176bobo5bo2bo7662b$4423bobo17b2o1187bo7662b$4424bo1207bo7662b$5629bobo22b3o7638b$5653bo2bo7638b$5656bo7638b$3523bo2132bo7638b$3522bobo2128bobo7639b$3522bobo129bo21b2o9617b$3523bo29bo98bobo20bobo9617b$3552bobo98b2o20b2o39bo1864b3o78b3o7630b$3552bobo159bobo1863bo2bo78bo2bo7629b$3553bo161b2o1866bo78bo7632b$5583bo72bo5bo7632b$3349bo2230bobo40bo17bo13b3o5bobo7629b$3347b2o2273b3o15b3o12bob2o7636b$3348b2o2271b2obo14b2obo13b3o7636b$5621b3o15b3o14b2o7637b$5621b3o16b2o7653b$5622b2o7671b$3779b2o9514b$3779b2o327bobo9184b$4108b2o309bo8875b$4086bobo20bo308bobo17b2o8855b$3403bo682b2o330bobo17b2o8855b$3403bobo265b2o414bo331bo1219b3o7653b$3381bo21b2o267b2o1913bo50bo2bo7653b$3381bobo125bobo160bo3bo1909b3o52bo7653b$3381b2o127b2o158b2o4bo514bo1394bob2o51bo7653b$3510bo7bo150bobo2bo515bo1396b3o42b3o3bobo7654b$3517bobo148bo6b3o332bo179b3o1394b2o43bo2bo7659b$3517bobo152b2o2bo333bobo1619bo7662b$3518bo29bo123bo2b2o333b2o1620bo7b3o7652b$3547bobo118bobo1962bobo4bo2bo7651b$3547bobo118bo4bo1966bo7654b$3548bo118b2o3b2o483bo1482bo7654b$3471b2o91bo103bo5bo482bobo1481bobo20b3o7628b$3471bobo91b2o102b2o2bo483b2o1505bo2bo7627b$3473bo90b2o107bo1990bo7630b$3471bobo41bobo811b4o1331bo7630b$3471b2o42b2o811bo3bo1332bobo7627b$3472b2o19bobo20bo815bo8962b$3473b2o18b2o833bo2bo8963b$3473b2o19bo279b2o1815b3o78b3o7620b$3774b2o1815bo2bo76bo2bo7620b$3674b2o321bo416bo1176bo82bo7620b$3674b2o322b2o413bobo17b2o1156bo74bo7bo7620b$3997b2o414bobo17b2o1157bobo38bo17bo13b3o3bobo7621b$3463bo950bo1217b3o15b3o11b2obo7627b$3463bobo194bo1971bob2o14bob2o10b3o7628b$3463b2o195bo1972b3o15b3o11b2o7628b$3482bo177bo1972b3o15b2o7642b$3481b3o2149b2o7660b$3481b4o23b2o3b2o214bobo9563b$3507bo2bo2b2o215b2o9563b$3507bo2bo32bo186bo9564b$3481b4o23b2o32bobo9750b$3323bo157b4o57bobo9750b$3323bobo157bo59bo2105b3o7643b$3323b2o2272bo51bo2bo7642b$5596b3o50bo7645b$5595b2obo50bo7645b$5595b3o44b3o5bobo7642b$4084bo1511b2o43bo2bo7650b$4083bo1560bo7650b$3989b3o70bo20b3o1558bo5b3o7642b$3769b2o218bo2bo68bo1579bobo5bo2bo7642b$3378bobo388b2o218bo2bo68b3o1588bo7642b$3378b2o289b2o738bo1242bo7642b$3356bobo20bo289b2o321b2o414bobo17b2o1219bobo22b3o7618b$3356b2o633bo2bo413bobo17b2o1243bo2bo7618b$3357bo633bo2bo172bo241bo1266bo7618b$3991bo173b2o1509bo7618b$3654b3o509b2o1505bobo7619b$3495bo9799b$3494b3o9798b$3493bo2b2o5b2o3b2o2091b3o78b3o7610b$3497bo4bo2bo2b2o2090bo2bo78bo2bo7609b$3497b2o3bo2bo32bo593bobo1468bo78bo7612b$3484bo14bo3b2o32bobo40bo551b2o1469bo72bo5bo7612b$3482bobo11b4o37bobo38bobo552bo1466bobo40bo17bo13b3o5bobo7609b$3468bo14b2o4bo6b2o40bo40b2o2061b3o15b3o12bob2o7616b$3467b3o20b2o488bo1660b2obo14b2obo13b3o7616b$3466b2o2bo18b2o487b2o1661b3o15b3o14b2o7617b$3466bo512b2o416bo2bo1240b3o16b2o7633b$3466b3o932bo1240b2o7651b$3466b2obo927bo3bo8893b$3467bob2o927b4o8893b$3467b2o9826b$3468bob2o292b2o9529b$3467b2ob2o292b2o9529b$3438bobo26b2ob2o12bo179b2o738bo1254b3o7633b$3438b2o29bo14bobo177b2o737bobo17b2o1182bo50bo2bo7633b$3439bo44b2o917bobo17b2o1181b3o52bo7633b$4404bo1201bob2o51bo7633b$3650bo94bo1861b3o42b3o3bobo7634b$3650bo95bo1860b2o43bo2bo7639b$3479b2o169bo93b3o1905bo7642b$3479bob2o2169bo7b3o7632b$3481b2o15b2o3b2o2148bobo4bo2bo7631b$3298bobo178b2o16bo2bo2b2o2155bo7634b$3298b2o177b2o18bo2bo32bo2126bo7634b$3299bo156bo41b2o32bobo2126bobo20b3o7608b$3455bo21bobo52bobo2149bo2bo7607b$3455b3o20bo54bo2150bo7610b$5684bo7610b$3293b2o765bo1624bobo7607b$3293bobo762b2o9235b$3295b2o741bo20b2o9234b$3294bo59bo681b2o1573b3o78b3o7600b$3292bobo58bo683b2o1572bo2bo76bo2bo7600b$3291b2o39bo20b3o2255bo82bo7600b$3291b3o37bo427b2o1850bo74bo7bo7600b$3331b3o425b2o242bo1608bobo38bo17bo13b3o3bobo7601b$3659b2o343b2o135bo257bo1252b3o15b3o11b2obo7607b$3659b2o342b2o136bobo254bobo17b2o1232bob2o14bob2o10b3o7608b$4141b2o255bobo17b2o1233b3o15b3o11b2o7608b$4399bo1253b3o15b2o7622b$5653b2o7640b$3496bo147b3o9648b$3500bo607bo9186b$3491bo3bob5o605bo9187b$3490bobo3b2o3bo91bobo511b3o9185b$3490bobo101b2o9699b$3491bo36bo65bo2074b3o7623b$3527bobo424bo1662bo51bo2bo7622b$3527bobo424bobo1659b3o50bo7625b$3528bo425b2o1659b2obo50bo7625b$5615b3o44b3o5bobo7622b$5616b2o43bo2bo7630b$5664bo7630b$4026bobo438b4o1193bo5b3o7622b$4027b2o437bo3bo1190bobo5bo2bo7622b$3414bo612bo442bo1201bo7622b$3413bo1052bo2bo1202bo7622b$3413b3o2253bobo22b3o7598b$5693bo2bo7598b$3654b2o738bo1301bo7598b$3654b2o737bobo17b2o1281bo7598b$4393bobo17b2o1278bobo7599b$3300bo1093bo8900b$3301b2o337bo9654b$3300b2o10b3o325bo1980b3o78b3o7590b$3311bo2bo139bo185bo1979bo2bo78bo2bo7589b$3311bo2bo137b2o32bo2136bo78bo7592b$3310bo2bo118bo20b2o30bobo2135bo72bo5bo7592b$3310bo2bo116b2o53bobo2132bobo40bo17bo13b3o5bobo7589b$3314b2o115b2o53bo36bo2138b3o15b3o12bob2o7596b$3314b2o206bobo2136b2obo14b2obo13b3o7596b$3312bo3bo205bobo509bo1626b3o15b3o14b2o7597b$3315b2o206bo510bobo1624b3o16b2o7613b$3317bo694bo21b2o1626b2o7631b$3267bo44bo3bo13bo681bobo9280b$3267bobo43b3o12b2o682b2o9281b$3267b2o60b2o9964b$13295b$4019bo9275b$4017bobo96bobo1560b3o7613b$3324b3o691b2o96b2o1509bo50bo2bo7613b$3324bo2bo789bo1508b3o52bo7613b$3324bo2bo321b2o738bo1236bob2o51bo7613b$3323b4o322b2o737bobo17b2o1217b3o42b3o3bobo7614b$3323b2o1063bobo17b2o1217b2o43bo2bo7619b$3322bo761bo304bo1282bo7622b$3300bobo20bo285bo472b2o1588bo7b3o7612b$3300b2o21bo286bo23b3o446b2o1588bobo4bo2bo7611b$3301bo306b3o2069bo7614b$3481bo2198bo7614b$3480bobo446bobo1749bobo20b3o7588b$3480bobo446b2o1773bo2bo7587b$3392b3o86bo36bo411bo1773bo7590b$3306bo84bo2bo122bobo2184bo7590b$3305bobo83bo4bo120bobo2185bobo7587b$3305bobo88bo121bo9776b$3306bo89b2o9897b$3393bob2o2234b3o78b3o7580b$3394bo1140bo2bo1092bo2bo76bo2bo7580b$4539bo1091bo82bo7580b$4535bo3bo1091bo74bo7bo7580b$4536b4o1092bobo38bo17bo13b3o3bobo7581b$5672b3o15b3o11b2obo7587b$5672bob2o14bob2o10b3o7588b$5673b3o15b3o11b2o7588b$3644b2o738bo1288b3o15b2o7602b$3644b2o737bobo17b2o1268b2o7620b$4383bobo17b2o8890b$3382bobo22bo20bo955bo8910b$3382b2o23b2o19bobo199bo9664b$3383bo25bo18b2o200bo9664b$3407b2o221bo9664b$3407bo68bo2212b3o7603b$3475bobo2159bo51bo2bo7602b$3409b2o64bobo531bobo1624b3o50bo7605b$3409b2o65bo36bo495b2o1624b2obo50bo7605b$3242b3o56bo210bobo472bobo20bo1624b3o44b3o5bobo7602b$3245bo54bobo209bobo472b2o1647b2o43bo2bo7610b$3242b3o55bobo210bo474bo1695bo7610b$3301bo98bo2283bo5b3o7602b$3399bo16bo2264bobo5bo2bo7602b$3245b2o152b3o13bobo614bobo57bo1599bo7602b$3245b2o167bo3bo614b2o56bo1600bo7602b$3415bo2bo614bo57b3o1595bobo22b3o7578b$3415bo2bo2294bo2bo7578b$3416bobo2297bo7578b$3237bo60bo2417bo7578b$3235b2o60bo2415bobo7579b$3236b2o38bo20b3o339b2o417bo320bo8915b$3275bo363b2o417bobo317bobo17b2o8895b$3275b3o347bo432b2o318bobo17b2o1241b3o78b3o7570b$3401bo220b3o754bo1260bo2bo78bo2bo7569b$3400bobo220bo281bo1737bo78bo7572b$3400bobo221bo279bo1738bo72bo5bo7572b$3401bo502b3o1733bobo40bo17bo13b3o5bobo7569b$3471bo2210b3o15b3o12bob2o7576b$3470bobo2208b2obo14b2obo13b3o7576b$3470bobo2208b3o15b3o14b2o7577b$3471bo36bo547bo1624b3o16b2o7593b$3296bo210bobo547b2o1623b2o7611b$3295bobo209bobo546b2o9237b$3295bobo210bo9786b$3296bo9998b$13295b$3262bo10032b$3261b3o1341b4o1090b3o7593b$3261b3o1340bo3bo1038bo50bo2bo7593b$4608bo1037b3o52bo7593b$3261b4o1339bo2bo1038bob2o51bo7593b$3260b5o2382b3o42b3o3bobo7594b$3260b2obo94bo2288b2o43bo2bo7599b$3357bo276b2o738bo1317bo7602b$3357b3o274b2o737bobo17b2o1297bo7b3o7592b$3261b2o1110bobo17b2o1298bobo4bo2bo7591b$3260bo135bo977bo1325bo7594b$3354bo40bobo2302bo7594b$3259bobo2bo88b3o39bobo587bo1715bobo20b3o7568b$3254bo4bob3obo86b2o2bo39bo587bo1739bo2bo7567b$3255b2ob3ob2obo90bo109bo496bo20b3o1737bo7570b$3254b2o3bobo93bo109bobo494bo1761bo7570b$3259b3o89bo46bo66bobo494b3o1760bobo7567b$3260bo90bobo42b2o68bo36bo9791b$3291bo59b2o23bo20b2o103bobo9790b$3290bobo81b2o126bobo543bo1602b3o78b3o7560b$3290bobo82b2o126bo545bo18bo1582bo2bo76bo2bo7560b$3291bo755b3o16b2o1583bo82bo7560b$4067b2o1582bo74bo7bo7560b$3274b2o2376bobo38bo17bo13b3o3bobo7561b$3274b2o2416b3o15b3o11b2obo7567b$3211bo56bo7bo2415bob2o14bob2o10b3o7568b$3211bobo52bobo5b2o89bobo2325b3o15b3o11b2o7568b$3211b2o54b2o5b2o87bo4bo664bobo1657b3o15b2o7582b$3363bo4bo664b2o22bobo1633b2o7600b$3276b2o89b2o665bo20bo4bo9234b$3276b2o351b2o424bo4bo308bo8925b$3363b2o2b2o260b2o250bo147b3o27b2o307bobo17b2o8905b$3363b2o2b2o510b2o147bo2bo336bobo17b2o8905b$3364bob3o22bo488b2o146b2o2bo22b2o2b2o308bo8925b$3367bo22bobo638b2o22b2o2b2o1648b3o7583b$3266bobo97bo23bobo663bob3o1596bo51bo2bo7582b$3266b2o123bo636bo30bo1596b3o50bo7585b$3244bobo20bo193bo564b2o30bo1596b2obo50bo7585b$3244b2o214bobo564b2o1626b3o44b3o5bobo7582b$3245bo9bo204bobo2193b2o43bo2bo7590b$3254bobo204bo36bo2205bo7590b$3254bobo29bo210bobo2204bo5b3o7582b$3255bo29bobo209bobo2201bobo5bo2bo7582b$3285bobo210bo2213bo7582b$3286bo2425bo7582b$3332b3o2374bobo22b3o7558b$3332bo2bo27bo1309bo2bo1056bo2bo7558b$3330bo4bo26bobo13bo1298bo1058bo7558b$3362bobo12b3o1293bo3bo1058bo7558b$3330bo32bo12b2o2bo1293b4o1055bobo7559b$3331bo44bo9918b$3332b2obo40b3o9916b$3333bo2bo39b2obo2281b3o78b3o7550b$3333b2o42bob2o243b2o426b2o310bo1295bo2bo78bo2bo7549b$3334bo2bo39b2o245b2o425bobo309bobo17b2o1278bo78bo7552b$3337bo40bob2o579bo90bo310bobo17b2o1278bo72bo5bo7552b$3333bo43b2ob2o4bo572b2o403bo1295bobo40bo17bo13b3o5bobo7549b$3336bo40b2ob2o3bobo551bo20b2o1740b3o15b3o12bob2o7556b$3333b3o43bo5bobo549b2o1762b2obo14b2obo13b3o7556b$3373bobo10bo551b2o1761b3o15b3o14b2o7557b$3374b2o80bo2244b3o16b2o7573b$3374bo80bobo2244b2o7591b$3250bo204bobo9837b$3249bobo204bo36bo9801b$3249bobo29bo210bobo9800b$3250bo29bobo209bobo9800b$3280bobo210bo9801b$3281bo755bo1681b3o7573b$3186bobo132bo44bo671b2o1627bo50bo2bo7573b$3186b2o131b2o37bo6bo671b2o1627b3o52bo7573b$3187bo132b2o22bo12bobo5b3o2298bob2o51bo7573b$3343bo13bobo2307b3o42b3o3bobo7574b$3343b3o12bo677bo1630b2o43bo2bo7579b$4035bo1676bo7582b$3274bo580bo179b3o1674bo7b3o7572b$3273b3o579bobo1855bobo4bo2bo7571b$3273b3o343b2o234b2o190b2o310bo1360bo7574b$3242bo376b2o425bobo309bobo17b2o1340bo7574b$3241bo31b4o770bo310bobo17b2o1341bobo20b3o7548b$3220bo20b3o28b5o725bo356bo1384bo2bo7547b$3219bo52b2obo726bobo80bobo1656bo7550b$3219b3o157bo622b2o82b2o1656bo7550b$3378b3o705bo1658bobo7547b$3273b2o103bob2o69bo9843b$3272bo106bo2bo67bobo9842b$3245bo134b2o68bobo2218b3o78b3o7540b$3244bobo24bobo2bo103bo70bo36bo2182bo2bo76bo2bo7540b$3244bobo24bob3obo209bobo2181bo82bo7540b$3245bo24b3ob2obo209bobo2181bo74bo7bo7540b$3271bobo214bo2183bobo38bo17bo13b3o3bobo7541b$3271b3o2438b3o15b3o11b2obo7547b$3272bo2439bob2o14bob2o10b3o7548b$3353bo2359b3o15b3o11b2o7548b$3352bobo1388b4o966b3o15b2o7562b$3352bobo1387bo3bo966b2o7580b$3353bo15bo1376bo8548b$3369bobo1370bo2bo8549b$3369b2o9924b$3935bo9359b$3280bo67bo265b2o319bobo416bo8940b$3278bobo68b2o263b2o297bo21b2o416bobo17b2o1354b3o7563b$3279b2o67b2o563bobo437bobo17b2o1302bo51bo2bo7562b$3913b2o439bo1321b3o50bo7565b$5675b2obo50bo7565b$5675b3o44b3o5bobo7562b$5676b2o43bo2bo7570b$3446bo2277bo7570b$3445bobo2276bo5b3o7562b$3240bo204bobo2273bobo5bo2bo7562b$3239bobo204bo36bo2248bo7562b$3162bo76bobo79b3o158bobo2247bo7562b$3161bo78bo15bobo36bo25bo2bo14b2o141bobo2244bobo22b3o7538b$3161b3o92b2o37bobo27bo15bo141bo2269bo2bo7538b$3257bo37b2o25b3o17bo2413bo7538b$3339bobo2414bo7538b$3340bo7bo663bo1740bobo7539b$3342bobo2bobo660b2o9283b$3342bobo2bobo480bobo178b2o9282b$3343bo4bo481b2o1849b3o78b3o7530b$3831bo1848bo2bo78bo2bo7529b$3218bo2464bo78bo7532b$3216b2o116bobo25bo2320bo72bo5bo7532b$3196bo20b2o115b2o26b2o245b2o366bobo369bo1330bobo40bo17bo13b3o5bobo7529b$3194b2o116bobo20bo25bobo245b2o366b2o369bobo17b2o1352b3o15b3o12bob2o7536b$3195b2o115b2o664bo369bobo17b2o1351b2obo14b2obo13b3o7536b$3313bo62b3o970bo1371b3o15b3o14b2o7537b$3378bo13bo46bo2281b3o16b2o7553b$3377bo12bobo45b3o2281b2o7571b$3391b2o44b2o2bo9853b$3437bo9857b$3437b3o9855b$3437b2obo9854b$3438bob2o36bo9816b$3438b2o37bobo2259b3o7553b$3232b2o205bob2o34bobo2207bo50bo2bo7553b$3232bob2o202b2ob2o35bo2207b3o52bo7553b$3234b2o202b2ob2o2243bob2o51bo7553b$3234b2o204bo2246b3o42b3o3bobo7554b$3231b2o1578bo2bo872b2o43bo2bo7559b$4815bo916bo7562b$3234b2o1575bo3bo916bo7b3o7552b$3910bobo899b4o917bobo4bo2bo7551b$3293bobo614b2o1828bo7554b$3294b2o592bobo20bo1828bo7554b$3294bo593b2o1851bobo20b3o7528b$3604b2o283bo454bo1419bo2bo7527b$3224bo379b2o737bobo17b2o1399bo7530b$3223bo203bo915bobo17b2o1399bo7530b$3223b3o200bo917bo1420bobo7527b$3426b3o9866b$13295b$5691b3o78b3o7520b$3386b2o35bo2267bo2bo76bo2bo7520b$3138bo93bo82bo70b2o34b3o2266bo82bo7520b$3136b2o93bo38bobo41b3o16bobo85b2o2bo2265bo74bo7bo7520b$3137b2o92b3o36b2o41bo2b2o16b2o89bo47bo2218bobo38bo17bo13b3o3bobo7521b$3271bo41b4o17bo89bo47bobo2257b3o15b3o11b2obo7527b$3316bobo101bo51bobo2257bob2o14bob2o10b3o7528b$3316bo2bo100bobo50bo512bo1746b3o15b3o11b2o7528b$3316b3o101b2o384bo179bobo1744b3o15b2o7542b$3315bobo487bo180b2o1745b2o7560b$3315bobo487b3o9487b$3315b3o9977b$3192bo10102b$3192bobo758bo9341b$3170bo21b2o25b3o66bo663bo162bo9179b$3170bobo45bo3bo64bo664b3o161b2o1631b3o7543b$3170b2o51bo63b3o825b2o1580bo51bo2bo7542b$3599b2o738bo1356b3o50bo7545b$3218b2o3bo375b2o737bobo17b2o1335b2obo50bo7545b$3220b3o1115bobo17b2o1335b3o44b3o5bobo7542b$3793b3o543bo1356b2o43bo2bo7550b$3122bo669bo3bo1947bo7550b$3121b3o179bo493bo1946bo5b3o7542b$3121bo2bo178bobo2435bobo5bo2bo7542b$3123b2o178b2o487b2o3bo1954bo7542b$3123bo670b3o1955bo7542b$3120b2o57bo65bo2503bobo22b3o7518b$3120b4o55bo66bo207bo13bo2304bo2bo7518b$3121bo2bo53bobo63b3o208bo11bobo2306bo7518b$3122bo330b3o11bobo2306bo7518b$3121bo58b2o286bo2304bobo7519b$3120b2o10173b$3119bo5bo54b2o282b3o419bo9408b$3119b2o3b2o183bo153bo2bo418bo1815b3o78b3o7510b$3120b2o188bo152b2o2bo396bo20b3o993b4o815bo2bo78bo2bo7509b$3308b3o155b2o395bo1016bo3bo818bo78bo7512b$3863b3o1018bo818bo72bo5bo7512b$3177b2o252bo31bo1416bo2bo816bobo40bo17bo13b3o5bobo7509b$3113bo63b3o20bo228bobo29b2o2279b3o15b3o12bob2o7516b$3112b3o66bo16b2o230b2o30b2o2277b2obo14b2obo13b3o7516b$3111bo2b2o63b2o18b2o393b2o738bo1406b3o15b3o14b2o7517b$3111b3o81b3o396b2o737bobo17b2o1386b3o16b2o7533b$3195bo2bo1134bobo17b2o1387b2o7551b$3125bobo48bobo15bo3bo29bo1105bo8960b$3126b2o48bobo15b3o2bo26bobo10066b$3111bo14bo50bo17b4o28b2o17bo102bo9945b$3114bo130bo104bo9944b$3111bo3bo129b3o100b3o25b2o9917b$3112b2ob2o75bobo181b2o2381b3o7533b$3149b3o40b2o201bobo404bo1904bo50bo2bo7533b$3149bo2bo40bo201b2o403bobo158bobo1742b3o52bo7533b$3149bo2bo243bo404b2o158b2o1743bob2o51bo7533b$3114bo70bo776bo1744b3o42b3o3bobo7534b$3115b2o35b2o32bo143bo2376b2o43bo2bo7539b$3114b2o35bo2bo29b3o141bobo2421bo7542b$3151bo2bo45bobo126b2o2421bo7b3o7532b$3151bo48b2o727bo1823bobo4bo2bo7531b$3201bo62bo662b2o1831bo7534b$3262b2o664b2o1830bo7534b$3263b2o2496bobo20b3o7508b$3421bo2362bo2bo7507b$3422bo351bobo2007bo7510b$3420b3o351b2o2008bo7510b$3589b2o184bo553bo1455bobo7507b$3099bo62bo426b2o737bobo17b2o8945b$3099bobo58b2o116bobo1047bobo17b2o8945b$3099b2o39bo20b2o115b2o1049bo1381b3o78b3o7500b$3138b2o139bo2431bo2bo76bo2bo7500b$3139b2o2570bo82bo7500b$3259bo2451bo74bo7bo7500b$3260b2o2450bobo38bo17bo13b3o3bobo7501b$3259b2o2491b3o15b3o11b2obo7507b$3184b2o2566bob2o14bob2o10b3o7508b$3184b2o2b2o4bo239b3o2316b3o15b3o11b2o7508b$3188b2o5bo52b3o183bo2bo2315b3o15b2o7522b$3194bobo50bo3bo182bo3bo423bo1890b2o7540b$3193bob2o126bo111b2o2bo420b2o9433b$3193bobo56bo71b2o109b2o3bo399bo20b2o9432b$3191b2o54b5o71b2o112bobo398b2o9455b$3203bobo42bo189bo3b2o395b2o1108bo2bo8342b$3204b2o1747bo8341b$3204bo24b3o1717bo3bo815b3o7523b$3248b2o1700b4o763bo51bo2bo7522b$3248b2o2466b3o50bo7525b$3248bo2466b2obo50bo7525b$3141bo105b2o2466b3o44b3o5bobo7522b$3142bo102b2obob3o331b2o242bo495bo1391b2o43bo2bo7530b$3140b3o108b2o331b2o242b2o493bobo17b2o1419bo7530b$3185b2o58bo2bo114bo463bo2bo492bobo17b2o1419bo5b3o7522b$3182bobo61b3o115b2o462bobo493bo1436bobo5bo2bo7522b$3081b3o84bo12b2obo178b2o462bo2bo1941bo7522b$3081bo2bo82bo13bobo187bo455bo2bo1941bo7522b$3080bo3bo82b3o12bo5b2o180bo444bobo9bobo107bo1831bobo22b3o7498b$3080b4o99bo4b2o2b2o172b2o2b3o443b2o10b3o105bo1856bo2bo7498b$3081bo102b2o6b2o172b2o448bo119b3o1857bo7498b$3130bo48b2o4bo2610bo7498b$3128bobo48b2o162bobo2447bobo7499b$3129b2o32bo19b2o80bo78b2o9949b$3164b2o87bobo8bobo77bo9950b$3081b2ob2o77b2o89b2o8bo2bo635bo1817b3o78b3o7490b$3081bob3o168bo10b2o636bobo238bobo1573bo2bo78bo2bo7489b$3903b2o240b2o1576bo78bo7492b$4145bo1577bo72bo5bo7492b$3225bo36bo487bo1969bobo40bo17bo13b3o5bobo7489b$3084bo140bo36bo486bo2012b3o15b3o12bob2o7496b$3085bo139bo36bo486b3o2009b2obo14b2obo13b3o7496b$3083b3o2675b3o15b3o14b2o7497b$3136bo2624b3o16b2o7513b$3136bobo2623b2o7531b$3114bo21b2o94bo346b2o260bo477bo8975b$3114bobo114bo347b2o259b3o475bobo17b2o8955b$3114b2o115b3o605b2o2bo474bobo17b2o8955b$4319bo8975b$3843b2o9450b$3130bo712b2o1934b3o7513b$3130b2o51b2o657bo2bo1881bo50bo2bo7513b$3069bo62bo50b2o2b2o230b2o420b3o1882b3o52bo7513b$3067b2o61b2o55b2o230b2o2305bob2o51bo7513b$3068b2o59bobo42b2o659bobo1889b3o42b3o3bobo7514b$3130bo43b2o163bo496b2o1889b2o43bo2bo7519b$3128bobo129bo76bobo496bo1935bo7522b$3126bo92bo39bobo76b2o2432bo7b3o7512b$3126bobo91bo38bo2bo2510bobo4bo2bo7511b$3218b3o39b2o2518bo7514b$5780bo7514b$5781bobo20b3o7488b$3100bo1918b4o781bo2bo7487b$3098b2ob2o116b3o608bo1187bo3bo781bo7490b$3098b2ob2o52bo673bo1192bo781bo7490b$3099bob3o52b2o650bo20b3o1186bo2bo783bobo7487b$3098b3o54b2o650bo9487b$3807b3o9485b$3574b2o738bo1416b3o78b3o7480b$3574b2o737bobo17b2o1396bo2bo76bo2bo7480b$3099b2o44b2o30bo653bo481bobo17b2o1396bo82bo7480b$3099b2o44b2o29b2o654bo80bo400bo1416bo74bo7bo7480b$3145b2o28b3o624b2o26b3o78b2o1819bobo38bo17bo13b3o3bobo7481b$3098bo75b2o626bobo107b2o1858b3o15b3o11b2obo7487b$3097bob2ob2o39bobo27b2o4b2obo176bo444bo1967bob2o14bob2o10b3o7488b$3096b2o4b2o40b2o28bobo4bobo176bo74b2o365bobo1968b3o15b3o11b2o7488b$3096b2ob2o43bo30b3o3bobo174b3o72b2ob2o363bo1971b3o15b2o7502b$3098bo70b2o5bo256b4o364bobo1969b2o7520b$3169b2o263b2o365bo76bobo9414b$3255bo544bo77b2o9415b$3254bobo622bo9415b$3254bo2bo10037b$3255b2o469bo9568b$3098bo38bo586b2o2063b3o7503b$3099b2o37bo586b2o2010bo51bo2bo7502b$3088b3o7b2o5bo30b3o2597b3o50bo7505b$3087bo2bo15bo2628b2obo50bo7505b$3087bo2bo13b3o2628b3o44b3o5bobo7502b$3086bo2bo2646b2o43bo2bo7510b$3086bo2bo2694bo7510b$3090b2o2692bo5b3o7502b$3090b2o48bo428b2o240b3o495bo1471bobo5bo2bo7502b$3088bo3bo46bobo427b2o239bo2bo494bobo17b2o1462bo7502b$3091b2o45bo2bo668b2obo494bobo17b2o1462bo7502b$3093bo45b2o1168bo1479bobo22b3o7478b$3043bo44bo3bo13bo2706bo2bo7478b$3043bobo43b3o12b2o2710bo7478b$3043b2o60b2o36bo666b2o2004bo7478b$3143bo208bobo54b2o399b4o1999bobo7479b$3143bo209b2o54b2o400bo2bo9480b$3353bo458bobo9480b$3100b3o709bobo1926b3o78b3o7470b$3100bo2bo146bo2489bo2bo78bo2bo7469b$3100bo2bo145bobo2491bo78bo7472b$3099b4o146bo2bo561bo1928bo72bo5bo7472b$3099b2o149b2o559bo2bo1925bobo40bo17bo13b3o5bobo7469b$3098bo711b5o1967b3o15b3o12bob2o7476b$3076bobo20bo708bo2bo1275bo2bo690b2obo14b2obo13b3o7476b$3076b2o21bo709b2o1280bo689b3o15b3o14b2o7477b$3077bo2009bo3bo689b3o16b2o7493b$5088b4o690b2o7511b$13295b$13295b$3845bo9449b$3564b2o280b2o39bo416bo8990b$3027b3o534b2o279b2o40bobo413bobo17b2o8970b$3027bo2bo767bobo86b2o414bobo17b2o1474b3o7493b$3029b2o342bo424b2o504bo1442bo50bo2bo7493b$3374b2o400bobo20bo1946b3o52bo7493b$3025bo2bo344b2o401b2o1968bob2o51bo7493b$3026b2o475b2o272bo76bo1892b3o42b3o3bobo7494b$3029b2o106b3o362b4o347bo320bo1572b2o43bo2bo7499b$3028b3o471b2ob2o346b3o319b2o1615bo7502b$3029bo474b2o668b2o1616bo7b3o7492b$3026b2ob2o2762bobo4bo2bo7491b$3026b2ob2o214bo454bo2099bo7494b$3026bo3bo83bo129bobo453bobo2097bo7494b$3026bo3bo81bobo129bo2bo452b2o2099bobo20b3o7468b$3027bo85b2o4bo125b2o2577bo2bo7467b$3120b2o2702bo7470b$3119b2o2703bo7470b$5825bobo7467b$13295b$13295b$5751b3o78b3o7460b$3032bo2718bo2bo76bo2bo7460b$3033bo2717bo82bo7460b$3031b3o525b2o738bo1451bo74bo7bo7460b$3559b2o737bobo17b2o1432bobo38bo17bo13b3o3bobo7461b$4298bobo17b2o1472b3o15b3o11b2obo7467b$3368bo930bo1492bob2o14bob2o10b3o7468b$3369bo2423b3o15b3o11b2o7468b$3367b3o2423b3o15b2o7482b$3133bo2659b2o7500b$3133bo265b2o9894b$3133bo265b2o9894b$13295b$3013bo60bo10220b$3011b2o60bo166bo594b3o9457b$3012b2o59b3o163bobo592bo2bo1971b3o7483b$3239bo2bo591b2obo1919bo51bo2bo7482b$3048b3o189b2o2514b3o50bo7485b$3048bob3o812b3o1887b2obo50bo7485b$3865bo2bo1886b3o44b3o5bobo7482b$3051bobo780b2o29bo2bo1288b4o595b2o43bo2bo7490b$3051bobo780b4o28bo2bo1286bo3bo643bo7490b$3052b2o781bo2bo22bo4b3o1291bo643bo5b3o7482b$3836bobo20bobo5b2o1287bo2bo641bobo5bo2bo7482b$3774bo61bobo21b2o1950bo7482b$3045bo727bo2038bo7482b$3045bobo341bo164b2o196bo20b3o518bo1514bobo22b3o7458b$3045b2o340bobo164b2o195bo86bo454bobo17b2o1518bo2bo7458b$3388b2o361b3o82bobo454bobo17b2o1521bo7458b$3837b2o455bo1541bo7458b$5833bobo7459b$13295b$3058b3o796bo9437b$3058bobo512b2o280b2o1904b3o78b3o7450b$3058bo2bo509b2ob2o99bobo178b2o1902bo2bo78bo2bo7449b$3059b3o509b4o100b2o2086bo78bo7452b$3059b3o510b2o102bo2086bo72bo5bo7452b$3057bo2bo174bo2524bobo40bo17bo13b3o5bobo7449b$3060bo173bobo2565b3o15b3o12bob2o7456b$3044bo12bo176bo2bo584bobo1976b2obo14b2obo13b3o7456b$3043bobo12b2o175b2o585b2o1977b3o15b3o14b2o7457b$3043bobo11b3o763bo1977b3o16b2o7473b$3044bo12b2o2743b2o7491b$3056bobo2b2o10232b$3056bobo2b2o1224bo9007b$3056b3o1227b3o9006b$4285b2o2bo9005b$3856b2o9437b$3855bobo1961b3o7473b$3382bo166b2o305bo1910bo50bo2bo7473b$3383b2o164b2o734b2o21b2o1456b3o52bo7473b$3382b2o902b3o19b2o1456bob2o51bo7473b$4289bo1477b3o42b3o3bobo7474b$4287b3o1477b2o43bo2bo7479b$4287b2o1523bo7482b$5812bo7b3o7472b$2987bo2825bobo4bo2bo7471b$2987bobo1297bobo1530bo7474b$2987b2o1299b2o1530bo7474b$4288bo1532bobo20b3o7448b$3230bo2613bo2bo7447b$3229bobo2612bo7450b$2982b2o55bo189bo2bo2611bo7450b$2982bob2o52bobo189b2o425bo2187bobo7447b$2984b2o52bobo615b3o9636b$2982b2o55bo615bo2b2o1565bo2bo8066b$2980b2o60bobo609b5o1570bo541b3o78b3o7440b$3042b2o610b5o91bo1474bo3bo541bo2bo76bo2bo7440b$2980bobo37bobo20bo613bo90b2o95b4o425bo951b4o541bo82bo7440b$2981bo38b2o635bobo68bo20b2o93b2ob3o423bo1497bo74bo7bo7440b$3021bo635b2obo65b2o116b2o427b3o1496bobo38bo17bo13b3o3bobo7441b$3658bobo66b2o117b4o9b3o1950b3o15b3o11b2obo7447b$3544b2o113b3o185b2o12bo1950bob2o14bob2o10b3o7448b$3544b2o113bobo198bo342bobo97b2o1508b3o15b3o11b2o7448b$3657b4o213b2o328b2o97b2o1508b3o15b2o7462b$3657b3o171bo43b2o327bo1608b2o7480b$3658bo172bobo40bo9420b$3831b2o56b2o9404b$3641b2o245bobo9404b$3640b4o246bo9404b$3640b2ob2o259bo9390b$3642b2o154bo105b2o1923b3o7463b$3797bo105bobo1871bo51bo2bo7462b$3225bo571b3o1976b3o50bo7465b$3224bobo691b3o1854b2obo50bo7465b$3034bo189bo2bo692bo1854b3o44b3o5bobo7462b$3033bobo189b2o417bo274bo1856b2o43bo2bo7470b$3033bobo608bobo286b2o1889bo7470b$3034bo609b2o288b2o1888bo5b3o7462b$3933bo1887bobo5bo2bo7462b$3948b2o1882bo7462b$3947bobo1882bo7462b$3398bo550bo1879bobo22b3o7438b$3396bobo564bo1889bo2bo7438b$3397b2o564b2o1891bo7438b$3539b2o421bobo1891bo7438b$2990bo548b2o2312bobo7439b$2991bo10bo974b3o9315b$2989b3o9b3o975bo9315b$3000bo2b2o973bo1802b3o78b3o7430b$2999b5o988b2o1786bo2bo78bo2bo7429b$2999b5o989b2o1788bo78bo7432b$3002bo989bo1790bo72bo5bo7432b$3002bobo625bo376b2o1771bobo40bo17bo13b3o5bobo7429b$3002b2obo622b2ob2o373bobo1813b3o15b3o12bob2o7436b$3003bobo622b2ob2o375bo1812b2obo14b2obo13b3o7436b$3004b3o213bo408bob3o388bo1798b3o15b3o14b2o7437b$3004bobo212bobo406b3o391b2o1797b3o16b2o7453b$2957bo44b4o12bo10bo189bo2bo798bobo1798b2o7471b$2955b2o45b3o12bo10bobo189b2o10073b$2956b2o45bo13b3o8bobo693bo311b3o9256b$3029bo388bo210b2o93bobo311bo211bo9044b$3419bo209b2o71bo21b2o311bo210b2o1045b4o7996b$3014bo402b3o282bobo346b2o196b2o1043bo3bo7996b$3013b3o612bo73b2o348b2o1244bo540b3o7453b$3012b2o2bo610bob2ob2o417bo1242bo2bo489bo50bo2bo7453b$3016bo609b2o4b2o432b2o1718b3o52bo7453b$3015bo610b2ob2o42bo391bobo1718bob2o51bo7453b$3011bo522b2o92bo42bobo132bobo258bo1719b3o42b3o3bobo7454b$3011bobo520b2o136b2o132b2o273bo1705b2o43bo2bo7459b$2989bo21b2o794bo273b2o1749bo7462b$2989bobo1088bobo1749bo7b3o7452b$2989b2o2842bobo4bo2bo7451b$4095b3o1742bo7454b$3774bo322bo1742bo7454b$3711b2o59b2o322bo1744bobo20b3o7428b$3635bo73b2ob2o59b2o335b2o1752bo2bo7427b$2995bo640bo72b4o398b2o1751bo7430b$2994bobo637b3o73b2o398bo1753bo7430b$2994bobo218bo909b2o1738bobo7427b$2940bo54bo218bobo907bobo9168b$2939b3o82bo189bo2bo908bo9168b$2938b2o2bo80bobo189b2o923bo1650b3o78b3o7420b$2938b2ob2o80bobo1114b2o1649bo2bo76bo2bo7420b$2941b3o80bo1114bobo1649bo82bo7420b$2939bob2o468bobo2377bo74bo7bo7420b$2938bo2bo470b2o740b3o1635bobo38bo17bo13b3o3bobo7421b$2941bo470bo743bo1675b3o15b3o11b2obo7427b$2938bobo673bo540bo1676bob2o14bob2o10b3o7428b$2939bo672b2o555b2o1662b3o15b3o11b2o7428b$3613b2o555b2o1661b3o15b2o7442b$2940b3o586b2o638bo1663b2o7460b$2939bob2o586b2o653b2o9109b$2940b2obo1239bobo9109b$4185bo9109b$4199bo9095b$3603bobo593b2o9094b$3601bo4bo591bobo31b2o1615b3o7443b$3601bo4bo624bobo1563bo51bo2bo7442b$2942bobo660b2o606b3o17bo1562b3o50bo7445b$2943b2o45bo1224bo1579b2obo50bo7445b$2943bo45bobo609b2o2b2o607bo1580b3o44b3o5bobo7442b$2989bobo218bo390b2o2b2o621b2o1566b2o43bo2bo7450b$2990bo218bobo390bob3o92bobo527b2o1613bo7450b$3019bo189bo2bo392bo93b2o527bo32b3o1580bo5b3o7442b$3018bobo189b2o392bo72bobo20bo562bo1577bobo5bo2bo7442b$3018bobo656b2o583bo1589bo7442b$3019bo658bo1684bo2bo485bo7442b$4258bo1108bo481bobo22b3o7418b$4258b2o1103bo3bo505bo2bo7418b$2923bo2bo759bobo93bo474bobo31b2o1071b4o508bo7418b$2923bob2o59bobo698b2o92bo508bobo1583bo7418b$2925b2o59b2o699bo93b3o508bo1580bobo7419b$2963b2obo20bo10307b$2961bo4bo557b2o9769b$2927b2o31bo5bo557b2o761b2o1512b3o78b3o7410b$2927b2o31bo1327b2o1510bo2bo78bo2bo7409b$2959b2ob2obo782bo538bo32b3o1480bo78bo7412b$2959b2obo2bo782bobo571bo1480bo72bo5bo7412b$2961b4o684bo98b2o571bo1478bobo40bo17bo13b3o5bobo7409b$2918bo43b3o685b2o11b3o113b2o2061b3o15b3o12bob2o7416b$2918bobo728b2o127b4o535bo1523b2obo14b2obo13b3o7416b$2918b2o39bo703bobo112b2ob2o534b2o1522b3o15b3o14b2o7417b$2957b2o26bo680bo113b2o534bobo31b2o1489b3o16b2o7433b$2958b2o24bobo675bo3bo682bobo1490b2o7451b$2984bobo218bo1145bo8943b$2985bo218bobo455bo2b2o9628b$3014bo189bo2bo219bo9867b$3013bobo189b2o221bo917b2o8947b$3013bobo410b3o182bobo49bo683b2o8946b$3014bo597b2o49bo682bo32b3o1477b3o7433b$2971bo640bo49bo718bo1425bo50bo2bo7433b$2970b3o690bob2o713bo1425b3o52bo7433b$2970bob2o693bo2138bob2o51bo7433b$2969b2o689bo4bo710bo1430b3o42b3o3bobo7434b$2969b2o1405b2o1429b2o43bo2bo7439b$2969b2o690bobo711bobo31b2o1441bo7442b$2956bo16bo545b2o140b3o744bobo1441bo7b3o7432b$2955bobo14b2o545b2o889bo1442bobo4bo2bo7431b$2955bobo12bobo2887bo7434b$2956bo12bo2bo2887bo7434b$2970bobo1432b2o1454bobo20b3o7408b$2970b3o605b3o825b2o1476bo2bo7407b$2970b2obo604bob3o93b2o727bo32b3o1443bo7410b$2970bo2bo702bobo761bo1443bo7410b$2971bo609bobo85bo8bo760bo1445bobo7407b$2980bo600bobo86b2o4bobo9616b$2979bobo466bo133b2o85b2o5b2o757bo8859b$2979bobo218bo245bobo228b2o756b2o1374b3o78b3o7400b$2980bo218bobo245b2o229b2o754bobo31b2o1341bo2bo76bo2bo7400b$3009bo189bo2bo372bo102b2o787bobo1341bo82bo7400b$2937bo70bobo189b2o373bobo891bo1341bo74bo7bo7400b$2935bobo70bobo564b2o125bo2109bobo38bo17bo13b3o3bobo7401b$2936b2o71bo693bo54bo2093b3o15b3o11b2obo7407b$3701b3o52b2o706b2o967b4o415bob2o14bob2o10b3o7408b$3668bo88b2o706b2o965bo3bo416b3o15b3o11b2o7408b$3668bobo793bo32b3o936bo416b3o15b2o7422b$3646bo21b2o829bo932bo2bo417b2o7440b$2896b3o747bobo849bo8796b$2896bo2bo746b2o9647b$2896bo2bo51bo562b2o207bobo768bo8800b$2897bo2bo49bobo561b2o207b2o769b2o8799b$2897b3o50bobo712bo58bo768bobo31b2o8766b$2898b2o51bo3bo707bobo860bobo1340b3o7423b$2955bobo682bo23b2o862bo1288bo51bo2bo7422b$2933bo21b2o683b2o2174b3o50bo7425b$2933bobo706bo2172b2obo50bo7425b$2933b2o705b2o207b2o672b2o1290b3o44b3o5bobo7422b$3639bobo205b2ob2o672b2o1290b2o43bo2bo7430b$2975bo664bo206b4o672bo32b3o1305bo7430b$2974bobo464bo196bobo207b2o708bo1305bo5b3o7422b$2974bobo218bo246b2o183bo8bo920bo1303bobo5bo2bo7422b$2888bo86bo218bobo244b2o185bo7bobo2233bo7422b$2886b2o116bo189bo2bo428b3o924bo1318bo7422b$2887b2o114bobo189b2o1356b2o1314bobo22b3o7398b$3003bobo1546bobo31b2o1305bo2bo7398b$3004bo1580bobo1308bo7398b$4587bo1308bo7398b$5893bobo7399b$13295b$4582b2o8711b$3590bo992b2o1236b3o78b3o7390b$3588bobo991bo32b3o1202bo2bo78bo2bo7389b$3509b2o78b2o1026bo1205bo78bo7392b$2941b2o3b2o561b2o138b3o964bo1206bo72bo5bo7392b$2940bo2bo2b2o701bo2bo2167bobo40bo17bo13b3o5bobo7389b$2940bo2bo703bo4bo959bo1249b3o15b3o12bob2o7396b$2941b2o1669b2o1247b2obo14b2obo13b3o7396b$3553b3o91bo963bobo31b2o1214b3o15b3o14b2o7397b$3553bo2bo91bo995bobo1214b3o16b2o7413b$3553bo2bo92b2obo993bo1215b2o7431b$3554bo2bo92bo2bo9641b$2970bo583b3o93b2o9643b$2969bobo583b2o94bo2bo986b2o8652b$2914b3o52bobo218bo463bo987b2o8651b$2914bo2bo52bo218bobo458bo65bo924bo32b3o8618b$2912bo4bo81bo189bo2bo460bo63b2o13bo943bo1202b3o7413b$2998bobo189b2o455bo2b3o63b2o14bobo940bo1151bo50bo2bo7413b$2912bo85bobo647bo83b2o2092b3o52bo7413b$2913bo85bo646b3o1022bo829bo2bo321bob2o51bo7413b$2914b2obo1753b2o832bo321b3o42b3o3bobo7414b$2915bo2bo1751bobo31b2o795bo3bo321b2o43bo2bo7419b$2915b2o628bo181b2o974bobo796b4o366bo7422b$2909bo6bo2bo623b2o182bob2o974bo1166bo7b3o7412b$2910b2o7bo624b2o149b3o31b2o2142bobo4bo2bo7411b$2909b2o4bo762bobo14bob3o27b2o2151bo7414b$2918bo11bobo571b2o173b2o44b2o973b2o1178bo7414b$2915b3o12b2o4b2o3b2o561b2o132bo40bo18bobo1000b2o1178bobo20b3o7388b$2931bo3bo2bo2b2o693b2o60bobo24bobo972bo32b3o1168bo2bo7387b$2935bo2bo674b2o22b2o60b2o25bo1008bo1168bo7390b$2926b3o7b2o677bo1118bo1169bo7390b$2925bo2bo687bo2288bobo7387b$2925b2o2bo683bobo76bo224b2o811bo8564b$2928b2o527bo156bo77bobo221b4o810b2o8563b$3455bobo158bobo22bo50b2o222b2ob2o808bobo31b2o1066b3o78b3o7380b$2862bo62bo39bo490b2o158bobo23b2o274b2o842bobo1066bo2bo76bo2bo7380b$2862bobo58b2o39bobo650bo23b2o1121bo1066bo82bo7380b$2862b2o40bo19b2o38bobo218bo2645bo74bo7bo7380b$2904bo60bo218bobo2645bobo38bo17bo13b3o3bobo7381b$2898b2o94bo189bo2bo420bobo1148b2o1111b3o15b3o11b2obo7387b$2898bob2o91bobo189b2o421b2o1150b2o1110bob2o14bob2o10b3o7388b$2901b2o90bobo613bo1149bo32b3o1078b3o15b3o11b2o7388b$2901bobo90bo1799bo1078b3o15b2o7402b$2898bo3b2o1889bo1079b2o7420b$2902bo700bobo16b3o9670b$3604b2o15bo3bo1163bo8505b$3604bo1184b2o8504b$2895bobo629bo98bo92b2o1067bobo31b2o8471b$2895b2o629b3o92b5o92bobo1100bobo8471b$2896bo602b2o24b2o2bo92bo96bo1103bo1065b3o7403b$2931b2o3b2o561b2o24bo3bo2307bo51bo2bo7402b$2930bo2bo2b2o587bob2o2307b3o50bo7405b$2930bo2bo543bo47b2o95b2o1194b2o1015b2obo50bo7405b$2931b2o545bo87bo55b2o1195b2o1014b3o44b3o5bobo7402b$2909bo566b3o88b2o53bo1195bo32b3o982b2o43bo2bo7410b$2908b3o655b2o53b2o1230bo1030bo7410b$2908bo2bo707b2obob3o1225bo1031bo5b3o7402b$2910b2o614b2o2bo94b2o2254bobo5bo2bo7402b$2910bo615bobobo88bo2bo1225bo1043bo7402b$2907b2o620bo90b3o1225b2o1042bo7402b$2907b4o47bo221bo1666bobo31b2o1006bobo22b3o7378b$2908bo2bo45b3o219bobo1698bobo1030bo2bo7378b$2909bo47bob2o28bo189bo2bo1699bo1033bo7378b$2908bo49bo2bo26bobo189b2o346bobo176bo2208bo7378b$2907b2o50b2o27bobo538b2o174bobo2205bobo7379b$2906bo5bo46bo29bo539bo176b2o1169b2o8416b$2906b2o3b2o12bo1952b2o691b4o7720b$2907b2o14bobo768bo6b2o1174bo32b3o657bo3bo266b3o78b3o7370b$2924b2o769bo3bo1212bo661bo265bo2bo78bo2bo7369b$3693b3o3b3o1209bo658bo2bo269bo78bo7372b$3670b3o28b2o11b2o2127bo72bo5bo7372b$3670bo2bo39bobo1191bo932bobo40bo17bo13b3o5bobo7369b$3494b2o174bo2bo40bo1192b2o973b3o15b3o12bob2o7376b$2926b2o3b2o561b2o175bo2bo28b2o1201bobo31b2o939b2obo14b2obo13b3o7376b$2925bo2bo2b2o15bo564bo74bo82b3o29b2o1234bobo939b3o15b3o14b2o7377b$2925bo2bo19bobo561bo74b3o82b2o1267bo939b3o16b2o7393b$2926b2o20b2o520bobo39b3o71bo2b2o2291b2o7411b$3471b2o117bo66bo9637b$2837bobo631bo118b2o63bobo36bobo1239b2o8357b$2837b2o753bo13bo49b2o36b2o291b2o948b2o8356b$2838bo750b4o12bo89bo289b2ob2o946bo32b3o8323b$3589b2o14b3o377b4o982bo8323b$3986b2o982bo928b3o7393b$3175bo2671bo50bo2bo7393b$3174bobo485bo1303bo879b3o52bo7393b$2984bo189bo2bo482b2o1304b2o878bob2o51bo7393b$2983bobo189b2o442bo41b2o1302bobo31b2o846b3o42b3o3bobo7394b$2893bo89bobo634bo1377bobo846b2o43bo2bo7399b$2892bo91bo515bo94bo2b2o18b3o1379bo891bo7402b$2871bo20b3o604b3o97b2o2291bo7b3o7392b$2870bo631bo95b2o2293bobo4bo2bo7391b$2870b3o627b2o75bo1417b2o903bo7394b$3501bo75bobo14b2o2b2o1396b2o902bo7394b$3577b2o21bo1394bo32b3o870bobo20b3o7368b$3594b4o1432bo893bo2bo7367b$2919bo569b2o105bo2bo92b2o1335bo894bo7370b$2918bobo568b2o91bo108bobo2230bo7370b$2918bobo659bobo109bo1332bo899bobo7367b$2919bo661b2o1442b2o8268b$5024bobo31b2o8235b$5057bobo791b3o78b3o7360b$5059bo791bo2bo76bo2bo7360b$5851bo82bo7360b$5851bo74bo7bo7360b$5054b2o796bobo38bo17bo13b3o3bobo7361b$2971bo572bo1510b2o835b3o15b3o11b2obo7367b$2969bobo198bo327bo46bo1508bo32b3o802bob2o14bob2o10b3o7368b$2970b2o197bobo326bo44b3o1543bo803b3o15b3o11b2o7368b$2979bo189bo2bo1915bo804b3o15b2o7382b$2978bobo189b2o472bo2248b2o7400b$2978bobo662b3o29bo1408bo8210b$2979bo662b2o2bo27b3o1407b2o553bo2bo7652b$3642bo3bo26bo2b2o1405bobo31b2o524bo7651b$3642bob2o27b4o1439bobo520bo3bo7651b$3560b3o79b2o32bobo1439bo521b4o7651b$3507bo52bo2bo112bo2bo3bo2225b3o7383b$3505bobo51bo3bo112b3o5b2o2171bo51bo2bo7382b$2923bobo580b2o52bo2b2o110bobo5b2o1428b2o741b3o50bo7385b$2914bo8b2o561bo75bo112bobo9b2o1425b2o739b2obo50bo7385b$2913bobo8bo562bo72b2o81b2o2bo27b3o8bobo1424bo32b3o706b3o44b3o5bobo7382b$2813bo99bobo569b3o71b3o81bobobo22bobo14bo1460bo707b2o43bo2bo7390b$2812bo101bo644b3o84bo24b2o1474bo756bo7390b$2812b3o856bo2232bo5b3o7382b$5143bo757bobo5bo2bo7382b$3561b2o492b2o1086b2o767bo7382b$3560bob2o81bobo406b4o1084bobo31b2o734bo7382b$3560bo3bo81b2o406b2ob2o1116bobo731bobo22b3o7358b$3481bobo79bo82bo409b2o1119bo755bo2bo7358b$3481b2o2453bo7358b$3165bo316bo150bo2302bo7358b$2869bo294bobo467b2o27bo1508b2o759bobo7359b$2867b2o295bo2bo396bo68b2o28bobo1507b2o8120b$2847bo20b2o99b2o3b2o189b2o398bo6bo90b2o1507bo32b3o8087b$2845b2o121bo2bo2b2o500b2o85b3o5bobo1633bo653b3o78b3o7350b$2846b2o120bo2bo504bobo92bob2o1631bo653bo2bo78bo2bo7349b$2969b2o507b2o93bo2289bo78bo7352b$3477bo152bo1571bo660bo72bo5bo7352b$3475bobo96bob2o51bo1572b2o656bobo40bo17bo13b3o5bobo7349b$3474b2o99b2o52b3o1569bobo31b2o665b3o15b3o12bob2o7356b$3474b3o118bobo1636bobo664b2obo14b2obo13b3o7356b$3596b2o1638bo664b3o15b3o14b2o7357b$2909bo659bo26bo2304b3o16b2o7373b$2908bobo656b2o2333b2o7391b$2908bobo636bo20b2o95b2o1564b2o8062b$2909bo635b2o117bobo1565b2o8061b$3546b2o117bo1565bo32b3o8028b$5266bo8028b$5265bo8029b$3558bo2360b3o7373b$3559b2o1700bo605bo50bo2bo7373b$3558b2o57bo29b3o1611b2o603b3o52bo7373b$3616b3o28bo2bo1609bobo31b2o570bob2o51bo7373b$3160bo458bo29b2o1642bobo571b3o42b3o3bobo7374b$3159bobo455b2o1676bo571b2o43bo2bo7379b$3159bo2bo455bo26bo2bo2263bo7382b$2964b2o3b2o189b2o484b2o2264bo7b3o7372b$2963bo2bo2b2o678b2o1639b2o621bobo4bo2bo7371b$2963bo2bo681b3o1640b2o627bo7374b$2964b2o554bobo126bo1640bo32b3o383b4o207bo7374b$2899bo621b2o123b2ob2o1674bo382bo3bo208bobo20b3o7348b$2898bo622bo124b2ob2o1673bo387bo231bo2bo7347b$2898b3o745bo3bo2057bo2bo232bo7350b$3646bo3bo1669bo623bo7350b$2789bo857bo1672b2o623bobo7347b$2787b2o115bo2414bobo31b2o7940b$2788b2o113bobo2446bobo7940b$2903bobo2448bo516b3o78b3o7340b$2904bo578bo2387bo2bo76bo2bo7340b$3484b2o129bo27b2o2226bo82bo7340b$3483b2o130bo26bobo1704b2o520bo74bo7bo7340b$3643bo1706b2o520bobo38bo17bo13b3o3bobo7341b$4125b2o1222bo32b3o527b3o15b3o11b2obo7347b$4123b2ob2o1256bo527bob2o14bob2o10b3o7348b$2843bo1279b4o1256bo529b3o15b3o11b2o7348b$2843bobo1278b2o1787b3o15b2o7362b$2821bo21b2o310bo2223bo533b2o7380b$2821bobo330bobo2222b2o7914b$2821b2o331bo2bo466bo1753bobo31b2o7881b$2959b2o3b2o189b2o293b2o170bobo1786bobo7881b$2958bo2bo2b2o483bo2bo170b2o1788bo7881b$2958bo2bo486b3o9844b$2959b2o650bo2317b3o7363b$3450bobo159bo20bo1774b2o467bo51bo2bo7362b$3610b3o18b2o1776b2o465b3o50bo7365b$3453bo89bo88b2o1774bo32b3o431b2obo50bo7365b$3452b2o89bobo1897bo431b3o44b3o5bobo7362b$3521bo21b2o1897bo433b2o43bo2bo7370b$2899bo621bobo2400bo7370b$2898bobo543bo76b2o1915bo485bo5b3o7362b$2898bobo542bo74bo79bobo1837b2o481bobo5bo2bo7362b$2899bo543b3o71b3o78b2o1837bobo31b2o459bo7362b$3516bo2b2o53bo24bo21bo16b2o1830bobo459bo7362b$3516b3obo51bobo46b2o14bobo1832bo456bobo22b3o7338b$3519b2o52b2o45bo2bo14bo2314bo2bo7338b$3621bobo2332bo7338b$3515bo77b2o25bo2bo1843b2o487bo7338b$3514bo78bobo24bo2bo1844b2o483bobo7339b$3514b3o78b2o23bobo1844bo32b3o7792b$3150bo443bo26b3o1878bo7792b$2876b3o270bobo440bobo1906bo379b3o78b3o7330b$2876bo2bo269bo2bo383bo54b2o2287bo2bo78bo2bo7329b$2880bo73b2o3b2o189b2o385bo53b3o1903bo385bo78bo7332b$2877b3o73bo2bo2b2o574b3o1959b2o384bo72bo5bo7332b$2953bo2bo2539bobo31b2o245bo2bo99bobo40bo17bo13b3o5bobo7329b$2954b2o548bo2b2o2020bobo249bo140b3o15b3o12bob2o7336b$3508b2o2021bo245bo3bo139b2obo14b2obo13b3o7336b$2763bo743b2o2269b4o139b3o15b3o14b2o7337b$2763bobo760b3o2392b3o16b2o7353b$2763b2o738b2o2b2o17bo2bo1996b2o394b2o7371b$3509bo15bo3bo1997b2o7766b$3499bo3b4o19bo2b2o1995bo32b3o7733b$3497bobo5bo2bo19bo2032bo7733b$2867bobo628b2o26b2o2032bo7734b$2867b2o22b2o632b3o9767b$2868bo21bo2bo631b3o2028bo382b3o7353b$2889b3o2664b2o329bo50bo2bo7353b$2818bobo795b2o575b2o1360bobo31b2o295b3o52bo7353b$2818b2o71bobo633b2o86bobo574b4o1392bobo295bob2o51bo7353b$2796bobo20bo706bob2o86bo575b2ob2o1393bo296b3o42b3o3bobo7354b$2796b2o96bo566bo64bo3bo663b2o1691b2o43bo2bo7359b$2797bo95b2o567bo66bo2402bo7362b$3145bo314b3o2122b2o345bo7b3o7352b$3144bobo2439b2o345bobo4bo2bo7351b$2885bo258bo2bo2437bo32b3o319bo7354b$2884bo64b2o3b2o189b2o370b3o2100bo319bo7354b$2884b3o61bo2bo2b2o560bo2bo9b2o2088bo321bobo20b3o7328b$2948bo2bo564bo2bo2444bo2bo7327b$2949b2o564bo2bo2096bo348bo7330b$3515bo2bo2096b2o347bo7330b$3519b2o79bo2013bobo31b2o315bobo7327b$3519b2o80b2o2044bobo7645b$3420bo96bo3bo78b2o2047bo7645b$3418b2o100b2o2369b3o78b3o7320b$3419b2o101bo2368bo2bo76bo2bo7320b$3517bo3bo65bobo11bo2042b2o245bo82bo7320b$3518b3o67b2o10bo2044b2o244bo74bo7bo7320b$2885bo629bo72bo9b2ob2o2041bo32b3o212bobo38bo17bo13b3o3bobo7321b$2884bobo626bobo81b5o2077bo252b3o15b3o11b2obo7327b$2884bobo627b2o80b2o2bo2077bo253bob2o14bob2o10b3o7328b$2885bo710bob4o9b2o2320b3o15b3o11b2o7328b$3567b2o27bo4bo8bobo2061bo258b3o15b2o7342b$3566bo2bo26bo2b2o10bo2062b2o257b2o7360b$3565b3o30b2o2073bobo31b2o7586b$3550bo2155bobo7586b$3140bo410b2o14bobo24bo2113bo7586b$3139bobo408b2o42bobo9698b$3139bo2bo362bobo62bo23b2o9699b$2944b2o3b2o189b2o341b3o19b2o62b2o2132b2o244b3o7343b$2943bo2bo2b2o535bo19bo2197b2o191bo51bo2bo7342b$2738bobo202bo2bo536b3o2217bo32b3o157b3o50bo7345b$2738b2o204b2o615bo2176bo108b4o44b2obo50bo7345b$2739bo820bo2176bo108bo3bo44b3o44b3o5bobo7342b$3486b2o72b3o2287bo45b2o43bo2bo7350b$3486b2o24bobo2218bo112bo2bo94bo7350b$2843bo58bo610b2o2218b2o209bo5b3o7342b$2842bo60bo609bo2218bobo31b2o173bobo5bo2bo7342b$2842b3o56b3o2861bobo184bo7342b$3478bo2288bo184bo7342b$2794bo681b2o2471bobo22b3o7318b$2793bo86bo596b2o13b3o2478bo2bo7318b$2772bo20b3o83bobo610b3o2267b2o212bo7318b$2771bo107bobo610bo2bo2267b2o211bo7318b$2771b3o106bo594bo17b3o2266bo32b3o175bobo7319b$3476b2o15b2o768b2o1532bo7497b$3475b2o112b2o670b2ob2o1530bo7498b$3588bobo670b4o1636b3o78b3o7310b$2861bo727bo672b2o1528bo107bo2bo78bo2bo7309b$2859b2o274bo2656b2o109bo78bo7312b$2860b2o272bobo2654bobo31b2o76bo72bo5bo7312b$3134bo2bo2686bobo73bobo40bo17bo13b3o5bobo7309b$2939b2o3b2o189b2o2689bo115b3o15b3o12bob2o7316b$2938bo2bo2b2o2995b2obo14b2obo13b3o7316b$2938bo2bo453bo2545b3o15b3o14b2o7317b$2939b2o454b2o2424b2o118b3o16b2o7333b$3397bo2424b2o118b2o7351b$3395b2o2424bo32b3o7438b$3395bo2460bo7438b$5855bo7439b$3397b2o9896b$3397b2o2452bo7443b$5851b2o106b3o7333b$3578bo2271bobo31b2o21bo50bo2bo7333b$3579bo2303bobo20b3o52bo7333b$3388bo188b3o2305bo20bob2o51bo7333b$3387bo152b3o28b2o2334b3o42b3o3bobo7334b$2872b2o513b3o149bo2bo28bobo2333b2o43bo2bo7339b$2872bob2o663b2obo23bo6b2o2305b2o70bo7342b$2874b2o667b2o19bobo4bobo10b2o2295b2o69bo7b3o7332b$2874b2o667b2o20b2o4bo11bobo2294bo72bobo4bo2bo7331b$2871b2o669bo2bo25bo2bo9bo2375bo7334b$3541bo2418bo7334b$2714bo159b2o665b3o29b2o2386bobo20b3o7308b$2713bo828bo2441bo2bo7307b$2713b3o218b2o3b2o186b2o2855bo7310b$2933bo2bo2b2o186bobo2854bo7310b$2933bo2bo192bo398bo2456bobo7307b$2934b2o191bobo399bo34bo9730b$2819bo44bo51bo210b2o398b3o32b2o9731b$2817b2o44bo53b2o209b2o344bo88b2o2346b3o78b3o7300b$2818b2o41b2ob2o50b2o211b2o343bobo2434bo2bo76bo2bo7300b$2860b5o264b2o321bo21b2o2435bo82bo7300b$2770bo88b2o2bo588bobo2446b2o8bo74bo7bo7300b$2768b2o89bob4o587b2o2447b2o9bobo38bo17bo13b3o3bobo7301b$2748bo20b2o42b3o43bo4bo664bobo2420b3o15b3o11b2obo7307b$2746b2o65bo2bo42bo2b2o665b2o2421bob2o14bob2o10b3o7308b$2747b2o64bo2bo44b2o256bo371bo38bo2422b3o15b3o11b2o7308b$2812b4o303bobo367bobo2461b3o15b2o7322b$2812b2o43bo261b2o369b2o2461b2o7340b$2811bo45bobo1471b2o8962b$2812bo22bo21b2o1471b4o8961b$2812bo22bobo1492b2ob2o8960b$2835b2o1495b2o8961b$3562b2o9731b$3561bobo2405b3o7323b$3407bo31bo122bo2406bo2bo7322b$3408bo30bo2529bo7325b$2929b2o3b2o470b3o29bobo2528bo7325b$2825bo102bo2bo2b2o3026b3o5bobo7322b$2823b6o99bo2bo508b2o2519bo2bo7330b$2823b2o2b2o100b2o3033bo7330b$3440b2o2522bo5b3o7322b$2827bo3133bobo5bo2bo7322b$2823b2o2bo3144bo7322b$2823b2o3bo685bo2457bo7322b$2827bo685b3o29bo2423bobo22b3o7298b$2825bobo609b2o74bob2o27b3o2446bo2bo7298b$2826bo537bo72b3o72b2o29b2o2bo2448bo7298b$3362b2o77bo70b2o2482bo7298b$2885bo477b2o74b2o71b2o2479bobo7299b$2886bo629bo9778b$2884b3o628b2o26b2o9750b$3436bobo74bobo28b3o2374b3o78b3o7290b$3436bobo73bo2bo31bo2372bo2bo78bo2bo7289b$3437bo75bobo29b3o2375bo78bo7292b$2690bo822b3o29b2o2376bo72bo5bo7292b$2688b2o823b2obo2403bobo40bo17bo13b3o5bobo7289b$2689b2o449bo311b3o58bo2bo2445b3o15b3o12bob2o7296b$2823bo314bobo311bo2bo58bo28b3o2415b2obo14b2obo13b3o7296b$2822bobo45bo268b2o311bo2bo85bo3bo2415b3o15b3o14b2o7297b$2822bobo12b3o28bobo51b2o529bo2bo84bo2419b3o16b2o7313b$2823bo13bo2bo28b2o50bo2bo520bo7b3o85bobo2418b2o7331b$2836bo3bo81b2o522bo7b2o9839b$2836b2o606b3o9848b$2837bobo677bo9777b$2744bo93b2o2bo675b2o9775b$2744bobo91bo2bo675b2o9776b$2722bo21b2o92bo3140b3o7313b$2722bobo112b2ob2o3049b2o85bo2bo7313b$2722b2o114bobo253bobo407bobo25bo2358b2o88bo7313b$2787bo46bo4bo254b2o409b2o24bo2449bo7313b$2786bo48bo259bo348bo60bo25b3o2438b3o3bobo7314b$2786b3o44b3o606b2o2528bo2bo7319b$3422bo20b2o2527bo7322b$3420b2o2550bo7b3o7312b$3421b2o2550bobo4bo2bo7311b$3498bo902b2o1577bo7314b$3498bobo898b2ob2o1576bo7314b$3421bo76b2o899b4o1578bobo20b3o7288b$3422b2o976b2o1602bo2bo7287b$2827bo593b2o2581bo7290b$2818bo6b2o708b2o2467bo7290b$2805bo11bobo6b2o706bobo2468bobo7287b$2803b2o12bobo97b2o616bo9759b$2804b2o12bo97bo2bo10375b$2917b2o599bo2412b3o78b3o7280b$3486b3o28b3o2411bo2bo76bo2bo7280b$3489bo27b3o2411bo82bo7280b$3486bo2bo2441bo74bo7bo7280b$3487b2o28b4o2411bobo38bo17bo13b3o3bobo7281b$3338bo148b2o27b5o2451b3o15b3o11b2obo7287b$3338bobo145bo2bo26b2obo2452bob2o14bob2o10b3o7288b$2899bo438b2o146bo2486b3o15b3o11b2o7288b$2900b2o586b2o2483b3o15b2o7302b$2899b2o616b2o2454b2o7320b$3516bo9778b$13295b$3515bobo2bo9774b$2664bo850bob3obo9773b$2664bobo847b3ob2obo9773b$2664b2o487bobo359bobo2471b3o7303b$3154b2o359b3o2471bo2bo7302b$2883bobo268bo310bo50bo2472bo7305b$2884b2o580b2o2521bo7305b$2813bo70bo574bo5b2o2515b3o5bobo7302b$2812bobo645b2o2519bo2bo7310b$2812bobo97b2o545b2o52b2o2469bo7310b$2813bo97bo2bo597bobo2469bo5b3o7302b$2719bobo190b2o599bo2467bobo5bo2bo7302b$2719b2o3271bo7302b$2697bobo20bo43b3o3225bo7302b$2697b2o65bo2bo302bo2918bobo22b3o7278b$2698bo69bo300bo2943bo2bo7278b$2765b3o301b3o2944bo7278b$3418bo2462b2o133bo7278b$3418bobo2460b2o130bobo7279b$3396bo21b2o75bo9799b$3396bobo97bo9798b$3396b2o96b3o2444b3o78b3o7270b$5940bo2bo78bo2bo7269b$5943bo78bo7272b$3437bo1031b2o1472bo72bo5bo7272b$3435bobo62bobo965b4o1468bobo40bo17bo13b3o5bobo7269b$2755bobo43bo104bo529b2o62b2o966b2ob2o1509b3o15b3o12bob2o7276b$2755b2o22b2o20bobo100b2ob2o592bo968b2o1509b2obo14b2obo13b3o7276b$2756bo21bo2bo19b2o103bo3074b3o15b3o14b2o7277b$2777b3o3201b3o16b2o7293b$2808bo3173b2o7311b$2779bobo25bobo658bo9826b$2807bobo656b2o40b2o9785b$2782bo25bo658b2o38bobo9785b$2748b3o30b2o621bo103bo9786b$2750bo562b3o86b2ob2o9888b$2748b3o565bo65bo19b2ob2o2592b3o7293b$2773bo539b3o64b2ob2o18bob3o2590bo2bo7293b$2749bo22bo607b2ob2o17b3o2596bo7293b$2747b3o22b3o606bob3o2615bo7293b$2745b3o40bo527b2o62b3o2609b3o3bobo7294b$2746b2o40bo527b2o2674bo2bo7299b$2787bobo613b2o2587bo7302b$3403b2o2587bo7b3o7292b$2639bobo147b2o590b2o2610bobo4bo2bo7291b$2639b2o528bo138bo72b2o19bo2597bo7294b$2640bo148b2o105bo273bo135b2o93bob2ob2o2592bo7294b$2895bo5b2o265b3o136b2o71bo19b2o4b2o2593bobo20b3o7268b$2895bo2bobobo476bob2ob2o14b2ob2o76bo2542bo2bo7267b$2896b3obob2o474b2o4b2o16bo76bobo2542bo7270b$2773bo124bob2ob3o472b2ob2o92bo4b2o2542bo7270b$2772bobo11b2o592bo92bobo2549bobo7267b$2772bobo11b3o112bo572b2o9819b$2695bo77bo16bo12bo97bo10393b$2694bo93b2o12bobo96bo3049b3o78b3o7260b$2673bo20b3o105bobo3146bo2bo76bo2bo7260b$2672bo130bo3147bo82bo7260b$2672b3o110bobo258bo362bo2541bo74bo7bo7260b$2785bobo256b2o364bo2541bobo38bo17bo13b3o3bobo7261b$2786bo258b2o340bo20b3o2581b3o15b3o11b2obo7267b$3388bo2603bob2o14bob2o10b3o7268b$3386b3o2604b3o15b3o11b2o7268b$5993b3o15b2o7282b$5871b2o120b2o7300b$5871b2o7422b$13295b$2755bo10539b$2756b2o692bobo23bo9818b$2755b2o134b2o558b2o22bo9819b$2891b2o495bo62bo23b3o2531b3o7283b$3386b2o2621bo2bo7282b$3366bo20b2o1150b2o1468bo7285b$3364b2o1171b2ob2o1467bo7285b$2768bo596b2o1170b4o1461b3o5bobo7282b$2767bobo672bo1095b2o1461bo2bo7290b$2767bobo672bobo2559bo7290b$2768bo29bo526bo116b2o2560bo5b3o7282b$2797bobo526b2o2673bobo5bo2bo7282b$2724bo46bo25bobo525b2o2685bo7282b$2724bobo42b2o27bo3213bo7282b$2724b2o23bo20b2o3237bobo22b3o7258b$2721bo25b2o687bo26bo2569bo2bo7258b$2720b3o25b2o536bo149b2o24b3o2571bo7258b$2719bo2b2o561b3o150bo26bo2570bo7258b$2719b3obo560b2o2bo147b2o25b2o2568bobo7259b$2722b2o561b5o145bobo26bo9830b$2615bo669b2o2bo146bo9858b$2614bo103bo567bo2bo144bobo2524b3o78b3o7250b$2614b3o100bo465bo102bobo143bo2527bo2bo78bo2bo7249b$2717b3o464b2o246bobo2528bo78bo7252b$3183b2o2778bo72bo5bo7252b$2886b2o606bobo2463bobo40bo17bo13b3o5bobo7249b$2886b2o607b2o2505b3o15b3o12bob2o7256b$3488bobo4bo2505b2obo14b2obo13b3o7256b$3489b2o2510b3o15b3o14b2o7257b$3489bo2511b3o16b2o7273b$2671bo3330b2o7291b$2669b2o87b2o3b2o511bo10018b$2649bo20b2o85bo2bo2b2o510bo10019b$2647b2o108bo2bo32bo481b3o183bo9833b$2648b2o108b2o32bobo225bo402bo37bo9833b$2792bobo225bobo401b2o9869b$2732bo60bo226b2o379bo21b2o2594b3o7273b$2731b3o668b2o54b2o2558bo2bo7273b$2730b2o2bo666b2o54bobo2561bo7273b$2730b2ob2o723bo2562bo7273b$2733b3o3276b3o3bobo7274b$2731bob2o3277bo2bo7279b$2730bo2bo3278bo7282b$2733bo3127b2o149bo7b3o7272b$2730bobo3128b2o150bobo4bo2bo7271b$2731bo3288bo7274b$3362bo2657bo7274b$2732b3o627bobo2656bobo20b3o7248b$2731bob2o146b2o457bo21b2o79bo2600bo2bo7247b$2732b2obo145b2o457bobo101bo2599bo7250b$3340b2o100b3o1162b2o1435bo7250b$4606b4o1435bobo7247b$2729bo1876b2ob2o8684b$2730bo610bo1266b2o8685b$2728b3o22b2o3b2o579bobo102bobo2524b3o78b3o7240b$2734bobo6bo8bo2bo2b2o580b2o102b2o2525bo2bo76bo2bo7240b$2735b2o5bob2o6bo2bo32bo656bo2525bo82bo7240b$2735bo8b2o7b2o32bobo3181bo74bo7bo7240b$2743b3o41bobo3182bobo38bo17bo13b3o3bobo7241b$2788bo3223b3o15b3o11b2obo7247b$2747b2o663bo40b2o2557bob2o14bob2o10b3o7248b$2746b3o661b2o40bobo2558b3o15b3o11b2o7248b$3256b3o40bo111b2o40bo2559b3o15b2o7262b$2591bo663bo2bo41bo2712b2o7280b$2589b2o103bo44bo515bo2bo39b3o9994b$2590b2o100b2o44bo460bo54bo2bo10037b$2693b2o20bo2bo19b3o456bobo54bo2bo10037b$2715bob2o479b2o58b2o250bo9784b$2717b2o539b2o64b3o184bo9783b$3256bo3bo63bo2bo176bo4b3o2517b3o7263b$3259b2o65b2o177bo2523bo2bo7262b$2719b2o155b2o383bo241b3o2523bo7265b$2719b2o155b2o378bo3bo61bo2bo124b2o2577bo7265b$2645bo611b3o63b2o126b2o2569b3o5bobo7262b$2645bobo678b2o122bo2570bo2bo7270b$2623bo21b2o678b3o137b2o2557bo7270b$2623bobo84bo615bo137bobo2557bo5b3o7262b$2623b2o85bobo35b2o3b2o240bobo325b2ob2o111bo26bo2554bobo5bo2bo7262b$2710b2o14bo20bo2bo2b2o240b2o326b2ob2o109bobo40bo2551bo7262b$2725b3o19bo2bo32bo212bo326bo3bo89bo20b2o40b2o2550bo7262b$2728bo19b2o32bobo538bo3bo87bobo61bobo2547bobo22b3o7238b$2726b2o54bobo539bo91b2o2635bo2bo7238b$2727bo55bo710b3o2559bo7238b$3496bo2559bo7238b$3244bobo248bo2557bobo7239b$3244b2o263b2o9784b$3245bo264b2o9783b$3509bo2471b3o78b3o7230b$3329bo7b2o2641bo2bo78bo2bo7229b$3330bo5bo2bo2511b2o130bo78bo7232b$3328b3o5bo2bo2511b2o130bo72bo5bo7232b$3336bo2643bobo40bo17bo13b3o5bobo7229b$3339bo2682b3o15b3o12bob2o7236b$3337b3o2681b2obo14b2obo13b3o7236b$2871b2o466b2o2680b3o15b3o14b2o7237b$2743bo127b2o467bo2680b3o16b2o7253b$2724bo19b2o608bobo63bo2601b2o7271b$2724bo18b2o610b2o62bo1257b2o8616b$3332bo22bo63b3o1253b2ob2o8615b$3330b2o1343b4o8616b$2743b2o3b2o560bo20b2o1343b2o8617b$2742bo2bo2b2o558b2o9985b$2742bo2bo32bo530b2o2728b3o7253b$2743b2o32bobo606bo2651bo2bo7253b$2777bobo606bobo2652bo7253b$2778bo534bo72b2o2653bo7253b$2565bo748b2o201b2o2513b3o3bobo7254b$2565bobo100bo644b2o202b2o2513bo2bo7259b$2565b2o101bobo541bobo2817bo7262b$2668b2o543b2o2817bo7b3o7252b$3213bo2819bobo4bo2bo7251b$6040bo7254b$6040bo7254b$6041bobo20b3o7228b$6064bo2bo7227b$3271bobo2790bo7230b$2620bobo649b2o2790bo7230b$2620b2o85bobo156b2o404bo2792bobo7227b$2598bobo20bo85b2o157b2o10427b$2598b2o85bobo20bo262bo10323b$2599bo85b2o283bo481bobo2536b3o78b3o7220b$2686bo283b3o480b2o2536bo2bo76bo2bo7220b$2736bo693bobo20bo2537bo82bo7220b$2735bobo693b2o2558bo74bo7bo7220b$2735bobo693bo2560bobo38bo17bo13b3o3bobo7221b$2736bo36bo3258b3o15b3o11b2obo7227b$2772bobo445bo2811bob2o14bob2o10b3o7228b$2772bobo444bo2813b3o15b3o11b2o7228b$2773bo445b3o2811b3o15b2o7242b$3512b2o2519b2o7260b$3512b2o9781b$13295b$13295b$13295b$13295b$5841b2o206b3o7243b$5841b2o206bo2bo7242b$6049bo7245b$3370bo2678bo7245b$3371bo24bo2645b3o5bobo7242b$2861b2o506b3o22b2o2645bo2bo7250b$2861b2o443bo88b2o2647bo7250b$3306bobo1436b2o1297bo5b3o7242b$3284bo21b2o1436b4o1293bobo5bo2bo7242b$3284bobo1457b2ob2o1303bo7242b$2731bo552b2o1460b2o1304bo7242b$2730bobo628bobo2685bobo22b3o7218b$2730bobo628b2o2710bo2bo7218b$2731bo36bo560bo32bo2713bo7218b$2540bobo224bobo557bobo2746bo7218b$2540b2o99bo125bobo458bo99b2o2743bobo7219b$2541bo98bobo125bo460bo10065b$2640bob2o583b3o277b2o9786b$2642bo864b2o2492b3o78b3o7210b$3354b3o24b3o2616bo2bo78bo2bo7209b$2643bob2o709bo25bo2620bo78bo7212b$2644b2o708b3o25b3o2618bo72bo5bo7212b$3287bo2712bobo40bo17bo13b3o5bobo7209b$2596bo691bo66bo2686b3o15b3o12bob2o7216b$2595bo42bo44bo602b3o64b3o2685b2obo14b2obo13b3o7216b$2574bo20b3o38b2o44bo668b3o2687b3o15b3o14b2o7217b$2573bo63b2o22bo20b3o667b2o2687b3o16b2o7233b$2573b3o84bo286bo520bo2573b2o7251b$2660b3o193b2o87b2o522bo9825b$2856b2o88b2o432bobo63bo20b3o9825b$3380bobo64bo9847b$2657bo787b3o9847b$2656b3o724bo9911b$2655b2o2bo66bo3332b3o7233b$2659bo65bobo468bo2861bo2bo7233b$2658bo66bobo466b2o2865bo7233b$2654bo71bo36bo431b2o182bobo2679bo7233b$2654bobo105bobo615bo2671b3o3bobo7234b$2654b2o106bobo3287bo2bo7239b$2763bo3288bo7242b$3377b2o123b2o2548bo7b3o7232b$3376bobo123b2o2549bobo4bo2bo7231b$3377bo2682bo7234b$6060bo7234b$6061bobo20b3o7208b$6084bo2bo7207b$5831b2o251bo7210b$5831b2o251bo7210b$6085bobo7207b$2665b3o613bobo10011b$2664bo2bo613b2o10012b$2664bo3bo182b2o406bobo20bo78bo2649b3o78b3o7200b$2651bo11b2obobo182b2o406b2o101b2o2647bo2bo76bo2bo7200b$2650bobo10b2ob2o592bo100b2o2648bo82bo7200b$2650bobo11b3o2148b2o1194bo74bo7bo7200b$2651bo2161b2ob2o1194bobo38bo17bo13b3o3bobo7201b$2516bo204bo620bobo19bo1448b4o1235b3o15b3o11b2obo7207b$2515bo204bobo620b2o18bo1450b2o1236bob2o14bob2o10b3o7208b$2515b3o202bobo519bo100bo19b3o2687b3o15b3o11b2o7208b$2665b2obo52bo36bo484b2o2808b3o15b2o7222b$2665bobobo87bobo482b2o2809b2o7240b$2668bo88bobo10535b$2758bo10536b$3330bo41b2o123b2o9796b$2668bo661bobo38bobo123b2o9796b$2669bo631bo28b2o21b2o17bo9922b$2572bo90b2o2bobo632b2o23bo24b3o2714b3o7223b$2570b2o40bo55bo632b2o23b3o23bo2bo2713bo2bo7222b$2550bo20b2o39bobo710bo2b2o22b2ob2o2712bo7225b$2548b2o62b2o711b3obo22b2ob2o2712bo7225b$2549b2o370bo406b2o21b2ob2o126bo2579b3o5bobo7222b$2921bobo428bo130b2o2576bo2bo7230b$2921b2o401bo28b3o104bo21b2o2580bo7230b$3323bo30bo106b2o2601bo5b3o7222b$2846b2o475b3o134b2o2599bobo5bo2bo7222b$2646bo199b2o521b2o2701bo7222b$2645bobo720bobo2701bo7222b$2645bobo3bobo516bo199bo2698bobo22b3o7198b$2646bo4b2o517bobo211bo2708bo2bo7198b$2600bo28bobo20bo63bo453b2o212b2o2710bo7198b$2599bobo27b2o84bobo665bobo2710bo7198b$2598bo3bo27bo84bobo3375bobo7199b$2599bo2bo113bo36bo644b3o9894b$2599bo2bo149bobo645bo9894b$2600bobo149bobo644bo2621b3o78b3o7190b$2753bo659b2o2605bo2bo78bo2bo7189b$3414b2o76b2o2529bo78bo7192b$3413bo78b2o2529bo72bo5bo7192b$3428b2o2590bobo40bo17bo13b3o5bobo7189b$3427bobo2632b3o15b3o12bob2o7196b$3348b2o79bo2631b2obo14b2obo13b3o7196b$3257bo89bobo93bo2617b3o15b3o14b2o7197b$3256bo91bo94b2o2376b2o238b3o16b2o7213b$3235bo20b3o183bobo2376b2o239b2o7231b$3234bo10060b$3234b3o220b3o9835b$2615bo843bo9835b$2614bobo224b2o615bo9836b$2613b2ob2o23bo199b2o10452b$2492bo121bo2bo22bobo2240b2o1194b3o7213b$2490b2o122bo3bo21bobo2239b4o1192bo2bo7213b$2491b2o121bo26bo616bo1623b2ob2o1194bo7213b$2711bo544bobo1625b2o1195bo7213b$2710bobo544b2o76bo129b3o2604b3o3bobo7214b$2614b2o94bobo623bo2735bo2bo7219b$2615bo95bo36bo585b3o126bo5bo2602bo7222b$2747bobo713bo5bo2602bo7b3o7212b$2607bo4bo134bobo713bo5bo16b2o2585bobo4bo2bo7211b$2608bo3bob2ob2o129bo568bo168b2o2592bo7214b$2546bo59b3o2b2ob2ob2o696bobo14bobo130b3o2612bo7214b$2546bobo63bobo701b2o14b2o2747bobo20b3o7188b$2524bo21b2o65bo719bo2770bo2bo7187b$2524bobo3577bo7190b$2524b2o370bobo444b2o2759bo7190b$2896b2o444bobo2760bobo7187b$2897bo403bo25b2o14bo9951b$3301bo25bobo9965b$2582b2o711b2o32b2o2700b3o78b3o7180b$2582b2o711bob2o29bo2702bo2bo76bo2bo7180b$2584bo34bo5bo2bo669b2o26bobo2702bo82bo7180b$2582b2o36b2o3bob2o207b2o307bobo150bobo24b2o2704bo74bo7bo7180b$2582b2o35b2o6b2o7bo199b2o307b2o148bo3b2o24b3o2704bobo38bo17bo13b3o3bobo7181b$2635bobo508bo152bo2772b3o15b3o11b2obo7187b$2584b2o49bobo704b2o2728bob2o14bob2o10b3o7188b$2584b2o43b2o5bo504b3o199b2o2728b3o15b3o11b2o7188b$2629b2o75bo433bo2bo148bobo47bo118bo2611b3o15b2o7202b$2705bobo432b2o2bo147b2o63b2o102bo2611b2o7220b$2705bobo435b2o148bo62bobo102bo9833b$2706bo36bo614bo9936b$2574bobo43bo121bobo395bo231bo84b3o3b3o9829b$2574b2o44bobo119bobo393b2o232b2o107b2o9812b$2575bo22bo21b2o121bo395b2o230bobo87bo19b2o9812b$2598bobo860bo2627b3o7203b$2598b2o786b3o72bo2627bo2bo7202b$2608bo624bo154bo2700bo7205b$2607bobo621b2o154bo2701bo7205b$2607bobo601bo20b2o167b2o2679b3o5bobo7202b$2608bo600b2o191b2o2677bo2bo7210b$3210b2o189bo2409b2o271bo7210b$3416b2o2393b2o271bo5b3o7202b$3319b2o94bobo2663bobo5bo2bo7202b$3318bobo96bo2674bo7202b$2466bo852bo111bo2660bo7202b$2466bobo362b2o598b2o2656bobo22b3o7178b$2466b2o163bo199b2o438bobo156bobo2680bo2bo7178b$2632bo639b2o2842bo7178b$2631bo640bo172b3o1505b2o1161bo7178b$3447bo1503b2ob2o1157bobo7179b$2626b2o73bo744bo1504b4o8340b$2626bo73bobo2249b2o8341b$2628b3o69bobo3338b3o78b3o7170b$2625bo5bo69bo36bo3301bo2bo78bo2bo7169b$2521bobo102bo4bo105bobo717bo2585bo78bo7172b$2521b2o104bo2bo106bobo716bobo17b2o2565bo72bo5bo7172b$2499bobo20bo106bo108bo717bobo17b2o2562bobo40bo17bo13b3o5bobo7169b$2499b2o123bo247bo584bo2624b3o15b3o12bob2o7176b$2500bo122bo247bo433bobo2773b2obo14b2obo13b3o7176b$2603bo19b3o245b3o432b2o141bo2631b3o15b3o14b2o7177b$2602bobo701bo2774b3o16b2o7193b$2602bobo3477b2o7211b$2593bobo7bo545bo10145b$2594b2o554b2o149bo9993b$2594bo554b2o150bobo9991b$3301b2o11b2o9979b$3313bobo9979b$3314bo2784b3o7193b$2826b2o3270bo2bo7193b$2826b2o440bo2832bo7193b$3267bo2833bo7193b$3267b3o2822b3o3bobo7194b$6092bo2bo7199b$2550bo145bo3395bo7202b$2549bo45bobo97bobo414bo2979bo7b3o7192b$2549b3o43b2o98bobo413bob2o2978bobo4bo2bo7191b$2572b2obo20bo99bo36bo379b2o2985bo7194b$2570bo4bo156bobo377b3o337bo2647bo7194b$2569bo5bo156bobo716bobo17b2o2628bobo20b3o7168b$2569bo163bo382b2o89bo243bobo17b2o2651bo2bo7167b$2568b2ob2obo540b3o67b2o20bobo242bo2671bo7170b$2568b2obo2bo609bo2bo19b2o2915bo7170b$2570b4o14b3o7bo584b3o2939bobo7167b$2571b3o16bo6bobo508bo10186b$2588b3o6bobo507bo77bobo10107b$2568bo29bo508b3o2941b3o78b3o7160b$2566b2o21bo598bo2612b2o248bo2bo76bo2bo7160b$2441bobo123b2o18b3o597b2o2612b2o248bo82bo7160b$2441b2o142b3o49bo649bo2763bo74bo7bo7160b$2442bo143b2o50bo649bo2763bobo38bo17bo13b3o3bobo7161b$2636b3o540bo106b3o2803b3o15b3o11b2obo7167b$2821b2o355bo2913bob2o14bob2o10b3o7168b$2821b2o355b3o2912b3o15b3o11b2o7168b$2607b2o585bo1826b2o1070b3o15b2o7182b$2608b2o584bo1825b4o1069b2o7200b$2607bo585bobo1824b2ob2o8270b$2497bo124b2o2398b2o8271b$2496bo124bobo571b2o10098b$2475bo20b3o124bo10671b$2474bo253bo466b2o10098b$2474b3o209bo2bo37bobo118bo598bo2661b3o7183b$2686bob2o37bobo116b2o598bobo17b2o2641bo2bo7182b$2688b2o38bo118b2o597bobo17b2o2641bo7185b$3447bo2661bo7185b$3192b2o2908b3o5bobo7182b$2690b2o473bo26b3o2906bo2bo7190b$2690b2o471bobo30bo79bobo2825bo7190b$3164b2o28b2o80b2o2826bo5b3o7182b$3277bo2823bobo5bo2bo7182b$6112bo7182b$2681bo509bobo2918bo7182b$2681bobo507bobo2915bobo22b3o7158b$2681b2o509bo51bo2888bo2bo7158b$3242b2o2892bo7158b$2816b2o305bo119b2o2891bo7158b$2816b2o306bo3008bobo7159b$2526bo52bo542b3o10170b$2524b2o54b2o10713b$2525b2o52b2o3480b3o78b3o7150b$2636b2o3422bo2bo78bo2bo7149b$2636b2o3425bo78bo7152b$6063bo72bo5bo7152b$2669bo53bo3336bobo40bo17bo13b3o5bobo7149b$2668bobo51bobo717bo2659b3o15b3o12bob2o7156b$2667bo3bo50bobo359b2o355bobo17b2o2638b2obo14b2obo13b3o7156b$2668bo2bo51bo360b2o355bobo17b2o2638b3o15b3o14b2o7157b$2564bo103bo2bo414bo355bo2658b3o16b2o7173b$2564bobo102bobo412b2o3016b2o7191b$2542bo21b2o518b2o10209b$2417bo124bobo10750b$2416bo125b2o542b2o68b3o10136b$2416b3o667b2o68bo2bo17bo123bo9993b$3160bo14b2o125b2o2487b2o7502b$2510b3o644b3o16b2o123b2o2488b2o326b3o7173b$2509bo3bo3604bo2bo7173b$6121bo7173b$2514bo561bobo3042bo7173b$2509b5o297b2o263b2o3034b3o3bobo7174b$2510bo300b2o264bo3034bo2bo7179b$2473bo3638bo7182b$2471b2o692bo1925b2o1019bo7b3o7172b$2451bo20b2o36b2o188bo464b2o1922b2ob2o1019bobo4bo2bo7171b$2449b2o59b2o186bobo463bo2bo1921b4o1027bo7174b$2450b2o58bo188b2o121bo324bobo15bobo1922b2o1028bo7174b$2509b2o311bobo322b2o15bo2bo2953bobo20b3o7148b$2507b2obob3o203bo103b2o324bo15bo2bo2976bo2bo7147b$2513b2o202bobo444bobo270bo2706bo7150b$2507bo2bo206bobo445b3o268bobo17b2o2686bo7150b$2508b3o207bo459bobo71bo183bobo17b2o2687bobo7147b$3179b2o70bo185bo9857b$2676bo502bo71b3o10041b$2525b3o149bo3393b3o78b3o7140b$2525bo2bo146b3o3393bo2bo76bo2bo7140b$2524bo3bo182bo3359bo82bo7140b$2525bo2b2o180b3o3358bo74bo7bo7140b$2527bo181b5o504bo2853bobo38bo17bo13b3o3bobo7141b$2525b2o182b2ob3o503bobo2891b3o15b3o11b2obo7147b$2515bobo6b3o183b2ob2o422bo80b2o2892bob2o14bob2o10b3o7148b$2516b2o6b3o185bo425b2o2973b3o15b3o11b2o7148b$2516bo78bo541b2o2974b3o15b2o7162b$2593bobo210b2o3305b2o7180b$2526b2o66b2o210b2o10487b$2525bob2o122bo10643b$2525bo3bo119b2o10644b$2528bo121b2o10643b$2626b2o10667b$2626b2o3501b3o7163b$3095bobo3031bo2bo7162b$2494bo34bo566b2o3031bo7165b$2493bo36bo6bo558bo335bo2696bo7165b$2493b3o32b3o5bobo892bobo17b2o2669b3o5bobo7162b$2536bob2o516bo374bobo17b2o2668bo2bo7170b$2393bo144bo516b3o374bo2691bo7170b$2391b2o661bo2b2o3065bo5b3o7162b$2392b2o145bob2o124bo390bo258bo2803bobo5bo2bo7162b$2540b2o123bobo390b2o68bo186bobo2814bo7162b$2666b2o392bo66b3o186b2o2814bo7162b$3057b4o65bo2b2o2998bobo22b3o7138b$2534bo522b2o67b4o2651b2o370bo2bo7138b$2532b2o595bobo2649b2o373bo7138b$2512bo20b2o594bo2bo3023bo7138b$2510b2o617b3o3021bobo7139b$2447bo63b2o615bobo10164b$2447bobo678bobo14bo10149b$2425bo21b2o679b3o13bo2936b3o78b3o7130b$2425bobo91bo624b3o278bo1733b2o919bo2bo78bo2bo7129b$2425b2o91bobo903b3o1731b4o921bo78bo7132b$2518bobo902b2o2bo1730b2ob2o920bo72bo5bo7132b$2519bo525bo377bo3bo1732b2o918bobo40bo17bo13b3o5bobo7129b$3045bobo375bob2o2695b3o15b3o12bob2o7136b$3045b2o92b2o53bo228b2o2696b2obo14b2obo13b3o7136b$3139bobo53bo32bo2892b3o15b3o14b2o7137b$3141bo51b3o30b2o2893b3o16b2o7153b$2689bo449bobo85b2o217b2o2674b2o7171b$2688b2o448bo307b2o9847b$2689b2ob2o422bo21bobo283b2o2bo9866b$2690b4o422bobo19bo285bobobo9866b$2691bo424b2o19bo289bo9867b$3193bobo10099b$3193b2o2944b3o7153b$3153bo40bo2943bo2bo7153b$3151bobo272bobo2712bo7153b$2608bobo541b2o273b2o2712bo7153b$2609b2o816bo2704b3o3bobo7154b$2609bo3522bo2bo7159b$2625bo3506bo7162b$2625bobo3504bo7b3o7152b$2625b2o3506bobo4bo2bo7151b$2514bo3625bo7154b$2513bobo595bo3028bo7154b$2513bobo170b2o424bo3028bobo20b3o7128b$2470bo43bo101b2o67bo2bo421b3o3051bo2bo7127b$2468b2o146b2o68b2o723bo2752bo7130b$2469b2o216b2o490b3o228bo2753bo7130b$2688b2o720b3o2752bobo7127b$2367bo320b2o489bobo10113b$2367bobo812bo27bo230b2o9852b$2367b2o657b3o149bo3bo26b3o118bobo108b2o2648b3o78b3o7120b$3026bo2bo178b2o2bo118b2o2758bo2bo76bo2bo7120b$3024bo4bo40bo107bo2b2o25bo3bo118bo2759bo82bo7120b$3068bobo137bob2o2879bo74bo7bo7120b$2508bo515bo44b2o27b3o107b2o2882bobo38bo17bo13b3o3bobo7121b$2508bobo514bo72bo2bo77bo2952b3o15b3o11b2obo7127b$2486bo21b2o516b2obo67bo3bo77bo2952bob2o14bob2o10b3o7128b$2486bobo538bo2bo66b4o77bo2592b2o360b3o15b3o11b2o7128b$2422bobo61b2o539b2o69bo80bob2o2588b2o360b3o15b2o7142b$2422b2o604bo2bo151bo25b2o2bo2919b2o7160b$2400bobo20bo607bo144bo4bo27bobobo10081b$2400b2o625bo184bo10082b$2401bo628bo146bobo10115b$3027b3o68b2ob2o74b3o29bo10085b$2509bo588bob3o104bo2b2o10083b$2508bobo694b2o2022b2o918b3o7143b$2508bobo694bo2021b2ob2o917bo2bo7142b$2509bo159b2o534bobo2019b4o918bo7145b$2669b2o430bo2126b2o919bo7145b$3102bo9b2obo3026b3o5bobo7142b$3100b3o7bo4bo3025bo2bo7150b$3109bo5bo69bo2958bo7150b$3109bo76b2o2956bo5b3o7142b$3015bo92b2ob2obo70b2o2954bobo5bo2bo7142b$3013b2o93b2obo2bo3037bo7142b$3014b2o94b4o3038bo7142b$3111b3o52bobo27bo2952bobo22b3o7118b$3167b2o26bo2977bo2bo7118b$3108bo58bo27b3o2978bo7118b$3106b2o3068bo7118b$3086bo20b2o3064bobo7119b$3084b2o10209b$3085b2o10208b$3162bo2938b3o78b3o7110b$3162bobo2935bo2bo78bo2bo7109b$3125bo36b2o2939bo78bo7112b$3126b2o2975bo72bo5bo7112b$2444bo59bo620b2o73b2o2898bobo40bo17bo13b3o5bobo7109b$2444bobo56bobo693bobo185bo2754b3o15b3o12bob2o7116b$2444b2o57bobo169b2o523bo184b2o2754b2obo14b2obo13b3o7116b$2504bo169b4o708b2o2753b3o15b3o14b2o7117b$2342bobo329b2ob2o3462b3o16b2o7133b$2342b2o332b2o668bo2795b2o7151b$2343bo1003bo9947b$3345b3o9947b$2998bo84bobo64bo29b3o10112b$2997b3o84b2o63bobo28bobo10112b$2483bobo510b2o2bo83bo63bo3bo27bo2bo10111b$2483b2o511b2ob2o148bo2bo28b3o2975b3o7133b$2461bobo20bo514b3o68bo78bo2bo28b3o2974bo2bo7133b$2398bo62b2o534bob2o68b3o78bobo26bo2bo2978bo7133b$2397bo64bo533bo2bo69bo2bo109bo2978bo7133b$2376bo20b3o599bo71b2o106bo2972b3o3bobo7134b$2375bo620bobo72bo108b2o11b2o2566b2o389bo2bo7139b$2375b3o52bo566bo44bo25b2o109b3o10bobo2566b2o389bo7142b$2428b2ob2o610b2o23b4o107b2o13bo2957bo7b3o7132b$2428b2ob2o565b3o41b2o25bo2bo105bobo2b2o23bo2944bobo4bo2bo7131b$2429bob3o563bob2o69bo107bobo2b2o23b2o2950bo7134b$2428b3o567b2obo67bo108b3o26bobo2950bo7134b$2450bo617b2o3091bobo20b3o7108b$2449b3o47bo567bo5bo148b3o2072b2o885bo2bo7107b$2449b4o45bobo566b2o3b2o150bo2071b4o884bo7110b$2429b2o67bobo567b2o153bo2072b2ob2o883bo7110b$2429b2o68bo159b2o576b2o2059b2o885bobo7107b$2449b4o206b2o339bobo173b2o60b2o10055b$2428bo20b4o548b2o172bobo59bo10057b$2427bob2ob2o17bo549bo174bo75b2o2857b3o78b3o7100b$2426b2o4b2o817bobo2857bo2bo76bo2bo7100b$2426b2ob2o822bo2857bo82bo7100b$2428bo838bo2843bo74bo7bo7100b$3082b2o183b2o2843bobo38bo17bo13b3o3bobo7101b$3073bobo5bo2bo181bobo2883b3o15b3o11b2obo7107b$3074b2o4b3o3069bob2o14bob2o10b3o7108b$3074bo82bo123b3o2869b3o15b3o11b2o7108b$3082bobo73bo124bo2869b3o15b2o7122b$2983bo172b3o123bo2870b2o7140b$2982bo102bo210b2o9997b$2435bo546b3o99b2o211b2o9996b$2436bo704bo154bo9998b$2434b3o702bobo22bobo144b2o9982b$3076bo63b2o22b2o144bobo9982b$3075bo89bo146bo48bo2807b3o7123b$2463bo590bo20b3o248bo34bobo2805bo2bo7122b$2318bo143b3o29bo558bo272b2o33b2o2806bo7125b$2317bo143bo2b2o27bobo557b3o269bobo2841bo7125b$2317b3o145bo27bobo636bo227bo2801b3o5bobo7122b$2465b2o27bo250b2o383b2o208b3o18b2o2798bo2bo7130b$2467bo275b2ob2o351bo31b2o38b2o169bo17b2o12bo2789bo7130b$2464b4o275b4o353bo69bobo168bo32b2o2788bo5b3o7122b$2414bo42bo6b2o278b2o352b3o70bo183b2o16bobo2785bobo5bo2bo7122b$2412b2o44b2o896b2o2814bo7122b$2413b2o42b2o896bo32b3o2781bo7122b$3151b3o216b2o18bo2778bobo22b3o7098b$2374bo746bobo27b3o215bobo17bo2803bo2bo7098b$2372b2o745bo4bo26bo2bo216bo31b2o2791bo7098b$2352bo20b2o744bo4bo27b3o230bo18b2o2790bo7098b$2350b2o689bo81b2o27b2o231b2o16bo2789bobo7099b$2351b2o687b3o15bo325bobo31b2o9875b$3043bo12bobo60b2o2b2o292bobo9875b$2452bo588b2o14b2o60b2o2b2o274b3o17bo2331b2o368b3o78b3o7090b$2452bobo587bo77bob3o276bo31bo2317b2o367bo2bo78bo2bo7089b$2430bo21b2o669bo276bo32b2o2688bo78bo7092b$2430bobo689bo291b2o16bobo2688bo72bo5bo7092b$2430b2o983b2o2703bobo40bo17bo13b3o5bobo7089b$3414bo32b3o2712b3o15b3o12bob2o7096b$3429b2o18bo2711b2obo14b2obo13b3o7096b$2489bo526bo411bobo17bo2712b3o15b3o14b2o7097b$2488bobo526bo412bo31b2o1903b2o792b3o16b2o7113b$2488bobo524b3o426bo18b2o1900b2ob2o792b2o7131b$2489bo159b2o793b2o16bo1902b4o7926b$2649b2o792bobo31b2o1887b2o7927b$3476bobo9816b$3458b3o17bo9816b$3460bo31bo9802b$3039bo107b2o310bo32b2o2685b3o7113b$3039bo106bobo324b2o16bobo2684bo2bo7113b$3147bo326b2o2705bo7113b$3473bo32b3o2672bo7113b$2959bo528b2o18bo2663b3o3bobo7114b$2957b2o528bobo17bo2664bo2bo7119b$2449bo508b2o93b3o433bo31b2o2649bo7122b$2450b2o601bo2bo446bo18b2o2648bo7b3o7112b$2449b2o606bo445b2o16bo2651bobo4bo2bo7111b$3048bo5b3o445bobo31b2o2642bo7114b$3046bobo486bobo2642bo7114b$3047b2o468b3o17bo2643bobo20b3o7088b$2294bo834bobo387bo31bo2652bo2bo7087b$2292b2o836b2o386bo32b2o2651bo7090b$2293b2o835bo401b2o16bobo2651bo7090b$2484bo1048b2o2670bobo7087b$2483bobo627bo418bo32b3o9727b$2388b2o93bobo327b2o299b2o17bo413b2o18bo9727b$2387bo2bo93bo327b4o297b2o18bobo410bobo17bo2564b3o78b3o7080b$2386b3o423b2ob2o227bobo86b2o413bo31b2o2549bo2bo76bo2bo7080b$2814b2o228b2o516bo18b2o2548bo82bo7080b$2388bobo631bobo20bo516b2o16bo2550bo74bo7bo7080b$2348bo673b2o537bobo31b2o2535bobo38bo17bo13b3o3bobo7081b$2348bobo40bo631bo76bo41b2o450bobo2575b3o15b3o11b2obo7087b$2326bo21b2o40b2o707bo41bobo432b3o17bo2575bob2o14bob2o10b3o7088b$2326bobo770b3o21bo18bo435bo31bo2562b3o15b3o11b2o7088b$2326b2o743bobo47b6o450bo32b2o2561b3o15b2o7102b$2382bo689b2o47b2o2b2o464b2o16bobo2561b2o7120b$2381bo45bobo642bo23bo495b2o9701b$2381b3o43b2o582bobo81b3o27bo465bo32b3o9668b$2404b2obo20bo582bo2bo79b2o2bo22b2o2bo480b2o18bo9668b$2402bo4bo602bo3b2o82bo22b2o3bo478bobo17bo2115b2o7552b$2401bo5bo602bo86bo27bo481bo31b2o2100b2o7552b$2401bo691bo29bobo495bo18b2o2547b3o7103b$2400b2ob2obo603bo2b3o77bobo28bo496b2o16bo2549bo2bo7102b$2400b2obo2bo603b2o18bo62b2o525bobo31b2o2533bo7105b$2402b4o606b3o16b2o620bobo2533bo7105b$2403b3o606b3o15b2o603b3o17bo2526b3o5bobo7102b$3637bo31bo1765b2o744bo2bo7110b$2400bo1235bo32b2o1763b4o746bo7110b$2398b2o1250b2o16bobo1763b2ob2o745bo5b3o7102b$2399b2o238b2o1010b2o1783b2o743bobo5bo2bo7102b$2474b3o162b2o1009bo32b3o2506bo7102b$2474bob3o1186b2o18bo2506bo7102b$3664bobo17bo2504bobo22b3o7078b$2477bobo1186bo31b2o2513bo2bo7078b$2477bobo1200bo18b2o2515bo7078b$2478b2o454bo745b2o16bo2517bo7078b$2412bo522b2o742bobo31b2o2498bobo7079b$2411b3o51bo463b2o781bobo9580b$2411bob2o48bobo5bo457bo188b2o574b3o17bo9580b$2410b2o52b2o5bobo457b3o91bo91bobo576bo31bo2412b3o78b3o7070b$2410b2o59b2o455bo5bo89b3o91bo576bo32b2o2410bo2bo78bo2bo7069b$2410b2o517bo4bo88bo2b2o681b2o16bobo2413bo78bo7072b$2397bo16bo515bo2bo89b4o683b2o2431bo72bo5bo7072b$2268bo127bobo14b2o517bo93bobo680bo32b3o2395bobo40bo17bo13b3o5bobo7069b$2268bobo125bobo12bobo513bo98bo2bo694b2o18bo2437b3o15b3o12bob2o7076b$2268b2o127bo12bo2bo512bo99b3o694bobo17bo2437b2obo14b2obo13b3o7076b$2411bobo512b3o96bobo697bo31b2o2422b3o15b3o14b2o7077b$2411b3o611bobo711bo18b2o2421b3o16b2o7093b$2411b2obo610b3o711b2o16bo2424b2o7111b$2411bo2bo605bo717bobo31b2o9521b$2412bo608b2o748bobo9521b$3020b2o731b3o17bo9521b$2883b2o219bo650bo31bo9507b$2323bobo555b2ob2o216bobo649bo32b2o9506b$2323b2o556b4o218b2o663b2o16bobo2410b3o7093b$2301bobo20bo557b2o885b2o2427bo2bo7093b$2301b2o784bo680bo32b3o2397bo7093b$2302bo785bo14bo679b2o18bo2397bo7093b$2358bo727b3o12b2o679bobo17bo2389b3o3bobo7094b$2356b2o655bo88b2o680bo31b2o2374bo2bo7099b$2357b2o654bobo782bo18b2o2373bo7102b$2991bo21b2o98b2o683b2o16bo2375bo7b3o7092b$2991bobo118bobo682bobo31b2o2360bobo4bo2bo7091b$2991b2o75b2o27b3o13bo716bobo2367bo7094b$3067bo2bo26bo2bo711b3o17bo2367bo7094b$2392bo674bo2bo26bo2bo713bo31bo1884b2o468bobo20b3o7068b$2391bobo652bo20bo28b4o713bo32b2o1883b2o491bo2bo7067b$2391bobo650bobo23bo25b2o729b2o16bobo2376bo7070b$2392bo3bo648b2o21b3o24bo732b2o2394bo7070b$2396bobo87bo583b2o24bo730bo32b3o2362bobo7067b$2374bo21b2o86bobo584bo24bo745b2o18bo9432b$2374bobo108b2o1354bobo17bo9433b$2374b2o1467bo31b2o2274b3o78b3o7060b$3063bo793bo18b2o1627b2o644bo2bo76bo2bo7060b$3061b2o794b2o16bo1627b2ob2o643bo82bo7060b$2629b2o309bo121b2o792bobo31b2o1611b4o644bo74bo7bo7060b$2629b2o310bo947bobo1612b2o646bobo38bo17bo13b3o3bobo7061b$2939b3o929b3o17bo2300b3o15b3o11b2obo7067b$3873bo31bo2286bob2o14bob2o10b3o7068b$3872bo32b2o2286b3o15b3o11b2o7068b$3886b2o16bobo2286b3o15b2o7082b$3887b2o2304b2o7100b$3886bo32b3o9373b$3901b2o18bo9373b$3900bobo17bo9374b$3902bo31b2o9359b$2243bobo1670bo18b2o9358b$2243b2o658bo1012b2o16bo2274b3o7083b$2244bo142bo513b2o186b2o824bobo31b2o2258bo2bo7082b$2386bobo513b2o184bobo857bobo2258bo7085b$2386bobo700bo840b3o17bo2258bo7085b$2387bo1544bo31bo2237b3o5bobo7082b$3931bo32b2o2235bo2bo7090b$3945b2o16bobo2238bo7090b$3946b2o2256bo5b3o7082b$2299bo1645bo32b3o2220bobo5bo2bo7082b$2298bo1661b2o18bo2231bo7082b$2277bo20b3o650b2o1006bobo17bo2232bo7082b$2276bo673b4o1007bo31b2o2214bobo22b3o7058b$2276b3o671b2ob2o1020bo18b2o2237bo2bo7058b$2952b2o1021b2o16bo2242bo7058b$2332bo1641bobo31b2o2226bo7058b$2332bobo653bobo1016bobo2223bobo7059b$2332b2o654b2o999b3o17bo9285b$2966bobo20bo88bo912bo31bo9271b$2966b2o111b2o909bo32b2o2136b3o78b3o7050b$2967bo110b2o924b2o16bobo2135bo2bo78bo2bo7049b$4005b2o2156bo78bo7052b$4004bo32b3o2123bo72bo5bo7052b$3059bobo957b2o18bo2120bobo40bo17bo13b3o5bobo7049b$3060b2o956bobo17bo2163b3o15b3o12bob2o7056b$2371bobo8bo677bo6b3o14b2o934bo31b2o1667b2o478b2obo14b2obo13b3o7056b$2371b2o8bobo115bobo565bob3o11bobo948bo18b2o1666b2o478b3o15b3o14b2o7057b$2349bobo20bo8bobo116b2o582bo949b2o16bo2148b3o16b2o7073b$2349b2o31bo117bo537bo31bobo960bobo31b2o2133b2o7091b$2350bo687b2o30bobo993bobo9226b$3040bo30b2o975b3o17bo9226b$3038b2o1010bo31bo9212b$2954bo83bo47b2o961bo32b2o1489b2o7720b$2955b2o107bo20bobo975b2o16bobo1488b4o7719b$2954b2o84b2o22bobo20bo976b2o1506b2ob2o642b3o7073b$2619b2o419b2o22b2o35bo961bo32b3o1475b2o642bo2bo7073b$2619b2o480b2o975b2o18bo2122bo7073b$3100bobo974bobo17bo2123bo7073b$4079bo31b2o2099b3o3bobo7074b$3031bo83b3o975bo18b2o2098bo2bo7079b$3030bo86bo975b2o16bo2100bo7082b$3030b3o83bo975bobo31b2o2084bo7b3o7072b$2219bo910b2o993bobo2085bobo4bo2bo7071b$2218bo912b2o974b3o17bo2092bo7074b$2218b3o656bo252bo978bo31bo2078bo7074b$2877bobo265b2o961bo32b2o2078bobo20b3o7048b$2877b2o265bobo975b2o16bobo2101bo2bo7047b$3146bo976b2o2119bo7050b$2377bo782bo961bo32b3o2086bo7050b$2376bobo781b2o975b2o18bo2087bobo7047b$2376bobo780bobo974bobo17bo9138b$2377bo1760bo31b2o9123b$2275bo784b2o112b3o975bo18b2o1998b3o78b3o7040b$2273b2o784bobo114bo975b2o16bo2000bo2bo76bo2bo7040b$2253bo20b2o784bo114bo975bobo31b2o1984bo82bo7040b$2251b2o936b2o993bobo1984bo74bo7bo7040b$2252b2o936b2o974b3o17bo1985bobo38bo17bo13b3o3bobo7041b$3189bo978bo31bo2011b3o15b3o11b2obo7047b$2307bobo654bo56b2o181b2o961bo32b2o2010bob2o14bob2o10b3o7048b$2307b2o654bo55b2ob2o179bobo975b2o16bobo2011b3o15b3o11b2o7048b$2308bo633bo20b3o53b4o182bo976b2o2029b3o15b2o7062b$2941bo78b2o197bo961bo32b3o1996b2o7080b$2941b3o275b2o975b2o18bo9078b$3218bobo974bobo17bo9079b$4197bo31b2o9064b$3233b3o975bo18b2o9063b$3235bo975b2o16bo9065b$2347bo886bo975bobo31b2o1983b3o7063b$2346bo168bo732b2o993bobo1983bo2bo7062b$2325bo20b3o167bo732b2o974b3o17bo1983bo7065b$2324bo189b3o533bo197bo978bo31bo1969bo7065b$2324b3o45bo678bo211b2o961bo32b2o1450b2o509b3o5bobo7062b$2371bobo675b3o210bobo975b2o16bobo1450b2o508bo2bo7070b$2371bobo890bo976b2o1981bo7070b$2372bo905bo961bo32b3o1948bo5b3o7062b$2970bo84b2o221b2o975b2o18bo1945bobo5bo2bo7062b$2968bobo68bobo12bobo220bobo974bobo17bo1957bo7062b$2969b2o68b2o14bo1200bo31b2o1942bo7062b$3040bo251b3o975bo18b2o1938bobo22b3o7038b$3294bo975b2o16bo1354b2o608bo2bo7038b$3293bo975bobo31b2o1336b2ob2o610bo7038b$2609b2o696b2o993bobo1336b4o611bo7038b$2609b2o396bo300b2o974b3o17bo1337b2o609bobo7039b$3005b2o300bo978bo31bo8976b$3006b2o314b2o961bo32b2o8975b$2195bo1125bobo975b2o16bobo1861b3o78b3o7030b$2193b2o1128bo976b2o1878bo2bo78bo2bo7029b$2194b2o656bobo482bo961bo32b3o1848bo78bo7032b$2852b2o483b2o975b2o18bo1848bo72bo5bo7032b$2853bo482bobo974bobo17bo1846bobo40bo17bo13b3o5bobo7029b$4315bo31b2o1873b3o15b3o12bob2o7036b$3351b3o975bo18b2o1871b2obo14b2obo13b3o7036b$3353bo975b2o16bo1873b3o15b3o14b2o7037b$3352bo975bobo31b2o1857b3o16b2o7053b$2367bo998b2o993bobo1858b2o7071b$2249bo116bobo998b2o974b3o17bo8931b$2249bobo114bobo997bo978bo31bo8917b$2227bo21b2o116bo1013b2o961bo32b2o8916b$2227bobo1150bobo975b2o16bobo8916b$2227b2o1153bo976b2o8934b$2283bo1112bo961bo32b3o1845b3o7053b$2282bo657bo455b2o975b2o18bo1844bo2bo7053b$2282b3o653b2o455bobo974bobo17bo1848bo7053b$2918bo20b2o148b2o1283bo31b2o1833bo7053b$2916b2o170b4o318b3o975bo18b2o1823b3o3bobo7054b$2917b2o169b2ob2o319bo975b2o16bo1825bo2bo7059b$3090b2o319bo975bobo31b2o1809bo7062b$3425b2o993bobo1809bo7b3o7052b$3426b2o974b3o17bo1810bobo4bo2bo7051b$3425bo978bo31bo1803bo7054b$2323bo1116b2o961bo32b2o1802bo7054b$2321b2o206bo909bobo975b2o16bobo1803bobo20b3o7028b$2301bo20b2o206b2o909bo976b2o1844bo2bo7027b$2299b2o228b2o924bo961bo32b3o1811bo7030b$2300b2o1153b2o975b2o18bo1811bo7030b$3454bobo974bobo17bo1813bobo7027b$4433bo31b2o8828b$2362bo1106b3o975bo18b2o1233b2o7592b$2361bobo619bobo29bo455bo975b2o16bo1235b2o488b3o78b3o7020b$2361bobo620b2o28bo455bo975bobo31b2o1709bo2bo76bo2bo7020b$2362bo621bo29b3o467b2o993bobo1709bo82bo7020b$3485b2o974b3o17bo1709bo74bo7bo7020b$3484bo978bo31bo1696bobo38bo17bo13b3o3bobo7021b$3499b2o961bo32b2o1735b3o15b3o11b2obo7027b$3498bobo975b2o16bobo1214b2o519bob2o14bob2o10b3o7028b$2981bo518bo976b2o1231b4o519b3o15b3o11b2o7028b$2981bobo530bo961bo32b3o1198b2ob2o518b3o15b2o7042b$2599b2o380b2o531b2o975b2o18bo1200b2o519b2o7060b$2169bo429b2o912bobo974bobo17bo8784b$2169bobo656bo1663bo31b2o8769b$2169b2o656bo700b3o975bo18b2o8768b$2827b3o700bo975b2o16bo8770b$3529bo975bobo31b2o8754b$3543b2o993bobo1708b3o7043b$3544b2o974b3o17bo1708bo2bo7042b$3543bo978bo31bo1694bo7045b$3558b2o961bo32b2o1693bo7045b$3557bobo975b2o16bobo1686b3o5bobo7042b$2224bobo1332bo976b2o1703bo2bo7050b$2224b2o742bo604bo961bo32b3o1673bo7050b$2202bobo20bo131bo610bo29b3o572b2o975b2o18bo1673bo5b3o7042b$2202b2o152bobo608bobo27bo2bo571bobo974bobo17bo1671bobo5bo2bo7042b$2203bo152bobo642bo1549bo31b2o1667bo7042b$2259bo97bo611b2o26b2o588b3o975bo18b2o1666bo7042b$2257b2o655bo82b2o3bo586bo975b2o16bo1665bobo22b3o7018b$2258b2o654bobo52b2o31bo585bo975bobo31b2o1673bo2bo7018b$2892bo21b2o84bo601b2o993bobo1676bo7018b$2892bobo103b3o602b2o974b3o17bo1676bo7018b$2892b2o104b2o602bo978bo31bo1659bobo7019b$2998bo618b2o961bo32b2o8680b$2966b2o31b2o158b2o455bobo975b2o16bobo8680b$2966b3o30bobo155b2ob2o456bo976b2o1604b3o78b3o7010b$2970bo27bo3bo154b4o471bo961bo32b3o1570bo2bo78bo2bo7009b$2297bo670b2o29b2o157b2o472b2o975b2o18bo1573bo78bo7012b$2297bobo245bo1085bobo974bobo17bo1574bo72bo5bo7012b$2275bo21b2o244bobo2064bo31b2o1556bobo40bo17bo13b3o5bobo7009b$2275bobo266b2o419bobo678b3o975bo18b2o1597b3o15b3o12bob2o7016b$2275b2o688bobo26b2o652bo975b2o16bo1598b2obo14b2obo13b3o7016b$2966bo26bobo651bo975bobo31b2o1582b3o15b3o14b2o7017b$2994bo666b2o993bobo1582b3o16b2o7033b$3662b2o974b3o17bo1583b2o7051b$3661bo978bo31bo8622b$3676b2o961bo32b2o8621b$2352bo1322bobo975b2o16bobo1017b2o7602b$2351bobo1323bo976b2o1035b2o7602b$2351bobo620bo716bo961bo32b3o8606b$2352bo622bo715b2o975b2o18bo1570b3o7033b$2973b3o714bobo974bobo17bo1570bo2bo7033b$4669bo31b2o1558bo7033b$3705b3o975bo18b2o1557bo7033b$3707bo975b2o16bo1550b3o3bobo7034b$2144bobo836bobo720bo975bobo31b2o1063b2o469bo2bo7039b$2144b2o658bo178b2o735b2o993bobo1061b2ob2o468bo7042b$2145bo443b2o211b2o180bo736b2o974b3o17bo1061b4o469bo7b3o7032b$2239bo349b2o212b2o915bo978bo31bo1048b2o471bobo4bo2bo7031b$2238b3o1494b2o961bo32b2o1527bo7034b$2237b2o2bo1492bobo975b2o16bobo1527bo7034b$2237bo713bo784bo976b2o1546bobo20b3o7008b$2237b3o709b2o799bo961bo32b3o1536bo2bo7007b$2237b2obo709b2o798b2o975b2o18bo1536bo7010b$2200bo37bob2o747b2o758bobo974bobo17bo1537bo7010b$2199bo38b2o748bobo1737bo31b2o1523bobo7007b$2178bo20b3o37bob2o746bo774b3o975bo18b2o8532b$2177bo60b2ob2o1523bo975b2o16bo8534b$2177b3o58b2ob2o1522bo975bobo31b2o1434b3o78b3o7000b$2240bo1538b2o993bobo1434bo2bo76bo2bo7000b$2347bo1432b2o974b3o17bo1434bo82bo7000b$2346bobo540bobo887bo978bo31bo1420bo74bo7bo7000b$2346bobo540b2o903b2o961bo32b2o1420bobo38bo17bo13b3o3bobo7001b$2347bo519bobo20bo902bobo975b2o16bobo1460b3o15b3o11b2obo7007b$2867b2o926bo976b2o1478bob2o14bob2o10b3o7008b$2868bo940bo961bo32b3o1446b3o15b3o11b2o7008b$3809b2o975b2o18bo1446b3o15b2o7022b$2253b3o1552bobo974bobo17bo1447b2o7040b$2253bo2bo2530bo31b2o8474b$2227bo25bo2bo970b2o594b3o975bo18b2o8473b$2226bo27bo2bo14bobo951b4o595bo975b2o16bo8475b$2226b3o25b3o15b2o284bobo665b2ob2o593bo975bobo31b2o8459b$2255b2o16bo285b2o667b2o608b2o993bobo8459b$2559bo1279b2o974b3o17bo1433b3o7023b$3838bo978bo31bo1419bo2bo7022b$3853b2o961bo32b2o1418bo7025b$3852bobo975b2o16bobo1418bo7025b$3854bo976b2o1429b3o5bobo7022b$2261bobo1604bo961bo32b3o1395bo2bo7030b$2261bo2bo1603b2o975b2o18bo1398bo7030b$2260bo3b2o1601bobo974bobo17bo1399bo5b3o7022b$2245bo14bo2585bo31b2o1381bobo5bo2bo7022b$2243b2o1637b3o975bo18b2o1391bo7022b$2244b2o14bo2b3o76bo1541bo975b2o16bo802b2o589bo7022b$2260b2o79bobo1539bo975bobo31b2o786b2o586bobo22b3o6998b$2262b3o76bobo1553b2o993bobo1398bo2bo6998b$2262b3o77bo1555b2o974b3o17bo1401bo6998b$2120bo838bo937bo978bo31bo1387bo6998b$2119bo838bo953b2o961bo32b2o1383bobo6999b$2119b3o656bo179b3o950bobo975b2o16bobo8385b$2778bobo1132bo976b2o957b2o7444b$2247bo530b2o1147bo961bo32b3o923b4o369b3o78b3o6990b$2246bobo1678b2o975b2o18bo923b2ob2o367bo2bo78bo2bo6989b$2246bobo330b2o1345bobo974bobo17bo926b2o371bo78bo6992b$2247bo331b2o344bo1979bo31b2o1284bo72bo5bo6992b$2925bobo1013b3o975bo18b2o1280bobo40bo17bo13b3o5bobo6989b$2925b2o1016bo975b2o16bo1324b3o15b3o12bob2o6996b$2176bo1765bo975bobo31b2o1307b2obo14b2obo13b3o6996b$2174b2o1780b2o993bobo1307b3o15b3o14b2o6997b$2154bo20b2o1780b2o974b3o17bo1307b3o16b2o7013b$2152b2o1802bo978bo31bo1294b2o7031b$2153b2o1816b2o961bo32b2o8326b$3970bobo975b2o16bobo8326b$2865bo1106bo976b2o8344b$2864bo1121bo961bo32b3o8311b$2843bo20b3o1119b2o975b2o18bo8311b$2337bo504bo1142bobo974bobo17bo1296b3o7013b$2336bobo503b3o2119bo31b2o1280bo2bo7013b$2336bobo1661b3o975bo18b2o1282bo7013b$2337bo1664bo975b2o16bo1284bo7013b$4001bo975bobo31b2o1259b3o3bobo7014b$4015b2o993bobo1259bo2bo7019b$2203bo1812b2o974b3o17bo1259bo7022b$2201b2o371bo1440bo978bo31bo1245bo7b3o7012b$2202b2o38bo332bo1454b2o961bo32b2o1245bobo4bo2bo7011b$2241bobo329b3o1453bobo975b2o16bobo1252bo7014b$2241bobo1053b2o732bo976b2o1270bo7014b$2242bo1052b2ob2o745bo961bo32b3o1238bobo20b3o6988b$3295b4o746b2o975b2o18bo1261bo2bo6987b$3296b2o746bobo974bobo17bo1262bo6990b$5023bo31b2o1247bo6990b$4059b3o975bo18b2o1247bobo6987b$2241bo1819bo975b2o16bo8239b$2241bobo1816bo975bobo31b2o8223b$2219bo21b2o1831b2o993bobo1159b3o78b3o6980b$2219bobo1853b2o974b3o17bo1159bo2bo76bo2bo6980b$2219b2o1853bo978bo31bo1145bo82bo6980b$2188b3o1898b2o961bo32b2o1144bo74bo7bo6980b$2189bo1898bobo975b2o16bobo1145bobo38bo17bo13b3o3bobo6981b$2189b3o140bo1757bo976b2o602b2o599b3o15b3o11b2obo6987b$2096bo234bobo601bo1168bo961bo32b3o569b2o599bob2o14bob2o10b3o6988b$2094b2o235bobo599b2o1169b2o975b2o18bo1171b3o15b3o11b2o6988b$2095b2o235bo420bobo178b2o1167bobo974bobo17bo1172b3o15b2o7002b$2753b2o2327bo31b2o1157b2o7020b$2754bo1363b3o975bo18b2o8178b$4120bo975b2o16bo8180b$4119bo975bobo31b2o8164b$2187bobo47bo662bobo1230b2o993bobo788b2o7374b$2187bobo46bobo661b2o1232b2o974b3o17bo786b2ob2o7373b$2236bobo662bo1231bo978bo31bo772b4o368b3o7003b$2150bo39bo46bo1910b2o961bo32b2o772b2o369bo2bo7002b$2150bobo1994bobo975b2o16bobo1143bo7005b$2128bo21b2o1997bo976b2o1161bo7005b$2128bobo2032bo961bo32b3o1121b3o5bobo7002b$2128b2o56bobo14b3o1957b2o975b2o18bo1120bo2bo7010b$2187bo15bo2bo1955bobo974bobo17bo1124bo7010b$2205b2o634bo2299bo31b2o1109bo5b3o7002b$2839b2o1336b3o975bo18b2o1105bobo5bo2bo7002b$2201bo2bo614bo20b2o1337bo975b2o16bo1118bo7002b$2202b2o613b2o1359bo975bobo31b2o1102bo7002b$2205b2o611b2o1372b2o993bobo1099bobo22b3o6978b$2204b3o1986b2o974b3o17bo1123bo2bo6978b$2205bo121bo1864bo978bo31bo1112bo6978b$2194bobo5b2ob2o119bobo1878b2o961bo32b2o1111bo6978b$2195b2o5b2ob2o119bobo1877bobo975b2o16bobo1108bobo6979b$2195bo6bo3bo120bo1880bo976b2o8108b$2202bo3bo2015bo961bo32b3o8075b$2203bo2018b2o975b2o18bo1021b3o78b3o6970b$4221bobo974bobo17bo1021bo2bo78bo2bo6969b$5200bo31b2o1009bo78bo6972b$2232bo2003b3o975bo18b2o1008bo72bo5bo6972b$2231bobo1131b2o871bo975b2o16bo1007bobo40bo17bo13b3o5bobo6969b$2231bobo1130b4o869bo975bobo31b2o1033b3o15b3o12bob2o6976b$2232bo1131b2ob2o882b2o993bobo1032b2obo14b2obo13b3o6976b$2171bo36bo7b2o1148b2o884b2o974b3o17bo1032b3o15b3o14b2o6977b$2170bo38bo5bo2bo2032bo978bo31bo1018b3o16b2o6993b$2170b3o34b3o5bo2bo2047b2o961bo32b2o1018b2o7011b$2215bo2049bobo975b2o16bobo8031b$2218bo2048bo976b2o8049b$2216b3o2062bo961bo32b3o8016b$2218b2o2061b2o975b2o18bo8016b$2219bo2060bobo974bobo17bo8017b$5259bo31b2o1006b3o6993b$2070bo838bo1385b3o975bo18b2o1004bo2bo6993b$2070bobo138bo517bo179bobo1385bo975b2o16bo1009bo6993b$2070b2o137b2o111bo405bo180b2o1385bo975bobo31b2o353b2o638bo6993b$2189bo20b2o109bobo404b3o1579b2o993bobo353b2o629b3o3bobo6994b$2187b2o132bobo1987b2o974b3o17bo984bo2bo6999b$2188b2o132bo1987bo978bo31bo970bo7002b$2876bo1448b2o961bo32b2o969bo7b3o6992b$2197bo677bo1448bobo975b2o16bobo970bobo4bo2bo6991b$2196bobo676b3o1448bo976b2o995bo6994b$2196bobo2141bo961bo32b3o649b2o311bo6994b$2125bobo69bo29bo2112b2o975b2o18bo648b4o311bobo20b3o6968b$2125b2o99bobo2110bobo974bobo17bo649b2ob2o333bo2bo6967b$2103bobo20bo99bobo3089bo31b2o636b2o334bo6970b$2103b2o122bo2126b3o975bo18b2o971bo6970b$2104bo2251bo975b2o16bo974bobo6967b$4355bo975bobo31b2o7928b$2815bo1553b2o993bobo7928b$2815bobo1552b2o974b3o17bo884b3o78b3o6960b$2793bo21b2o1552bo978bo31bo870bo2bo76bo2bo6960b$2793bobo1588b2o961bo32b2o869bo82bo6960b$2793b2o1588bobo975b2o16bobo869bo74bo7bo6960b$4385bo976b2o888bobo38bo17bo13b3o3bobo6961b$4399bo961bo32b3o895b3o15b3o11b2obo6967b$4399b2o975b2o18bo895bob2o14bob2o10b3o6968b$4398bobo974bobo17bo897b3o15b3o11b2o6968b$2317bo3059bo31b2o882b3o15b2o6982b$2316bobo285bo1808b3o975bo18b2o881b2o7000b$2316bobo283bobo1810bo975b2o16bo7885b$2317bo285b2o1809bo975bobo31b2o7869b$4428b2o993bobo7869b$2192bo2236b2o974b3o17bo7869b$2191bobo2234bo978bo31bo7855b$2191bobo2249b2o961bo32b2o868b3o6983b$2192bo29bo2219bobo975b2o16bobo868bo2bo6982b$2147bo73bobo2220bo976b2o886bo6985b$2145b2o74bobo1211b2o1021bo961bo32b3o853bo6985b$2146b2o74bo1210b2ob2o1020b2o975b2o18bo846b3o5bobo6982b$3433b4o1020bobo974bobo17bo846bo2bo6990b$3434b2o2000bo31b2o834bo6990b$4472b3o975bo18b2o833bo5b3o6982b$4474bo975b2o16bo832bobo5bo2bo6982b$4473bo975bobo31b2o827bo6982b$4487b2o993bobo827bo6982b$2045bobo836bobo1601b2o974b3o17bo824bobo22b3o6958b$2045b2o138bo519bo178b2o1601bo978bo31bo834bo2bo6958b$2046bo138bobo515b2o180bo1616b2o961bo32b2o836bo6958b$2163bo21b2o517b2o1795bobo975b2o16bobo836bo6958b$2163bobo2337bo976b2o851bobo6959b$2163b2o147bo2204bo961bo32b3o136b2o7642b$2311bobo538bo1664b2o975b2o18bo136b2o7642b$2311bobo536b2o1664bobo974bobo17bo747b3o78b3o6950b$2312bo538b2o2642bo31b2o731bo2bo78bo2bo6949b$2101bo2429b3o975bo18b2o733bo78bo6952b$2100bo86bo2345bo975b2o16bo735bo72bo5bo6952b$2079bo20b3o83bobo2343bo975bobo31b2o716bobo40bo17bo13b3o5bobo6949b$2078bo107bobo2357b2o993bobo758b3o15b3o12bob2o6956b$2078b3o106bo29bo2329b2o974b3o17bo513b2o242b2obo14b2obo13b3o6956b$2216bobo2327bo978bo31bo497b2ob2o241b3o15b3o14b2o6957b$2216bobo2342b2o961bo32b2o496b4o242b3o16b2o6973b$2217bo572bobo1767bobo975b2o16bobo497b2o244b2o6991b$2790b2o1770bo976b2o7754b$2768bobo20bo1784bo961bo32b3o7721b$2768b2o1806b2o975b2o18bo7721b$2769bo1805bobo974bobo17bo7722b$5554bo31b2o7707b$4590b3o975bo18b2o730b3o6973b$4592bo975b2o16bo731bo2bo6973b$4591bo975bobo31b2o718bo6973b$4605b2o993bobo718bo6973b$4606b2o974b3o17bo709b3o3bobo6974b$4605bo978bo31bo695bo2bo6979b$2307bo2312b2o961bo32b2o694bo6982b$2306bobo2310bobo975b2o16bobo694bo7b3o6972b$2306bobo2312bo976b2o713bobo4bo2bo6971b$2307bo2327bo961bo32b3o687bo6974b$4635b2o975b2o18bo687bo6974b$2182bo2451bobo974bobo17bo689bobo20b3o6948b$2121bo59bobo3429bo31b2o697bo2bo6947b$2121bobo57bobo2465b3o975bo18b2o696bo6950b$2121b2o59bo29bo2438bo975b2o16bo698bo6950b$2211bobo1289b2o1145bo975bobo716bobo6947b$2211bobo1288b4o1158b2o8629b$2212bo1289b2ob2o1158b2o974b3o7651b$3504b2o1158bo978bo31bo595b3o78b3o6940b$4679b2o961bo32b2o594bo2bo76bo2bo6940b$2021bo838bo1817bobo993bobo594bo82bo6940b$2020bo838bo1820bo1590bo74bo7bo6940b$2020b3o137bobo516bo179b3o1832bo1577bobo38bo17bo13b3o3bobo6941b$2160b2o517bobo2012b2o975b2o639b3o15b3o11b2obo6947b$2138bobo20bo517b2o2012bobo974bobo639bob2o14bob2o10b3o6948b$2138b2o3532bo31b2o607b3o15b3o11b2o6948b$2139bo2568b3o994b2o606b3o15b2o6962b$2826bo1883bo993bo608b2o6980b$2826bobo1880bo8585b$2107bo194bo523b2o1895b2o8570b$2077bo27b2ob2o191bobo2420b2o974b3o7592b$2075b2o28b2ob2o191bobo2419bo978bo31bo7560b$2055bo20b2o28bob3o191bo2435b2o961bo32b2o7559b$2053b2o50b3o2629bobo899b2o92bobo593b3o6963b$2054b2o121bo2561bo899b2o688bo2bo6962b$2176bobo2574bo1575bo6965b$2176bobo587bo1986b2o975b2o393b2o202bo6965b$2106b2o69bo29bo557bo1986bobo974bobo392b4o194b3o5bobo6962b$2106b2o98bobo535bo20b3o2963bo31b2o359b2ob2o192bo2bo6970b$2206bobo534bo2023b3o994b2o360b2o196bo6970b$2105bo101bo535b3o2023bo993bo560bo5b3o6962b$2104bob2ob2o2657bo1552bobo5bo2bo6962b$2103b2o4b2o2671b2o1548bo6962b$2103b2ob2o2675b2o974b3o570bo6962b$2105bo2676bo978bo31bo535bobo22b3o6938b$4797b2o961bo32b2o558bo2bo6938b$2633bo2162bobo993bobo561bo6938b$2122bo511bo2163bo1557bo6938b$2121b3o508b3o2177bo1540bobo6939b$2120bo2b2o2687b2o975b2o7504b$2120bo3bo2686bobo974bobo7504b$2122bobo3665bo31b2o457b3o78b3o6930b$2112bo184bo2528b3o994b2o455bo2bo78bo2bo6929b$2113bo5b2ob2o172bobo2529bo993bo460bo78bo6932b$2111b3o7bo174bobo2528bo1455bo72bo5bo6932b$2297bo2543b2o1437bobo40bo17bo13b3o5bobo6929b$4842b2o974b3o501b3o15b3o12bob2o6936b$2172bo2668bo978bo31bo468b2obo14b2obo13b3o6936b$2121b4o46bobo2682b2o961bo32b2o467b3o15b3o14b2o6937b$2121bobobo45bobo2681bobo993bobo467b3o16b2o6953b$2124bo47bo29bo2654bo1464b2o6971b$2201bobo2667bo8423b$2201bobo1369b2o1296b2o975b2o7445b$1997bo204bo633bo734b2ob2o1294bobo974bobo7445b$1995b2o94bo32bo709b2o735b4o2274bo31b2o7412b$1996b2o91b2o34b2o527bobo178b2o735b2o1311b3o994b2o7411b$2090b2o32b2o6b3o519b2o2231bo993bo457b3o6953b$2132bob3o518bo2230bo1451bo2bo6953b$4900b2o1439bo6953b$2135bobo2763b2o974b3o461bo6953b$2135bobo663bobo2096bo978bo31bo420b3o3bobo6954b$2136b2o663b2o2112b2o961bo32b2o419bo2bo6959b$2802bo2111bobo993bobo419bo6962b$2051bo2864bo1415bo7b3o6952b$2051bobo75bo2800bo1402bobo4bo2bo6951b$2029bo21b2o76bobo160bo2637b2o975b2o431bo6954b$2029bobo75bo21b2o160bobo2635bobo974bobo431bo6954b$2029b2o76bobo181bobo3614bo31b2o399bobo20b3o6928b$2107b2o183bo2651b3o994b2o421bo2bo6927b$2742bo2203bo682b2o309bo423bo6930b$2167bo572b2o2203bo683b2o733bo6930b$2115bo50bobo551bo20b2o2216b2o1404bobo6927b$2114bobo49bobo549b2o2240b2o974b3o7356b$2114bobo50bo29bo521b2o2238bo978bo31bo224b2o7098b$2115bo80bobo2775b2o961bo32b2o221b2ob2o93b3o78b3o6920b$2196bobo2774bobo993bobo221b4o94bo2bo76bo2bo6920b$2197bo2777bo1218b2o95bo82bo6920b$4989bo1301bo74bo7bo6920b$4989b2o975b2o324bobo38bo17bo13b3o3bobo6921b$4988bobo974bobo364b3o15b3o11b2obo6927b$5967bo31b2o331bob2o14bob2o10b3o6928b$5003b3o994b2o331b3o15b3o11b2o6928b$5005bo993bo333b3o15b2o6942b$5004bo1328b2o6960b$5018b2o8275b$5019b2o974b3o7297b$5018bo978bo31bo7265b$5033b2o961bo32b2o7264b$2287bo2744bobo993bobo7264b$2286bobo2745bo1314b3o6943b$2286bobo2759bo1300bo2bo6942b$2287bo2760b2o975b2o322bo6945b$5047bobo974bobo322bo6945b$2162bo3863bo31b2o282b3o5bobo6942b$2110bo50bobo2898b3o994b2o280bo2bo6950b$2109bobo49bobo2900bo993bo285bo6950b$1971bo137bobo50bo29bo617bo2252bo1280bo5b3o6942b$1971bobo91bo44bo80bobo436bo179bobo828b2o1434b2o1262bobo5bo2bo6942b$1971b2o92bobo123bobo435bo180b2o828b4o1434b2o974b3o295bo6942b$2065b2o125bo436b3o1008b2ob2o1432bo978bo31bo263bo6942b$3642b2o1448b2o961bo32b2o259bobo22b3o6918b$5091bobo993bobo283bo2bo6918b$2777bo2315bo1282bo6918b$2776bo2330bo1268bo6918b$2776b3o2328b2o975b2o287bobo6919b$5106bobo974bobo7209b$2026bobo4056bo31b2o7176b$2026b2o76bobo3014b3o994b2o181b3o78b3o6910b$2004bobo20bo76b2o3017bo993bo182bo2bo78bo2bo6909b$2004b2o76bobo20bo3016bo1180bo78bo6912b$2005bo76b2o3052b2o1165bo72bo5bo6912b$2083bo198bo2854b2o974b3o184bobo40bo17bo13b3o5bobo6909b$2281bobo432bo2419bo978bo31bo194b3o15b3o12bob2o6916b$2281bobo432bobo2432b2o961bo32b2o192b2obo14b2obo13b3o6916b$2051bo230bo411bo21b2o2432bobo993bobo192b3o15b3o14b2o6917b$2049b2ob2o640bobo2455bo466b2o720b3o16b2o6933b$2049b2ob2o103bo536b2o2470bo452b2o721b2o6951b$2050bob3o50bo50bobo3007b2o975b2o7150b$2049b3o52bobo49bobo3006bobo974bobo118b2o7030b$2104bobo50bo29bo3956bo31b2o84b4o7029b$2105bo80bobo2991b3o994b2o83b2ob2o7028b$2186bobo2993bo993bo87b2o7029b$2050b2o135bo475bo2517bo1177b3o6933b$2050b2o609bobo2531b2o1161bo2bo6933b$2662b2o2532b2o974b3o186bo6933b$2049bo3145bo978bo31bo154bo6933b$2048bob2ob2o3155b2o961bo32b2o144b3o3bobo6934b$2047b2o4b2o3154bobo993bobo144bo2bo6939b$2047b2ob2o3159bo1140bo6942b$2049bo3175bo1126bo7b3o6932b$5225b2o975b2o149bobo4bo2bo6931b$5224bobo974bobo156bo6934b$2066bo4136bo31b2o123bo6934b$2065b3o3171b3o994b2o123bobo20b3o6908b$2064bo2b2o208bo2963bo993bo148bo2bo6907b$2064bo3bo207bobo2961bo1143bo6910b$2066bobo207bobo2975b2o1128bo6910b$2056bo220bo2977b2o974b3o151bobo6907b$2057bo5b2ob2o3186bo978bo31bo7029b$1946bobo106b3o7bo86bo632bobo2481b2o961bo32b2o7028b$1946b2o152bo50bobo452bo178b2o2481bobo993bobo44b3o78b3o6900b$1947bo151bobo49bobo450b2o180bo2483bo1040bo2bo76bo2bo6900b$2099bobo50bo29bo422b2o2677bo1026bo82bo6900b$2065b4o31bo80bobo3100b2o975b2o48bo74bo7bo6900b$2065bobobo111bobo1527b2o1570bobo974bobo49bobo38bo17bo13b3o3bobo6901b$2068bo113bo570bo955b2ob2o2548bo31b2o56b3o15b3o11b2obo6907b$2674b3o74b2o956b4o1585b3o994b2o55bob2o14bob2o10b3o6908b$2674bo2bo74b2o956b2o1588bo993bo58b3o15b3o11b2o6908b$2002bo670bo3bo2621bo1053b3o15b2o6922b$2001bo33bo32bo604b2o2638b2o1038b2o6940b$1980bo20b3o29b2o34b2o603bobo2637b2o974b3o7002b$1979bo54b2o32b2o6b3o596b2o2bo2633bo978bo7002b$1979b3o94bob3o594bo2bo2649b2o961bo7003b$2675bo2651bobo7965b$2079bobo592b2ob2o2650bo7965b$2079bobo593bobo13bobo2649bo1025b3o6923b$2080b2o594bo14b2o2650b2o1024bo2bo6922b$2272bo419bo2649bobo1024bo6925b$2271bobo4095bo6925b$2073bo197bobo3083b3o1002b3o5bobo6922b$2073bobo196bo3086bo1001bo2bo6930b$2051bo21b2o611b2o2670bo250b2o753bo6930b$2051bobo93bo538bobo2683b2o235b2o753bo5b3o6922b$2051b2o42bo50bobo539b2o2683b2o986bobo5bo2bo6922b$2094bobo49bobo538bo2684bo999bo6922b$2094bobo50bo29bo507bobo2699b2o983bo6922b$2059bo35bo80bobo485bo19b2o2700bobo980bobo22b3o6898b$2058bobo115bobo483b2o20b3o2701bo1004bo2bo6898b$2058bobo116bo485b2o2737bo993bo6898b$2059bo3342b2o992bo6898b$5401bobo902b2o85bobo6899b$6306b2o6987b$5416b3o7876b$5418bo983b3o6890b$5417bo984bo2bo6889b$5431b2o969bo6892b$5432b2o962bo5bo6892b$5431bo931bo17bo13b3o5bobo6889b$5446b2o914b3o15b3o12bob2o6896b$5445bobo913b2obo14b2obo13b3o6896b$2267bo3179bo913b3o15b3o14b2o6897b$1922bo343bobo492bo2699bo899b3o16b2o6913b$1921bo344bobo491bo2700b2o899b2o6931b$1921b3o343bo312bo179b3o2697bobo7832b$2580bobo10712b$2142bo437b2o2893b3o7817b$2090bo50bobo3333bo7817b$2089bobo49bobo3332bo7818b$2089bobo50bo29bo554bo2762b2o887b3o6913b$2054bo35bo80bobo553bobo1049b2o1710b2o885bo2bo6913b$2053bobo115bobo553b2o1049b4o1708bo890bo6913b$1978bo74bobo116bo1605b2ob2o1722b2o874bo6913b$1976b2o29bo46bo1725b2o1722bobo865b3o3bobo6914b$1956bo20b2o27bob2o3496bo865bo2bo6919b$1954b2o52b2o3510bo851bo6922b$1955b2o50b3o3510b2o850bo7b3o6912b$5519bobo851bobo4bo2bo6911b$2011b2o4367bo6914b$2010b3o3521b3o843bo6914b$5536bo844bobo20b3o6888b$5535bo868bo2bo6887b$2003bo3545b2o853bo6890b$2002bo45bobo3499b2o852bo6890b$2002b3o43b2o212bo3286bo855bobo6887b$2026bobo20bo211bobo3300b2o7729b$2026b2o233bobo3299bobo7729b$2027bo234bo3302bo846b3o6880b$2660bo2918bo19b2o810bo2bo6880b$2022b3o112bo522bobo2916b2o18b2o813bo6880b$2021bo2bo60bo50bobo499bo21b2o2916bobo825bo7bo6880b$2021b2o2bo58bobo49bobo499bobo3732bo17bo13b3o3bobo6881b$2024b2o58bobo50bo29bo470b2o2953b3o776b3o15b3o11b2obo6887b$2049bo35bo80bobo3426bo776bob2o14bob2o10b3o6888b$2021bo26bobo115bobo3425bo778b3o15b3o11b2o6888b$2019b2o27bobo116bo3440b2o763b3o15b2o6902b$2020b2o27bo3559b2o762b2o6920b$5608bo687b2o6997b$6296b2o6997b$13295b$13295b$5638bo7656b$5638b2o749b3o6903b$5637bobo749bo2bo6902b$6389bo6905b$1898bo838bo3651bo6905b$1896b2o134bo702b2o3645b3o5bobo6902b$1897b2o132b3o223bo297bobo178b2o3643bo2bo6910b$2030bo2b2o221bobo296b2o3110b2o715bo6910b$2030bo3bo221bobo297bo3111b2o714bo5b3o6902b$2017bo14bobo222bo3409bo713bobo5bo2bo6902b$2016bobo4373bo6902b$2016bobo10b2ob2o98bo569bobo3687bo6902b$2017bo13bo48bo50bobo568b2o3685bobo22b3o6878b$2079bobo49bobo569bo2993bo715bo2bo6878b$1952bo126bobo50bo29bo3534b2o717bo6878b$1952bobo89bo35bo80bobo3532bobo717bo6878b$1930bo21b2o77b4o8bobo115bobo1685b2o2562bobo6879b$1930bobo98bobobo7bobo116bo1684b2ob2o9443b$1930b2o102bo9bo1802b4o9444b$3848b2o2572b3o6870b$5726b2o694bo2bo6869b$5727b2o693bo6872b$2035bo3690bo689bo5bo6872b$2035bo4347bo17bo13b3o5bobo6869b$1979bo54bo4347b3o15b3o12bob2o6876b$1977b2o4402b2obo14b2obo13b3o6876b$1940bo37b2o269b3o3504bo624b3o15b3o14b2o6877b$1939bobo306bo2bo3504b2o623b3o16b2o6893b$1938bo3bo305bo2bo3503bobo624b2o6911b$1939bo2bo304bo2bo11044b$1939bo2bo304bo2bo384bobo10657b$1940bobo308b2o382b2o10658b$2012bo238b2o360bobo20bo10658b$2011bobo235bo3bo359b2o3170b2o7508b$2011bobo3bo109bo124b2o360bo3171b2o611b3o6893b$2012bo4bobo55bo50bobo125bo3530bo612bo2bo6893b$1995bo21b2o55bobo49bobo120bo3bo4147bo6893b$1995bobo76bobo50bo29bo92b3o4148bo6893b$1995b2o42bo35bo80bobo4233b3o3bobo6894b$2038bobo115bobo3656bo576bo2bo6899b$2038bobo116bo3657b2o575bo6902b$2039bo3774bobo575bo7b3o6892b$6286b2o105bobo4bo2bo6891b$6286b2o112bo6894b$6400bo6894b$6401bobo20b3o6868b$5844b2o578bo2bo6867b$1872bo838bo3133b2o577bo6870b$1872bobo362bobo291bo179bobo3130bo579bo6870b$1872b2o363b2o291bo180b2o3712bobo6867b$2119b3o116bo291b3o10762b$2118bo2bo11173b$2118bo3bo3751bo557b3o6860b$2117b2obobo555bo3195b2o555bo2bo6860b$1947bo120bo48b2ob2o555bo3195bobo558bo6860b$1948bo58bo59b3o48b3o556b3o3746bo7bo6860b$1946b3o57bobo57bo2b2o4322bo17bo13b3o3bobo6861b$2006bobo56b5o4322b3o15b3o11b2obo6867b$1958bo48bo57b5o4322bob2o14bob2o10b3o6868b$1905bobo49b3o108bo3834b2o488b3o15b3o11b2o6868b$1905b2o49b2o2bo107bobo48b2obo29bo365b3o3383b2o487b3o15b2o6882b$1906bo127bo33b2obo47bobobo27bobo363bo3bo1395b2o1984bo489b2o6900b$1960b2o71bobo33bobo50bo28bobo368bo1393b4o9375b$1960b2o71bobo34b3o79bo1763b2ob2o9374b$1959bo2bo71bo35bobo444b2o3bo1395b2o9375b$1958b3o107b4o447b3o3411bo7361b$1922bo145b3o52bo3809b2o7360b$1920b2o147bo51bobo3808bobo474b3o6883b$1921b2o199b2o4285bo2bo6882b$6409bo6885b$6409bo6885b$6402b3o5bobo6882b$2611bo3350b2o437bo2bo6890b$2610bo3352b2o439bo6890b$2589bo20b3o3349bo441bo5b3o6882b$2588bo3812bobo5bo2bo6882b$1947bo640b3o3821bo6882b$1946bo45bobo60bo4356bo6882b$1946b3o3b2o38b2o8bo52bobo47bobo3884bo416bobo22b3o6858b$1852b3o97b2o16bobo20bo7bobo51b2o48b2o157bobo3725b2o439bo2bo6858b$1852bo2bo114b2o29bobo102bo158b2o3724bobo442bo6858b$1851bo3bo115bo30bo262bo4170bo6858b$1851b2o4580bobo6859b$1852bobo292bo11147b$1853b2o2bo171bo116bobo11146b$1853bo2bo171bobo115bobo3872b2o419b3o6850b$1853bo174bobo116bo3874b2o418bo2bo6849b$1852b2ob2o172bo3991bo420bo6852b$1853bobo4420b2o158bo5bo6852b$1854bo672bo3748b2o125bo17bo13b3o5bobo6849b$2213bo311bobo158bobo3713b3o15b3o12bob2o6856b$2212bo313b2o158b2o3363bo349b2obo14b2obo13b3o6856b$2212b3o472bo3363b2o348b3o15b3o14b2o6857b$6050bobo348b3o16b2o6873b$6402b2o6891b$13295b$2654bo10640b$2652b2o10641b$2653b2o3425b2o7213b$1842bo4238b2o7212b$1840b2o4238bo338b3o6873b$1841b2o37bo66b2o48bo501bobo3916bo2bo6873b$1880b2o65b2o47bobo500b2o3920bo6873b$1880b3o113bobo501bo3920bo6873b$1880b2o115bo4112bo301b3o3bobo6874b$1880b2o4228b2o300bo2bo6879b$1881bo260bo3966bobo300bo6882b$1882bobo87bo51bo116bobo4268bo7b3o6872b$1883bo89bo49bobo58bo56bobo1843b2o2424bobo4bo2bo6871b$1896bo74b3o49bobo56bobo51bobo3bo349b3o1490b2ob2o2430bo6874b$1896bobo91bo33bo58b2o52b2o355bo1490b4o2431bo6874b$1874bo21b2o91b3o145bo354b3o1491b2o2151b2o280bobo20b3o6848b$1874bobo115bo4147b2o302bo2bo6847b$1874b2o114b2o501bo3645bo304bo6850b$1991bo499b3o3950bo6850b$2489b3o95bo3857bobo6847b$2490b2o93b2o10708b$2565bo20b2o3581bo7125b$2563b2o3604b2o281b3o6840b$1923bo44bo595b2o3602bobo280bo2bo6840b$1921b2o44bo62bobo48bo4372bo6840b$1922b2o22bo18b2ob2o60b2o48bo199bo4165bo7bo6840b$1945bo18b5o62bo48b3o198bo4131bo17bo13b3o3bobo6841b$1945b3o15b2o2bo311b3o4130b3o15b3o11b2obo6847b$1824bo117b2o19bob4o4229b2o212bob2o14bob2o10b3o6848b$1823b3o116b2o19bo4bo4230b2o212b3o15b3o11b2o6848b$1822b2o2bo136bo2b2o4230bo214b3o15b2o6862b$1822bo3bo138b2o4446b2o6880b$1822bob2o162bo11306b$1822b2o137bo26bo148bo11157b$1867bo93bobo172bobo4089bo7066b$1868b2o91b2o53b3o117bobo4089b2o7065b$1867b2o146bo2bo118bo402bobo119bo3564bobo7065b$2015bo4bo168bo351b2o118bo3767b3o6863b$1823b2o2bo192bo166b2o352bo119b3o3602b2o161bo2bo6862b$1823bobobo192b2o166b2o4076b2o161bo6865b$1826bo153bo36bob2o4408bo6865b$1979bobo15bo20bo4238b2o163b3o5bobo6862b$1979bobo13bobo4260b2o161bo2bo6870b$1980bo15b2o630bo3628bo166bo6870b$1825bobo800bobo3793bo5b3o6862b$1826b2o147b2o7b2o513bo128b2o3791bobo5bo2bo6862b$1826bo64bo82bo2bo5bo2bo513b2o3930bo6862b$1889bobo83b2o7b2o513b2o3931bo6862b$1890b2o4537bobo22b3o6838b$1980bo4472bo2bo6838b$1979bobo4474bo6838b$1979bobo24bobo4447bo6838b$1980bo25b2o4445bobo6839b$2007bo11287b$13295b$1810bo286bobo52bo4309b3o6830b$1809bo61bobo224b2o32bo20bo4308bo2bo6829b$1809b3o59b2o225bo32bobo17b3o314bo1586b2o2405bo6832b$1849bobo20bo258bobo334bobo1583b4o2398bo5bo6832b$1849b2o281bo335b2o1584b2ob2o2364bo17bo13b3o5bobo6829b$1850bo614bo1590b2o2364b3o15b3o12bob2o6836b$2464b3o3954b2obo14b2obo13b3o6836b$1845b3o615bo2b2o93bo3859b3o15b3o14b2o6837b$1844bo2bo615b3obo93bobo3857b3o16b2o6853b$1844b2o2bo124b2o491b2o72bo20b2o3859b2o6871b$1847b2o122b2o2b2o147b3o414b2o10752b$1897bo73b2o2b2o29bo117b3o335bo72b2o10758b$1844bo52bobo71bo3bo29bo51bo66bo2bo333bo73bo10759b$1842b2o53b2o80b2o24b3o47b2o68b3o166bo166b3o73b3o10755b$1843b2o124bobo6bo2bo74b2o67b2o168b2o237bo5bo10754b$1970bo8b2o313b2o239bo4bo3898b3o6853b$2002bo533bo2bo3898bo2bo6853b$1975bo25b3o534bo3902bo6853b$1891bo82bobo23b2o2bo528bo3907bo6853b$1891b2o81bobo27bo527bo3899b3o3bobo6854b$1893bo81bo27bo528b3o3897bo2bo6859b$1891b2o43bobo60bo4432bo6862b$1883bo6bobo43b2o61bobo4430bo7b3o6852b$1881bobo7bo45bo61b2o555bo3876bobo4bo2bo6851b$1855bo26b2o5bobo665bo80bo3801bo6854b$1854b3o30bo275bo391b3o78b2o3802bo6854b$1853bo2b2o29bobo273bobo471b2o3802bobo20b3o6828b$1853bo3bo171bobo131b2o380b3o3916bo2bo6827b$1840bo14bobo129bo42b2o513bo2bo3915bo6830b$1839bobo144b3o21bobo17bo516b2o3915bo6830b$1839bobo10b2ob2o128bo2b2o21b2o4241b2o209bobo6827b$1840bo13bo130b4o22bo531bo2bo56bobo3648b2o7039b$1988bobo553b2o57b2o10690b$1988bo2bo523bo31b2o55bo3867b3o6820b$1904bobo81b3o522bobo30b3o3922bo2bo6820b$1854b4o47b2o80bobo524b2o31bo3926bo6820b$1854bobobo46bo68b2o11bobo554b2ob2o3917bo7bo6820b$1857bo115bo2bo10b3o141bo412b2ob2o3884bo17bo13b3o3bobo6821b$1974b2o156b2o410bo3bo3883b3o15b3o11b2obo6827b$2131b2o411bo3bo3883bob2o14bob2o10b3o6828b$1970bo574bo3887b3o15b3o11b2o6828b$1858bo110bobo4461b3o15b2o6842b$1858bo110bobo141bo359bo3959b2o6860b$1786bo70bo112bo143bo51bo307bo10820b$1784b2o326b3o52b2o303b3o10820b$1785b2o379b2o11127b$13295b$1919bo11375b$1918b3o54bo4473b3o6843b$1917bo2b2o53bobo128bo2018b2o2322bo2bo6842b$1917b3o55b2o129bobo2014b2ob2o2321bo6845b$1775bobo57bo62bo207b2o2015b4o2322bo6845b$1773bo4bo55bobo62bo110bo2113b2o2316b3o5bobo6842b$1773bo4bo55bobo3bo56b3o108bobo4430bo2bo6850b$1777b2o56bo4bobo74bo91b2o427bo4005bo6850b$1818bo21b2o78bo110bo404b2o4006bo5b3o6842b$1773b2o2b2o39bobo96bo3bo109bobo276bo126b2o4002bobo5bo2bo6842b$1773b2o2b2o39b2o98b2ob2o108b2o275bobo4141bo6842b$1774bob3o530b2o4141bo6842b$1777bo191b2o560bo3917bobo22b3o6818b$1776bo191bo2bo557b2o3942bo2bo6818b$1920bo48b2o538bo20b2o3944bo6818b$1921b2o584b2o3967bo6818b$1920b2o43bo542b2o3963bobo6819b$1964bobo7bobo11318b$1964bobo7b2o11319b$1965bo9bo594bo3911b3o6810b$2571b2o39bo3869bo2bo6809b$2138bobo429b2o40bobo3867bo6812b$2045bo92b2o472b2o3862bo5bo6812b$2046bo92bo4303bo17bo13b3o5bobo6809b$2026bo17b3o4395b3o15b3o12bob2o6816b$2027bo4413b2obo14b2obo13b3o6816b$2025b3o551bo3861b3o15b3o14b2o6817b$1830bo747bo3862b3o16b2o6833b$1829bobo746b3o3861b2o6851b$1829bobo696bobo3713b2o7049b$1830bo132b2o564b2o3713b2o7049b$1962bo2bo563bo10765b$1962bo2bo36bo11292b$1963b2o35bobo144bo11147b$2001b2o142bobo4311b3o6833b$2146b2o4310bo2bo6833b$1964b2o4495bo6833b$1783bobo178b2o4495bo6833b$1784b2o341bo359bo3964b3o3bobo6834b$1784bo175bo167b2o52bo305b2o3962bo2bo6839b$1959bobo165b2o51bobo304b2o3963bo6842b$1959bobo219b2o4269bo7b3o6832b$1960bo55b2o4435bobo4bo2bo6831b$1797b3o216b2o4442bo6834b$1797bo2bo4659bo6834b$1797bo2bo280bobo4377bobo20b3o6808b$2081b2o4401bo2bo6807b$1800b2o110bo169bo2110b2o2289bo6810b$1754bo44bo2bo110b2o2277b4o2288bo6810b$1753bo45bo2bo12bobo94b2o2278b2ob2o2288bobo6807b$1753b3o43bo15b2o8bo586bo1781b2o9099b$1816bo7bobo585bobo10880b$1824bobo496bobo86b2o4078b3o6800b$1825bo498b2o4165bo2bo6800b$1962bo361bo4169bo6800b$1962bo542bo3980bo7bo6800b$1962bo542bobo3945bo17bo13b3o3bobo6801b$1808b3o125bo546bo21b2o52b3o3890b3o15b3o11b2obo6807b$1810bo123bobo465bo80bobo72bo2bo28b3o3859bob2o14bob2o10b3o6808b$1808b3o124b2o463b6o77b2o73bo2bo28bo2bo3859b3o15b3o11b2o6808b$1788bo611b2o2b2o151bo2bo29bo2bo3859b3o15b2o6822b$1786b2o21bo747bo2bo30bo2bo3858b2o6840b$1787b2o18b3o145bo448bo156b2o23bo4b3o10701b$1805b3o146bobo157bo285b2o2bo156b2o21bobo5b2o10701b$1806b2o146bobo52b2o102bo286b2o3bo153bo3bo21b2o10708b$1955bo53b2o48bo53b3o288bo68bo88b2o10731b$2060b2o340bobo66b6o87bo10730b$2040bo18b2o342bo67b2o2b2o82bo3bo3905b3o6823b$2041b2o517b3o3906bo2bo6822b$1791bo248b2o433bo3993bo6825b$1790bobo678b2o2bo3993bo6825b$1790bobo678b2o3bo67bo3917b3o5bobo6822b$1791bo683bo69bo36bo3878bo2bo6830b$1820bo652bobo67b3o34b2o3882bo6830b$1819bobo652bo106b2o3881bo5b3o6822b$1819bobo4412b2o225bobo5bo2bo6822b$1735b3o82bo339bobo4071b2o236bo6822b$1734bo2bo423b2o4309bo6822b$1734b2obo218b3o202bo4307bobo22b3o6798b$2547bobo3943bo2bo6798b$2464bo82b2o3947bo6798b$2143bo319b3o37bo44bo3947bo6798b$1734b2o405bobo51bobo268bo34bobo3989bobo6799b$1734b4o404b2o52b2o266b2o36b2o10791b$1735bo2bo457bo268bo10829b$1736bobo211bo4551b3o6790b$1736bobo210bobo4550bo2bo6789b$1949bobo52b2o51bo427b3o93b2o3919bo6792b$1950bo53b2o50bo428bo2bo91bobo3913bo5bo6792b$1738bo317b3o425bo3bo92bo3881bo17bo13b3o5bobo6789b$1736bobo189bo482bo72b2o3976b3o15b3o12bob2o6796b$1737b2o187bobo483bo72bobo3973b2obo14b2obo13b3o6796b$1786bo140b2o481b3o73b2o2bo3970b3o15b3o14b2o6797b$1785bobo698bo2bo3971b3o16b2o6813b$1785bobo551bo146bo1776b2o2197b2o6831b$1786bo553bo144b2ob2o1771b2ob2o9029b$1815bo522b3o145bobo1772b4o9030b$1814bobo665bo4bo1774b2o9031b$1814bobo133b2o510bo20bo10811b$1815bo646bo18b3o10811b$6479b3o6813b$1720bo63bo4693bo2bo6813b$1719bobo62bobo595bo148bo3949bo6813b$1719bob2o39bo21b2o594b2o148b3o29bo3918bo6813b$1721bo40bobo616b2o93b3o50bo2b2o27b3o3908b3o3bobo6814b$1762b2o712bo2bo49bo3bo26b2o2bo3907bo2bo6819b$1722bob2o364bo389bo50bobo26bo3911bo6822b$1723b2o363b2o381bo5b3o80b3o3909bo7b3o6812b$1945bo129bo13b2o378bobo56b2ob2o27b2obo3909bobo4bo2bo6811b$1757b2o185bobo126bobo394b2o58bo30bob2o3915bo6814b$1717bo39bob2o183bobo52b2o55bo17b2o485b2o3917bo6814b$1715b2o42b2o184bo53b2o53bobo392b3o110bob2o3915bobo20b3o6788b$1716b2o39b2o296b2o392bo2bo108b2ob2o3938bo2bo6787b$1755b2o692bo2bo77b4o27b2ob2o3938bo6790b$2530bobobo23bo4bo3940bo6790b$1755bobo23bo670b2o79bo25b2o3944bobo6787b$1756bo23bobo668bo2bo103b2o10735b$1780bobo668bo2bo12bobo10825b$1781bo394bo274bo15b2o4043b3o6780b$1810bo366bo290bo64bo3977bo2bo6780b$1809bobo363b3o356b2o3978bo6780b$1809bobo721b2o3689b2o280bo7bo6780b$1810bo4413b2o247bo17bo13b3o3bobo6781b$2462b2o4008b3o15b3o11b2obo6787b$2156bobo52bo250bobo51bobo31bo3921bob2o14bob2o10b3o6788b$2157b2o53bo251b2o51b2o30bo3923b3o15b3o11b2o6788b$2157bo52b3o250bo53bo31b3o3921b3o15b2o6802b$1766b3o692bobo4009b2o6820b$1766bo2bo670bo19b2o10833b$1752bo12bo3bo668b2o20b3o10832b$1751bobo11b4o264bo405b2o10854b$1751bobo12bo264b2o483bo10778b$1752bo279b2o482bobo10776b$1994b2o429bo90b2o3971b3o6803b$1994b2o430b2o4061bo2bo6802b$2425b2o4062bo6805b$1766b2ob2o4718bo6805b$1766bob3o582bo198b2o3928b3o5bobo6802b$1776bo577b2o195bobo3927bo2bo6810b$1775bobo575b2o197bo1778b2o2151bo6810b$1775bobo2552b4o2150bo5b3o6802b$1730bo45bo2553b2ob2o2146bobo5bo2bo6802b$1731b2o32b2ob3o34bo2526b2o2158bo6802b$1730b2o33b4obo33bobo4685bo6802b$1764b2o2b2o34bobo4682bobo22b3o6778b$1805bo550bo4156bo2bo6778b$2356bobo4157bo6778b$2356b2o4158bo6778b$2502bo4010bobo6779b$2500b2ob2o27b3o10760b$2500b2ob2o26bo2bo10760b$1692bo808bob3o25bo3bo3986b3o6770b$1692b2o53bo752b3o27b2obobo3986bo2bo6769b$1694bo51bobo5bo314bobo458b2ob2o3987bo6772b$1692b2o52bobo3b2o316b2o459b3o3982bo5bo6772b$1692bo39bo14bo5b2o315bo273b3o4136bo17bo13b3o5bobo6769b$1730b2o257b2o356bo153b2o3979b3o15b3o12bob2o6776b$1694b2o35b2o256b2o353bo2bo121bo31b2o3978b2obo14b2obo13b3o6776b$1694b2o649b2o123b2o4009b3o15b3o14b2o6777b$2345b2o116bo5b2o29bo31b2obo3945b3o16b2o6793b$2344bo2bo116b2o33bob2ob2o26bobobo3945b2o6811b$1771bo418bo153bo118b2o33b2o4b2o29bo10759b$1685bo84bobo418b2o153b2o150b2ob2o10792b$1684bo85bobo417b2o308bo32bo10761b$1684b3o84bo757bo3bo10761b$1800bo727b2o10765b$1799bobo370bo354b2o3970b3o6793b$1799bobo371bo51bo303bo3684b2o282bo2bo6793b$1800bo370b3o52b2o3986b2o285bo6793b$2225b2o209bo4064bo6793b$2436bobo4053b3o3bobo6794b$2414bo21b2o69bo3984bo2bo6799b$2414bobo91bo3983bo6802b$2007bo406b2o90b3o3983bo7b3o6792b$2007bobo4483bobo4bo2bo6791b$2007b2o4491bo6794b$1737b2o3b2o697bo4058bo6794b$1736bo2bo2b2o695bobo76bobo3980bobo20b3o6768b$1736bo2bo700b2o76b2o4004bo2bo6767b$1737b2o245b2o533bo4004bo6770b$1984b2o383bo4154bo6770b$2367bobo4155bobo6767b$2368b2o10925b$2486bo10808b$1766bo717b2o4046b3o6760b$1765bobo585bo131b2o4044bo2bo6760b$1765bobo586bo2046b2o2131bo6760b$1766bo585b3o168b2o1874b2ob2o2122bo7bo6760b$1795bo726bobo1874b4o2090bo17bo13b3o3bobo6761b$1711bo82bobo726bo1876b2o2090b3o15b3o11b2obo6767b$1710b3o81bobo4695bob2o14bob2o10b3o6768b$1709b2o2bo81bo4697b3o15b3o11b2o6768b$6493b3o15b2o6782b$1704bo8b2o4778b2o6800b$1705bo7b2o11580b$1703b3o6bo2bo369bo11209b$1711b3o14bo357bo11208b$1728bobo353b3o239bo10968b$1728b2o594b2o10969b$1732b2o3b2o586b2o4182b3o6783b$1731bo2bo2b2o582b3o161bo4023bo2bo6782b$1731bo2bo586bo2bo158bobo4023bo6785b$1732b2o245b2o339bo3bo154bo4b2o4023bo6785b$1722bo256b2o339b3o2bo151bobo4022b3o5bobo6782b$1722b2o482bo114b4o153b2o4021bo2bo6790b$1661bo62bo479bobo4297bo6790b$1659b2o61b2o481b2o4297bo5b3o6782b$1660b2o38bo20bobo37bo556bobo4180bobo5bo2bo6782b$1699bo22bo37bobo555b2o4192bo6782b$1699b3o18bobo37bobo423bo132bo4192bo6782b$1718bo42bo425b2o52bo4267bobo22b3o6758b$1718bobo37bo31bo395b2o51bobo4291bo2bo6758b$1696bo60b3o29bobo448b2o169bobo4122bo6758b$1695b3o58bo2b2o28bobo619b2o3791b2o330bo6758b$1694b2o2bo57b3obo29bo598bobo20bo3791b2o327bobo6759b$1698bo60b2o628b2o10904b$1697bo284bobo405bo10904b$1693bo61bo226b2o4558b3o6750b$1693bobo58bo228bo4558bo2bo6749b$1693b2o59b3o697bobo37bo4047bo6752b$2455b2o36bo4042bo5bo6752b$2455bo37b3o4007bo17bo13b3o5bobo6749b$1727b2o3b2o4768b3o15b3o12bob2o6756b$1726bo2bo2b2o648bobo4116b2obo14b2obo13b3o6756b$1726bo2bo653b2o4116b3o15b3o14b2o6757b$1727b2o245b2o407bo4117b3o16b2o6773b$1974b2o484bo4041b2o6791b$2460bobo10832b$2367bo92b2o10833b$2368b2o10925b$1704b3o660b2o10926b$1703bo2bo2762b2o8824b$1703bo3bo2760b4o2047b3o6773b$1702b2obobo2760b2ob2o2045bo2bo6773b$1702b2ob2o78bo2684b2o2049bo6773b$1703b3o78bobo4734bo6773b$1718bo65bobo4725b3o3bobo6774b$1719b2o64bo4726bo2bo6779b$1718b2o379bo229bobo4180bo6782b$2100b2o228b2o4180bo7b3o6772b$1704b2obo391b2o229bo4182bobo4bo2bo6771b$1704bobobo4811bo6774b$1707bo4812bo6774b$2498bobo4020bobo20b3o6748b$2499b2o4043bo2bo6747b$1707bo14b2o3b2o763bobo4bo4044bo6750b$1708bo12bo2bo2b2o764b2o4049bo6750b$1702b2o2bobo12bo2bo494bobo73b2o196bo4051bobo6747b$1635bo71bo14b2o42bo453b2o73bobo10997b$1635bobo129bo452bo76bo145b3o10849b$1635b2o128b3o527bobo145bo2bo4105b3o6740b$2295b2o145bo3bo4104bo2bo6740b$2202bo93b2o145bo2b2o4106bo6740b$2200bobo51bobo40b2o146bo27b3o4070bo7bo6740b$2201b2o52b2o40b2o88bo55b2o27bo2bo4037bo17bo13b3o3bobo6741b$2255bo130bo55b3o27b2obo4036b3o15b3o11b2obo6747b$2365bo20b3o53b3o31b2o4034bob2o14bob2o10b3o6748b$1780bo583bo111b2o4035b3o15b3o11b2o6748b$1690bobo86bobo582b3o108bo2bo4034b3o15b2o6762b$1690b2o87bobo505bo156b2o28bo3719b2o317b2o6780b$1668bobo20bo39bo48bo506bobo153bob2o27b3o3717b2o7099b$1668b2o59b2o556b2o154bo3bo22bo4bo10819b$1669bo60b2o714bo24bo10823b$2469b3o10823b$13295b$2398bo4130b3o6763b$2399bo47bo4081bo2bo6762b$1715bo681b3o48bo4080bo6765b$1714bobo729b3o4080bo6765b$1714bobo4805b3o5bobo6762b$1715bo4805bo2bo6770b$2383bo4140bo6770b$2381bobo78bobo4059bo5b3o6762b$2382b2o78b2o4057bobo5bo2bo6762b$2463bo4068bo6762b$6532bo6762b$6529bobo22b3o6738b$6553bo2bo6738b$2430bo2108b2o2015bo6738b$2428b2o2107b2ob2o2014bo6738b$2345bo83b2o2106b4o2012bobo6739b$1770b2o3b2o338bo230bo2191b2o8755b$1769bo2bo2b2o336bobo228b3o10948b$1769bo2bo341b2o4446b3o6730b$1770b2o4790bo2bo6729b$2464b2o48bo4047bo6732b$2463bobo49bo4040bo5bo6732b$2464bo43bo4b3o4007bo17bo13b3o5bobo6729b$2509bo4012b3o15b3o12bob2o6736b$2235bo271b3o4011b2obo14b2obo13b3o6736b$1710bo525bo71bo4212b3o15b3o14b2o6737b$1610bobo96bobo522b3o69bobo4212b3o16b2o6753b$1610b2o97bobo595b2o4213b2o6771b$1611bo98bo11584b$13295b$2215bobo52bo11024b$2216b2o53bo11023b$2216bo52b3o91bo10931b$2361b2o4176b3o6753b$2341bo20b2o4174bo2bo6753b$1666bo672b2o4200bo6753b$1665bo674b2o4199bo6753b$1644bo20b3o594bobo4267b3o3bobo6754b$1643bo61bo556b2o4268bo2bo6759b$1643b3o59bobo57b2o3b2o491bo190b2o4076bo6762b$1705b2o57bo2bo2b2o683b2o3727b2o346bo7b3o6752b$1596b3o165bo2bo686bo3729b2o347bobo4bo2bo6751b$1765b2o702b2o4069bo6754b$1596bobo730bo82bo55bobo4069bo6754b$1599bo729b2o82b2o55bo4070bobo20b3o6728b$1595bo3bo728bo2bo80b2o70bo4079bo2bo6727b$2329bobo152b2o4078bo6730b$1595bo2b2o728bo2bo151bobo4078bo6730b$1705bo622bo2bo4233bobo6727b$1704bobo621bobo65bobo39bo59b3o10794b$1596bo107bobo622b3o65b2o38bo62bo10794b$1596bo108bo691bo39b3o59bo4072b3o6720b$1595bo917b2o4056bo2bo6720b$1596bob2o914b2o4058bo6720b$1600bo912bo4052bo7bo6720b$1593bo4bo4934bo17bo13b3o3bobo6721b$2404bo4127b3o15b3o11b2obo6727b$1594bobo807bobo4125bob2o14bob2o10b3o6728b$1594b3o762bo44b2o2201b2o1924b3o15b3o11b2o6728b$2128bobo229b2o2244b4o1923b3o15b2o6742b$2129b2o228b2o2245b2ob2o1922b2o6760b$2129bo2478b2o8685b$1760b2o3b2o11528b$1759bo2bo2b2o11528b$1759bo2bo764bo10767b$1760b2o766bo10766b$1602bo739bo184bo4021b3o6743b$1603b2o644bo91b3o179b3o4023bo2bo6742b$1602b2o646b2o69bobo16b2o2bo177bo2bo4023bo6745b$2249b2o71b2o199b2o4024bo6745b$2322bo21b2o4196b3o5bobo6742b$1700bo643b2o4195bo2bo6750b$1699bobo529bo111bo2bo4197bo6750b$1699bobo530bo51bo57b3o4199bo5b3o6742b$1700bo529b3o52b2o4254bobo5bo2bo6742b$2284b2o50bobo4213bo6742b$2337b2o4213bo6742b$2337bo4211bobo22b3o6718b$1579bo62bo4930bo2bo6718b$1579bobo37b2o19b2o596bo4337bo6718b$1579b2o36bo23b2o594bo4338bo6718b$1617b3o60bobo554b3o4333bobo6719b$1619b2o59b2o11613b$1681bo11613b$2331bo4250b3o6710b$1621b2o53b3o76b2o3b2o568bo54b3o4194bo2bo6709b$1621b2o52bo2bo75bo2bo2b2o547bo20b3o52bo2bo27b3o9bo3745b2o406bo6712b$1675b2o2bo74bo2bo550bo74bo4bo26bo2bo7bobo3745b2o400bo5bo6712b$1678b2o75b2o551b3o104bo4bo6b2o4114bo17bo13b3o5bobo6709b$2383bo36bo102b2o4017b3o15b3o12bob2o6716b$1612bobo60bo708bo35b2o101b2o4016b2obo14b2obo13b3o6716b$1612b2o59b2o710b2obo23bo4bob2o4120b3o15b3o14b2o6717b$1613bo60b2o710bo2bo23bo4bo4122b3o16b2o6733b$1627b3o756b2o23b3o4128b2o6751b$1628bo66bo691bo2bo10904b$1628b3o63bobo693bo10904b$1694bobo689bo10908b$1695bo693bo10905b$2386b3o10906b$6559b3o6733b$6558bo2bo6733b$1687bo2b2o452bo230bo4185bo6733b$1613bo77b2o452bo227bobo30bobo4152bo6733b$1612bobo11bobo61b2o451b3o228b2o30b2o4144b3o3bobo6734b$1612bobo11bobo778bo4144bo2bo6739b$1613bo72b2o2b2o2985b2o1873bo6742b$1629bo62bo2982b2ob2o1872bo7b3o6732b$1686b4o2985b4o1874bobo4bo2bo6731b$1688bo2bo58b2o3b2o617bo2301b2o1882bo6734b$1749bo2bo2b2o615b2o4186bo6734b$1625bobo121bo2bo512bo71bo35b2o4186bobo20b3o6708b$1626bo123b2o511bobo72bo4245bo2bo6707b$2264b2o70b3o179b2o4064bo6710b$2518b2o4064bo6710b$6585bobo6707b$2245bo11049b$2246b2o52bo106b2o10886b$2245b2o51bobo105bobo4183b3o6700b$2299b2o106bo4183bo2bo6700b$6594bo6700b$1686bo4899bo7bo6700b$1554bobo128bobo4865bo17bo13b3o3bobo6701b$1554b2o129bobo526bo4337b3o15b3o11b2obo6707b$1555bo130bo525b2o4338bob2o14bob2o10b3o6708b$2213b2o4338b3o15b3o11b2o6708b$1608bo749b3o29bo4162b3o15b2o6722b$1607bobo747bo3bo27b3o4161b2o6740b$1607bobo697bo80bo2b2o10902b$1608bo696b2o55bo25bo3bo10902b$2285bo20b2o49b5o28bobo48bobo10851b$1610bo672b2o73bo83b2o10851b$1609bo135b2o3b2o532b2o101b2ob2o50bo10852b$1588bo20b3o132bo2bo2b2o637bo3774b2o403b3o6723b$1587bo61bo48bo45bo2bo610b2o3804b2o403bo2bo6722b$1587b3o59bobo44bobo46b2o611b2o4209bo6725b$1649b2o46b2o659bo154b2o4054bo6725b$2357b2o30b4o120b2o4047b3o5bobo6722b$2355b2obob3o26bobobo4167bo2bo6730b$2361b2o29bo4171bo6730b$2355bo2bo4205bo5b3o6722b$2356b3o4202bobo5bo2bo6722b$2385b2o4185bo6722b$2384bobo4185bo6722b$1681bo702bo4184bobo22b3o6698b$1680bobo475bo226bo4207bo2bo6698b$1666bobo11bobo476b2o4435bo6698b$1666b2o13bo476b2o4436bo6698b$1667bo4925bobo6699b$1603bo11691b$1602bobo758bobo10929b$1602bobo590bo168b2o2379b2o1855b3o6690b$1603bo590b3o167bo2379b4o1854bo2bo6689b$2193b2o2bo2546b2ob2o1853bo6692b$2278bobo70bo2394b2o1848bo5bo6692b$1740b2o3b2o532b2o71b2o21bo4187bo17bo13b3o5bobo6689b$1739bo2bo2b2o532bo71b2o22bobo4184b3o15b3o12bob2o6696b$1739bo2bo450b2o180b2o4184b2obo14b2obo13b3o6696b$1740b2o452b3o4364b3o15b3o14b2o6697b$2197bo63bo246b2o4051b3o16b2o6713b$2195b3o61bobo51bobo192b2o4052b2o6731b$2195b2o63b2o52b2o26bo10952b$2314bo26bo10953b$2341b3o10951b$1530bo664bobo11097b$1529bo666b2o182b2o10913b$1529b3o664bo182bobo4197b3o6713b$1676bo686bo16bo4197bo2bo6713b$1675bobo658b2o24bobo4216bo6713b$1675bobo658bobo22bo3bo4215bo6713b$1676bo661bo23bo2bo4206b3o3bobo6714b$2281bo54bobo23bo2bo4206bo2bo6719b$1598bo74bo607bobo51bo27bobo91bo4114bo6722b$1597bobo72b3o584bo21b2o52bobo120bo4113bo7b3o6712b$1586bo10bobo71b2o2bo583bobo73bo120b3o4114bobo4bo2bo6711b$1584b2o12bo76bo506bo76b2o73bo4245bo6714b$1564bo20b2o87bo506bo4398bo6714b$1562b2o60bobo43bo40bobo467b3o4397bobo20b3o6688b$1563b2o59b2o44bobo39b2o21b2o3b2o4862bo2bo6687b$1625bo44b2o40bo21bo2bo2b2o4412b2o448bo6690b$1734bo2bo4416b2o448bo6690b$1735b2o4868bobo6687b$2503b2o10790b$2503b2o10790b$6612b3o6680b$1591bo5019bo2bo6680b$1590b3o5021bo6680b$1590bob2o5012bo7bo6680b$1589b2o51bo531bo4398bo17bo13b3o3bobo6681b$1589b2o50bo16bo513bobo4397b3o15b3o11b2obo6687b$1589b2o50b3o13bobo513b2o183b2o4212bob2o14bob2o10b3o6688b$1593bo62bo3bo696bobo4213b3o15b3o11b2o6688b$1592b2o16b3o44bo2bo697bo4214b3o15b2o6702b$1590bobo64bo2bo4912b2o6720b$1589bo2bo17bobo45bobo11634b$1590bobo20bo11681b$1590b3o16bo3bo680bo11000b$1590b2obo701bo10999b$1590bo2bo15bo2b2o679b3o2519b2o8478b$1591bo3221b2ob2o1771b3o6703b$4813b4o1772bo2bo6702b$1610bo119b2o3b2o3077b2o1773bo6705b$1610bo118bo2bo2b2o537bobo52bo14bo4244bo6705b$1609bo119bo2bo542b2o53bo11bobo4237b3o5bobo6702b$1610bob2o116b2o543bo52b3o12b2o4236bo2bo6710b$1594bo19bo883b2o4084bo6710b$1595b2o10bo4bo598bo286b2o4084bo5b3o6702b$1506bo87b2o616bo132bo4235bobo5bo2bo6702b$1504b2o102bobo70bo528b3o130b2o4247bo6702b$1505b2o101b3o68bobo662b2o4246bo6702b$1625b3o52b2o4907bobo22b3o6678b$1624bo2bo609b3o4373bo2bo6678b$1628bo608bo2bo4375bo6678b$1624b2o611bo2bo112b2o4261bo6678b$1624b2o3bo608bo2bo14bobo51bobo39bobo4258bobo6679b$1629bo608b3o15b2o52b2o41bo117bo10823b$1627bo611b2o16bo53bo160b2o10821b$1560bo14bo40bo8b3o37bo805b2o4149b3o6670b$1560bobo12bobo39b2o6b2o39bo491bo4463bo2bo6669b$1538bo21b2o13b2o39b2o7bo38b3o60bo428b2o4464bo6672b$1538bobo85b2o100bo428b2o4457bo5bo6672b$1538b2o86bobo97b3o424b3o4427bo17bo13b3o5bobo6669b$1625bo3bo523bo2bo88bobo4334b3o15b3o12bob2o6676b$1626b2o524bo3bo88bo2bo4332b2obo14b2obo13b3o6676b$1725b2o3b2o420b3o2bo86bo3b2o101bo4229b3o15b3o14b2o6677b$1724bo2bo2b2o421b4o72bo14bo106b2o3791b2o435b3o16b2o6693b$1724bo2bo499b2o121bobo3791b2o436b2o6711b$1725b2o501b2o14bo2b3o11045b$2150bobo91b2o119b3o125b2o10800b$1593bo36bo6b2o511b2o94b3o118bo125b2o10800b$1593bobo32bobo8bo511bo94b3o117bo10928b$1593b2o34b2o9bo546bobo190b2o10913b$1637bobo548b2o191b2o4216b3o6693b$1638bo549bo191bo4217bo2bo6693b$1640bobo752b2o4204bo6693b$1640bobo751bobo4204bo6693b$1641bo754bo4195b3o3bobo6694b$2410bo4181bo2bo6699b$2410b2o4180bo6702b$1632bobo673bo100bobo4180bo7b3o6692b$1632b2o675b2o4282bobo4bo2bo6691b$1610bobo20bo674b2o114b3o4173bo6694b$1610b2o814bo4173bo6694b$1611bo813bo2457b2o1716bobo20b3o6668b$2290bo148b2o2441b4o1738bo2bo6667b$1619bo671bo51bo96b2o2440b2ob2o1737bo6670b$1618bobo668b3o52b2o93bo2444b2o1738bo6670b$1618bobo97b2o623b2o109b2o4169bobo6667b$1610bo8bo97bo2bo732bobo10839b$1608bobo107b2o505bo229bo10839b$1480bo128b2o615b2o91bo149bo4162b3o6660b$1480bobo211bobo528b2o92bobo147b2o17b2o4141bo2bo6660b$1480b2o213b2o622b2o147bobo17b2o4144bo6660b$1695bo4930bo7bo6660b$6593bo17bo13b3o3bobo6661b$2483b2o4107b3o15b3o11b2obo6667b$2286bo196b2o4107bob2o14bob2o10b3o6668b$2285bo4307b3o15b3o11b2o6668b$2285b3o4305b3o15b2o6682b$2161bobo4429b2o6700b$1535bobo12bobo126bo482b2o11131b$1535b2o13b2o128b2o480bo11132b$1513bobo20bo14bo127b2o11614b$1513b2o11780b$1514bo11780b$6609b3o6683b$2225bo4383bo2bo6682b$2225bobo4381bo6685b$1614bo512b2o74bo21b2o4382bo6685b$1613bobo511bobo73bobo4396b3o5bobo6682b$1613bobo97b2o414bo73b2o4396bo2bo6690b$1614bo97bo2bo411bobo4004b2o468bo6690b$1568bobo142b2o412b2o4005b2o468bo5b3o6682b$1568b2o558b2o73bo4397bobo5bo2bo6682b$1569bo559b2o73bo278b2o4127bo6682b$2129b2o71b3o278b2o4127bo6682b$1564b3o5042bobo22b3o6658b$1563bo2bo5066bo2bo6658b$1563b2o2bo910b2o4156bo6658b$1566b2o910b2o4156bo6658b$2119bo4513bobo6659b$1563bo44bo510bobo11173b$1561b2o44bo511b2o203bo10970b$1562b2o22bo20b3o712bobo4317b3o6650b$1585bo737b2o4317bo2bo6649b$1585b3o5054bo6652b$6636bo5bo6652b$2304bo4298bo17bo13b3o5bobo6649b$2305b2o52bo4242b3o15b3o12bob2o6656b$1705bo598b2o51bobo4241b2obo14b2obo13b3o6656b$1704bobo651b2o2593b2o1646b3o15b3o14b2o6657b$1609bo13bobo78bobo3244b2ob2o1645b3o16b2o6673b$1575bo2b2o28bobo13b2o81bo533bo2709b4o1647b2o6691b$1455bobo121b2o27bobo13bo80bob4o528bobo52bobo2655b2o8341b$1455b2o121b2o29bo95bo2b3o529b2o52b2o10999b$1456bo249b3o586bo10999b$1574b2o2b2o11715b$1580bo897b2o10815b$1574b4o900b2o4139b3o6673b$1576bo2bo682bo4355bo2bo6673b$1547bo712b2o4359bo6673b$1546b3o628bo83b2o210b2o4146bo6673b$1511bo14bo19bo2bo628bo294b2o4137b3o3bobo6674b$1510bo14bo22b2o145bo480b3o4433bo2bo6679b$1489bo20b3o12b3o20bo144bobo4916bo6682b$1488bo56b2o147b2o4916bo7b3o6672b$1488b3o54b4o5064bobo4bo2bo6671b$1546bo2bo152bo4917bo6674b$1547bo154bo4917bo6674b$1546bo155bo397b3o97bobo4418bobo20b3o6648b$1545b2o553bo2bo96b2o4442bo2bo6647b$1544bo5bo23bo123b3o3b3o391bo4bo36bo37bobo20bo4442bo6650b$1544b2o3b2o22bobo12b3o547bobo37b2o4464bo6650b$1545b2o26bobo11bo2bo111bo395bo40b2o38bo4465bobo6647b$1574bo12bo2bo13bo97bo396bo11195b$1586bo2bo13bobo96bo397b2obo11191b$1586bo2bo13bobo495bo2bo112bo4434b3o6640b$1590b2o12bo496b2o115b2o3904b2o525bo2bo6640b$1590b2o510bo2bo111b2o3905b2o528bo6640b$1588bo3bo512bo4540bo7bo6640b$1591b2o508bo371b2o4138bo17bo13b3o3bobo6641b$1593bo510bo62bo305b2o4137b3o15b3o11b2obo6647b$1550bobo35bo3bo508b3o62b3o4443bob2o14bob2o10b3o6648b$1551b2o36b3o574b4o4443b3o15b3o11b2o6648b$1551bo34bo881b2o4143b3o15b2o6662b$1584bobo750bobo128b2o4143b2o6680b$1585b2o579b4o168b2o10955b$2166b4o168bo10956b$2168bo11126b$1692b2o11601b$1692b2o626bo10974b$2318bobo51bobo4254b3o6663b$2089bo229b2o52b2o4254bo2bo6662b$1531bo107bo447b2o284bo4255bo6665b$1530bo38bo6bobo61bo447b2o4539bo6665b$1431bo98b3o35bobo5b2o60b3o613bobo13bo2750b2o1599b3o5bobo6662b$1430bo123bobo11bobo6bo677b2o12bo2750b4o1597bo2bo6670b$1430b3o121b2o13bo29bo655bo13b3o2748b2ob2o1599bo6670b$1555bo42bobo3421b2o1600bo5b3o6662b$1598bobo5020bobo5bo2bo6662b$1599bo666bo4365bo6662b$2236b2o27b3o4364bo6662b$2235bo2bo25b2o2bo4360bobo22b3o6638b$2234b3o31bo199b2o4183bo2bo6638b$2180bo10bo75bo200b2o4186bo6638b$1487bo14bo676b3o10b2o42bobo24bo4392bo6638b$1485b2o13b2o676bo2b2o8b2o70bobo4387bobo6639b$1465bo20b2o13b2o15bo663bo56bo23b2o198b2o10830b$1463b2o52b3o662b2o54b2o223b2o10830b$1464b2o54bo552b3o108bo4477b3o6630b$1518b2o552bo3bo104b4o4477bo2bo6629b$1519bo654bo6b2o47bo4431bo6632b$1687b2o388bo97b2o52bo4426bo5bo6632b$1687b2o383b5o97b2o53b3o4391bo17bo13b3o5bobo6629b$2073bo79bobo4466b3o15b3o12bob2o6636b$2154b2o4465b2obo14b2obo13b3o6636b$2154bo4466b3o15b3o14b2o6637b$2073b2o4546b3o16b2o6653b$1559b2o3b2o507b2o4547b2o6671b$1558bo2bo2b2o507bo159bo11061b$1558bo2bo32bo477b2o157bobo11061b$1559b2o32bobo474b2obob3o91bo62b2o11061b$1593bobo480b2o91bobo11123b$1594bo475bo2bo42bo30bo21b2o3943b2o7179b$2071b3o43b2o28bobo3964b2o523b3o6653b$1516bo599b2o29b2o4489bo2bo6653b$1516bo627bo112b2o204b2o4176bo6653b$2143b3o110bobo94bo109b2o4176bo6653b$2142bo2b2o110bo96bo4277b3o3bobo6654b$2142b3obo205b3o4277bo2bo6659b$2145b2o311b2o4172bo6662b$2458b2o4172bo7b3o6652b$2141bo4491bobo4bo2bo6651b$2078bobo59bo192bobo52bo4251bo6654b$1525bo7bo545b2o59b3o191b2o53bo4250bo6654b$1523bobo6b3o147b2o395bo254bo52b3o4251bobo20b3o6628b$1524b2o6bob2o16bo100bo28b2o4980bo2bo6627b$1533bo2bo14bo102b2o5008bo6630b$1407bo126b2o15b3o99b2o5009bo6630b$1405b2o127bo5130bobo6627b$1406b2o11887b$1554b2o3b2o11734b$1553bo2bo2b2o686bo2843b2o1579b3o6620b$1553bo2bo32bo658bo2840b2ob2o1577bo2bo6620b$1554b2o32bobo466bo94b3o91b3o2840b4o1581bo6620b$1541b2o45bobo465bo95bo2bo2934b2o1574bo7bo6620b$1499bobo38b3o46bo466b3o92bo3bo4477bo17bo13b3o3bobo6621b$1499b2o39bo2bo608bo2b2o50bo4424b3o15b3o11b2obo6627b$1461bo14bo23bo22bo16b2ob2o609bo50bobo30bobo4391bob2o14bob2o10b3o6628b$1461bobo12bobo44bobo14b2ob2o607b2o52b2o30b2o12b2o204b2o4173b3o15b3o11b2o6628b$1439bo21b2o13b2o45b2o14b2ob2o607b3o85bo11bobo204b2o4173b3o15b2o6642b$1439bobo98bo610b3o98bo4380b2o6660b$1439b2o100b3o11751b$1542bo910b2o10840b$2153b2o51bo246b2o10840b$1517bo634bob2o48b2o11089b$1517b2o633bo3bo12bo35b2o47b2o11039b$1519bo635bo14bo84b2o4392b3o6643b$1517b2o158b2o489b3o83bo4394bo2bo6642b$1516bobo158b2o590b2o4378bo6645b$1517bo750bobo4378bo6645b$1515bobo752bo4371b3o5bobo6642b$1513bo641b2o89bobo35bo4356bo2bo6650b$1513bobo731b2o35b2o4358bo6650b$1549b2o3b2o691bo35bobo4358bo5b3o6642b$1548bo2bo2b2o5085bobo5bo2bo6642b$1548bo2bo32bo547bo165b3o4351bo6642b$1549b2o32bobo544bobo167bo4351bo6642b$1583bobo545b2o166bo4349bobo22b3o6618b$1584bo728b2o3789b2o567bo2bo6618b$2314b2o51bo3736b2o570bo6618b$2190b3o29bo90bo54b2o4306bo6618b$2189bo3bo27b3o104b2o37b2o84b2o4218bobo6619b$2139bo80bo2b2o102bobo123b2o10840b$2137b2o55bo25bo3bo104bo10965b$1526b3o565bo22bo20b2o49b5o28bobo118bo5bo4332b3o6610b$1526bo2bo565bo19b2o73bo152b2o5bo51bo45b2o4232bo2bo6609b$1524bo4bo8bobo552b3o20b2o101b2ob2o118bobo3b3o52b2o43b2o4232bo6612b$1539b2o680bo180b2o4272bo5bo6612b$1524bo14bo129bo520b2o165b3o4283bo17bo13b3o5bobo6609b$1525bo141bobo520b2o167bo4282b3o15b3o12bob2o6616b$1381bo144b2obo138b2o2b2o516bo167bo4282b2obo14b2obo13b3o6616b$1381bobo143bo2bo141b2o436b2o77b2o30b4o147b2o4267b3o15b3o14b2o6617b$1381b2o144b2o581b2o75b2obob3o26bobobo147b2o4266b3o16b2o6633b$1528bo2bo580bo80b2o29bo147bo4269b2o6651b$1531bo578b3o74bo2bo196b2o10906b$1527bo581bobo76b3o195bobo10906b$1530bo13b2o3b2o482bo76b2o105b2o169bo2770b2o8134b$1475bo48bo2b3o13bo2bo2b2o480b2o76bo106bobo183bo2755b4o8133b$1474bo50bo17bo2bo32bo452b2o75bo106bo185b2o2754b2ob2o8132b$1474b3o46b3o18b2o32bobo526bo109bo183bobo2756b2o1497b3o6633b$1436bobo12bobo124bobo5077bo2bo6633b$1436b2o13b2o126bo5081bo6633b$1414bobo20bo14bo5208bo6633b$1414b2o5236b3o3bobo6634b$1415bo779bobo250b2o4202bo2bo6639b$2196b2o250b2o4202bo6642b$2196bo4455bo7b3o6632b$1515bo5137bobo4bo2bo6631b$1513b2o668bo259b2o4215bo6634b$1493bo20b2o668b2o21bo235b2o4215bo6634b$1491b2o627bo62b2o22bobo4451bobo20b3o6608b$1492b2o625b3o85b2o4475bo2bo6607b$2118b2o2bo4561bo6610b$2262bo4421bo6610b$2263bo4421bobo6607b$2174bo86b3o11031b$2118b2o53bo11121b$2119b3o51b3o226bo4289b3o6600b$1537bo584bo22bobo254bo4288bo2bo6600b$1536bobo581b3o23b2o64b2o188bo4291bo6600b$1536bobo581b2o24bo64bobo4472bo7bo6600b$1537bo36bo620bo16bo4440bo17bo13b3o3bobo6601b$1573bobo618bobo186bo4268b3o15b3o11b2obo6607b$1573bobo544bobo70bo3bo183bobo4268bob2o14bob2o10b3o6608b$1574bo546b2o40bo2b2o26bo2bo184b2o3710b2o557b3o15b3o11b2o6608b$2116bob2obo45b2o25bo2bo3896b2o557b3o15b2o6622b$2117b2o47b2o27bobo4455b2o6640b$2108bo8bo245bo79b2o10850b$2109b2o51b2o2b2o196b2o77b2o10850b$2108b2o58bo194b2o10930b$2162b4o11129b$2164bo2bo270b2o10855b$2438b2o4229b3o6623b$1356bobo5310bo2bo6622b$1356b2o749bo4561bo6625b$1357bo748bo4562bo6625b$2085bo20b3o4553b3o5bobo6622b$2084bo4576bo2bo6630b$2084b3o4577bo6630b$2007bo4656bo5b3o6622b$1451bo555bobo4651bobo5bo2bo6622b$1449b2o81bo474b2o387b3o4273bo6622b$1412bo14bo22b2o79bobo5138bo6622b$1411bo14bo104bobo3695b2o1438bobo22b3o6598b$1390bo20b3o12b3o103bo36bo620b2o3035b2ob2o1461bo2bo6598b$1389bo178bobo618bobo3035b4o1465bo6598b$1389b3o176bobo619bo3037b2o1466bo6598b$1569bo5123bobo6599b$13295b$1439bo11855b$1439b2o48bo948b2o4262b3o6590b$1438bo2bo47bobo946b2o4262bo2bo6589b$1439bobo25bo21b2o5211bo6592b$1438bo2bo25bobo5226bo5bo6592b$1438bo2bo25b2o964b2o4228bo17bo13b3o5bobo6589b$1438bobo992b2o4227b3o15b3o12bob2o6596b$1439b3o732bo101bo4384b2obo14b2obo13b3o6596b$2172bobo102b2o4382b3o15b3o14b2o6597b$2173b2o101b2o4383b3o16b2o6613b$6662b2o6631b$2161bo11133b$2162bo14bo214b3o10900b$2160b3o12b2o11118b$2176b2o11117b$1527bo11767b$1526bobo5150b3o6613b$1454bo71bobo5149bo2bo6613b$1454bo72bo36bo606b3o11b2o4494bo6613b$1453bobo107bobo574bo30bo2bo9bobo4494bo6613b$1563bobo573bobo29bo2bo10bo4486b3o3bobo6614b$1455b2o107bo559bo14bob2o27b4o205bo3704b2o586bo2bo6619b$2122bobo16bo28b2o205bobo3704b2o586bo6622b$1455b2o666b2o44bo208b2o4292bo7b3o6612b$2142bob2o24bo262b2o4238bobo4bo2bo6611b$2143b2o25bo262b2o4245bo6614b$1332bo5347bo6614b$1331bo5349bobo20b3o6588b$1331b3o118b2o629bo53bo290b2o4274bo2bo6587b$1452b3o626b2o52b2o291b2o4274bo6590b$1456bo604bo20b2o52b2o4566bo6590b$1454b2o603b2o4644bobo6587b$1446bob2o610b2o11233b$1447b3o532bobo11310b$1447bo3bobo528b2o404bo4323b3o6580b$1451bobo529bo404bo4322bo2bo6580b$1388bo14bo48bo935bo4325bo6580b$1386b2o13b2o5303bo7bo6580b$1366bo20b2o13b2o118bo5150bo17bo13b3o3bobo6581b$1364b2o155bobo3773b2o1373b3o15b3o11b2obo6587b$1365b2o154bobo3772b4o1372bob2o14bob2o10b3o6588b$1466b2o54bo36bo3736b2ob2o1372b3o15b3o11b2o6588b$1466bobo89bobo3737b2o1373b3o15b2o6602b$1419bo40bo7b2o88bobo602b2o4508b2o6620b$1418bo42bo4bobo90bo602bobo11130b$1418b3o38b3o4bo696bo11131b$1466bo2bo11825b$2428b2o10865b$1468b2o958b2o10865b$6689b3o6603b$2292bo4396bo2bo6602b$2290bobo130b2o4264bo6605b$2291b2o130b2o4264bo6605b$1459bo5222b3o5bobo6602b$1457b2o5222bo2bo6610b$1437bo20b2o923bo4300bo6610b$1435b2o945bobo4299bo5b3o6602b$1436b2o9bo934bo2bo4295bobo5bo2bo6602b$1446bobo934b2o4307bo6602b$1446bobo701bo4541bo6602b$1447bo703b2o4536bobo22b3o6578b$1517bo632b2o4561bo2bo6578b$1516bobo597bo4599bo6578b$1516bobo596b3o4598bo6578b$1517bo36bo559b2o2bo18bobo3bo2bo4566bobo6579b$1553bobo582b2o3bob2o11148b$1553bobo562b2o18bo6b2o11b2o11135b$1554bo563b2o37bobo3914b2o646b3o6570b$2117bo2bo37bo3915b2o646bo2bo6569b$1308bo807b3o28b2o4573bo6572b$1306b2o839b2o274b2o4291bo5bo6572b$1307b2o91b3o654bo365b2o4258bo17bo13b3o5bobo6569b$1399bo2bo654bobo4622b3o15b3o12bob2o6576b$1399b2obo632bo21b2o4622b2obo14b2obo13b3o6576b$2035bobo100bo279b2o4261b3o15b3o14b2o6577b$1958bo76b2o101bobo277b2o4261b3o16b2o6593b$1957bo180b2o4542b2o6611b$1399b2o556b3o11335b$1399b4o975bo10916b$1362bo14bo22bo2bo973bobo10915b$1362bobo12bobo21bobo38bo662bo271bo2bo10914b$1340bo21b2o13b2o22bobo37bobo660bo273b2o10915b$1340bobo98bobo660b3o268bo4323b3o6593b$1340b2o100bo931b3o4321bo2bo6593b$1403bo108bo860bo2b2o4323bo6593b$1401bobo107bobo859b3obo4323bo6593b$1402b2o107bobo862b2o2989b2o1323b3o3bobo6594b$1512bo36bo3815b2ob2o1322bo2bo6599b$1548bobo821bo2992b4o1323bo6602b$1416bo131bobo820bo2994b2o1324bo7b3o6592b$1415b3o131bo821b3o4319bobo4bo2bo6591b$1414b2o2bo717b2o4562bo6594b$2135bobo4562bo6594b$1418b2o716bo168bobo110b2o4281bobo20b3o6568b$1418b2o886b2o110b2o4304bo2bo6567b$1417bo2bo885bo4417bo6570b$1387bobo26b3o14bo5290bo6570b$1387b2o44bobo977b2o4310bobo6567b$1388bo44b2o978b2o10880b$13295b$6732b3o6560b$6731bo2bo6560b$1382b2o5350bo6560b$1382bobo42bo9bo5288bo7bo6560b$1384b2o41b2o7bobo5254bo17bo13b3o3bobo6561b$1383bo45bo6bobo5253b3o15b3o11b2obo6567b$1381bobo43b2o8bo5254bob2o14bob2o10b3o6568b$1380b2o23bo20bobo78bo5185b3o15b3o11b2o6568b$1380b3o21bo22bo78bobo5184b3o15b2o6582b$1404b3o18bobo78bobo5184b2o6600b$1423bo83bo36bo11750b$1423bobo117bobo11749b$1282bo260bobo582b2o11165b$1282bobo259bo583bo3935b2o7229b$1282b2o748bobo93bobob2o3930b2o7229b$2032b2o95b2ob2o4575b3o6583b$1409bo600bobo20bo97bo281b2o4294bo2bo6582b$1408bobo599b2o101bobo21b2o274b2o4294bo6585b$1408bobo523bo76bo101b2o23b2o4569bo6585b$1409bo522b2o180bo22bo245bo4318b3o5bobo6582b$1933b2o217b2o230bo23b2o4291bo2bo6590b$2151bobo228b3o23b2o4294bo6590b$1337bobo12bobo798bo4550bo5b3o6582b$1337b2o13b2o727bo85bo4533bobo5bo2bo6582b$1315bobo20bo14bo725b2o86b2o4543bo6582b$1315b2o763b2o84bobo4543bo6582b$1316bo115bo5276bobo22b3o6558b$1431bobo747b3o4549bo2bo6558b$1431bobo749bo4552bo6558b$1432bo749bo4553bo6558b$1502bo693b2o4535bobo6559b$1501bobo693b2o149bo3086b2o7858b$1501bobo692bo149b2o3086b4o7857b$1502bo36bo671b2o134b2o3085b2ob2o1303b3o6550b$1424b3o111bobo669bobo3223b2o1304bo2bo6549b$1423bo3bo110bobo671bo108bo4420bo6552b$1389bo38bo110bo686bo95bo4413bo5bo6552b$1390b2o834b2o92b3o4380bo17bo13b3o5bobo6549b$1389b2o32b2o3bo796bobo4474b3o15b3o12bob2o6556b$1404bo20b3o980b2o4291b2obo14b2obo13b3o6556b$1403bobo834b3o165b2o4291b3o15b3o14b2o6557b$1403bobo836bo4458b3o16b2o6573b$1404bo836bo4460b2o6591b$2255b2o146b2o10890b$2256b2o145b2o10890b$2255bo11039b$2270b2o11023b$2269bobo11023b$1356bo46bo867bo4447b3o6573b$1356bobo42b2o882bo4432bo2bo6573b$1356b2o23bo20b2o881b2o4434bo6573b$1379b2o903bobo4434bo6573b$1380b2o5330b3o3bobo6574b$1497bo801b3o4410bo2bo6579b$1496bobo802bo4410bo6582b$1257bobo236bobo801bo4411bo7b3o6572b$1257b2o238bo36bo473bo305b2o4397bobo4bo2bo6571b$1258bo274bobo471bo307b2o4403bo6574b$1533bobo450bo20b3o304bo4405bo6574b$1534bo450bo103bo239b2o3723b2o665bobo20b3o6548b$1985b3o100bo239bobo3723b2o688bo2bo6547b$1908bo179b3o239bo4413bo6550b$1368bo30bo508bobo433bo52bo5b2o4339bo6550b$1367b3o28bobo32bo474b2o424b2o8b2o52b2o3b2o4340bobo6547b$1313bo14bo37b5o27bobo30bobo899bobo7bobo52b2o10895b$1246bo65bo14bo38b2ob3o27bo32b2o901bo10959b$1245b3o43bo20b3o12b3o37b2ob2o683bo293bo8b3o36bo4354b3o6540b$1245b4o41bo78bo17bo667bobo291b2o9bo37b2o4351bo2bo6540b$1290b3o93b3o666b2o291bobo8bo4394bo6540b$1386bo2bo983b2o4371bo7bo6540b$1245b4o139b2o973b3o8b2o4337bo17bo13b3o3bobo6541b$1245b4o139bo976bo7bo4338b3o15b3o11b2obo6547b$1247bo137b2o977bo23b2o18b2o4302bob2o14bob2o10b3o6548b$1385b4o989b2o7bobo19b2o4302b3o15b3o11b2o6548b$1386bo2bo989b2o8bo18bo4304b3o15b2o6562b$1387bo17bobo970bo24bo19b2o4288b2o6580b$1386bo18b2o85bo900b2o8b2o17bobo10870b$1359bo25b2o19bo84bobo898bobo7bobo19bo10870b$1358bobo23bo5bo100bobo900bo43bo3066b2o7788b$1357b2ob2o22b2o3b2o14bo86bo36bo878bo8b3o18b2o3063b2ob2o7787b$1358bo2bo23b2o16bobo122bobo877b2o9bo17bobo3063b4o7788b$1358bo3bo41b2o122bobo876bobo8bo3085b2o1223b3o6563b$1358bo58b3o68bo40bo902b2o18b3o4274bo2bo6562b$1419bo68b2o932b3o8b2o19bo4274bo6565b$1418bo71bo933bo7bo20bo4275bo6565b$1358b2o34bo93b2o933bo23b2o18b2o4253b3o5bobo6562b$1359bo33bobo91bobo947b2o7bobo19b2o4251bo2bo6570b$1395bo92bo949b2o8bo18bo4256bo6570b$1356bo36b2o91bobo948bo24bo19b2o4240bo5b3o6562b$1356bob2ob2o28b2o91bo967b2o8b2o17bobo4237bobo5bo2bo6562b$1355b2ob2ob2o29bo39bo51bobo964bobo7bobo19bo4248bo6562b$1331bobo22bobo15bobo54bo1021bo43bo4234bo6562b$1331b2o24bo17b2o55bo1034bo8b3o18b2o4230bobo22b3o6538b$1332bo42bo1091b2o9bo17bobo4254bo2bo6538b$1350bo1115bobo8bo4278bo6538b$1253bo95b3o1139b2o18b3o4242bo6538b$1254b2o92b2o2bo1128b3o8b2o19bo4239bobo6539b$1253b2o93bo3bo1130bo7bo20bo10782b$1348bob2o1130bo23b2o18b2o10767b$1348b2o87b2o545bo511b2o7bobo19b2o4233b3o6530b$1363bo5bo2bo64b2o543b2o513b2o8bo18bo4235bo2bo6529b$1364b2o3bob2o589bo20b2o511bo24bo19b2o4219bo6532b$1363b2o6b2o151bo435b2o103bo445b2o8b2o17bobo4213bo5bo6532b$1523bobo435b2o100b2o445bobo7bobo19bo4180bo17bo13b3o5bobo6529b$1290b3o56b2o2bo169bobo357bobo178b2o446bo43bo4165b3o15b3o12bob2o6536b$1290bo2bo55bobobo19b2o149bo358b2o641bo8b3o18b2o3486b2o675b2obo14b2obo13b3o6536b$1294bo22b3o32bo20b2o509bo641b2o9bo17bobo3486b2o675b3o15b3o14b2o6537b$1226bo64b3o10bo1220bobo8bo4184b3o16b2o6553b$1226bobo73b2o13bobo1230b2o18b3o4149b2o6571b$1226b2o39bo35b2o15bo709bobo507b3o8b2o19bo10722b$1265b2o49bo3bo30bobo11bo664b2o510bo7bo20bo10723b$1266b2o73bo10b2o12b2o663bo509bo23b2o18b2o10708b$1316bo2b2o19b3o9bo7b2o107b3o1083b2o7bobo19b2o10707b$1339bo2b2o16bo107bo2bo1084b2o8bo18bo10709b$1339b4o19b3o103b2obo1083bo24bo19b2o4137b3o6553b$1317bo24bobo14bo5bo129bo1074b2o8b2o17bobo4136bo2bo6553b$1317bo24bo2bo14bo4bo130bo1072bobo7bobo19bo4139bo6553b$1214b3o64bobo32bo25b3o16bo2bo129b3o1074bo43bo4125bo6553b$1217bo63b2o34bob2o20bobo19bo104b2o1115bo8b3o18b2o4115b3o3bobo6554b$1214bo2bo64bo38bo19bobo14bo109b4o1113b2o9bo17bobo4115bo2bo6559b$1215b2o97bo4bo21b3o13bo111bo2bo1111bobo8bo4136bo6562b$1215b2o140b3o110bobo1136b2o18b3o4100bo7b3o6552b$1214bo2bo91bo5bobo152bobo1126b3o8b2o19bo4101bobo4bo2bo6551b$1214bo93b3o4b3o1283bo7bo20bo2942b2o1165bo6554b$1216b2o69b2o18b2o2bo1288bo23b2o18b2o2926b4o1164bo6554b$1287b2o2b2o14b2ob2o160bo46bo1094b2o7bobo19b2o2925b2ob2o1164bobo20b3o6528b$1291b2o4b2o11b3o157bobo45bobo1094b2o8bo18bo2929b2o1188bo2bo6527b$1296b2obo8bob2o159b2o45bobo1093bo24bo19b2o4103bo6530b$1296bo2b2o6bo2bo208bo1109b2o8b2o17bobo4103bo6530b$1295b5o10bo1317bobo7bobo19bo4104bobo6527b$1307bobo1320bo43bo10620b$1250bo57bo14bo5bo1314bo8b3o18b2o10619b$1249b3o72b2o3bobo1312b2o9bo17bobo4096b3o6520b$1248b2o2bo56b3o11b2o4b2o59bo1252bobo8bo4116bo2bo6520b$1248b2ob2o55bob2o79bo1276b2o18b3o4083bo6520b$1251b3o55b2obo76b3o1266b3o8b2o19bo4075bo7bo6520b$1249bob2o1407bo7bo20bo4043bo17bo13b3o3bobo6521b$1248bo2bo204bobo1200bo23b2o18b2o4027b3o15b3o11b2obo6527b$1251bo17bo186b2o1215b2o7bobo19b2o4026bob2o14bob2o10b3o6528b$1248bobo16bobo187bo1216b2o8bo18bo4029b3o15b3o11b2o6528b$1249bo18b2o1403bo24bo19b2o4013b3o15b2o6542b$1284b5o22bobo1374b2o8b2o17bobo4013b2o6560b$1250b3o30b2o2bo24b2o198bo445bo728bobo7bobo19bo10575b$1249bob2o31bob2o24bo198b3o444bobo728bo43bo10561b$1250b2obo37b2o217bo2b2o421bo21b2o743bo8b3o18b2o10560b$1285bo2bo2b2o2b2o130b2o81b3o423bobo100bo663b2o9bo17bobo10560b$1295b2o38bo91b2o430bo76b2o101bobo660bobo8bo10581b$1223bo58b2o2bo48b2o6bo514bo180b2o686b2o18b3o3999b3o6543b$1224bo57b2o3b2o47bobo3b3o117bo395b3o856b3o8b2o19bo3999bo2bo6542b$1222b3o114bobo2bo118bo46bo1208bo7bo20bo4000bo6545b$1252bobo65b2o15b2o3b2o117b3o49bo1204bo23b2o18b2o3985bo6545b$1253b2o64bo2bo14bo172bo3bo491bo725b2o7bobo19b2o3269b2o706b3o5bobo6542b$1253bo40bo27bo188b2ob2o489bo727b2o8bo18bo3271b2o705bo2bo6550b$1293bo25b3o683b3o724bo24bo19b2o3965bo6550b$1293b3o27bo1423b2o8b2o17bobo3965bo5b3o6542b$1323bo1422bobo7bobo19bo3962bobo5bo2bo6542b$2748bo43bo3959bo6542b$1238bo271b2o2b2o1246bo8b3o18b2o3958bo6542b$1237b3o270bo2b2o1247b2o9bo17bobo3955bobo22b3o6518b$1196bo40bob2o16bo255bo1247bobo8bo4000bo2bo6518b$1194b2o42bo2bo14bo252b2o1275b2o18b3o3967bo6518b$1195b2o42b2o15b3o1517b3o8b2o19bo3967bo6518b$1239bo1538bo7bo20bo3965bobo6519b$2777bo23b2o18b2o10472b$2791b2o7bobo19b2o10471b$2792b2o8bo18bo3960b3o6510b$2791bo24bo19b2o3944bo2bo6509b$1286b2o1518b2o8b2o17bobo3944bo6512b$1246b2o38b2o2b2o193bobo10bo1306bobo7bobo19bo3938bo5bo6512b$1245b3o27b2o13b2o194b2o10bobo1306bo43bo3891bo17bo13b3o5bobo6509b$1245bo2bo26b2o209bo11b2o418b3o900bo8b3o18b2o2790b2o1097b3o15b3o12bob2o6516b$1228bo16b2ob2o668bo2bo899b2o9bo17bobo2788b2ob2o1095b2obo14b2obo13b3o6516b$1228bobo14b2ob2o667bo3bo898bobo8bo2809b4o1096b3o15b3o14b2o6517b$1228b2o14b2ob2o668b4o924b2o18b3o2774b2o1097b3o16b2o6533b$1245bo672bo916b3o8b2o19bo3874b2o6551b$1246b3o1588bo7bo20bo10428b$1247bo156bo1431bo23b2o18b2o10413b$1405b2o1443b2o7bobo19b2o10412b$1404b2o1445b2o8bo18bo10414b$1432bo485b2ob2o927bo24bo19b2o10398b$1431bo486bob3o942b2o8b2o17bobo3862b3o6533b$1231bo199b3o1430bobo7bobo19bo3861bo2bo6533b$1230bobo1633bo43bo3850bo6533b$1230bobo94bo1552bo8b3o18b2o3849bo6533b$1231bo96bo592bo958b2o9bo17bobo3840b3o3bobo6534b$1326b3o593bo9b2obo943bobo8bo3861bo2bo6539b$1920b3o7bo4bo968b2o18b3o3825bo6542b$1273bo635b3o17bo5bo958b3o8b2o19bo3825bo7b3o6532b$1270b4o634bo2bo17bo84bobo879bo7bo20bo3827bobo4bo2bo6531b$1269bo565bo72b2obo16b2ob2obo79b2o879bo23b2o18b2o3819bo6534b$1266b2obo2bo8b2o203bobo344b2o77b2o14b2obo2bo80bo893b2o7bobo19b2o3818bo6534b$1267bo3b3o2b3o2b2o2b2o130b2o69bo345b2o76b2o16b4o976b2o8bo18bo3821bobo20b3o6508b$1267bo2bo2b2ob3o6b2o130b2o70b2o420bo2bo16b3o975bo24bo19b2o3828bo2bo6507b$1268bobo3b5o205bo2bo3bo418bo1013b2o8b2o17bobo3828bo6510b$1269b3ob2obo208bobo3bo418b3o15bo53bo940bobo7bobo19bo3828bo6510b$1271b2ob2o210b2o3bo419bo14b2o52b2o943bo43bo3815bobo6507b$1273b3o212b2o437b2o52b2o956bo8b3o18b2o10324b$1824bobo1112b2o9bo17bobo3053b2o7269b$1822bo4bo1110bobo8bo3074b2o766b3o6500b$1822bo4bo1135b2o18b3o3805bo2bo6500b$1826b2o1125b3o8b2o19bo3808bo6500b$1921b2o1032bo7bo20bo3801bo7bo6500b$1170bo651b2o2b2o93b2o1031bo23b2o18b2o3753bo17bo13b3o3bobo6501b$1170bobo649b2o2b2o72b2o21bo1044b2o7bobo19b2o3751b3o15b3o11b2obo6507b$1170b2o54bo596bob3o72bobo18b3o1045b2o8bo18bo3753bob2o14bob2o10b3o6508b$1225bobo598bo75b2o16bobo1045bo24bo19b2o3738b3o15b3o11b2o6508b$1225bobo597bo74bobo18b2o1060b2o8b2o17bobo3738b3o15b2o6522b$1226bo673bo19bo1061bobo7bobo19bo3738b2o6540b$1900bo2bo16bo1063bo43bo10266b$1918bo1079bo8b3o18b2o10265b$1902b2o1094b2o9bo17bobo10265b$2997bobo8bo10286b$1158b3o64bobo1794b2o18b3o10250b$1161bo63b2o1785b3o8b2o19bo3724b3o6523b$1158bo2bo41bobo20bo53b2o188b2o437bo1104bo7bo20bo3725bo2bo6522b$1159b2o42b2o75b2o188b2o421bo14b3o1102bo23b2o18b2o2652b2o1056bo6525b$1159b2o43bo686b2o15b4o1115b2o7bobo19b2o2650b4o1055bo6525b$1158bo2bo730b2o1134b2o8bo18bo2652b2ob2o1047b3o5bobo6522b$1158bo1868bo24bo19b2o2638b2o1047bo2bo6530b$1160b2o746b4o1130b2o8b2o17bobo3690bo6530b$1908b4o1129bobo7bobo19bo3690bo5b3o6522b$1910bo1132bo43bo3673bobo5bo2bo6522b$3057bo8b3o18b2o3683bo6522b$3057b2o9bo17bobo3683bo6522b$3056bobo8bo3701bobo22b3o6498b$3081b2o18b3o3689bo2bo6498b$1341bo1729b3o8b2o19bo3692bo6498b$1221bo120b2o1729bo7bo20bo3693bo6498b$1220bobo118b2o1729bo23b2o18b2o3675bobo6499b$1220bobo1863b2o7bobo19b2o10176b$1221bo610bobo155bo1096b2o8bo18bo10178b$1833b2o154bo1096bo24bo19b2o3669b3o6490b$1833bo155b3o1109b2o8b2o17bobo3669bo2bo6489b$3100bobo7bobo19bo3669bo6492b$3102bo43bo3649bo5bo6492b$3116bo8b3o18b2o3615bo17bo13b3o5bobo6489b$3116b2o9bo17bobo3614b3o15b3o12bob2o6496b$1275b2o189b2o488bo1158bobo8bo3634b2obo14b2obo13b3o6496b$1275b2o187b2ob2o487bobo1181b2o18b3o3598b3o15b3o14b2o6497b$1464b4o488b2o1172b3o8b2o19bo3598b3o16b2o6513b$1465b2o1665bo7bo20bo3600b2o6531b$3131bo23b2o18b2o10118b$1144b3o20bo1977b2o7bobo19b2o10117b$1143bo2bo21bo630b3o1344b2o8bo18bo2838b2o7279b$1143bo2bo19b3o630bob3o1341bo24bo19b2o2822b2o7279b$1142bo2bo2014b2o8b2o17bobo10103b$1142bo2bo656bobo1354bobo7bobo19bo3587b3o6513b$1146b2o654bobo1356bo43bo3572bo2bo6513b$1146b2o655b2o1370bo8b3o18b2o3574bo6513b$1144bo3bo2026b2o9bo17bobo3574bo6513b$1147b2o67bo1957bobo8bo3586b3o3bobo6514b$1149bo65bobo578bo1402b2o18b3o3550bo2bo6519b$1144bo3bo33bo32bobo578bobo1390b3o8b2o19bo3550bo6522b$1145b3o33b3o32bo579b2o1393bo7bo20bo3551bo7b3o6512b$1181bob2o16bo1988bo23b2o18b2o3537bobo4bo2bo6511b$1182bo2bo14bo2003b2o7bobo19b2o3543bo6514b$1183b2o15b3o686bo1315b2o8bo18bo3545bo6514b$1183bo705bobo1312bo24bo19b2o3530bobo20b3o6488b$1867bo21b2o1328b2o8b2o17bobo3553bo2bo6487b$1867bobo1348bobo7bobo19bo3553bo6490b$1270b2o188b2o405b2o1351bo43bo3539bo6490b$1270b2o188b2o1772bo8b3o18b2o3539bobo6487b$3234b2o9bo17bobo2515b2o7512b$1190b2o2041bobo8bo2534b2ob2o7511b$1132bobo54b3o2066b2o18b3o2498b4o1029b3o6480b$1132b2o55bo2bo2055b3o8b2o19bo2499b2o1029bo2bo6480b$1133bo38bo16b2ob2o2056bo7bo20bo3534bo6480b$1172bobo14b2ob2o2055bo23b2o18b2o3511bo7bo6480b$1172b2o14b2ob2o2070b2o7bobo19b2o3477bo17bo13b3o3bobo6481b$1189bo167bo1906b2o8bo18bo3478b3o15b3o11b2obo6487b$1190b3o162bobo1905bo24bo19b2o3462bob2o14bob2o10b3o6488b$1191bo164b2o1920b2o8b2o17bobo3463b3o15b3o11b2o6488b$1848bo1428bobo7bobo19bo3463b3o15b2o6502b$1211bo637bo116bo1312bo43bo3449b2o6520b$1210bobo634b3o114b2o1327bo8b3o18b2o9970b$1210bobo752b2o1326b2o9bo17bobo9970b$1175bo35bo2080bobo8bo9991b$1174bobo2140b2o18b3o9955b$1174bobo2130b3o8b2o19bo9955b$1175bo2133bo7bo20bo3450b3o6503b$1931bobo1374bo23b2o18b2o3435bo2bo6502b$1931b2o1389b2o7bobo19b2o3434bo6505b$1534b2o275bo120bo1390b2o8bo18bo3436bo6505b$1265b2o266b4o272bobo1510bo24bo19b2o3413b3o5bobo6502b$1265b2o266b2ob2o272b2o1525b2o8b2o17bobo3412bo2bo6510b$1535b2o1799bobo7bobo19bo3415bo6510b$3338bo43bo3401bo5b3o6502b$3352bo8b3o18b2o3397bobo5bo2bo6502b$3352b2o9bo17bobo3408bo6502b$3351bobo8bo2641b2o786bo6502b$3376b2o18b3o2605b2o783bobo22b3o6478b$3366b3o8b2o19bo3414bo2bo6478b$3368bo7bo20bo3418bo6478b$3367bo23b2o18b2o3403bo6478b$1771bobo1607b2o7bobo19b2o3399bobo6479b$1159bobo609b2o1609b2o8bo18bo9883b$1160b2o44bo565bo1608bo24bo19b2o9867b$1160bo44bobo2188b2o8b2o17bobo3394b3o6470b$1205bobo2187bobo7bobo19bo3394bo2bo6469b$1170bo35bo657bobo1530bo43bo3380bo6472b$1169bobo692b2o1545bo8b3o18b2o3373bo5bo6472b$1169bobo670bobo20bo1545b2o9bo17bobo3340bo17bo13b3o5bobo6469b$1170bo671b2o1566bobo8bo3360b3o15b3o12bob2o6476b$1843bo1591b2o18b3o3323b2obo14b2obo13b3o6476b$3425b3o8b2o19bo3323b3o15b3o14b2o6477b$3427bo7bo20bo3324b3o16b2o6493b$1108bo151b2o188b2o1974bo23b2o18b2o3310b2o6511b$1107bo61bobo88b2o188b2o1988b2o7bobo19b2o2376b2o7444b$1107b3o59b2o2270b2o8bo18bo2377b4o7443b$1147bobo20bo2269bo24bo19b2o2361b2ob2o7442b$1147b2o2306b2o8b2o17bobo2363b2o7443b$1148bo2305bobo7bobo19bo9808b$1370bobo2083bo43bo3298b3o6493b$1371b2o2097bo8b3o18b2o3296bo2bo6493b$1371bo2098b2o9bo17bobo3299bo6493b$1097bo2b2o760bo1606bobo8bo3320bo6493b$1101b2o760b2o75bo1553b2o18b3o3275b3o3bobo6494b$1100b2o760b2o76bobo1541b3o8b2o19bo3275bo2bo6499b$1940b2o1544bo7bo20bo3276bo6502b$1096b2o2b2o99bo2283bo23b2o18b2o3261bo7b3o6492b$1102bo97bobo2296b2o7bobo19b2o3261bobo4bo2bo6491b$1096b4o100bobo2297b2o8bo18bo3270bo6494b$1098bo2bo99bo705bo1591bo24bo19b2o3254bo6494b$1160b2o3b2o739bo1607b2o8b2o17bobo3255bobo20b3o6468b$1159bo2bo2b2o739b3o1604bobo7bobo19bo3278bo2bo6467b$1159bo2bo661bobo1688bo43bo3264bo6470b$1160b2o663b2o1702bo8b3o18b2o3263bo6470b$1825bo1703b2o9bo17bobo3264bobo6467b$3528bobo8bo9755b$1255b2o347b2o1947b2o18b3o9719b$1255b2o345b2ob2o1936b3o8b2o19bo3256b3o6460b$1602b4o1939bo7bo20bo3256bo2bo6460b$1603b2o1939bo23b2o18b2o3244bo6460b$3558b2o7bobo19b2o3235bo7bo6460b$3559b2o8bo18bo3204bo17bo13b3o3bobo6461b$3558bo24bo19b2o2389b2o796b3o15b3o11b2obo6467b$1747bo1825b2o8b2o17bobo2389b2o796bob2o14bob2o10b3o6468b$1746bo1825bobo7bobo19bo3188b3o15b3o11b2o6468b$1746b3o1825bo43bo3174b3o15b2o6482b$3588bo8b3o18b2o3173b2o6500b$3588b2o9bo17bobo9675b$1840bo1746bobo8bo9696b$1196bo642bo1772b2o18b3o9660b$1195bobo620bo20b3o1760b3o8b2o19bo9660b$1195bobo619bo1786bo7bo20bo9661b$1196bo620b3o1783bo23b2o18b2o3160b3o6483b$1155b2o3b2o2455b2o7bobo19b2o3159bo2bo6482b$1108bo17bo27bo2bo2b2o2456b2o8bo18bo3161bo6485b$1106bobo16b3o26bo2bo31bobo2425bo24bo19b2o3145bo6485b$1107b2o16bob2o15bo10b2o30bo4bo2439b2o8b2o17bobo3138b3o5bobo6482b$1126bo2bo14b2o41bo4bo2438bobo7bobo19bo3137bo2bo6490b$1127b2o15b3o44b2o2440bo43bo3126bo6490b$1127bo16b2o104b2o188b2o2205bo8b3o18b2o3125bo5b3o6482b$1144b2o41b2o2b2o57b2o188b2o2205b2o9bo17bobo3122bobo5bo2bo6482b$1079b3o63bo41b2o2b2o193bo2259bobo8bo2261b2o891bo6482b$1079bo2bo63bobo39bob3o194bo2283b2o18b3o2223b2ob2o890bo6482b$1079bo2bo64bo43bo193b3o2273b3o8b2o19bo2223b4o888bobo22b3o6458b$1080bo2bo106bo2472bo7bo20bo2225b2o913bo2bo6458b$1080b3o795bo1783bo23b2o18b2o3128bo6458b$1081b2o55bo737bobo36bobo1758b2o7bobo19b2o3127bo6458b$1138bobo736b2o36b2o1760b2o8bo18bo3126bobo6459b$1116bo21b2o776bo1759bo24bo19b2o9572b$1116bobo2572b2o8b2o17bobo9572b$1116b2o2572bobo7bobo19bo3119b3o6450b$3692bo43bo3105bo2bo6449b$1883bo1822bo8b3o18b2o3104bo6452b$1881b2o1823b2o9bo17bobo3098bo5bo6452b$1840bo41b2o1821bobo8bo3086bo17bo13b3o5bobo6449b$1071bo769bo1888b2o18b3o3049b3o15b3o12bob2o6456b$1069b2o79b2o3b2o682b3o1878b3o8b2o19bo3048b2obo14b2obo13b3o6456b$1070b2o77bo2bo2b2o2565bo7bo20bo3049b3o15b3o14b2o6457b$1149bo2bo2568bo23b2o18b2o3034b3o16b2o6473b$1150b2o2583b2o7bobo19b2o3034b2o6491b$1104bo2631b2o8bo18bo9529b$1103bobo566b2o2061bo24bo19b2o9513b$1102bo3bo138b2o424b4o2075b2o8b2o17bobo9513b$1103bo2bo138b2o424b2ob2o2073bobo7bobo19bo9513b$1103bo2bo566b2o2076bo43bo9499b$1104bobo2658bo8b3o18b2o3022b3o6473b$1723bo2041b2o9bo17bobo3021bo2bo6473b$1721b2o2041bobo8bo3045bo6473b$1197bobo522b2o2065b2o18b3o2172b2o835bo6473b$1198b2o2579b3o8b2o19bo2172b2o826b3o3bobo6474b$1198bo2582bo7bo20bo3001bo2bo6479b$1816bo1963bo23b2o18b2o2986bo6482b$1814b2o1978b2o7bobo19b2o2985bo7b3o6472b$1794bo20b2o1978b2o8bo18bo2988bobo4bo2bo6471b$1792b2o2000bo24bo19b2o2979bo6474b$1793b2o2014b2o8b2o17bobo2979bo6474b$3808bobo7bobo19bo2980bobo20b3o6448b$1121bobo25b2o714bo1944bo43bo2989bo2bo6447b$1122b2o25b2o713b3o29bo1927bo8b3o18b2o2988bo6450b$1122bo16bo5b2o21bo694b2o2bo27b3o1926b2o9bo17bobo2988bo6450b$1137bobo4bo2bo19bo695bo3bo26bo2b2o1924bobo8bo3010bobo6447b$1138b2o4bo2bo19b3o693bob2o27b4o1950b2o18b3o9424b$1145b2o716b2o32bobo1938b3o8b2o19bo9424b$1897bo2bo1939bo7bo20bo2982b3o6440b$1116b3o281bo496b3o1939bo23b2o18b2o2966bo2bo6440b$1116bo2bo120b2o159b2o27b2o464bobo1954b2o7bobo19b2o2968bo6440b$1092bo23bo2bo120b2o158b2o28b2o464bobo1955b2o8bo18bo2103b2o857bo7bo6440b$1093b2o22bo2bo743b2o2bo27b3o1954bo24bo19b2o2086b4o823bo17bo13b3o3bobo6441b$1092b2o17bo5b3o744bobobo22bobo1974b2o8b2o17bobo2086b2ob2o821b3o15b3o11b2obo6447b$1112bo5b2o747bo24b2o1973bobo7bobo19bo2088b2o822bob2o14bob2o10b3o6448b$1110b3o779bo1976bo43bo2899b3o15b3o11b2o6448b$3883bo8b3o18b2o2898b3o15b2o6462b$3883b2o9bo17bobo2898b2o6480b$1866bobo2013bobo8bo9401b$1867b2o2038b2o18b3o9365b$1867bo2029b3o8b2o19bo9365b$3899bo7bo20bo9366b$1854bo2043bo23b2o18b2o9351b$1045bo62bo746b2o27bo2027b2o7bobo19b2o2884b3o6463b$1045bobo58b2o746b2o28bobo2026b2o8bo18bo2886bo2bo6462b$1045b2o36b2o22b2o35b2o738b2o2026bo24bo19b2o2870bo6465b$1085bo58b2o2781b2o8b2o17bobo2870bo6465b$1086bo2839bobo7bobo19bo2863b3o5bobo6462b$1083bobo2842bo43bo2848bo2bo6470b$1084bo766bo2090bo8b3o18b2o2850bo6470b$1086bobo761bo2091b2o9bo17bobo2850bo5b3o6462b$1086bobo761b3o2088bobo8bo2868bobo5bo2bo6462b$1087bo2878b2o18b3o2843bo6462b$1235b2o505b2o2212b3o8b2o19bo2843bo6462b$1139bo95b2o460bo42b2ob2o2213bo7bo20bo2841bobo22b3o6438b$1078bobo57bobo72bo483bobo40b4o2213bo23b2o18b2o2850bo2bo6438b$1078b2o59bo74bo482b2o42b2o143b2o2083b2o7bobo19b2o2852bo6438b$1079bo132b3o670bobo2084b2o8bo18bo2854bo6438b$1886bo2084bo24bo19b2o2835bobo6439b$1790bo2195b2o8b2o17bobo1956b2o7319b$1092b3o695bobo2192bobo7bobo19bo1956b2o7319b$1091bo3bo672bo21b2o2195bo43bo2830b3o6430b$1768bobo2230bo8b3o18b2o2829bo2bo6429b$1096bo671b2o68bo29b3o2130b2o9bo17bobo2829bo6432b$1091b5o41bo699b3o28bo2bo2128bobo8bo2844bo5bo6432b$1092bo45bo701bo29b2o2153b2o18b3o2775bo17bo13b3o5bobo6429b$1136b3o699b2o2175b3o8b2o19bo2774b3o15b3o12bob2o6436b$1144bo694bo26bo2bo2147bo7bo20bo2774b2obo14b2obo13b3o6436b$1092b2o45b2ob2o723b2o2147bo23b2o18b2o2759b3o15b3o14b2o6437b$1092b2o45b2o2b2o725b2o2158b2o7bobo19b2o2758b3o16b2o6453b$1092bo776b3o2159b2o8bo18bo2761b2o6471b$1091b2o777bo2159bo24bo19b2o9218b$1089b2obob3o319bo450b2ob2o2173b2o8b2o17bobo9218b$1095b2o317bobo450b2ob2o2172bobo7bobo19bo9218b$1089bo2bo15bo306b2o450bo3bo2174bo43bo9204b$1090b3o13bobo758bo3bo2188bo8b3o18b2o9203b$1107b2o121b2o188b2o446bo2191b2o9bo17bobo2747b3o6453b$1134bo95b2o188b2o2637bobo8bo2767bo2bo6453b$1133bobo2948b2o18b3o1950b2o782bo6453b$1134bo2939b3o8b2o19bo1948b2ob2o781bo6453b$4076bo7bo20bo1949b4o773b3o3bobo6454b$1836bo27b2o2209bo23b2o18b2o1935b2o774bo2bo6459b$1836bo26bobo2223b2o7bobo19b2o2710bo6462b$1864bo2225b2o8bo18bo2712bo7b3o6452b$4089bo24bo19b2o2697bobo4bo2bo6451b$4104b2o8b2o17bobo2704bo6454b$1020bobo3080bobo7bobo19bo2704bo6454b$1020b2o3083bo43bo2691bobo20b3o6428b$1021bo3097bo8b3o18b2o2713bo2bo6427b$4119b2o9bo17bobo2713bo6430b$1845bo2272bobo8bo2734bo6430b$1175b2o666bobo2297b2o18b3o2699bobo6427b$1173b2ob2o666b2o2287b3o8b2o19bo9129b$1173b4o2958bo7bo20bo9130b$1174b2o2958bo23b2o18b2o2692b3o6420b$1076bo147b3o627bo2293b2o7bobo19b2o2690bo2bo6420b$1075bo147bo3bo624b2o2295b2o8bo18bo2695bo6420b$1054bo20b3o144bo3b2o444bobo178b2o2293bo24bo19b2o2671bo7bo6420b$1053bo168bo4bo444b2o136b2o2351b2o8b2o17bobo2638bo17bo13b3o3bobo6421b$1053b3o166bo3bo446bo135b4o2349bobo7bobo19bo2637b3o15b3o11b2obo6427b$1129bo679b2ob2o2350bo43bo2623bob2o14bob2o10b3o6428b$1128bobo93b2o585b2o2365bo8b3o18b2o2623b3o15b3o11b2o6428b$1129bo635bobo51bobo2356b2o9bo17bobo2623b3o15b2o6442b$1765b2o52b2o2356bobo8bo2644b2o6460b$1743bobo20bo53bo38b2o2341b2o18b3o9070b$1743b2o113bobo2331b3o8b2o19bo1739b2o7329b$1744bo114bo2334bo7bo20bo1740b2o7329b$4193bo23b2o18b2o9056b$4207b2o7bobo19b2o9055b$4208b2o8bo18bo2611b3o6443b$4207bo24bo19b2o2595bo2bo6442b$4222b2o8b2o17bobo2595bo6445b$4221bobo7bobo19bo2595bo6445b$1207bo2bo3012bo43bo2574b3o5bobo6442b$1211bo3025bo8b3o18b2o2572bo2bo6450b$1207bo3bo217bobo2805b2o9bo17bobo2575bo6450b$1208b4o218b2o2804bobo8bo2596bo5b3o6442b$1121bobo306bo2830b2o18b3o2557bobo5bo2bo6442b$1122b2o3127b3o8b2o19bo2568bo6442b$1122bo3130bo7bo20bo2569bo6442b$4252bo23b2o18b2o2551bobo22b3o6418b$4266b2o7bobo19b2o2574bo2bo6418b$4267b2o8bo18bo2579bo6418b$1124bo3141bo24bo19b2o1812b2o749bo6418b$1123bobo3155b2o8b2o17bobo1811b4o745bobo6419b$1124bo3155bobo7bobo19bo1811b2ob2o7166b$4282bo43bo1799b2o7167b$4296bo8b3o18b2o2554b3o6410b$996bo3299b2o9bo17bobo2554bo2bo6409b$995bo3299bobo8bo2575bo6412b$995b3o3322b2o18b3o2533bo5bo6412b$4310b3o8b2o19bo2500bo17bo13b3o5bobo6409b$4312bo7bo20bo2500b3o15b3o12bob2o6416b$4311bo23b2o18b2o2484b2obo14b2obo13b3o6416b$4325b2o7bobo19b2o2483b3o15b3o14b2o6417b$4326b2o8bo18bo2485b3o16b2o6433b$1243b2o3080bo24bo19b2o2470b2o6451b$1242b4o3094b2o8b2o17bobo8923b$1052bo189b2ob2o581bo2510bobo7bobo19bo8923b$1050b2o192b2o402bo179bobo2510bo43bo8909b$1030bo20b2o594bo180b2o2525bo8b3o18b2o8908b$1028b2o617b3o2705b2o9bo17bobo8908b$1029b2o3323bobo8bo2493b3o6433b$4379b2o18b3o2456bo2bo6433b$1741bo53bo2573b3o8b2o19bo2459bo6433b$1740bo53bo85b2o2489bo7bo20bo2460bo6433b$1719bo20b3o51b3o81b2ob2o2487bo23b2o18b2o2436b3o3bobo6434b$1718bo159b4o2502b2o7bobo19b2o2435bo2bo6439b$1718b3o158b2o2504b2o8bo18bo2437bo6442b$4384bo24bo19b2o2421bo7b3o6432b$4399b2o8b2o17bobo2422bobo4bo2bo6431b$4398bobo7bobo19bo1523b2o904bo6434b$4400bo43bo1509b2o904bo6434b$4414bo8b3o18b2o2415bobo20b3o6408b$4414b2o9bo17bobo2438bo2bo6407b$4413bobo8bo2459bo6410b$4438b2o18b3o2423bo6410b$4428b3o8b2o19bo2424bobo6407b$4430bo7bo20bo8835b$4429bo23b2o18b2o8820b$1277b4o3162b2o7bobo19b2o2416b3o6400b$1276bo3bo3163b2o8bo18bo2417bo2bo6400b$1280bo3162bo24bo19b2o2404bo6400b$1276bo2bo3178b2o8b2o17bobo2396bo7bo6400b$4457bobo7bobo19bo2363bo17bo13b3o3bobo6401b$4459bo43bo2348b3o15b3o11b2obo6407b$4473bo8b3o18b2o2347bob2o14bob2o10b3o6408b$4473b2o9bo17bobo2348b3o15b3o11b2o6408b$4472bobo8bo2369b3o15b2o6422b$4497b2o18b3o2333b2o6440b$4487b3o8b2o19bo1675b2o7098b$972bo3516bo7bo20bo1674b2ob2o7097b$970b2o3516bo23b2o18b2o1659b4o7098b$971b2o3529b2o7bobo19b2o1659b2o7099b$4503b2o8bo18bo8762b$4502bo24bo19b2o2320b3o6423b$4517b2o8b2o17bobo2320bo2bo6422b$4516bobo7bobo19bo2320bo6425b$4518bo43bo2306bo6425b$4532bo8b3o18b2o2298b3o5bobo6422b$4532b2o9bo17bobo2297bo2bo6430b$1026bo776bobo2725bobo8bo2321bo6430b$1026bobo595bo178b2o2751b2o18b3o2285bo5b3o6422b$1004bo21b2o285b2o307b2o180bo2741b3o8b2o19bo2282bobo5bo2bo6422b$1004bobo304b2ob2o307b2o2923bo7bo20bo2294bo6422b$1004b2o305b4o3232bo23b2o18b2o2279bo6422b$1312b2o3247b2o7bobo19b2o2275bobo22b3o6398b$1717bo53bo2790b2o8bo18bo2301bo2bo6398b$1715b2o52b2o2790bo24bo19b2o2288bo6398b$1695bo20b2o52b2o2804b2o8b2o17bobo2288bo6398b$1693b2o253b2o2625bobo7bobo19bo2285bobo6399b$1694b2o251b4o2626bo43bo8673b$1947b2ob2o2639bo8b3o18b2o8672b$1949b2o2640b2o9bo17bobo2279b3o6390b$4590bobo8bo2300bo2bo6389b$4615b2o18b3o2264bo6392b$4605b3o8b2o19bo2258bo5bo6392b$4607bo7bo20bo1307b2o917bo17bo13b3o5bobo6389b$4606bo23b2o18b2o1292b2o916b3o15b3o12bob2o6396b$4620b2o7bobo19b2o2208b2obo14b2obo13b3o6396b$1459bo3161b2o8bo18bo2210b3o15b3o14b2o6397b$1460b2o3158bo24bo19b2o2194b3o16b2o6413b$1459b2o3174b2o8b2o17bobo2195b2o6431b$4634bobo7bobo19bo8628b$4636bo43bo8614b$1345bo2bo3301bo8b3o18b2o8613b$1349bo3300b2o9bo17bobo8613b$1345bo3bo3299bobo8bo8634b$1346b4o3324b2o18b3o2182b3o6413b$4664b3o8b2o19bo2181bo2bo6413b$4666bo7bo20bo2185bo6413b$4665bo23b2o18b2o2170bo6413b$4679b2o7bobo19b2o2160b3o3bobo6414b$4680b2o8bo18bo2162bo2bo6419b$946bo3732bo24bo19b2o2146bo6422b$946bobo3745b2o8b2o17bobo1537b2o607bo7b3o6412b$946b2o3745bobo7bobo19bo1536b4o607bobo4bo2bo6411b$4695bo43bo1522b2ob2o613bo6414b$4709bo8b3o18b2o1523b2o614bo6414b$4709b2o9bo17bobo2140bobo20b3o6388b$4708bobo8bo2184bo2bo6387b$4733b2o18b3o2148bo6390b$4723b3o8b2o19bo2148bo6390b$1779bo2945bo7bo20bo2150bobo6387b$1001bobo774bo2945bo23b2o18b2o8525b$1001b2o595bo179b3o2957b2o7bobo19b2o8524b$979bobo20bo595bobo3138b2o8bo18bo2143b3o6380b$979b2o617b2o3138bo24bo19b2o2126bo2bo6380b$980bo400b2o3370b2o8b2o17bobo2129bo6380b$1380b4o3368bobo7bobo19bo2121bo7bo6380b$1380b2ob2o306bo53bo3008bo43bo2074bo17bo13b3o3bobo6381b$1382b2o307bobo51bobo3020bo8b3o18b2o2072b3o15b3o11b2obo6387b$1669bo21b2o52b2o3021b2o9bo17bobo2072bob2o14bob2o10b3o6388b$1669bobo3095bobo8bo2094b3o15b3o11b2o6388b$1669b2o3121b2o18b3o2058b3o15b2o6402b$4782b3o8b2o19bo2058b2o6420b$4784bo7bo20bo8481b$2018b2o2763bo23b2o18b2o8466b$2016b2ob2o2776b2o7bobo19b2o8465b$2016b4o2778b2o8bo18bo8467b$2017b2o2778bo24bo19b2o8451b$4812b2o8b2o17bobo2045b3o6403b$4811bobo7bobo19bo2045bo2bo6402b$4813bo43bo1076b2o953bo6405b$4827bo8b3o18b2o1075b2o953bo6405b$4827b2o9bo17bobo2023b3o5bobo6402b$4826bobo8bo2043bo2bo6410b$4851b2o18b3o2010bo6410b$4841b3o8b2o19bo2010bo5b3o6402b$4843bo7bo20bo2008bobo5bo2bo6402b$4842bo23b2o18b2o2004bo6402b$4856b2o7bobo19b2o2003bo6402b$1415b4o3438b2o8bo18bo2002bobo22b3o6378b$1414bo3bo3437bo24bo19b2o2010bo2bo6378b$1418bo3452b2o8b2o17bobo2013bo6378b$1414bo2bo3452bobo7bobo19bo2013bo6378b$4872bo43bo1996bobo6379b$921bobo3962bo8b3o18b2o8377b$921b2o3963b2o9bo17bobo8377b$922bo3962bobo8bo2025b3o6370b$4910b2o18b3o1989bo2bo6369b$4900b3o8b2o19bo1989bo6372b$4902bo7bo20bo1401b2o581bo5bo6372b$4901bo23b2o18b2o1384b2ob2o547bo17bo13b3o5bobo6369b$4915b2o7bobo19b2o1383b4o547b3o15b3o12bob2o6376b$4916b2o8bo18bo1386b2o547b2obo14b2obo13b3o6376b$977bo777bo3159bo24bo19b2o1919b3o15b3o14b2o6377b$976bo776b2o3175b2o8b2o17bobo1919b3o16b2o6393b$955bo20b3o594bobo178b2o3173bobo7bobo19bo1920b2o6411b$954bo618b2o3356bo43bo8319b$954b3o617bo3370bo8b3o18b2o8318b$4945b2o9bo17bobo8318b$4944bobo8bo8339b$1666bobo51bobo3246b2o18b3o8303b$1666b2o52b2o3237b3o8b2o19bo1907b3o6393b$1451b2o191bobo20bo53bo3239bo7bo20bo1907bo2bo6393b$1449b2ob2o190b2o3314bo23b2o18b2o1895bo6393b$1449b4o192bo3328b2o7bobo19b2o1894bo6393b$1450b2o3523b2o8bo18bo1887b3o3bobo6394b$4974bo24bo19b2o1871bo2bo6399b$4989b2o8b2o17bobo1871bo6402b$4988bobo7bobo19bo1871bo7b3o6392b$2086b2o2902bo43bo1858bobo4bo2bo6391b$2085b4o2915bo8b3o18b2o1864bo6394b$2085b2ob2o2914b2o9bo17bobo1864bo6394b$2087b2o2914bobo8bo1886bobo20b3o6368b$1488bobo3537b2o18b3o1873bo2bo6367b$1489b2o3527b3o8b2o19bo1873bo6370b$1489bo3530bo7bo20bo1874bo6370b$5019bo23b2o18b2o859b2o999bobo6367b$5033b2o7bobo19b2o858b2o7369b$5034b2o8bo18bo8231b$5033bo24bo19b2o1852b3o6360b$5048b2o8b2o17bobo1851bo2bo6360b$5047bobo7bobo19bo1854bo6360b$5049bo43bo1832bo7bo6360b$5063bo8b3o18b2o1798bo17bo13b3o3bobo6361b$1483bo2bo68bo3507b2o9bo17bobo1797b3o15b3o11b2obo6367b$1487bo66b3o3505bobo8bo1818bob2o14bob2o10b3o6368b$897bo585bo3bo65bo2b2o3529b2o18b3o1783b3o15b3o11b2o6368b$896bo587b4o64b5o3520b3o8b2o19bo1783b3o15b2o6382b$896b3o653b5o3522bo7bo20bo1784b2o6400b$1555bo3522bo23b2o18b2o8171b$1555bobo3534b2o7bobo19b2o8170b$1555b2obo3534b2o8bo18bo8172b$1556bobo3533bo24bo19b2o8156b$1557b3o3547b2o8b2o17bobo8156b$1557bobo3546bobo7bobo19bo1262b2o506b3o6383b$1555b4o3549bo43bo1247b4o505bo2bo6382b$953bo601b3o171bo3392bo8b3o18b2o1246b2ob2o504bo6385b$951b2o603bo172bobo3390b2o9bo17bobo1248b2o505bo6385b$931bo20b2o775b2o3390bobo8bo1769b3o5bobo6382b$929b2o4215b2o18b3o1732bo2bo6390b$930b2o4204b3o8b2o19bo1735bo6390b$5138bo7bo20bo1736bo5b3o6382b$1642bo53bo3440bo23b2o18b2o1718bobo5bo2bo6382b$1641bo53bo3455b2o7bobo19b2o1728bo6382b$1641b3o51b3o3454b2o8bo18bo1730bo6382b$5151bo24bo19b2o1711bobo22b3o6358b$1616b3o3547b2o8b2o17bobo1735bo2bo6358b$1519b2o21bo73bob3o3544bobo7bobo19bo1738bo6358b$1518b4o20bobo3622bo43bo1724bo6358b$1518b2ob2o19b2o75bobo3559bo8b3o18b2o1720bobo6359b$1520b2o97bobo3559b2o9bo17bobo8082b$1620b2o3558bobo8bo8103b$5205b2o18b3o1714b3o6350b$5195b3o8b2o19bo1714bo2bo6349b$1613bo3583bo7bo20bo1715bo6352b$1613bobo3580bo23b2o18b2o1694bo5bo6352b$1613b2o541b2o3052b2o7bobo19b2o1660bo17bo13b3o5bobo6349b$2154b2ob2o3052b2o8bo18bo1661b3o15b3o12bob2o6356b$2154b4o3052bo24bo19b2o1644b2obo14b2obo13b3o6356b$2155b2o3068b2o8b2o17bobo1644b3o15b3o14b2o6357b$1608b2o3614bobo7bobo19bo1644b3o16b2o6373b$1608bob2o14b3o3597bo43bo1631b2o6391b$1610b2o14bobo3611bo8b3o18b2o642b2o7379b$1608b2o16bo2bo3610b2o9bo17bobo642b2o7379b$1528bo77b2o19b3o3609bobo8bo8044b$1526b2ob2o96b3o3634b2o18b3o8008b$1526b2ob2o75bobo16bo2bo3625b3o8b2o19bo8008b$1527bob3o75bo20bo3627bo7bo20bo1633b3o6373b$1526b3o96bo3629bo23b2o18b2o1617bo2bo6373b$873bo752b2o3641b2o7bobo19b2o1619bo6373b$871b2o752b3o3642b2o8bo18bo1621bo6373b$872b2o679b4o68b2o3642bo24bo19b2o1596b3o3bobo6374b$1527b2o23bo3bo67bobo2b2o3653b2o8b2o17bobo1596bo2bo6379b$1527b2o27bo67bobo2b2o3652bobo7bobo19bo1596bo6382b$1552bo2bo68b3o3658bo43bo1582bo7b3o6372b$1526bo3772bo8b3o18b2o1582bobo4bo2bo6371b$1525bob2ob2o3767b2o9bo17bobo1589bo6374b$1524b2o4b2o3766bobo8bo1610bo6374b$1524b2ob2o42bo45b3o3703b2o18b3o1575bobo20b3o6348b$927bo598bo42bobo45bo2bo83bobo3606b3o8b2o19bo1598bo2bo6347b$927bobo640b2o44bo3bo83b2o3609bo7bo20bo1599bo6350b$905bo21b2o687b4o85bo3608bo23b2o18b2o1111b2o471bo6350b$905bobo709bo3710b2o7bobo19b2o1108b2ob2o471bobo6347b$905b2o4422b2o8bo18bo1110b4o6822b$5328bo24bo19b2o1095b2o6823b$1672bo3670b2o8b2o17bobo1577b3o6340b$1670b2o3670bobo7bobo19bo1576bo2bo6340b$1533bo83b2ob2o49b2o3671bo43bo1565bo6340b$1534bo82bob3o3736bo8b3o18b2o1556bo7bo6340b$1532b3o3823b2o9bo17bobo1523bo17bo13b3o3bobo6341b$5357bobo8bo1543b3o15b3o11b2obo6347b$5382b2o18b3o1507bob2o14bob2o10b3o6348b$5372b3o8b2o19bo1508b3o15b3o11b2o6348b$1616b2ob3o3752bo7bo20bo1509b3o15b2o6362b$1589b2o25b4obo3751bo23b2o18b2o1494b2o6380b$1587b2ob2o23b2o2b2o3766b2o7bobo19b2o7875b$1587b4o3797b2o8bo18bo7877b$1588b2o3797bo24bo19b2o7861b$5402b2o8b2o17bobo7861b$1512bo3888bobo7bobo19bo7861b$1510b2o3891bo43bo1481b3o6363b$1511b2o711b2o3191bo8b3o18b2o1480bo2bo6362b$2223b4o3190b2o9bo17bobo1480bo6365b$2223b2ob2o3188bobo8bo1501bo6365b$1605bo619b2o3214b2o18b3o1458b3o5bobo6362b$1603b2o3826b3o8b2o19bo1457bo2bo6370b$1583bo20b2o3827bo7bo20bo1461bo6370b$1501bobo77b2o3849bo23b2o18b2o1446bo5b3o6362b$1499bo4bo77b2o3862b2o7bobo19b2o425b2o1015bobo5bo2bo6362b$1499bo4bo3942b2o8bo18bo427b2o1026bo6362b$1503b2o3941bo24bo19b2o1439bo6362b$5461b2o8b2o17bobo1436bobo22b3o6338b$847bo651b2o2b2o3955bobo7bobo19bo1460bo2bo6338b$847bobo649b2o2b2o3957bo43bo1449bo6338b$847b2o651bob3o3971bo8b3o18b2o1448bo6338b$1503bo3972b2o9bo17bobo1445bobo6339b$1502bo118bo2bo3850bobo8bo7808b$1625bo3874b2o18b3o7772b$1621bo3bo3864b3o8b2o19bo1439b3o6330b$1622b4o3866bo7bo20bo1440bo2bo6329b$5491bo23b2o18b2o1425bo6332b$1584bobo93bo3824b2o7bobo19b2o1418bo5bo6332b$902bobo680b2o92bo3826b2o8bo18bo1387bo17bo13b3o5bobo6329b$902b2o681bo93b3o3823bo24bo19b2o1370b3o15b3o12bob2o6336b$880bobo20bo4616b2o8b2o17bobo1369b2obo14b2obo13b3o6336b$880b2o4637bobo7bobo19bo1369b3o15b3o14b2o6337b$881bo4639bo43bo973b2o380b3o16b2o6353b$5535bo8b3o18b2o971b4o380b2o6371b$1646bo3888b2o9bo17bobo971b2ob2o6752b$1646bobo3885bobo8bo994b2o6753b$1547bo98b2o3911b2o18b3o7713b$1548b2o3999b3o8b2o19bo7713b$1547b2o4002bo7bo20bo7714b$5550bo23b2o18b2o1343b3o6353b$5564b2o7bobo19b2o1341bo2bo6353b$5565b2o8bo18bo1346bo6353b$5564bo24bo19b2o1330bo6353b$5579b2o8b2o17bobo1321b3o3bobo6354b$5578bobo7bobo19bo1321bo2bo6359b$1657b2o3921bo43bo1307bo6362b$1509bobo144b4o3934bo8b3o18b2o1306bo7b3o6352b$1510b2o144b2ob2o3933b2o9bo17bobo1307bobo4bo2bo6351b$1510bo147b2o3933bobo8bo1335bo6354b$5618b2o18b3o1299bo6354b$5608b3o8b2o19bo1300bobo20b3o6328b$5610bo7bo20bo1324bo2bo6327b$5609bo23b2o18b2o1309bo6330b$1579bo4043b2o7bobo19b2o1308bo6330b$1579bobo712b2o3328b2o8bo18bo1311bobo6327b$1557bo21b2o711b2ob2o3326bo24bo19b2o7625b$1557bobo732b4o3342b2o8b2o17bobo7625b$1557b2o734b2o3342bobo7bobo19bo1302b3o6320b$5639bo43bo1287bo2bo6320b$1476b3o4174bo8b3o18b2o1289bo6320b$1476bob3o4172b2o9bo17bobo209b2o1070bo7bo6320b$822bobo4827bobo8bo230b2o1037bo17bo13b3o3bobo6321b$822b2o655bobo4195b2o18b3o1232b3o15b3o11b2obo6327b$823bo655bobo4185b3o8b2o19bo1232bob2o14bob2o10b3o6328b$1480b2o4187bo7bo20bo1234b3o15b3o11b2o6328b$5668bo23b2o18b2o1219b3o15b2o6342b$5682b2o7bobo19b2o1218b2o6360b$1473bo4209b2o8bo18bo7582b$1473bobo4206bo24bo19b2o7566b$1473b2o69bo55bo90b4o4002b2o8b2o17bobo7566b$878bo665bo56bo54bo33bo3bo4001bobo7bobo19bo7566b$877bo665bobo53b3o52b2o38bo4003bo43bo7552b$856bo20b3o775b2o33bo2bo4018bo8b3o18b2o1205b3o6343b$855bo689b2o4165b2o9bo17bobo1205bo2bo6342b$855b3o4853bobo8bo1226bo6345b$1545b2o4189b2o18b3o1190bo6345b$5726b3o8b2o19bo1183b3o5bobo6342b$1621bobo4104bo7bo20bo1183bo2bo6350b$1621b2o4104bo23b2o18b2o1171bo6350b$1563bo58bo4118b2o7bobo19b2o835b2o333bo5b3o6342b$1542b2o17bobo4178b2o8bo18bo835b2ob2o329bobo5bo2bo6342b$1542b3o17b2o4177bo24bo19b2o819b4o341bo6342b$1546bo4209b2o8b2o17bobo820b2o342bo6342b$1544b2o4209bobo7bobo19bo1161bobo22b3o6318b$5757bo43bo1171bo2bo6318b$5771bo8b3o18b2o1173bo6318b$1534b3o4bobo4227b2o9bo17bobo1173bo6318b$1533bo2bo4bobo4226bobo8bo1191bobo6319b$1525bo11bo4bo4252b2o18b3o7477b$1526bo6b2o4250b3o8b2o19bo7477b$1524b3o6b2o3bo4248bo7bo20bo1165b3o6310b$1538bo4247bo23b2o18b2o1150bo2bo6309b$1536bo190b2o4071b2o7bobo19b2o1149bo6312b$1534b3o19b2o167b2ob2o4071b2o8bo18bo1145bo5bo6312b$1534b2o20bobo166b4o4071bo24bo19b2o1096bo17bo13b3o5bobo6309b$1534bo15bo7b2o166b2o4087b2o8b2o17bobo1095b3o15b3o12bob2o6316b$1535b2o14bo4bobo4255bobo7bobo19bo1094b2obo14b2obo13b3o6316b$1535bobo11b3o4bo4259bo43bo1080b3o15b3o14b2o6317b$1488bo45bo3bo17bo2bo4270bo8b3o18b2o1079b3o16b2o6333b$1486bobo46b2o825b2o3466b2o9bo17bobo1080b2o6351b$1487b2o69b2o801b4o3464bobo8bo7454b$2361b2ob2o3488b2o18b3o7418b$2363b2o3479b3o8b2o19bo7418b$798bo5047bo7bo20bo7419b$797bo5047bo23b2o7424b$797b3o739bo6b2o4311b2o7bobo1088b3o6333b$1537bobo8bo4311b2o8bo1087bo2bo6333b$1538b2o9bo4309bo44b2o1055bo6333b$1546bobo4325b2o27bobo1055bo6333b$1547bo4325bobo6b2o2bo18bo1046b3o3bobo6334b$1448bobo98bobo4323bo5b3o3b2o1063bo2bo6339b$1448b2o99bobo4330b2o3b2o9b3o1051bo6342b$1449bo100bo63bo4267b2o3b2o11bo1051bo7b3o6332b$854bo760b2o13bo4253bobo12bo1053bobo4bo2bo6331b$852b2o760b2o14bobo126bo2bo4170b3o1024bo6334b$832bo20b2o686bobo86b2o131bo4139b3o29bo1024bo6334b$830b2o709b2o216bo3bo4141bo28bo1026bobo20b3o6308b$831b2o686bobo20bo217b4o4140bo23b2o1054bo2bo6307b$1519b2o4406bobo1054bo6310b$1520bo104b2o4302bo1054bo6310b$1437bo187bob2o4334b2o1020bobo6307b$1436b3o154b3o31b2o4304b2o27bobo7330b$1436b4o136bobo14bob3o27b2o4305bobo29bo7330b$1577b2o44b2o4309bo1057b3o6300b$1577bo18bobo4358b3o717b2o312bo2bo6300b$1436b4o156bobo24bobo4333bo716b4o314bo6300b$1436b4o157b2o25bo4333bo717b2ob2o305bo7bo6300b$1438bo4553b3o683b2o273bo17bo13b3o3bobo6301b$5962b3o29bo957b3o15b3o11b2obo6307b$1590bo4373bo28bo958bob2o14bob2o10b3o6308b$1590bobo4370bo23b2o964b3o15b3o11b2o6308b$1539bo50b2o4394bobo964b3o15b2o6322b$1540b2o4446bo964b2o6340b$1539b2o4481b2o7271b$5992b2o27bobo7271b$5991bobo29bo7271b$5993bo7301b$1795b2o4219b3o7276b$1794b4o4220bo950b3o6323b$1794b2ob2o4218bo951bo2bo6322b$1796b2o4253b3o915bo6325b$1501bobo4517b3o29bo915bo6325b$1502b2o4519bo28bo909b3o5bobo6322b$1502bo4519bo23b2o913bo2bo6330b$1617b2o4426bobo916bo6330b$1616bobo4428bo916bo5b3o6322b$774bo842bo814b2o3647b2o878bobo5bo2bo6322b$772b2o1656b2ob2o3616b2o27bobo889bo6322b$773b2o1655b4o3616bobo29bo889bo6322b$2431b2o3619bo916bobo22b3o6298b$1444bo4630b3o915bo2bo6298b$1445b2o4630bo918bo6298b$1444b2o4630bo919bo6298b$6110b3o880bobo6299b$6080b3o29bo7182b$6082bo28bo7183b$828bo5052bo199bo23b2o895b3o6290b$828bobo665b2o19bo4363bo222bobo895bo2bo6289b$806bo21b2o666bobo17bo4364bo224bo895bo6292b$806bobo689bo17b3o4621b2o854bo5bo6292b$806b2o688bobo106bo4504b2o27bobo821bo17bo13b3o5bobo6289b$759b3o734b2o105bobo223b4o4276bobo29bo820b3o15b3o12bob2o6296b$760bo656bo79b2o105b2o222bo3bo4278bo849b2obo14b2obo13b3o6296b$760b3o654bobo78b2o332bo4301b3o824b3o15b3o14b2o6297b$1417b2o79b2o92bo6b2o227bo2bo4304bo824b3o16b2o6313b$1593bo3bo4537bo826b2o6331b$1591b3o3b3o4569b3o7123b$1568b3o28b2o11b2o4525b3o29bo7123b$1568bo2bo39bobo4527bo28bo7124b$1486bo17b3o61bo2bo40bo4527bo23b2o7129b$1485bob2o14bo3bo61bo2bo28b2o4560bobo7129b$758bobo726b2o19bo60b3o29b2o4562bo581b2o230b3o6313b$758bobo725b3o81b2o4627b2o544b2ob2o228bo2bo6313b$1503b2o3bo4660b2o27bobo544b4o232bo6313b$761bo728b2o13b3o47bo4612bobo29bo545b2o233bo6313b$1489b3o61bobo36bobo4575bo801b3o3bobo6314b$1554b2o36b2o4599b3o776bo2bo6319b$1593bo4601bo776bo6322b$757bobo722bo4711bo777bo7b3o6312b$758bo722bo4746b3o742bobo4bo2bo6311b$1481b3o4714b3o29bo749bo6314b$1560bo4639bo28bo750bo6314b$1558b2o4639bo23b2o756bobo20b3o6288b$1517bo41b2o4661bobo779bo2bo6287b$1496bo21bo346b2o4357bo779bo6290b$1494b2ob2o17b3o344b2ob2o4390b2o744bo6290b$1494b2ob2o364b4o4361b2o27bobo745bobo6287b$765bobo727bob3o364b2o4361bobo29bo7035b$766b2o726b3o4732bo7065b$766bo5485b3o757b3o6280b$6254bo756bo2bo6280b$2500b2o3751bo760bo6280b$1495b2o93b2o907b4o3784b3o716bo7bo6280b$1460bo34b2o92bobo907b2ob2o3753b3o29bo683bo17bo13b3o3bobo6281b$1458bobo129bo910b2o3756bo28bo683b3o15b3o11b2obo6287b$1459b2o33bo4763bo23b2o688bob2o14bob2o10b3o6288b$1493bob2ob2o4781bobo689b3o15b3o11b2o6288b$1492b2o4b2o4783bo689b3o15b2o6302b$742bo749b2ob2o4820b2o654b2o6320b$741bo61bobo688bo4792b2o27bobo6976b$741b3o37b3o19b2o5481bobo29bo6976b$784bo19bo5483bo7006b$781b3o5087bo439b3o6981b$5871bo441bo6981b$5871bo440bo676b3o6303b$784b2o606bobo4951b3o640bo2bo6302b$784b2o606b2o148bo354bo2bo4415b3o29bo640bo6305b$1393bo147b3o29bo327bo4416bo28bo641bo6305b$1540b2o2bo27b3o322bo3bo4415bo23b2o639b3o5bobo6302b$1540bo3bo26bo2b2o322b4o4438bobo638bo2bo6310b$776bo763bob2o27b4o4767bo641bo6310b$774b2o764b2o32bobo4799b2o606bo5b3o6302b$775b2o13b3o781bo2bo3bo4764b2o27bobo603bobo5bo2bo6302b$790b3o781b3o5b2o4761bobo29bo614bo6302b$790bo2bo779bobo5b2o4764bo644bo6302b$791b3o779bobo9b2o4783b3o616bobo22b3o6278b$791b2o748b2o2bo27b3o8bobo4785bo442b2o196bo2bo6278b$1541bobobo22bobo14bo4785bo442b4o198bo6278b$1544bo24b2o4834b3o406b2ob2o197bo6278b$1480bo88bo4805b3o29bo408b2o195bobo6279b$1478b2o4897bo28bo6888b$1458bo20b2o4895bo23b2o6893b$776bo679b2o85bobo4853bobo620b3o6270b$775bobo679b2o85b2o4855bo620bo2bo6269b$775bobo766bo4890b2o585bo6272b$776bo5628b2o27bobo579bo5bo6272b$1531bo4872bobo29bo546bo17bo13b3o5bobo6269b$1532b2o27bo4844bo575b3o15b3o12bob2o6276b$1531b2o28bobo4865b3o549b2obo14b2obo13b3o6276b$1561b2o370b2o4496bo549b3o15b3o14b2o6277b$1932b4o4494bo550b3o16b2o6293b$1932b2ob2o4527b3o515b2o6311b$721b3o1210b2o4498b3o29bo6828b$720bo2bo804bo4907bo28bo6829b$720b2obo803bo4907bo23b2o6834b$724b2o801b3o4928bobo6834b$724b2o747bobo4984bo6834b$723bo2bo747b2o5018b2o503b3o6293b$722bo751bo1095b2o3892b2o27bobo502bo2bo6293b$722b3o1843b2ob2o3890bobo29bo505bo6293b$723bo839b2o1003b4o3893bo535bo6293b$1562bobo1004b2o3917b3o501b3o3bobo6294b$1563bo4926bo501bo2bo6299b$6489bo502bo6302b$6523b3o466bo7b3o6292b$771bo5721b3o29bo467bobo4bo2bo6291b$770bobo5722bo28bo475bo6294b$770bobo595bo146bo29b3o4946bo23b2o480bo6294b$771bo595bo146b3o28bo2bo4312bo655bobo481bobo20b3o6268b$1367b3o147bo29b2o4312bo657bo504bo2bo6267b$1515b2o4344bo691b2o469bo6270b$710bobo59bo743bo26bo2bo4976b2o27bobo469bo6270b$710b2o60bobo769b2o4976bobo29bo470bobo6267b$711bo38bo21b2o773b2o418b4o4553bo6770b$750bobo793b3o417bo3bo4576b3o6745b$750b2o795bo422bo4578bo482b3o6260b$1544b2ob2o417bo2bo4578bo482bo2bo6260b$1544b2ob2o5033b3o449bo6260b$1544bo3bo5003b3o29bo441bo7bo6260b$1544bo3bo5005bo28bo409bo17bo13b3o3bobo6261b$1545bo5007bo23b2o413b3o15b3o11b2obo6267b$740bo5835bobo413bob2o14bob2o10b3o6268b$738b6o710bo5123bo414b3o15b3o11b2o6268b$738b2o2b2o710bobo5155b2o271b2o106b3o15b2o6282b$1432bo21b2o5126b2o27bobo269b2ob2o105b2o6300b$742bo689bobo78bo27b2o5038bobo29bo269b4o6408b$738b2o2bo689b2o79bo26bobo5040bo300b2o6409b$738b2o3bo797bo5064b3o6686b$742bo23bo5841bo6686b$740bobo22bobo5839bo6687b$741bo23bobo5873b3o365b3o6283b$766bo5844b3o29bo365bo2bo6282b$6613bo28bo366bo6285b$6612bo23b2o371bo6285b$1522bo5112bobo364b3o5bobo6282b$1520bobo5114bo363bo2bo6290b$1521b2o480b2o4666b2o331bo6290b$2001b2ob2o4635b2o27bobo331bo5b3o6282b$1489bo511b4o4635bobo29bo328bobo5bo2bo6282b$1490bo40bo470b2o4638bo369bo6282b$1488b3o38b2o5134b3o344bo6282b$738bo791b2o5135bo341bobo22b3o6258b$737bobo5926bo366bo2bo6258b$737bobo12b3o1883b2o4060b3o333bo6258b$738bo13bo2bo1881b4o4029b3o29bo333bo6258b$751bo3bo1881b2ob2o4030bo28bo331bobo6259b$751b2o743bobo1140b2o4030bo23b2o6598b$752bobo741b2o5196bobo6598b$753b2o2bo739bo38b2o5158bo345b3o6250b$753bo2bo778bobo5192b2o310bo2bo6249b$753bo590bo191bo5163b2o27bobo310bo6252b$752b2ob2o4bo580b2o5355bobo29bo304bo5bo6252b$753bobo4bobo580b2o5356bo301bo17bo13b3o5bobo6249b$686bo62bo4bo5bobo5961b3o275b3o15b3o12bob2o6256b$685bo64bo10bo5089bo874bo274b2obo14b2obo13b3o6256b$685b3o60b3o5100bo873bo275b3o15b3o14b2o6257b$5851bo907b3o239b3o16b2o6273b$6729b3o29bo240b2o6291b$2035bo2bo4692bo28bo6534b$2039bo4690bo23b2o6539b$2035bo3bo4713bobo6539b$2036b4o4715bo6539b$675bo2b2o6109b2o6504b$679b2o61bo6016b2o27bobo228b3o6273b$678b2o53bo6b2o6016bobo29bo227bo2bo6273b$720bo11bobo6b2o686bobo5328bo260bo6273b$674b2o2b2o38b2o12bobo694b2o5352b3o235bo6273b$680bo38b2o12bo673bobo20bo5354bo226b3o3bobo6274b$674b4o729b2o5375bo168b2o57bo2bo6279b$676bo2bo728bo5409b3o131b4o56bo6282b$6788b3o29bo131b2ob2o55bo7b3o6272b$6790bo28bo134b2o57bobo4bo2bo6271b$6789bo23b2o205bo6274b$6812bobo205bo6274b$756bo6057bo206bobo20b3o6248b$755bobo6090b2o194bo2bo6247b$755bobo751bo5308b2o27bobo194bo6250b$756bo751b3o5306bobo29bo194bo6250b$1507b2o2bo5307bo225bobo6247b$1508b5o5329b3o6450b$1508b2o2bo5331bo6450b$1503bo5bo2bo558b2o4770bo208b3o6240b$1504b2o3bobo558b4o4803b3o171bo2bo6240b$1503b2o565b2ob2o4772b3o29bo174bo6240b$2072b2o4775bo28bo167bo7bo6240b$6848bo23b2o139bo17bo13b3o3bobo6241b$6871bobo138b3o15b3o11b2obo6247b$728bo6144bo138bob2o14bob2o10b3o6248b$727bobo742bo5434b2o104b3o15b3o11b2o6248b$727bobo741bo5405b2o27bobo104b3o15b2o6262b$728bo742b3o1234b2o4166bobo29bo104b2o6280b$1499bo1206b2ob2o4167bo6416b$1498bo1207b4o4191b3o6391b$1318bo179b3o1206b2o4194bo6391b$686bo631bobo5581bo6392b$684bobo631b2o5616b3o6356b$685b2o6219b3o29bo90b3o6263b$751bo6156bo28bo91bo2bo6262b$750bobo6154bo23b2o96bo6265b$699bo50bobo6177bobo96bo6265b$698b3o50bo5089bo1090bo89b3o5bobo6262b$697b2o2bo5139bo1124b2o53bo2bo6270b$5841bo1094b2o27bobo56bo6270b$701b2o6232bobo29bo56bo5b3o6262b$701b2o6234bo83bobo5bo2bo6262b$700bo2bo1401b4o4851b3o69bo6262b$654bobo42b3o14bo782b2o603bo3bo4853bo69bo6262b$654b2o60bobo686bo92bobo607bo4852bo67bobo22b3o6238b$655bo60b2o686bo94bo604bo2bo4887b3o55bo2bo6238b$1383bo20b3o5558b3o29bo58bo6238b$723bo658bo5584bo28bo59bo6238b$722bobo657b3o5581bo23b2o61bobo6239b$722bobo6264bobo6303b$710bo12bo6267bo6303b$710b2o6311bo38b3o6230b$712bo6282b2o23b3ob2o36bo2bo6229b$710b2o6282bobo21b3o2b2o37bo6232b$688bo20bobo6284bo21bobo2bo32bo5bo6232b$687bo22bo6315bo14bo13b3o5bobo6229b$687b3o18bobo6312bobo14b3o12bob2o6236b$706bo39bo6276b3o13b2obo13b3o6236b$706bobo36bobo6291b3o14b2o6237b$745bobo6276bobo13b2o6253b$746bo6279bo6268b$7025bo6269b$13295b$692bo12602b$691bobo12601b$691bobo1447b2o11152b$692bo801b2o643b2ob2o4895b3o6253b$1493bobo643b4o4895bo2bo6253b$1448bo45bo645b2o4899bo6253b$1446b2o5593bo6253b$718bo728b2o5583b3o3bobo6254b$717bobo755bo5556bo2bo6259b$717bobo753b2o1301b2o4254bo6262b$718bo574bobo178b2o1299b4o4253bo7b3o6252b$1293b2o1480b2ob2o4253bobo4bo2bo6251b$1294bo1482b2o4261bo6254b$7040bo6254b$7041bobo20b3o6228b$7064bo2bo6227b$7064bo6230b$741bo6322bo6230b$740bobo6322bobo6227b$740bobo12552b$741bo5089bo7463b$5831bo1240b3o6220b$630bo5200bo1239bo2bo6220b$629bo57bo6386bo6220b$629b3o54bobo692bo791bo2bo4889bo7bo6220b$686bobo690b2o796bo4873bo13b3o3bobo6221b$687bo671bo20b2o107b2o682bo3bo4872b3o11b2obo6227b$1357b2o129bobo683b4o4872bob2o10b3o6228b$1358b2o129bo5561b3o11b2o6228b$7051b2o6242b$713bo12581b$712bobo12580b$686bo25bobo12580b$684b2o27bo12581b$664bo20b2o12608b$662b2o12631b$663b2o6384b3o6243b$7049bo2bo6242b$7049bo6245b$7049bo6245b$736bo6305b3o5bobo6242b$735bobo6303bo2bo6250b$653bobo79bobo6306bo6250b$651bo4bo79bo6307bo5b3o6242b$651bo4bo6384bobo5bo2bo6242b$655b2o6395bo6242b$682bo6369bo6242b$651b2o2b2o24bobo1525b2o4838bobo22b3o6218b$651b2o2b2o24bobo738bo785b4o4861bo2bo6218b$652bob3o25bo739bobo59b2o722b2ob2o4863bo6218b$655bo766b2o59bobo724b2o4864bo6218b$654bo794bo34bo5588bobo6219b$1269bo179bobo11843b$708bo559bo180b2o11844b$707bobo558b3o5811b3o6210b$707bobo6372bo2bo6209b$609b3o96bo2137b2o4234bo6212b$608bo2bo31b3o2198b2ob2o4227bo5bo6212b$608b2obo31b3o2198b4o4213bo13b3o5bobo6209b$612b2o29bo2bo2198b2o4213b3o12bob2o6216b$612b2o30b3o6412b2obo13b3o6216b$611bo2bo29b2o6413b3o14b2o6217b$610bo6449b2o6233b$610b3o53bo64bo12563b$611bo53b3o62bobo12562b$664b2o2bo61bobo12562b$664bo66bo5089bo7473b$664b3o688bo4465bo7473b$664b2obo687bobo4463bo7473b$665bob2o8bo655bo21b2o5702b3o6233b$665b2o9bobo654bobo5722bo2bo6233b$666bob2o6bobo654b2o908b4o4814bo6233b$600b2o33bo29b2ob2o7bo801b2o761bo3bo4814bo6233b$600bobo31b3o28b2ob2o808bobo765bo4805b3o3bobo6234b$602b2o30bo2bo29bo811bo762bo2bo4806bo2bo6239b$600bobo33b2o23bobo6388bo6242b$600bo35bo25b2o39bo6348bo7b3o6232b$600bo2bo29b2o27bo39bobo6348bobo4bo2bo6231b$633b4o65bobo6355bo6234b$602b2o30bo2bo65bo6356bo6234b$635bo21bo6403bobo20b3o6208b$634bo21b3o6425bo2bo6207b$633b2o21bob2o6424bo6210b$632bo5bo18bo2bo6423bo6210b$593bo38b2o3b2o11bo7b2o6425bobo6207b$591b2o40b2o16b2o5bo12636b$592b2o56b2o74bo12568b$725bobo6364b3o6200b$725bobo6363bo2bo6200b$726bo6367bo6200b$7086bo7bo6200b$1397bobo5671bo13b3o3bobo6201b$672bo724b2o5671b3o11b2obo6207b$671bobo724bo5671bob2o10b3o6208b$638bobo6bo23bobo750bobo852b2o4790b3o11b2o6208b$639b2o6bobo22bo572bo178b2o48b2o801b2ob2o4789b2o6222b$639bo7b2o594b2o180bo47bobo801b4o11014b$1244b2o228bo803b2o11015b$13295b$698bo12596b$697bobo12595b$628bo68bobo2214b2o10379b$627b2o69bo2214b4o4152b3o6223b$626b2o2285b2ob2o4151bo2bo6222b$622b2ob2o2288b2o4152bo6225b$621bo6447bo6225b$621b3ob3o6434b3o5bobo6222b$7061bo2bo6230b$7064bo6230b$721bo6342bo5b3o6222b$720bobo607bobo5728bobo5bo2bo6222b$720bobo607b2o5740bo6222b$721bo586bobo20bo4479bo1260bo6222b$1308b2o4501bo1257bobo22b3o6198b$1309bo4501bo1281bo2bo6198b$612bo27bo26bo6428bo6198b$613b2o24b2o25bobo1642bo2bo4781bo6198b$612b2o24bo27bobo1646bo4777bobo6199b$638b3o26bo801b2o840bo3bo10979b$637bo2bo827bobo841b4o10979b$637b2o830bo5632b3o6190b$7102bo2bo6189b$693bo6408bo6192b$692bobo6401bo5bo6192b$660bo31bobo6386bo13b3o5bobo6189b$660bo32bo6386b3o12bob2o6196b$659bobo6417b2obo13b3o6196b$567bo6511b3o14b2o6197b$567bobo91b2o6417b2o6213b$567b2o12726b$661b2o12632b$13295b$716bo12578b$715bobo655bo11921b$715bobo654bo11922b$658b2o56bo655b3o5704b3o6213b$658b3o739bo5677bo2bo6213b$662bo736bo5681bo6213b$660b2o557bo179b3o5679bo6213b$1219bobo1125b2o4723b3o3bobo6214b$1219b2o1125b4o4722bo2bo6219b$657bobo804b2o880b2ob2o4721bo6222b$657bobo803bobo882b2o4722bo7b3o6212b$658bo805bo5608bobo4bo2bo6211b$7080bo6214b$688bo6391bo6214b$687bobo6391bobo20b3o6188b$687bobo6414bo2bo6187b$688bo2295b2o4118bo6190b$2982b2ob2o4117bo6190b$666bo2315b4o4119bobo6187b$667bo2315b2o10310b$665b3o638bo11988b$1305bo5806b3o6180b$1284bo20b3o5803bo2bo6180b$711bo571bo5830bo6180b$710bobo570b3o5820bo7bo6180b$710bobo6378bo13b3o3bobo6181b$628bo82bo5089bo1288b3o11b2obo6187b$626bobo5172bo1288bob2o10b3o6188b$627b2o5172bo1289b3o11b2o6188b$7091b2o6202b$643bo12651b$641b2o1738b4o10910b$642b2o815b2o919bo3bo10910b$1458bobo923bo10910b$1459bo920bo2bo10911b$13295b$683bo6405b3o6203b$682bobo6404bo2bo6202b$542bobo137bobo6404bo6205b$542b2o139bo6405bo6205b$543bo6538b3o5bobo6202b$7081bo2bo6210b$7084bo6210b$7084bo5b3o6202b$1349bo5731bobo5bo2bo6202b$1347b2o5743bo6202b$619bo86bo641b2o5742bo6202b$618b2o85bobo668bo5712bobo22b3o6178b$618bobo84bobo666b2o5737bo2bo6178b$706bo487bobo178b2o5739bo6178b$593b3o598b2o5920bo6178b$593bo601bo5917bobo6179b$594bo12700b$569b2o12724b$568b2o1847b2o4703b3o6170b$570bo883b2o959b2ob2o4702bo2bo6169b$544b2o907bobo959b4o4703bo6172b$544bobo907bo961b2o4698bo5bo6172b$544bo6556bo13b3o5bobo6169b$7100b3o12bob2o6176b$7099b2obo13b3o6176b$3052b2o4045b3o14b2o6177b$3051b4o4045b2o6193b$1282bo1768b2ob2o10239b$1280b2o1771b2o10240b$1260bo20b2o12012b$1258b2o12035b$1259b2o12034b$13295b$701bo6397b3o6193b$700bobo6395bo2bo6193b$700bobo6398bo6193b$701bo5089bo1309bo6193b$5791bo1300b3o3bobo6194b$5791bo1300bo2bo6199b$7092bo6202b$2449bo2bo4639bo7b3o6192b$2453bo4639bobo4bo2bo6191b$1449b2o998bo3bo4646bo6194b$1448bobo999b4o4646bo6194b$1449bo5651bobo20b3o6168b$7124bo2bo6167b$7124bo6170b$7124bo6170b$7125bobo6167b$13295b$13295b$1323bo5808b3o6160b$1323bobo5805bo2bo6160b$1323b2o5809bo6160b$1350bo5775bo7bo6160b$1170bo179bobo5758bo13b3o3bobo6161b$696bo472bo180b2o5758b3o11b2obo6167b$695bobo471b3o5938bob2o10b3o6168b$695bobo6413b3o11b2o6168b$696bo6414b2o6182b$13295b$13295b$13295b$2485b2o10808b$2484b4o10807b$1444b2o1038b2ob2o10806b$1443bobo1040b2o4621b3o6183b$1444bo5664bo2bo6182b$7109bo6185b$7109bo6185b$1256bo5845b3o5bobo6182b$1256bobo5842bo2bo6190b$1234bo21b2o1864b2o3980bo6190b$1234bobo1883b2ob2o3979bo5b3o6182b$1234b2o1884b4o3977bobo5bo2bo6182b$3121b2o3989bo6182b$7112bo6182b$7109bobo22b3o6158b$7133bo2bo6158b$691bo6444bo6158b$690bobo6443bo6158b$690bobo6440bobo6159b$691bo5089bo7513b$5781bo7513b$5781bo1360b3o6150b$7142bo2bo6149b$7142bo6152b$2519b4o4613bo5bo6152b$1439b2o1077bo3bo4598bo13b3o5bobo6149b$1438bobo1081bo4597b3o12bob2o6156b$1439bo1078bo2bo4597b2obo13b3o6156b$7119b3o14b2o6157b$7120b2o6173b$13295b$1298bobo11994b$1298b2o11995b$1299bo11995b$1325bobo11967b$1146bo178b2o11968b$1144b2o180bo5792b3o6173b$1145b2o5971bo2bo6173b$7121bo6173b$686bo6434bo6173b$685bobo6424b3o3bobo6174b$685bobo6424bo2bo6179b$686bo6425bo6182b$7112bo7b3o6172b$7113bobo4bo2bo6171b$7120bo6174b$7120bo6174b$2555b2o4564bobo20b3o6148b$1434b2o1117b2ob2o4586bo2bo6147b$1433bobo1117b4o4587bo6150b$1231bobo200bo1119b2o4588bo6150b$1231b2o5912bobo6147b$1209bobo20bo12062b$1209b2o12084b$1210bo1979b2o3960b3o6140b$3189b4o3958bo2bo6140b$3189b2ob2o3960bo6140b$3191b2o3953bo7bo6140b$7131bo13b3o3bobo6141b$7130b3o11b2obo6147b$7130bob2o10b3o6148b$7131b3o11b2o6148b$681bo6449b2o6162b$680bobo12612b$680bobo12612b$681bo5089bo7523b$5771bo7523b$5771bo7523b$13295b$2587bo2bo4538b3o6163b$2591bo4537bo2bo6162b$1429b2o1156bo3bo4537bo6165b$1428bobo1157b4o4537bo6165b$1274bo154bo5692b3o5bobo6162b$1273bo5847bo2bo6170b$1273b3o5848bo6170b$1301bo5822bo5b3o6162b$1300bo5820bobo5bo2bo6162b$1120bo179b3o5829bo6162b$1120bobo6009bo6162b$1120b2o6007bobo22b3o6138b$7153bo2bo6138b$7156bo6138b$7156bo6138b$7153bobo6139b$676bo12618b$675bobo12617b$675bobo6484b3o6130b$676bo6485bo2bo6129b$7162bo6132b$7156bo5bo6132b$7141bo13b3o5bobo6129b$1207bo1415b2o4515b3o12bob2o6136b$1206bo1415b4o4513b2obo13b3o6136b$1185bo20b3o215b2o1196b2ob2o4512b3o14b2o6137b$1184bo238bobo1198b2o4514b2o6153b$1184b3o237bo11870b$13295b$13295b$13295b$13295b$3260b2o10033b$3258b2ob2o3876b3o6153b$3258b4o3876bo2bo6153b$3259b2o3880bo6153b$7141bo6153b$7132b3o3bobo6154b$7132bo2bo6159b$671bo6460bo6162b$670bobo6459bo7b3o6152b$670bobo6460bobo4bo2bo6151b$671bo5089bo1378bo6154b$5761bo1378bo6154b$5761bo1379bobo20b3o6128b$7164bo2bo6127b$7164bo6130b$1250bo1406b4o4503bo6130b$1248b2o169b2o1235bo3bo4504bobo6127b$1249b2o167bobo1239bo10634b$1277bo141bo1236bo2bo10635b$1275b2o5895b3o6120b$1095bobo178b2o5893bo2bo6120b$1095b2o6077bo6120b$1096bo6069bo7bo6120b$7151bo13b3o3bobo6121b$7150b3o11b2obo6127b$7150bob2o10b3o6128b$7151b3o11b2o6128b$7151b2o6142b$13295b$13295b$666bo12628b$665bobo12627b$665bobo12627b$666bo12628b$1183bo5965b3o6143b$1181b2o5966bo2bo6142b$1161bo20b2o5965bo6145b$1159b2o5988bo6145b$1160b2o1531b2o4447b3o5bobo6142b$1414b2o1275b2ob2o4445bo2bo6150b$1413bobo1275b4o4449bo6150b$1414bo1277b2o4450bo5b3o6142b$7141bobo5bo2bo6142b$7152bo6142b$7152bo6142b$3328b2o3819bobo22b3o6118b$3327b4o3842bo2bo6118b$3327b2ob2o3844bo6118b$3329b2o3845bo6118b$7173bobo6119b$13295b$13295b$7182b3o6110b$661bo6520bo2bo6109b$660bobo6519bo6112b$660bobo6513bo5bo6112b$661bo5089bo1409bo13b3o5bobo6109b$5751bo1408b3o12bob2o6116b$1224bo4526bo1407b2obo13b3o6116b$1224bobo5932b3o14b2o6117b$1224b2o1499bo2bo4431b2o6133b$1251bo1477bo10565b$1071bo179bobo155b2o1314bo3bo10565b$1070bo180b2o155bobo1315b4o10565b$1070b3o336bo11885b$13295b$13295b$7159b3o6133b$7158bo2bo6133b$7161bo6133b$7161bo6133b$7152b3o3bobo6134b$7152bo2bo6139b$7152bo6142b$7152bo7b3o6132b$7153bobo4bo2bo6131b$656bo6503bo6134b$655bobo499bo6002bo6134b$655bobo499bobo6001bobo20b3o6108b$656bo478bo21b2o6025bo2bo6107b$1135bobo6046bo6110b$1135b2o6047bo6110b$7185bobo6107b$2761b2o10532b$2760b4o10531b$1404b2o1354b2ob2o4427b3o6100b$1403bobo1356b2o4427bo2bo6100b$1404bo5789bo6100b$7186bo7bo6100b$7171bo13b3o3bobo6101b$7170b3o11b2obo6107b$7170bob2o10b3o6108b$3398b2o3771b3o11b2o6108b$3396b2ob2o3770b2o6122b$3396b4o9895b$3397b2o9896b$13295b$13295b$13295b$651bo12643b$650bobo6516b3o6123b$650bobo546bobo5967bo2bo6122b$651bo547b2o4540bo1427bo6125b$1200bo4540bo1427bo6125b$1226bobo4512bo1420b3o5bobo6122b$1047bo178b2o5933bo2bo6130b$1045b2o180bo5936bo6130b$1046b2o1747b4o4365bo5b3o6122b$1399b2o1393bo3bo4362bobo5bo2bo6122b$1398bobo1397bo4373bo6122b$1399bo1394bo2bo4374bo6122b$7169bobo22b3o6098b$7193bo2bo6098b$7196bo6098b$7196bo6098b$7193bobo6099b$13295b$13295b$7202b3o6090b$7202bo2bo6089b$1132bobo6067bo6092b$1132b2o6062bo5bo6092b$646bo463bobo20bo6047bo13b3o5bobo6089b$645bobo462b2o6068b3o12bob2o6096b$645bobo463bo6067b2obo13b3o6096b$646bo6532b3o14b2o6097b$7180b2o6113b$13295b$13295b$13295b$2831b2o10462b$1394b2o1433b2ob2o10461b$1393bobo1433b4o10462b$1394bo1435b2o4347b3o6113b$7178bo2bo6113b$7181bo6113b$7181bo6113b$3466b2o3704b3o3bobo6114b$3465b4o3703bo2bo6119b$3465b2ob2o3702bo6122b$3467b2o3703bo7b3o6112b$7173bobo4bo2bo6111b$7180bo6114b$1175bo6004bo6114b$1174bo6006bobo20b3o6088b$641bo532b3o6027bo2bo6087b$640bobo559bo6001bo6090b$640bobo558bo6002bo6090b$641bo379bo179b3o4527bo1473bobo6087b$1021bobo4707bo7563b$1021b2o4708bo7563b$7212b3o6080b$2863bo2bo4344bo2bo6080b$2867bo4346bo6080b$1389b2o1472bo3bo4338bo7bo6080b$1388bobo1473b4o4323bo13b3o3bobo6081b$1389bo5800b3o11b2obo6087b$7190bob2o10b3o6088b$7191b3o11b2o6088b$7191b2o6102b$13295b$13295b$1108bo12186b$1107bo12187b$1086bo20b3o12185b$1085bo12209b$1085b3o6101b3o6103b$7189bo2bo6102b$636bo6552bo6105b$635bobo6551bo6105b$635bobo6544b3o5bobo6102b$636bo6544bo2bo6110b$7184bo6110b$7184bo5b3o6102b$7181bobo5bo2bo6102b$2899b2o4291bo6102b$2898b4o4290bo6102b$1384b2o1512b2ob2o4286bobo22b3o6078b$1383bobo1514b2o4311bo2bo6078b$1384bo5831bo6078b$7216bo6078b$7213bobo6079b$13295b$13295b$3536b2o3684b3o6070b$3534b2ob2o3683bo2bo6069b$1151bo2382b4o3684bo6072b$1149b2o2384b2o3679bo5bo6072b$1150b2o6049bo13b3o5bobo6069b$1178bo6021b3o12bob2o6076b$1176b2o6021b2obo13b3o6076b$631bo364bobo178b2o6020b3o14b2o6077b$630bobo363b2o6202b2o6093b$630bobo364bo12297b$631bo5089bo7573b$5721bo7573b$5721bo7573b$13295b$13295b$2933b4o4262b3o6093b$1379b2o1551bo3bo4261bo2bo6093b$1378bobo1555bo4264bo6093b$1379bo1552bo2bo4265bo6093b$7192b3o3bobo6094b$7192bo2bo6099b$1084bo6107bo6102b$1082b2o6108bo7b3o6092b$1062bo20b2o6108bobo4bo2bo6091b$1060b2o6138bo6094b$1061b2o6137bo6094b$7201bobo20b3o6068b$7224bo2bo6067b$7224bo6070b$7224bo6070b$626bo6598bobo6067b$625bobo12667b$625bobo12667b$626bo6605b3o6060b$7231bo2bo6060b$7234bo6060b$7226bo7bo6060b$7211bo13b3o3bobo6061b$2969b2o4239b3o11b2obo6067b$1374b2o1591b2ob2o4238bob2o10b3o6068b$1373bobo1591b4o4240b3o11b2o6068b$1374bo1593b2o4241b2o6082b$13295b$13295b$13295b$1125bo2478b2o9689b$1125bobo2475b4o9688b$1125b2o2476b2ob2o9687b$1152bo2452b2o3602b3o6083b$972bo179bobo6054bo2bo6082b$971bo180b2o6055bo6085b$971b3o6235bo6085b$7202b3o5bobo6082b$621bo6579bo2bo6090b$620bobo6581bo6090b$620bobo6581bo5b3o6082b$621bo5089bo1489bobo5bo2bo6082b$5711bo1500bo6082b$5711bo1500bo6082b$7209bobo22b3o6058b$3001bo2bo4228bo2bo6058b$3005bo4230bo6058b$1369b2o1630bo3bo4230bo6058b$1368bobo1631b4o4227bobo6059b$1058bo310bo11925b$1058bobo12234b$1036bo21b2o6182b3o6050b$1036bobo6203bo2bo6049b$1036b2o6204bo6052b$7236bo5bo6052b$7221bo13b3o5bobo6049b$7220b3o12bob2o6056b$7219b2obo13b3o6056b$7219b3o14b2o6057b$7220b2o6073b$13295b$616bo12678b$615bobo12677b$615bobo12677b$616bo12678b$13295b$7219b3o6073b$7218bo2bo6073b$3037b2o4182bo6073b$3036b4o4181bo6073b$1364b2o1670b2ob2o4171b3o3bobo6074b$1363bobo1672b2o4172bo2bo6079b$1364bo5847bo6082b$1100bobo6109bo7b3o6072b$1100b2o6111bobo4bo2bo6071b$1101bo6118bo6074b$1127bobo6090bo6074b$948bo178b2o2545b2o3545bobo20b3o6048b$946b2o180bo2543b2ob2o3567bo2bo6047b$947b2o2723b4o3568bo6050b$3673b2o3569bo6050b$7245bobo6047b$13295b$13295b$611bo6640b3o6040b$610bobo6638bo2bo6040b$610bobo6641bo6040b$611bo5089bo1544bo7bo6040b$5701bo1529bo13b3o3bobo6041b$5701bo1528b3o11b2obo6047b$7230bob2o10b3o6048b$7231b3o11b2o6048b$1033bobo2035b4o4156b2o6062b$1033b2o324b2o1709bo3bo10220b$1011bobo20bo323bobo1713bo10220b$1011b2o346bo1710bo2bo10221b$1012bo12282b$13295b$13295b$7229b3o6063b$7229bo2bo6062b$7229bo6065b$7229bo6065b$7222b3o5bobo6062b$7221bo2bo6070b$7224bo6070b$7224bo5b3o6062b$606bo6614bobo5bo2bo6062b$605bobo6624bo6062b$605bobo6624bo6062b$606bo6622bobo22b3o6038b$7253bo2bo6038b$7256bo6038b$7256bo6038b$7253bobo6039b$1076bo2030b2o10186b$1075bo278b2o1749b2ob2o10185b$1075b3o275bobo1749b4o4153b3o6030b$1103bo250bo1751b2o4154bo2bo6029b$1102bo6159bo6032b$922bo179b3o6151bo5bo6032b$922bobo6316bo13b3o5bobo6029b$922b2o2818b2o3496b3o12bob2o6036b$3741b4o3494b2obo13b3o6036b$3741b2ob2o3493b3o14b2o6037b$3743b2o3495b2o6053b$13295b$13295b$13295b$13295b$601bo12693b$600bobo12692b$600bobo6636b3o6053b$601bo5089bo1546bo2bo6053b$1009bo4681bo1549bo6053b$1008bo4682bo1549bo6053b$987bo20b3o6221b3o3bobo6054b$986bo2152bo2bo4089bo2bo6059b$986b3o2154bo4088bo6062b$1349b2o1788bo3bo4088bo7b3o6052b$1348bobo1789b4o4089bobo4bo2bo6051b$1349bo5890bo6054b$7240bo6054b$7241bobo20b3o6028b$7264bo2bo6027b$7264bo6030b$7264bo6030b$7265bobo6027b$13295b$13295b$7272b3o6020b$7271bo2bo6020b$7274bo6020b$596bo6669bo7bo6020b$595bobo6653bo13b3o3bobo6021b$595bobo6652b3o11b2obo6027b$596bo6653bob2o10b3o6028b$7251b3o11b2o6028b$1052bo6198b2o6042b$1050b2o12243b$1051b2o2122b2o10118b$1079bo2094b4o10117b$1077b2o265b2o1828b2ob2o10116b$897bobo178b2o263bobo1830b2o10117b$897b2o445bo11950b$898bo6350b3o6043b$7249bo2bo6042b$7249bo6045b$7249bo6045b$3812b2o3428b3o5bobo6042b$3810b2ob2o3426bo2bo6050b$3810b4o3430bo6050b$3811b2o3431bo5b3o6042b$7241bobo5bo2bo6042b$7252bo6042b$7252bo6042b$591bo6657bobo22b3o6018b$590bobo392bo6287bo2bo6018b$590bobo390b2o6291bo6018b$591bo371bo20b2o4695bo1594bo6018b$961b2o4718bo1591bobo6019b$962b2o4717bo7613b$13295b$7282b3o6010b$3209b4o4069bo2bo6009b$1339b2o1867bo3bo4069bo6012b$1338bobo1871bo4063bo5bo6012b$1339bo1868bo2bo4049bo13b3o5bobo6009b$7260b3o12bob2o6016b$7259b2obo13b3o6016b$7259b3o14b2o6017b$7260b2o6033b$13295b$13295b$13295b$13295b$13295b$13295b$7259b3o6033b$586bo6671bo2bo6033b$585bobo6673bo6033b$585bobo438bo6234bo6033b$586bo439bobo6223b3o3bobo6034b$1026b2o6224bo2bo6039b$1053bo6198bo6042b$873bo179bobo6196bo7b3o6032b$872bo180b2o6198bobo4bo2bo6031b$872b3o2370b2o4013bo6034b$1334b2o1907b2ob2o4012bo6034b$1333bobo1907b4o4014bobo20b3o6008b$1334bo1909b2o4038bo2bo6007b$7284bo6010b$7284bo6010b$7285bobo6007b$3880b2o9413b$3879b4o9412b$3879b2ob2o3408b3o6000b$3881b2o3408bo2bo6000b$7294bo6000b$7286bo7bo6000b$959bo6311bo13b3o3bobo6001b$959bobo6308b3o11b2obo6007b$581bo355bo21b2o6309bob2o10b3o6008b$580bobo354bobo6331b3o11b2o6008b$580bobo354b2o6332b2o6022b$581bo5089bo7623b$5671bo7623b$5671bo7623b$13295b$3277bo2bo10014b$3281bo10013b$1329b2o1946bo3bo3987b3o6023b$1328bobo1947b4o3987bo2bo6022b$1329bo5939bo6025b$7269bo6025b$7262b3o5bobo6022b$7261bo2bo6030b$7264bo6030b$7264bo5b3o6022b$7261bobo5bo2bo6022b$7272bo6022b$7272bo6022b$7269bobo22b3o5998b$7293bo2bo5998b$1001bobo6292bo5998b$576bo424b2o6293bo5998b$575bobo424bo6290bobo5999b$575bobo450bobo12264b$576bo272bo178b2o12265b$847b2o180bo6272b3o5990b$848b2o6452bo2bo5989b$7302bo5992b$3313b2o3981bo5bo5992b$3312b4o3965bo13b3o5bobo5989b$1324b2o1986b2ob2o3963b3o12bob2o5996b$1323bobo1988b2o3963b2obo13b3o5996b$1324bo5954b3o14b2o5997b$7280b2o6013b$13295b$13295b$13295b$3950b2o9343b$3948b2ob2o9342b$934bobo3011b4o9343b$934b2o3013b2o3328b3o6013b$912bobo20bo6342bo2bo6013b$912b2o6367bo6013b$913bo6367bo6013b$571bo6700b3o3bobo6014b$570bobo6699bo2bo6019b$570bobo6699bo6022b$571bo5089bo1610bo7b3o6012b$5661bo1611bobo4bo2bo6011b$5661bo1618bo6014b$7280bo6014b$7281bobo20b3o5988b$3347b4o3953bo2bo5987b$1319b2o2025bo3bo3953bo5990b$1318bobo2029bo3953bo5990b$1319bo2026bo2bo3955bobo5987b$13295b$13295b$7312b3o5980b$7311bo2bo5980b$7314bo5980b$7306bo7bo5980b$977bo6313bo13b3o3bobo5981b$976bo6313b3o11b2obo5987b$976b3o6311bob2o10b3o5988b$1004bo6286b3o11b2o5988b$1003bo6287b2o6002b$566bo256bo179b3o12289b$565bobo255bobo12469b$565bobo255b2o12470b$566bo12728b$13295b$13295b$7289b3o6003b$7289bo2bo6002b$3383b2o3904bo6005b$1314b2o2065b2ob2o3903bo6005b$1313bobo2065b4o3897b3o5bobo6002b$1314bo2067b2o3897bo2bo6010b$7284bo6010b$7284bo5b3o6002b$910bo6370bobo5bo2bo6002b$909bo3108b2o3272bo6002b$888bo20b3o3105b4o3271bo6002b$887bo3129b2ob2o3267bobo22b3o5978b$887b3o3129b2o3292bo2bo5978b$7316bo5978b$7316bo5978b$7313bobo5979b$13295b$561bo12733b$560bobo6759b3o5970b$560bobo6759bo2bo5969b$561bo5089bo1670bo5972b$5651bo1664bo5bo5972b$5651bo1649bo13b3o5bobo5969b$7300b3o12bob2o5976b$3415bo2bo3880b2obo13b3o5976b$3419bo3879b3o14b2o5977b$1309b2o2104bo3bo3880b2o5993b$1308bobo2105b4o9875b$1309bo11985b$13295b$13295b$13295b$953bo12341b$951b2o6346b3o5993b$952b2o6344bo2bo5993b$980bo6320bo5993b$978b2o6321bo5993b$798bobo178b2o6311b3o3bobo5994b$798b2o6492bo2bo5999b$799bo6492bo6002b$556bo6735bo7b3o5992b$555bobo6735bobo4bo2bo5991b$555bobo6742bo5994b$556bo6743bo5994b$7301bobo20b3o5968b$7324bo2bo5967b$7324bo5970b$3451b2o3871bo5970b$3450b4o3871bobo5967b$1304b2o2144b2ob2o9840b$1303bobo2146b2o9841b$886bo417bo6027b3o5960b$884b2o6445bo2bo5960b$864bo20b2o6447bo5960b$862b2o6462bo7bo5960b$863b2o6446bo13b3o3bobo5961b$4088b2o3220b3o11b2obo5967b$4086b2ob2o3219bob2o10b3o5968b$4086b4o3221b3o11b2o5968b$4087b2o3222b2o5982b$13295b$13295b$13295b$551bo12743b$550bobo12742b$550bobo12742b$551bo5089bo1667b3o5983b$5641bo1667bo2bo5982b$5641bo1667bo5985b$7309bo5985b$7302b3o5bobo5982b$3485b4o3812bo2bo5990b$1299b2o2183bo3bo3815bo5990b$1298bobo2187bo3815bo5b3o5982b$1299bo2184bo2bo3813bobo5bo2bo5982b$927bo6384bo5982b$927bobo6382bo5982b$927b2o6380bobo22b3o5958b$954bo6378bo2bo5958b$774bo179bobo6379bo5958b$773bo180b2o6380bo5958b$773b3o6557bobo5959b$13295b$13295b$7342b3o5950b$7342bo2bo5949b$546bo6795bo5952b$545bobo6788bo5bo5952b$545bobo6773bo13b3o5bobo5949b$546bo6773b3o12bob2o5956b$7319b2obo13b3o5956b$7319b3o14b2o5957b$7320b2o5973b$13295b$860bo2660b2o9772b$860bobo431b2o2223b2ob2o9771b$838bo21b2o431bobo2223b4o9772b$838bobo453bo2225b2o9773b$838b2o12455b$7319b3o5973b$7318bo2bo5973b$4156b2o3163bo5973b$4155b4o3162bo5973b$4155b2ob2o3152b3o3bobo5974b$4157b2o3153bo2bo5979b$7312bo5982b$7312bo7b3o5972b$7313bobo4bo2bo5971b$7320bo5974b$541bo6778bo5974b$540bobo6778bobo20b3o5948b$540bobo6801bo2bo5947b$541bo5089bo1712bo5950b$5631bo1712bo5950b$5631bo1713bobo5947b$13295b$3553bo2bo9738b$3557bo3794b3o5940b$902bobo384b2o2262bo3bo3793bo2bo5940b$902b2o384bobo2263b4o3796bo5940b$903bo385bo6056bo7bo5940b$929bobo6399bo13b3o3bobo5941b$750bo178b2o6399b3o11b2obo5947b$748b2o180bo6399bob2o10b3o5948b$749b2o6580b3o11b2o5948b$7331b2o5962b$13295b$13295b$13295b$13295b$13295b$13295b$536bo6792b3o5963b$535bobo6791bo2bo5962b$535bobo6791bo5965b$536bo6792bo5965b$7322b3o5bobo5962b$835bobo6483bo2bo5970b$835b2o6487bo5970b$813bobo20bo2752b2o3733bo5b3o5962b$813b2o2773b4o3729bobo5bo2bo5962b$814bo469b2o2302b2ob2o3739bo5962b$1283bobo2304b2o3740bo5962b$1284bo6044bobo22b3o5938b$7353bo2bo5938b$7356bo5938b$7356bo5938b$7353bobo5939b$4226b2o9067b$4224b2ob2o9066b$4224b4o3134b3o5930b$4225b2o3135bo2bo5929b$7362bo5932b$7356bo5bo5932b$7341bo13b3o5bobo5929b$531bo6808b3o12bob2o5936b$530bobo6806b2obo13b3o5936b$530bobo6806b3o14b2o5937b$531bo5089bo1718b2o5953b$5621bo7673b$878bo4742bo7673b$877bo12417b$877b3o12415b$905bo2717b4o9668b$904bo374b2o2341bo3bo9668b$724bo179b3o371bobo2345bo3712b3o5953b$724bobo552bo2342bo2bo3712bo2bo5953b$724b2o6615bo5953b$7341bo5953b$7332b3o3bobo5954b$7332bo2bo5959b$7332bo5962b$7332bo7b3o5952b$7333bobo4bo2bo5951b$7340bo5954b$7340bo5954b$7341bobo20b3o5928b$7364bo2bo5927b$526bo6837bo5930b$525bobo283bo6552bo5930b$525bobo282bo6554bobo5927b$526bo283b3o12482b$13295b$785b3o6584b3o5920b$785bob3o6581bo2bo5920b$708b3o6663bo5920b$708bo2bo76bobo2868b2o3705bo7bo5920b$710b2o76bobo483b2o2381b2ob2o3689bo13b3o3bobo5921b$789b2o482bobo2381b4o3689b3o11b2obo5927b$706bo2bo564bo2383b2o3690bob2o10b3o5928b$707b2o6642b3o11b2o5928b$710b2o70bo6568b2o5942b$709b3o70bobo12510b$710bo71b2o3510b2o8999b$707b2ob2o3581b4o8998b$707b2ob2o3581b2ob2o8997b$707bo3bo3583b2o8998b$707bo3bo65b2o12516b$708bo68bob2o14b3o6551b3o5943b$779b2o14bobo6551bo2bo5942b$777b2o16bo2bo6550bo5945b$521bo253b2o19b3o6550bo5945b$520bobo273b3o6543b3o5bobo5942b$520bobo252bobo16bo2bo56bo6486bo2bo5950b$521bo254bo20bo54b2o4757bo1732bo5950b$713bo80bo58b2o4756bo1732bo5b3o5942b$714bo80b2o84bo4729bo1729bobo5bo2bo5942b$712b3o79b3o82b2o6471bo5942b$794b2o84b2o2809bo2bo3657bo5942b$793bobo2b2o2895bo3653bobo22b3o5918b$793bobo2b2o469b2o2420bo3bo3677bo2bo5918b$793b3o472bobo2421b4o3680bo5918b$1269bo6106bo5918b$7373bobo5919b$13295b$786b3o12506b$786bo2bo6592b3o5910b$694bo90bo3bo6592bo2bo5909b$692b2o91b4o6593bo5912b$693b2o91bo6589bo5bo5912b$7361bo13b3o5bobo5909b$7360b3o12bob2o5916b$7359b2obo13b3o5916b$7359b3o14b2o5917b$516bo269b2ob2o6569b2o5933b$515bobo268bob3o12504b$515bobo164bo12612b$516bo165b2o12611b$681bo2bo12610b$682bobo12610b$681bo2bo100b2ob3o12504b$681bo2bo100b4obo2936b2o3630b3o5933b$681bobo100b2o2b2o2936b4o3628bo2bo5933b$682b3o579b2o2460b2ob2o3630bo5933b$1263bobo2462b2o3631bo5933b$1264bo6087b3o3bobo5934b$7352bo2bo5939b$7352bo5942b$7352bo7b3o5932b$7353bobo4bo2bo5931b$4364b2o2994bo5934b$774bo3587b2ob2o2993bo5934b$772b2o3588b4o2995bobo20b3o5908b$752bo20b2o3588b2o3019bo2bo5907b$750b2o6632bo5910b$751b2o6631bo5910b$828bo6556bobo5907b$511bo316bobo12464b$510bobo214bo100b2o12465b$510bobo215b2o125bo6536b3o5900b$511bo215b2o126bobo4743bo1789bo2bo5900b$855b2o4744bo1792bo5900b$5601bo1784bo7bo5900b$7371bo13b3o3bobo5901b$7370b3o11b2obo5907b$3761b4o3605bob2o10b3o5908b$1259b2o2499bo3bo3606b3o11b2o5908b$1258bobo2503bo3606b2o5922b$689bobo567bo2500bo2bo9531b$690b2o12603b$690bo12604b$13295b$13295b$13295b$7369b3o5923b$7369bo2bo5922b$7369bo5925b$7369bo5925b$7362b3o5bobo5922b$662bo148b3o6547bo2bo5930b$506bo154bo149bo2bo6549bo5930b$505bobo151b2ob2o146bo3bo6549bo5b3o5922b$505bobo150b5o148bo2b2o6545bobo5bo2bo5922b$506bo150b2o2bo151bo6558bo5922b$657bob4o148b2o6559bo5922b$657bo4bo147b3o6556bobo22b3o5898b$657bo2b2o148b3o6580bo2bo5898b$659b2o6735bo5898b$3797b2o3597bo5898b$655bo156b2o440b2o2539b2ob2o3593bobo5899b$655bobo153bob2o438bobo2539b4o9496b$655b2o154bo3bo438bo2541b2o9497b$814bo6587b3o5890b$7402bo2bo5889b$748bo6653bo5892b$748bobo3681b2o2962bo5bo5892b$726bo21b2o65bo3615b4o2946bo13b3o5bobo5889b$726bobo87bo3614b2ob2o2944b3o12bob2o5896b$726b2o86b3o3616b2o2944b2obo13b3o5896b$7379b3o14b2o5897b$7380b2o5913b$743bo12551b$741bobo86bobo12462b$501bo240b2o86b2o12463b$500bobo328bo12463b$500bobo12792b$501bo5089bo7703b$5591bo1787b3o5913b$798bo4792bo1786bo2bo5913b$796b2o6583bo5913b$705bo91b2o3030bo2bo3548bo5913b$706bo3126bo3538b3o3bobo5914b$704b3o542b2o2578bo3bo3538bo2bo5919b$1248bobo2579b4o3538bo5922b$1249bo6122bo7b3o5912b$7373bobo4bo2bo5911b$7380bo5914b$7380bo5914b$7381bobo20b3o5888b$7404bo2bo5887b$668bo6735bo5890b$666bobo6735bo5890b$667b2o6736bobo5887b$13295b$13295b$7412b3o5880b$496bo6914bo2bo5880b$495bobo6916bo5880b$495bobo6908bo7bo5880b$496bo6894bo13b3o3bobo5881b$7390b3o11b2obo5887b$7390bob2o10b3o5888b$630bobo6758b3o11b2o5888b$630b2o3233b2o3524b2o5902b$631bo3232b4o9427b$1244b2o2618b2ob2o9426b$1243bobo2620b2o9427b$723bobo518bo12050b$723b2o12570b$699bo24bo104bo12465b$698bobo129b2o6557b3o5903b$698bob2o127b2o6558bo2bo5902b$700bo3801b2o2885bo5905b$4500b2ob2o2884bo5905b$701bob2o51bobo47bo3693b4o2878b3o5bobo5902b$702b2o53b2o46bo3695b2o2878bo2bo5910b$757bo47b3o6576bo5910b$7384bo5b3o5902b$696bo6684bobo5bo2bo5902b$491bo202b2o6696bo5902b$490bobo202b2o6695bo5902b$490bobo279bo6616bobo22b3o5878b$491bo280bobo4806bo1831bo2bo5878b$719bo52b2o4807bo1834bo5878b$690b3o16bo10b2o4859bo1834bo5878b$690bo2bo14bobo8b2o6692bobo5879b$690bo2bo13b2ob2o12583b$689b4o15bo2bo3187b4o9392b$689b2o17bo3bo526b2o2657bo3bo3519b3o5870b$688bo19bo529bobo2661bo3519bo2bo5869b$689bo549bo2658bo2bo3520bo5872b$689bo6726bo5bo5872b$708b2o6691bo13b3o5bobo5869b$681bobo25bo6690b3o12bob2o5876b$682b2o6715b2obo13b3o5876b$682bo23bo6692b3o14b2o5877b$706bob2ob2o6687b2o5893b$705b2ob2ob2o12582b$706bobo12586b$707bo12587b$13295b$700bo12594b$486bo212b3o12593b$485bobo210b2o2bo6696b3o5893b$485bobo210bo3bo6695bo2bo5893b$486bo211bob2o6699bo5893b$602b3o93b2o6701bo5893b$602bob3o6785b3o3bobo5894b$7392bo2bo5899b$605bobo6784bo5902b$605bobo3327b2o3455bo7b3o5892b$606b2o91b2o2bo530b2o2697b2ob2o3455bobo4bo2bo5891b$699bobobo141bo387bobo2697b4o3463bo5894b$702bo140bobo388bo2699b2o3464bo5894b$599bo244b2o6555bobo20b3o5868b$599bobo6822bo2bo5867b$599b2o101bo69bo6651bo5870b$698bo2bobo69bo5b2o3789b2o2852bo5870b$703bo67b3o7bo3787b4o2852bobo5867b$697b2o2b2o79bo3786b2ob2o8721b$779bobo3789b2o8722b$749b2o29bo6651b3o5860b$749bobo30bobo6646bo2bo5860b$751b2o29bobo6649bo5860b$749bobo31bo6642bo7bo5860b$481bo267bo6661bo13b3o3bobo5861b$480bobo252bo13bo2bo6657b3o11b2obo5867b$480bobo250bobo38bobo6633bob2o10b3o5868b$481bo204bo47b2o15b2o21b2o4795bo1839b3o11b2o5868b$685bo89bo4795bo1839b2o5882b$664bo20b3o4883bo7723b$663bo12631b$663b3o3301bo2bo9324b$742bo3228bo9323b$740b2o487b2o2736bo3bo9323b$697bo43b2o485bobo2737b4o9323b$698bo530bo6179b3o5883b$696b3o6710bo2bo5882b$7409bo5885b$7409bo5885b$7402b3o5bobo5882b$7401bo2bo5890b$7404bo5890b$7404bo5b3o5882b$7401bobo5bo2bo5882b$614bo156b2o6639bo5882b$612bobo155bobo6639bo5882b$613b2o156bo6637bobo22b3o5858b$476bo6956bo2bo5858b$475bobo6958bo5858b$475bobo6958bo5858b$476bo6956bobo5859b$647b3o12645b$646bo2bo12645b$650bo6791b3o5850b$646b2o210bobo3142b2o3437bo2bo5849b$646b2o3bo207b2o3141b4o3436bo5852b$574bobo74bo207bo364b2o2776b2ob2o3429bo5bo5852b$574b2o73bo573bobo2778b2o3415bo13b3o5bobo5849b$575bo71b3o574bo6195b3o12bob2o5856b$647b2o6770b2obo13b3o5856b$647bo75bo6695b3o14b2o5857b$648b2o72b3o29bo6665b2o5873b$648bobo70b2o2bo27b3o12539b$647bo3bo100bo2b2o4bo3878b2o8653b$648b2o106bo5b2o3874b2ob2o8652b$756b2o3b2o3875b4o8653b$721b2o35bo3880b2o8654b$722b3o30b4o7b2o12527b$725bo22bobo4b2o8bobo6651b3o5873b$661b2o60b3o23b2o15bo6651bo2bo5873b$471bo180bo6bo63b2o24bo6671bo5873b$470bobo177bobo6b3o6759bo5873b$470bobo178b2o8b2o6749b3o3bobo5874b$471bo251bobo4835bo1850bo2bo5879b$724b2o4835bo1850bo5882b$663b2o59bo4836bo1850bo7b3o5872b$663b2o6748bobo4bo2bo5871b$711bo6708bo5874b$712b2o29bo3293b4o3379bo5874b$711b2o30bobo473b2o2815bo3bo3380bobo20b3o5848b$654bobo86b2o473bobo2819bo3403bo2bo5847b$654b2o563bo2816bo2bo3404bo5850b$632bobo20bo6788bo5850b$632b2o6811bobo5847b$633bo76bo12584b$709bo12585b$709b3o6740b3o5840b$627bobo6821bo2bo5840b$628b2o6824bo5840b$628bo6817bo7bo5840b$7431bo13b3o3bobo5841b$7430b3o11b2obo5847b$744b2o6684bob2o10b3o5848b$466bo276bobo6685b3o11b2o5848b$465bobo276bo6686b2o5862b$465bobo12827b$466bo407bo12420b$875bo12419b$550bo322b3o12419b$549bo12745b$549b3o144bo12598b$695b3o28b3o3344b2o3354b3o5863b$695b3o28bo2bo484b2o2855b2ob2o3353bo2bo5862b$725bo3bo483bobo2855b4o3354bo5865b$695b4o27bo2b2o483bo2857b2o3355bo5865b$694b5o29bo6693b3o5bobo5862b$694b2obo28b2o6693bo2bo5870b$725b3o6696bo5870b$725b3o3980b2o2714bo5b3o5862b$695b2o4010b4o2710bobo5bo2bo5862b$694bo4012b2ob2o2720bo5862b$671bobo53b2o3980b2o2721bo5862b$672b2o19bobo2bo27bob2o6699bobo22b3o5838b$665bobo4bo20bob3obo26bo3bo6722bo2bo5838b$666b2o24b3ob2obo29bo6726bo5838b$666bo26bobo6760bo5838b$461bo231b3o6757bobo5839b$460bobo231bo27b2o12571b$460bobo258bobo12571b$461bo259bo4829bo1910b3o5830b$5551bo1910bo2bo5829b$5551bo1910bo5832b$630bo6825bo5bo5832b$629bo3475bo2bo3332bo13b3o5bobo5829b$608bo20b3o3477bo3330b3o12bob2o5836b$607bo94bo506b2o2894bo3bo3329b2obo13b3o5836b$607b3o90bobo505bobo2895b4o3329b3o14b2o5837b$701b2o506bo6230b2o5853b$13295b$643bo12651b$644bo68bo12581b$642b3o66b2o12582b$712b2o12581b$13295b$7439b3o5853b$7438bo2bo5853b$7441bo5853b$678bobo6760bo5853b$678b2o6752b3o3bobo5854b$456bo222bo208bo6543bo2bo5859b$455bobo259b2o170b2o6541bo5862b$455bobo69bo188bobo169b2o6542bo7b3o5852b$456bo70bo189bo6715bobo4bo2bo5851b$521b2o6917bo5854b$521bob2o6915bo5854b$524b2o6915bobo20b3o5828b$524bobo3614b2o3321bo2bo5827b$521bo3b2o85b3o3525b4o3320bo5830b$525bo85bo2bo589b2o2934b2ob2o3319bo5830b$590b3o18bo3bo587bobo2936b2o3321bobo5827b$589bo2bo17b2obobo588bo12090b$518bobo68bo3bo16b2ob2o12680b$518b2o68b2obobo17b3o6858b3o5820b$519bo68b2ob2o94bo6783bo2bo5820b$589b3o96bo6785bo5820b$681bo4b3o4089b2o2686bo7bo5820b$682bo4093b2ob2o2670bo13b3o3bobo5821b$612b2obo64b3o4093b4o2670b3o11b2obo5827b$612bobobo4160b2o2671bob2o10b3o5828b$590b2obo21bo6835b3o11b2o5828b$590bobobo6856b2o5842b$593bo12701b$451bo12843b$450bobo163bo12678b$450bobo161bobo12678b$451bo142bo20b2o4924bo7753b$592bobo4946bo7753b$593b2o4946bo1907b3o5843b$7449bo2bo5842b$7449bo5845b$4175b4o3270bo5845b$1199b2o2973bo3bo3263b3o5bobo5842b$657bo540bobo2977bo3262bo2bo5850b$658b2o27bo511bo2974bo2bo3266bo5850b$657b2o28bobo6754bo5b3o5842b$598bobo86b2o6752bobo5bo2bo5842b$598b2o6852bo5842b$576bobo20bo6852bo5842b$576b2o6871bobo22b3o5818b$577bo76bo6818bo2bo5818b$653bo6822bo5818b$653b3o6820bo5818b$531bobo370bo6568bobo5819b$532b2o368bobo12390b$532bo370b2o12390b$446bo7035b3o5810b$445bobo7034bo2bo5809b$445bobo7034bo5812b$446bo7029bo5bo5812b$7461bo13b3o5bobo5809b$7460b3o12bob2o5816b$641b3o6815b2obo13b3o5816b$640bo3bo6814b3o14b2o5817b$492bo2bo149bo25b3o3537b2o3247b2o5833b$492bob2o175bo2bo519b2o3013b2ob2o9081b$494b2o144b2o3bo27b2o518bobo3013b4o9082b$642b3o56bo492bo3015b2o9083b$669bo2bo29b2o12591b$496b2o172b2o23bo5b2o12592b$496b2o175b2o21b2o12597b$672b3o20b2o4149b2o2611b3o5833b$673bo4171b4o2609bo2bo5833b$670b2ob2o4170b2ob2o2611bo5833b$487bo182b2ob2o4172b2o2612bo5833b$487bobo180bo3bo6777b3o3bobo5834b$487b2o181bo3bo6777bo2bo5839b$629bobo39bo6780bo5842b$630b2o6820bo7b3o5832b$441bo165bobo20bo6822bobo4bo2bo5831b$440bobo165b2o6850bo5834b$440bobo165bo6851bo5834b$441bo225b2o4862bo1929bobo20b3o5808b$666bobo4862bo1952bo2bo5807b$667bo4863bo1952bo5810b$7484bo5810b$4243bo2bo3238bobo5807b$4247bo9047b$574bo614b2o3052bo3bo9047b$573bo614bobo3053b4o3244b3o5800b$552bo20b3o613bo6301bo2bo5800b$551bo98bo6843bo5800b$551b3o94bobo6835bo7bo5800b$649b2o6820bo13b3o3bobo5801b$7470b3o11b2obo5807b$547bo6922bob2o10b3o5808b$548bo108bo259bobo6551b3o11b2o5808b$546b3o106b2o261b2o6551b2o5822b$656b2o260bo12376b$13295b$13295b$13295b$436bo12858b$435bobo184bobo12670b$435bobo184b2o6845b3o5823b$436bo69bo116bo38b2o6805bo2bo5822b$504bobo154bobo6805bo5825b$505b2o155bo6806bo5825b$7462b3o5bobo5822b$4279b2o3180bo2bo5830b$717bo3560b4o3182bo5830b$715bobo466b2o3092b2ob2o3181bo5b3o5822b$465b3o243bo4b2o465bobo3094b2o3179bobo5bo2bo5822b$465bo2bo240bobo472bo6287bo5822b$465bo2bo241b2o6760bo5822b$466bo2bo6999bobo22b3o5798b$466b3o7024bo2bo5798b$467b2o7027bo5798b$533b3o4380b2o2578bo5798b$532bo2bo109bo11bo4256b2ob2o2574bobo5799b$532b2obo110bo10b2o4255b4o8377b$623bo20b3o9bobo4256b2o8378b$624bo6877b3o5790b$622b3o46b3o6828bo2bo5789b$532b2o139bo6828bo5792b$431bo100b4o136bo6823bo5bo5792b$430bobo24bo75bo2bo149b2o6793bo13b3o5bobo5789b$430bobo22b2o77bobo150b2o6791b3o12bob2o5796b$431bo24b2o76bobo149bo4834bo1957b2obo13b3o5796b$701b2o4818bo1957b3o14b2o5797b$700bobo4818bo1958b2o5813b$536bo13bo151bo12592b$534bobo11b2o166bo12578b$535b2o12b2o165b2o3595b4o8978b$715bobo461b2o3131bo3bo8978b$1178bobo3135bo8978b$1179bo3132bo2bo8979b$7479b3o5813b$561bo371bo6544bo2bo5813b$562b2o67bo302bo6546bo5813b$561b2o68bobo298b3o6546bo5813b$631b2o6839b3o3bobo5814b$7472bo2bo5819b$520bobo6949bo5822b$520b2o6950bo7b3o5812b$521bo76bo6874bobo4bo2bo5811b$597bo6882bo5814b$597b3o6880bo5814b$519bobo6959bobo20b3o5788b$520b2o6982bo2bo5787b$520bo6983bo5790b$726b2o6776bo5790b$421bo2bo301b2o6777bobo5787b$421bob2o12870b$423b2o111bo12758b$536b2o6974b3o5780b$535bob2o3810b2o3160bo2bo5780b$425b2o51bo59b2o634b2o3171b2ob2o3162bo5780b$425b2o52b2o48b2o3b2o2b3o632bobo3171b4o3155bo7bo5780b$478b2o48bo9b2o634bo3173b2o3141bo13b3o3bobo5781b$538bo6951b3o11b2obo5787b$7490bob2o10b3o5788b$416bo242bo6831b3o11b2o5788b$416bobo241b2o4322b2o2505b2o5802b$416b2o219bo21b2o4322b4o8308b$638b2o4343b2ob2o8307b$637b2o4346b2o8308b$13295b$13295b$431bo12863b$431bobo7055b3o5803b$431b2o7056bo2bo5802b$7489bo5805b$7489bo5805b$721b2o4788bo1970b3o5bobo5802b$721b2o4788bo1969bo2bo5810b$5511bo1972bo5810b$7484bo5b3o5802b$4381bo2bo3096bobo5bo2bo5802b$4385bo3106bo5802b$1169b2o3210bo3bo3106bo5802b$577bo369bo220bobo3211b4o3103bobo22b3o5778b$575bobo28bobo339b2o219bo6343bo2bo5778b$576b2o28b2o339b2o6567bo5778b$607bo6908bo5778b$496bo7016bobo5779b$495bo12799b$495b3o12797b$574bo6947b3o5770b$572b2o6948bo2bo5769b$535bo37b2o6947bo5772b$536bo6979bo5bo5772b$534b3o6964bo13b3o5bobo5769b$435bo7064b3o12bob2o5776b$433bobo7063b2obo13b3o5776b$434b2o7063b3o14b2o5777b$7500b2o5793b$716b2o12577b$716b2o12577b$13295b$494bo66bo12733b$492bobo65b3o3854b2o8876b$493b2o64b5o27bo3824b4o8875b$559b2ob3o25b3o571b2o3250b2ob2o3078b3o5793b$560b2ob2o25bob2o569bobo3252b2o3078bo2bo5793b$391bobo168bo26b2o84bo488bo6336bo5793b$391b2o196b2o82bobo6825bo5793b$392bo196b2o62bo20b2o6816b3o3bobo5794b$593bo57bobo6838bo2bo5799b$592b2o58b2o6838bo5802b$590bobo4461b2o2436bo7b3o5792b$589bo2bo4459b2ob2o2436bobo4bo2bo5791b$406bobo181bobo4459b4o2444bo5794b$406b2o182b3o4460b2o2445bo5794b$407bo182b2obo6907bobo20b3o5768b$590bo2bo6930bo2bo5767b$591bo6932bo5770b$7524bo5770b$7525bobo5767b$13295b$586b2o123b2o4788bo7793b$585bobo123b2o4788bo2030b3o5760b$586bo4914bo2029bo2bo5760b$7534bo5760b$963bo6562bo7bo5760b$961bobo3487b4o3056bo13b3o3bobo5761b$962b2o195b2o3289bo3bo3055b3o11b2obo5767b$1158bobo3293bo3055bob2o10b3o5768b$472bo686bo3290bo2bo3057b3o11b2o5768b$470b2o95bobo6941b2o5782b$471b2o95b2o12725b$568bo12726b$13295b$549bo12745b$550b2o23bo12719b$549b2o24bobo12717b$448bobo124b2o6932b3o5783b$449b2o7058bo2bo5782b$449bo7059bo5785b$7509bo5785b$542bo6959b3o5bobo5782b$541bo6959bo2bo5790b$541b3o6960bo5790b$507bobo71b2o123b2o6796bo5b3o5782b$508b2o70bobo123b2o6793bobo5bo2bo5782b$508bo72bo6930bo5782b$7512bo5782b$367bo7141bobo22b3o5758b$366bo195bo125bobo3796b2o3044bo2bo5758b$366b3o162bo2b2o26bo126b2o463b2o3329b2ob2o3046bo5758b$535b2o24bobo102bobo20bo463bobo3329b4o3047bo5758b$534b2o131b2o485bo3331b2o3045bobo5759b$563b2o102bo12627b$530b2o2b2o12759b$382bo153bo26b2o6977b3o5750b$381bo148b4o4588b2o2418bo2bo5749b$381b3o148bo2bo4585b4o2417bo5752b$5121b2ob2o2410bo5bo5752b$575b3o4545b2o2396bo13b3o5bobo5749b$560b2o15bo6942b3o12bob2o5756b$560b3o13bo6942b2obo13b3o5756b$564bo25b2o6927b3o14b2o5757b$562b2o27b2o6927b2o5773b$590bo12704b$605b2o12688b$559bobo42bobo12688b$559bobo44bo94b2o4788bo7803b$560bo59bo80b2o273bobo4512bo7803b$620b2o355b2o4512bo7803b$619bobo355bo6541b3o5773b$557b2o3960bo2bo2995bo2bo5773b$446bo109bobo75b3o3886bo2997bo5773b$446bobo108bo78bo512b2o3368bo3bo2997bo5773b$446b2o187bo512bobo3369b4o2988b3o3bobo5774b$649b2o498bo6362bo2bo5779b$650b2o6860bo5782b$649bo6862bo7b3o5772b$664b2o6847bobo4bo2bo5771b$464bo198bobo6854bo5774b$465bo199bo6854bo5774b$463b3o7055bobo20b3o5748b$542bo7001bo2bo5747b$540bobo7001bo5750b$541b2o131b3o6867bo5750b$7545bobo5747b$523bo148bo5bo12616b$524bo20bo126bo5bo12616b$522b3o18b2o127bo5bo16b2o6855b3o5740b$544b2o149b2o6854bo2bo5740b$674b3o6877bo5740b$343bo7202bo7bo5740b$341b2o7188bo13b3o3bobo5741b$342b2o7186b3o11b2obo5747b$510bobo39b2o4001b2o2973bob2o10b3o5748b$510b2o39bobo4000b4o2973b3o11b2o5748b$511bo21bo18bo591b2o3408b2ob2o2972b2o5762b$337b3o193b2o608bobo3410b2o8737b$337bo2bo17bo173bo2bo608bo12150b$337bo2bo15b2o175bobo12759b$336b4o17b2o146b2o25bo2bo12759b$336b2o167bobo24bo2bo12759b$335bo171b2o23bobo12760b$336bo169bo26b3o4656b2o2335b3o5763b$336bo167bobo4683b2ob2o2334bo2bo5762b$503b2o4685b4o2335bo5765b$347bobo153b3o43bo120bo4520b2o2336bo5765b$345bo4bo198b2o119bo6851b3o5bobo5762b$345bo4bo197bobo119bo6850bo2bo5770b$349b2o7173bo5770b$563b3o100b3o3b3o317bo6531bo5b3o5762b$345b2o2b2o214bo124b2o301bo6527bobo5bo2bo5762b$345b2o2b2o213bo105bo19b2o299b3o6538bo5762b$346bob3o227b2o90bo4810bo2050bo5762b$349bo229b2o89bo4810bo2047bobo22b3o5738b$348bo72bobo154bo4902bo2071bo2bo5738b$421b2o170b2o6961bo5738b$422bo169bobo6961bo5738b$321bo272bo3994b4o2960bobo5739b$320bobo285bo530b2o3447bo3bo8702b$319b2ob2o284b2o528bobo3451bo8702b$320bo2bo204b2o77bobo529bo3448bo2bo2970b3o5730b$320bo3bo153bo48bobo7032bo2bo5729b$320bo158b2o47bo93b3o6937bo5732b$478b2o144bo6931bo5bo5732b$623bo6917bo13b3o5bobo5729b$320b2o20bo294b2o6901b3o12bob2o5736b$321bo20bo295b2o6899b2obo13b3o5736b$342bo294bo6901b3o14b2o5737b$318bo333b2o6886b2o5753b$318bob2ob2o13b3o3b3o304bobo12641b$317b2ob2ob2o328bo12641b$318bobo21bo12952b$319bo22bo326bo12625b$342bo169bo150bo5bo15b2o12608b$513b2o147bobo4bo15b2o12608b$512b2o145bo5bo6873b3o5753b$658bobob2obo6872bo2bo5753b$658bob2o3b2o6874bo5753b$355bobo155bo145bo2b2obo6875bo5753b$356b2o154bo150b2o6867b3o3bobo5754b$325bo30bo155b3o4110b2o2905bo2bo5759b$326b2o806b2o3487b2ob2o2904bo5762b$325b2o806bobo3487b4o2905bo7b3o5752b$523b2o609bo3489b2o2907bobo4bo2bo5751b$522bobo7015bo5754b$479bo43bo7016bo5754b$479bobo7059bobo20b3o5728b$479b2o4779b2o2302bo2bo5727b$5259b4o2301bo5730b$326bo9b3o4920b2ob2o2300bo5730b$325bo4935b2o2302bobo5727b$325b3o6bo5bo12954b$304bo29bo5bo665bo12288b$304bobo27bo5bo666b2o6563b3o5720b$304b2o16bo683b2o6563bo2bo5720b$321b3o12b3o322bo6912bo5720b$320b2o2bo72bo262bobo17b2o6884bo7bo5720b$324bo71bo263bobo17b2o6869bo13b3o3bobo5721b$323bo72b3o262bo4809bo2078b3o11b2obo5727b$319bo5151bo2078bob2o10b3o5728b$319bobo5149bo2079b3o11b2o5728b$319b2o7230b2o5742b$4657bo2bo8634b$4661bo8633b$494bo634b2o3526bo3bo8633b$492bobo633bobo3527b4o8633b$493b2o634bo12165b$13295b$7549b3o5743b$7549bo2bo5742b$327b2o7220bo5745b$327b2o7220bo5745b$7542b3o5bobo5742b$7541bo2bo5750b$7544bo5750b$7544bo5b3o5742b$7541bobo5bo2bo5742b$7552bo5742b$656bo6895bo5742b$655bobo17b2o6872bobo22b3o5718b$371bo283bobo17b2o6896bo2bo5718b$372bo116bo166bo6919bo5718b$370b3o114b2o7087bo5718b$488b2o7083bobo5719b$13295b$4693b2o8600b$4692b4o2886b3o5710b$1124b2o3566b2ob2o2885bo2bo5709b$454bobo666bobo3568b2o2886bo5712b$454b2o668bo6451bo5bo5712b$330bo124bo7105bo13b3o5bobo5709b$328bobo7229b3o12bob2o5716b$329b2o7228b2obo13b3o5716b$322b2o7235b3o14b2o5717b$322b2o5006b2o2228b2o5733b$279bobo740bo4305b2ob2o7962b$279b2o739bobo4305b4o7963b$280bo740b2o4306b2o7964b$13295b$373bo12921b$371b2o12922b$372b2o277bo6907b3o5733b$294bobo353bobo17b2o6886bo2bo5733b$294b2o354bobo17b2o6889bo5733b$295bo355bo4809bo2099bo5733b$268bo5192bo2090b3o3bobo5734b$267b3o5191bo2090bo2bo5739b$267b4o236bobo7042bo5742b$508b2o7042bo7b3o5732b$508bo4218b4o2822bobo4bo2bo5731b$267b4o848b2o3605bo3bo2829bo5734b$267b4o847bobo3609bo2829bo5734b$269bo849bo3606bo2bo2831bobo20b3o5708b$7584bo2bo5707b$7584bo5710b$7584bo5710b$317b2o7266bobo5707b$317b2o12976b$13295b$7592b3o5700b$7591bo2bo5700b$7594bo5700b$7586bo7bo5700b$385bo7185bo13b3o3bobo5701b$386b2o75bo182bo6923b3o11b2obo5707b$385b2o76bobo179bobo17b2o6903bob2o10b3o5708b$463b2o180bobo17b2o6904b3o11b2o5708b$646bo6924b2o5722b$13295b$13295b$430bo12864b$429bo12865b$429b3o4331b2o8530b$343bobo768b2o3645b2ob2o8529b$344b2o767bobo3645b4o2804b3o5723b$275bo68bo769bo3647b2o2805bo2bo5722b$276b2o7291bo5725b$275b2o7292bo5725b$1035bobo6524b3o5bobo5722b$312b2o722b2o4360b2o2161bo2bo5730b$312b2o722bo4360b4o2163bo5730b$5397b2ob2o2162bo5b3o5722b$347bo5051b2o2160bobo5bo2bo5722b$347bobo7222bo5722b$270bo76b2o7223bo5722b$269bo7299bobo22b3o5698b$269b3o7321bo2bo5698b$248bo392bo6954bo5698b$248bobo389bobo17b2o6934bo5698b$248b2o273bo116bobo17b2o6931bobo5699b$524bo116bo4809bo7843b$522b3o4926bo7843b$5451bo2150b3o5690b$7602bo2bo5689b$4795bo2bo2803bo5692b$4799bo2796bo5bo5692b$1109b2o3684bo3bo2781bo13b3o5bobo5689b$1108bobo3685b4o2780b3o12bob2o5696b$1109bo6469b2obo13b3o5696b$7579b3o14b2o5697b$7580b2o5713b$13295b$307b2o12986b$307b2o12986b$13295b$13295b$401bo12893b$399bobo36bobo7138b3o5713b$400b2o36b2o194bo6943bo2bo5713b$439bo193b3o6945bo5713b$231b3o398bo2b2o6944bo5713b$231bo2bo397b4o19b2o6915b3o3bobo5714b$230bo3bo400bobo17b2o6915bo2bo5719b$231bo2b2o170bo228bo2bo6933bo5722b$233bo170b2o229b3o6934bo7b3o5712b$231b2o126bo45b2o227bobo6936bobo4bo2bo5711b$230b3o127bo273bobo6943bo5714b$230b3o125b3o273b3o4194b2o2747bo5714b$291bo4538b4o2747bobo20b3o5688b$289bobo812b2o3724b2ob2o2769bo2bo5687b$232b2o56b2o759bo51bobo3726b2o2770bo5690b$231bob2o13b3o801bo51bo6499bo5690b$231bo3bo11bo2bo799b3o6552bobo5687b$234bo12bo4bo13042b$252bo13042b$252b2o48b2o18bobo7287b3o5680b$249bob2o49b2o18b2o5144b2o2141bo2bo5680b$235bo14bo72bo5142b2ob2o2143bo5680b$236bo385bo4843b4o2136bo7bo5680b$234b3o385bobo4842b2o2122bo13b3o3bobo5681b$622b2o6966b3o11b2obo5687b$7590bob2o10b3o5688b$537bo7053b3o11b2o5688b$538b2o7051b2o5702b$537b2o111b2o12643b$389bo260b2o12643b$388b3o5050bo7853b$238bobo146b2o2bo5049bo7853b$238b2o147b2ob2o5049bo7853b$218bo20bo150b3o26bo12875b$216b2o170bob2o26b3o7168b3o5703b$217b2o168bo2bo26bo2b2o4443b4o2720bo2bo5702b$390bo26b4o678b2o3763bo3bo2720bo5705b$387bobo30bobo675bobo3767bo2720bo5705b$388bo31bo2bo675bo3764bo2bo2714b3o5bobo5702b$420b3o7158bo2bo5710b$389b3o27bobo7162bo5710b$295b2o91bob2o27bobo7162bo5b3o5702b$295b2o92b2obo26b3o7159bobo5bo2bo5702b$414bobo7175bo5702b$415b2o7175bo5702b$415bo7173bobo22b3o5678b$7613bo2bo5678b$7616bo5678b$391bobo7222bo5678b$392b2o7219bobo5679b$392bo12902b$13295b$373bo7248b3o5670b$374b2o31bo7214bo2bo5669b$373b2o32bobo7212bo5672b$407b2o7207bo5bo5672b$7601bo13b3o5bobo5669b$1065bo6534b3o12bob2o5676b$1066b2o3833b2o2696b2obo13b3o5676b$374bo690b2o27b2o3803b2ob2o2695b3o14b2o5677b$373bo719bobo3803b4o2697b2o5693b$298bo74b3o718bo3805b2o8393b$261bobo33bo12997b$262b2o33b3o12995b$249bo12bo27b2o13003b$250b2o38b2o305bobo4936b2o7757b$249b2o158b2o186b2o4936b4o7756b$408bobo187bo4936b2ob2o2059b3o5693b$409bo5127b2o2059bo2bo5693b$553bo7047bo5693b$551bobo7047bo5693b$552b2o7038b3o3bobo5694b$7592bo2bo5699b$214bo7377bo5702b$213bo7378bo7b3o5692b$213b3o144bo7232bobo4bo2bo5691b$192bo166b3o5069bo2168bo5694b$192bobo164b3o5069bo2168bo5694b$192b2o5237bo2169bobo20b3o5668b$359b4o26b3o7232bo2bo5667b$358b5o26bo2bo4540bo2bo2687bo5670b$358b2obo26bo3bo4544bo2686bo5670b$388b4o697b2o3842bo3bo2687bobo5667b$389bo698bobo3843b4o8357b$359b2o728bo12205b$358bo40b3o7230b3o5660b$287b2o112bo7229bo2bo5660b$287b2o68bobo2bo37bo7233bo5660b$180bo176bob3obo25b2ob2o20b2o7210bo7bo5660b$179bobo174b3ob2obo25bob3o21b2o7194bo13b3o3bobo5661b$178bo3bo174bobo54bo7195b3o11b2obo5667b$179bo2bo174b3o69b2o7179bob2o10b3o5668b$179bo2bo175bo29bobo37bobo7180b3o11b2o5668b$180bobo205bo2bo38bo7180b2o5682b$386bo3bo53bo12850b$385b3o56b2o12849b$386b2o55bobo12849b$13295b$458b3o12834b$460bo12834b$366bo92bo621bo6527b3o5683b$364bobo106b2o604bobo6527bo2bo5682b$365b2o107b2o604b2o6527bo5685b$473bo4495b2o2638bo5685b$277bo210b2o4478b4o2630b3o5bobo5682b$278bo98bo109bobo594b2o3882b2ob2o2628bo2bo5690b$276b3o96b2o112bo593bobo3884b2o2632bo5690b$265bo110b2o125bo69bo510bo6519bo5b3o5682b$263bobo237b2o67bo7028bobo5bo2bo5682b$264b2o16b2o218bobo67b3o7037bo5682b$192b3o87b2o804bo6523bo5682b$191bo2bo322b3o568b2o6519bobo22b3o5658b$191bo4bo145bobo174bo46bobo518bobo4516b2o2025bo2bo5658b$196bo145b2o174bo48b2o5035b2ob2o2027bo5658b$196b2o145bo188b2o33bo534b3o4499b4o2028bo5658b$193bob2o336b2o569bo4500b2o2026bobo5659b$187bo6bo185b2o150bo570bo12191b$188bo190bobo165b2o568b2o12176b$186b3o191bo165bobo569b2o6522b3o5650b$548bo31b2o535bo6524bo2bo5649b$331bobo228bo18b2o549b2o6508bo5652b$331bo2bo227b2o16bo550bobo6502bo5bo5652b$330bo3b2o225bobo31b2o536bo4287bo2199bo13b3o5bobo5649b$330bo263bobo550bo4273bo2198b3o12bob2o5656b$576b3o17bo550b2o4272bo2197b2obo13b3o5656b$330bo2b3o242bo31bo535bobo6470b3o14b2o5657b$182bobo145b2o245bo32b2o7008b2o5673b$161b2o19b2o148b3o256b2o16bobo549b3o3839b4o8288b$159bo23bo148b3o257b2o569bo3838bo3bo8288b$159b3o429bo32b3o535bo3843bo8288b$161b2o15b3o425b2o18bo549b2o3824bo2bo8289b$177bo2bo424bobo17bo551b2o12116b$177b2o2bo191bo233bo31b2o535bo12118b$163b2o15b2o191b2o246bo18b2o549b2o6426b3o5673b$163b2o207bobo246b2o16bo550bobo6425bo2bo5673b$177bo442bobo31b2o536bo6428bo5673b$175b2o210b3o263bobo550bo6414bo5673b$176b2o211bo245b3o17bo550b2o6404b3o3bobo5674b$153b2obo231bo248bo31bo535bobo6404bo2bo5679b$151bo4bo245b2o232bo32b2o6941bo5682b$150bo5bo246b2o245b2o16bobo549b3o6389bo7b3o5672b$150bo251bo248b2o569bo6390bobo4bo2bo5671b$149b2ob2obo261b2o231bo32b3o535bo6398bo5674b$149b2obo2bo260bobo246b2o18bo549b2o6383bo5674b$151b4o263bo245bobo17bo551b2o6383bobo20b3o5648b$152b3o277bo233bo31b2o535bo6408bo2bo5647b$432b2o246bo18b2o549b2o6392bo5650b$149bo281bobo246b2o16bo550bobo6392bo5650b$147b2o200bo329bobo31b2o536bo6393bobo5647b$148b2o198bob2o94b3o263bobo550bo12029b$278bobo69b2o96bo245b3o17bo550b2o3772b2o8254b$279b2o68b3o95bo248bo31bo535bobo3770b2ob2o2610b3o5640b$279bo60bo120b2o232bo32b2o4307b4o2610bo2bo5640b$341b2o10b2o107b2o245b2o16bobo549b3o3756b2o2614bo5640b$142b2o196b2o10b3o106bo248b2o569bo6364bo7bo5640b$142b2o332b2o231bo32b3o535bo6350bo13b3o3bobo5641b$144bo330bobo246b2o18bo549b2o6334b3o11b2obo5647b$142b3o15bo44bobo137bo131bo245bobo17bo551b2o4377b2o1954bob2o10b3o5648b$141bobo15b3o44b2o136bo146bo233bo31b2o535bo4378b4o1954b3o11b2o5648b$142b2o14b2o2bo38bo4bo137b3o144b2o246bo18b2o549b2o4362b2ob2o1953b2o5662b$141bo16b2ob2o39b2o286bobo246b2o16bo550bobo4364b2o7618b$141bo19b3o37b2o535bobo31b2o536bo11984b$139bo19bob2o342b3o263bobo550bo11970b$158bo2bo345bo245b3o17bo550b2o11969b$161bo149bo194bo248bo31bo535bobo11969b$158bobo150bobo206b2o232bo32b2o12506b$159bo26bo124b2o208b2o245b2o16bobo549b3o6288b3o5663b$130bo56b2o331bo248b2o569bo6288bo2bo5662b$129b3o28b3o23b2o347b2o231bo32b3o535bo4071bo2217bo5665b$129b4o26bob2o8bobo360bobo246b2o18bo549b2o4056bo2217bo5665b$160b2obo8b2o362bo245bobo17bo551b2o4055bo2210b3o5bobo5662b$172bo377bo233bo31b2o535bo6267bo2bo5670b$129b4o417b2o246bo18b2o549b2o3701bo2bo2549bo5670b$129b4o416bobo246b2o16bo550bobo3705bo2548bo5b3o5662b$131bo19bo645bobo31b2o536bo3701bo3bo2545bobo5bo2bo5662b$150b3o411b3o263bobo550bo3688b4o2556bo5662b$149bo2b2o412bo245b3o17bo550b2o6247bo5662b$148b5o5b2o405bo248bo31bo535bobo6244bobo22b3o5638b$148b5o5b2o419b2o232bo32b2o6805bo2bo5638b$151bo428b2o245b2o16bobo549b3o6256bo5638b$151bobo425bo248b2o569bo6256bo5638b$151b2obo439b2o231bo32b3o535bo6254bobo5639b$152bobo438bobo246b2o18bo549b2o11881b$153b3o439bo245bobo17bo551b2o11880b$153bobo453bo233bo31b2o535bo6249b3o5630b$151b4o454b2o246bo18b2o549b2o6233bo2bo5629b$150b4o454bobo246b2o16bo550bobo6233bo5632b$150b3o703bobo31b2o536bo6227bo5bo5632b$148bobo209bo262b3o263bobo550bo6198bo13b3o5bobo5629b$149b2o210bo263bo245b3o17bo550b2o6196b3o12bob2o5636b$149bo209b3o262bo248bo31bo535bobo6195b2obo13b3o5636b$118bo519b2o232bo32b2o6732b3o14b2o5637b$117b3o174bo344b2o245b2o16bobo549b3o6181b2o5653b$116b2o2bo174bo342bo248b2o569bo11836b$116bo3bo172b3o357b2o231bo32b3o535bo11837b$116bob2o20b2o214bo295bobo246b2o18bo549b2o3634b2o8186b$116b2o21bo2bo211bobo297bo245bobo17bo551b2o3632b4o8185b$139bo2b2o211b2o311bo233bo31b2o535bo3634b2ob2o8184b$138bo2b2o525b2o246bo18b2o549b2o3620b2o8185b$138b4o79bo445bobo246b2o16bo550bobo6151b3o5653b$153b2o67bo98bo593bobo31b2o536bo6150bo2bo5653b$117b2o2bo31b2o65b3o96b2o361b3o263bobo550bo6139bo5653b$117bobobo95bo102b2o362bo245b3o17bo550b2o6138bo5653b$120bo94bobo465bo248bo31bo535bobo6129b3o3bobo5654b$216b2o479b2o232bo32b2o4778b2o1886bo2bo5659b$698b2o245b2o16bobo549b3o4224b2ob2o1885bo5662b$697bo248b2o569bo4224b4o1886bo7b3o5652b$119bobo164bobo423b2o231bo32b3o535bo4226b2o1888bobo4bo2bo5651b$120b2o164b2o423bobo246b2o18bo549b2o6108bo5654b$120bo81bo84bo425bo245bobo17bo551b2o6107bo5654b$200bobo524bo233bo31b2o535bo6110bobo20b3o5628b$187bo13b2o524b2o246bo18b2o549b2o6117bo2bo5627b$144b2o42bo537bobo246b2o16bo550bobo6117bo5630b$144b2o40b3o785bobo31b2o536bo6117bo5630b$741b3o263bobo550bo3840bo2263bobo5627b$743bo245b3o17bo550b2o3839bo7893b$742bo248bo31bo535bobo3839bo7893b$756b2o232bo32b2o6647b3o5620b$103bo653b2o245b2o16bobo549b3o6094bo2bo5620b$103b2o651bo248b2o569bo3564b4o2529bo5620b$103b3o25b2o638b2o231bo32b3o535bo3564bo3bo2521bo7bo5620b$103b2o26b2o637bobo246b2o18bo549b2o3553bo2506bo13b3o3bobo5621b$103b2o667bo245bobo17bo551b2o3548bo2bo2506b3o11b2obo5627b$104bo681bo233bo31b2o535bo6060bob2o10b3o5628b$105bobo678b2o246bo18b2o549b2o6045b3o11b2o5628b$106bo678bobo246b2o16bo550bobo6045b2o5642b$1033bobo31b2o536bo11689b$800b3o263bobo550bo11675b$97bo704bo245b3o17bo550b2o11674b$97bobo701bo248bo31bo535bobo11674b$97b2o716b2o232bo32b2o12211b$374bo441b2o245b2o16bobo549b3o11659b$375b2o438bo248b2o569bo6013b3o5643b$374b2o454b2o231bo32b3o535bo6014bo2bo5642b$829bobo246b2o18bo549b2o5999bo5645b$139b2o167bo522bo245bobo17bo551b2o5998bo5645b$87bo51b2o168b2o534bo233bo31b2o535bo5993b3o5bobo5642b$85b6o217b2o535b2o246bo18b2o549b2o5976bo2bo5650b$85b2o2b2o278bobo472bobo246b2o16bo550bobo5979bo5650b$370b2o720bobo31b2o536bo5979bo5b3o5642b$89bo280bo488b3o263bobo550bo5962bobo5bo2bo5642b$85b2o2bo771bo245b3o17bo550b2o5972bo5642b$85b2o3bo144bo624bo248bo31bo535bobo3497b2o2473bo5642b$89bo146b2o57bo578b2o232bo32b2o4032b2ob2o2469bobo22b3o5618b$87bobo145b2o58bobo577b2o245b2o16bobo549b3o3480b4o2494bo2bo5618b$88bo141bobo62b2o577bo248b2o569bo3481b2o2498bo5618b$231b2o656b2o231bo32b3o535bo5982bo5618b$231bo656bobo246b2o18bo549b2o5964bobo5619b$890bo245bobo17bo551b2o11585b$262bo641bo233bo31b2o535bo4104b2o7481b$261bo642b2o246bo18b2o549b2o4087b4o1867b3o5610b$261b3o639bobo246b2o16bo550bobo4087b2ob2o1866bo2bo5609b$215bobo933bobo31b2o536bo4089b2o1867bo5612b$216b2o700b3o263bobo550bo5938bo5bo5612b$201bo14bo703bo245b3o17bo550b2o5922bo13b3o5bobo5609b$202b2o715bo248bo31bo535bobo5921b3o12bob2o5616b$201b2o730b2o232bo32b2o6457b2obo13b3o5616b$934b2o245b2o16bobo549b3o5905b3o14b2o5617b$134b2o797bo248b2o569bo5906b2o5633b$114bo19b2o812b2o231bo32b3o535bo11542b$112bobo832bobo246b2o18bo549b2o3623bo7903b$113b2o134b3o697bo245bobo17bo551b2o3622bo7903b$248bo3bo710bo233bo31b2o535bo3624bo7903b$253bo709b2o246bo18b2o549b2o11512b$962bobo246b2o16bo550bobo3426bo2bo8082b$72b3o173b2o3bo956bobo31b2o536bo3430bo2445b3o5633b$71bo2bo175b3o724b3o263bobo550bo3412bo3bo2444bo2bo5633b$71b2obo904bo245b3o17bo550b2o3412b4o2447bo5633b$96bo881bo248bo31bo535bobo5863bo5633b$97bo894b2o232bo32b2o6391b3o3bobo5634b$95b3o895b2o245b2o16bobo549b3o5839bo2bo5639b$71b2o919bo248b2o569bo5839bo5642b$71b4o932b2o231bo32b3o535bo5840bo7b3o5632b$72bo2bo930bobo246b2o18bo549b2o5826bobo4bo2bo5631b$73bobo314bo617bo245bobo17bo551b2o5832bo5634b$73bobo312bobo631bo233bo31b2o535bo5834bo5634b$389b2o631b2o246bo18b2o549b2o5819bobo20b3o5608b$253b2o766bobo246b2o16bo550bobo5842bo2bo5607b$75bo177b2o69bo944bobo31b2o536bo5842bo5610b$73bobo169b3o74bobo711b3o263bobo550bo5828bo5610b$74b2o167b2o78b2o60bo652bo245b3o17bo550b2o5828bobo5607b$129b2o112bo142bo650bo248bo31bo535bobo11438b$129b2o111b2o140b3o664b2o232bo32b2o11975b$244bo807b2o245b2o16bobo549b3o5820b3o5600b$246bo804bo248b2o569bo5819bo2bo5600b$246bo819b2o231bo32b3o535bo5823bo5600b$246bo23bobo792bobo246b2o18bo549b2o5800bo7bo5600b$270b2o795bo245bobo17bo551b2o3358b2o2424bo13b3o3bobo5601b$271bo809bo233bo31b2o535bo3359b4o2422b3o11b2obo5607b$1081b2o246bo18b2o549b2o3343b2ob2o2421bob2o10b3o5608b$58b2obo196bo821bobo246b2o16bo550bobo3345b2o2423b3o11b2o5608b$56bo4bo194bobo1069bobo31b2o536bo5770b2o5622b$55bo5bo195b2o836b3o263bobo550bo11380b$55bo1041bo245b3o17bo550b2o11379b$54b2ob2obo170bo864bo248bo31bo535bobo11379b$54b2obo2bo171bo877b2o232bo32b2o11916b$56b4o170b3o878b2o245b2o16bobo549b3o3951b2o7411b$57b3o157bo892bo248b2o569bo3949b2ob2o7410b$215bobo907b2o231bo32b3o535bo3950b4o1785b3o5623b$54bo161b2o906bobo246b2o18bo549b2o3936b2o1786bo2bo5622b$52b2o180bo13b2o876bo245bobo17bo551b2o5723bo5625b$53b2o178bobo12b2o890bo233bo31b2o535bo5725bo5625b$123b2o107bo2bo904b2o246bo18b2o549b2o5702b3o5bobo5622b$123b2o108b2o904bobo246b2o16bo550bobo5701bo2bo5630b$1387bobo31b2o536bo5704bo5630b$231bo5bo32b3o881b3o263bobo550bo5690bo5b3o5622b$231bo5bo34bo883bo245b3o17bo550b2o3406bo2279bobo5bo2bo5622b$231bo5bo33bo883bo248bo31bo535bobo3406bo2290bo5622b$285b2o882b2o232bo32b2o3943bo2290bo5622b$233b3o50b2o882b2o245b2o16bobo549b3o5679bobo22b3o5598b$285bo883bo248b2o569bo5703bo2bo5598b$110bo189b2o882b2o231bo32b3o535bo3290b4o2413bo5598b$111b2o186bobo881bobo246b2o18bo549b2o3274bo3bo2413bo5598b$110b2o189bo883bo245bobo17bo551b2o3277bo2410bobo5599b$315bo883bo233bo31b2o535bo3275bo2bo8013b$315b2o882b2o246bo18b2o549b2o11276b$314bobo881bobo246b2o16bo550bobo5683b3o5590b$403bobo1040bobo31b2o536bo5683bo2bo5589b$329b3o72b2o807b3o263bobo550bo5669bo5592b$331bo72bo810bo245b3o17bo550b2o5662bo5bo5592b$330bo883bo248bo31bo535bobo5647bo13b3o5bobo5589b$88bobo246bobo4b2o882b2o232bo32b2o6183b3o12bob2o5596b$89b2o247b2o5b2o882b2o245b2o16bobo549b3o5630b2obo13b3o5596b$89bo153b2o93bo5bo54bo828bo248b2o569bo5630b3o14b2o5597b$243b2o114b2o39b2o841b2o231bo32b3o535bo5632b2o5613b$118b2o238bobo38b2o841bobo246b2o18bo549b2o11232b$118b2o240bo883bo245bobo17bo551b2o11231b$230bo143bo883bo233bo31b2o535bo11233b$229bobo142b2o882b2o246bo18b2o549b2o11217b$229bobo141bobo881bobo246b2o16bo550bobo11217b$65bo164bo1274bobo31b2o536bo11217b$66b2o320b3o881b3o263bobo550bo5587b3o5613b$65b2o323bo883bo245b3o17bo550b2o5585bo2bo5613b$389bo883bo248bo31bo535bobo5588bo5613b$403b2o882b2o232bo32b2o3759b2o2364bo5613b$404b2o882b2o245b2o16bobo549b3o3205b2ob2o2354b3o3bobo5614b$403bo883bo248b2o569bo3205b4o2355bo2bo5619b$1302b2o231bo32b3o535bo3207b2o2356bo5622b$1301bobo246b2o18bo549b2o5550bo7b3o5612b$1303bo245bobo17bo551b2o5550bobo4bo2bo5611b$230bobo1084bo233bo31b2o535bo5559bo5614b$231b2o1084b2o246bo18b2o549b2o3813b2o1728bo5614b$28bo202bo1084bobo246b2o16bo550bobo3812b4o1728bobo20b3o5588b$28bobo1533bobo31b2o536bo3812b2ob2o1750bo2bo5587b$28b2o1301b3o263bobo550bo3800b2o1751bo5590b$1333bo245b3o17bo550b2o5552bo5590b$112b2o124b2o1092bo248bo31bo535bobo5553bobo5587b$112b2o124b2o166bo3bo935b2o232bo32b2o11680b$405b2o940b2o245b2o16bobo549b3o11128b$404bobo939bo248b2o569bo5545b3o5580b$225bo178b2o5b2o948b2o231bo32b3o535bo5545bo2bo5580b$224bobo179b2o2b2obo946bobo246b2o18bo549b2o5533bo5580b$224bobo180bob3obo948bo245bobo17bo551b2o3189bo2334bo7bo5580b$225bo182bo967bo233bo31b2o535bo3191bo2319bo13b3o3bobo5581b$1376b2o246bo18b2o549b2o3175bo2318b3o11b2obo5587b$405b3o967bobo246b2o16bo550bobo5494bob2o10b3o5588b$405bo1217bobo31b2o536bo3151bo2bo2340b3o11b2o5588b$405bo2bo981b3o263bobo550bo3141bo2339b2o5602b$406b2o984bo245b3o17bo550b2o3136bo3bo7943b$1391bo248bo31bo535bobo3137b4o7943b$1405b2o232bo32b2o11621b$1406b2o245b2o16bobo549b3o11069b$1405bo248b2o569bo11069b$104bo248bo1066b2o231bo32b3o535bo11070b$105bo248bo1064bobo246b2o18bo549b2o5449b3o5603b$103b3o246b3o1066bo245bobo17bo551b2o5448bo2bo5602b$409b2o1024bo233bo31b2o535bo5450bo5605b$409b2o1024b2o246bo18b2o549b2o5434bo5605b$396b2o1036bobo246b2o16bo550bobo5427b3o5bobo5602b$107b2o287bobo1283bobo31b2o536bo5426bo2bo5610b$107b2o287bo1052b3o263bobo550bo5415bo5610b$372bo1078bo245b3o17bo550b2o5414bo5b3o5602b$371b2o1077bo248bo31bo535bobo5411bobo5bo2bo5602b$81bo138bo150bobo1090b2o232bo32b2o5959bo5602b$79bobo137bobo1243b2o245b2o16bobo549b3o5407bo5602b$80b2o137bobo124b3o1115bo248b2o569bo5404bobo22b3o5578b$220bo125bo1132b2o231bo32b3o535bo5429bo2bo5578b$347bo1130bobo246b2o18bo549b2o5417bo5578b$322b2o1156bo245bobo17bo551b2o5416bo5578b$321b2o1171bo233bo31b2o535bo3085b2o2328bobo5579b$323bo1170b2o246bo18b2o549b2o3068b4o7909b$297b2o1194bobo246b2o16bo550bobo3068b2ob2o7908b$297bobo1441bobo31b2o536bo3070b2o2336b3o5570b$297bo1210b3o263bobo550bo5394bo2bo5569b$273bo1236bo245b3o17bo550b2o5393bo5572b$3bobo266b2o1235bo248bo31bo535bobo5387bo5bo5572b$3b2o267bobo1248b2o232bo32b2o5909bo13b3o5bobo5569b$4bo1519b2o245b2o16bobo549b3o5356b3o12bob2o5576b$247b3o1273bo248b2o569bo3676b2o1677b2obo13b3o5576b$247bo156b2o1132b2o231bo32b3o535bo3675b2ob2o1676b3o14b2o5577b$248bo155b2o1131bobo246b2o18bo549b2o3660b4o1678b2o5593b$223b2o1314bo245bobo17bo551b2o3660b2o7274b$222b2o1329bo233bo31b2o535bo10938b$224bo1328b2o246bo18b2o549b2o10922b$198b2o1352bobo246b2o16bo550bobo10922b$198bobo1599bobo31b2o536bo10922b$198bo16bo1351b3o263bobo550bo10908b$174bo39bobo1352bo245b3o17bo550b2o5311b3o5593b$173b2o39bobo1351bo248bo31bo535bobo2973bo2336bo2bo5593b$173bobo39bo1366b2o232bo32b2o3510bo2339bo5593b$1583b2o245b2o16bobo549b3o2958bo2339bo5593b$148b3o1431bo248b2o569bo5289b3o3bobo5594b$148bo1448b2o231bo32b3o535bo5290bo2bo5599b$149bo1446bobo246b2o18bo549b2o3000b4o2271bo5602b$124b2o1472bo245bobo17bo551b2o2998bo3bo2271bo7b3o5592b$123b2o1487bo233bo31b2o535bo3004bo2272bobo4bo2bo5591b$125bo241bo1244b2o246bo18b2o549b2o2984bo2bo2280bo5594b$99b2o267b2o1241bobo246b2o16bo550bobo5268bo5594b$99bobo265b2o1490bobo31b2o536bo5269bobo20b3o5568b$99bo1526b3o263bobo550bo5278bo2bo5567b$75bo1552bo245b3o17bo550b2o5277bo5570b$74b2o1551bo248bo31bo535bobo5277bo5570b$74bobo322b2o1240b2o232bo32b2o5815bobo5567b$399b2o1241b2o245b2o16bobo549b3o10833b$49b3o1589bo248b2o569bo10833b$49bo1606b2o231bo32b3o535bo5271b3o5560b$50bo43bobo1558bobo246b2o18bo549b2o5255bo2bo5560b$25b2o68b2o1560bo245bobo17bo551b2o5257bo5560b$24b2o69bo1575bo233bo31b2o535bo5251bo7bo5560b$26bo183bo1460b2o246bo18b2o549b2o5220bo13b3o3bobo5561b$2o207bobo1458bobo246b2o16bo550bobo5219b3o11b2obo5567b$obo206bobo1706bobo31b2o536bo5219bob2o10b3o5568b$o209bo1474b3o263bobo550bo5206b3o11b2o5568b$1687bo245b3o17bo550b2o5205b2o5582b$1686bo248bo31bo535bobo10789b$1700b2o232bo32b2o11326b$1701b2o245b2o16bobo549b3o2932b2o7840b$1700bo248b2o569bo2930b2ob2o7839b$1715b2o231bo32b3o535bo2931b4o7840b$1714bobo246b2o18bo549b2o2917b2o7841b$1716bo245bobo17bo551b2o5173b3o5583b$1730bo233bo31b2o535bo5175bo2bo5582b$1730b2o246bo18b2o549b2o5159bo5585b$1729bobo246b2o16bo550bobo3538b2o1619bo5585b$1977bobo31b2o536bo3537b4o1611b3o5bobo5582b$394b2o1348b3o263bobo550bo3523b2ob2o1609bo2bo5590b$394b2o1350bo245b3o17bo550b2o3524b2o1613bo5590b$1745bo248bo31bo535bobo5139bo5b3o5582b$1759b2o232bo32b2o5673bobo5bo2bo5582b$1760b2o245b2o16bobo549b3o5132bo5582b$1759bo248b2o569bo5132bo5582b$1774b2o231bo32b3o535bo5130bobo22b3o5558b$205bo1567bobo246b2o18bo549b2o5139bo2bo5558b$204bobo1568bo245bobo17bo551b2o5141bo5558b$204bobo1582bo233bo31b2o535bo2758bo2384bo5558b$205bo1583b2o246bo18b2o549b2o2742bo2381bobo5559b$1788bobo246b2o16bo550bobo2742bo7943b$2036bobo31b2o536bo10686b$1803b3o263bobo550bo2862bo2bo2253b3o5550b$383bo1421bo245b3o17bo550b2o2865bo2252bo2bo5549b$381bobo1420bo248bo31bo535bobo2861bo3bo2252bo5552b$382b2o1434b2o232bo32b2o3399b4o2246bo5bo5552b$1819b2o245b2o16bobo549b3o5082bo13b3o5bobo5549b$1818bo248b2o569bo5081b3o12bob2o5556b$1833b2o231bo32b3o535bo5081b2obo13b3o5556b$1832bobo246b2o18bo549b2o5066b3o14b2o5557b$1834bo245bobo17bo551b2o5066b2o5573b$1848bo233bo31b2o535bo10643b$110bo278b2o1457b2o246bo18b2o549b2o10627b$111bo277b2o1456bobo246b2o16bo550bobo10627b$109b3o1983bobo31b2o536bo10627b$1862b3o263bobo550bo10613b$1864bo245b3o17bo550b2o10612b$1863bo248bo31bo535bobo5036b3o5573b$1877b2o232bo32b2o5572bo2bo5573b$200bo1677b2o245b2o16bobo549b3o5023bo5573b$199bobo1675bo248b2o569bo5023bo5573b$199bobo1690b2o231bo32b3o535bo5015b3o3bobo5574b$200bo1690bobo246b2o18bo549b2o5000bo2bo5579b$1893bo245bobo17bo551b2o4999bo5582b$1907bo233bo31b2o535bo5001bo7b3o5572b$1907b2o246bo18b2o549b2o2794b2o2190bobo4bo2bo5571b$1906bobo246b2o16bo550bobo2793b4o2196bo5574b$2154bobo31b2o536bo2793b2ob2o2195bo5574b$1921b3o263bobo550bo2781b2o2197bobo20b3o5548b$1923bo245b3o17bo550b2o5002bo2bo5547b$1922bo248bo31bo535bobo5002bo5550b$1936b2o232bo32b2o5539bo5550b$1937b2o245b2o16bobo549b3o4988bobo5547b$1936bo248b2o569bo10538b$1951b2o231bo32b3o535bo3402b2o7135b$1950bobo246b2o18bo549b2o3385b2ob2o1591b3o5540b$1952bo245bobo17bo551b2o3384b4o1591bo2bo5540b$1966bo233bo31b2o535bo3387b2o1595bo5540b$1966b2o246bo18b2o549b2o4960bo7bo5540b$1965bobo246b2o16bo550bobo4945bo13b3o3bobo5541b$2213bobo31b2o536bo4944b3o11b2obo5547b$1980b3o263bobo550bo4930bob2o10b3o5548b$195bo1786bo245b3o17bo550b2o4930b3o11b2o5548b$194bobo1784bo248bo31bo535bobo4930b2o5562b$194bobo1798b2o232bo32b2o3077bo7953b$195bo1800b2o245b2o16bobo549b3o2525bo7953b$1995bo248b2o569bo2525bo7953b$2010b2o231bo32b3o535bo10480b$2009bobo246b2o18bo549b2o10465b$2011bo245bobo17bo551b2o2724b4o7736b$2025bo233bo31b2o535bo2725bo3bo2170b3o5563b$2025b2o246bo18b2o549b2o2713bo2170bo2bo5562b$2024bobo246b2o16bo550bobo2709bo2bo2171bo5565b$2272bobo31b2o536bo4884bo5565b$2039b3o263bobo550bo4863b3o5bobo5562b$124bo1916bo245b3o17bo550b2o4861bo2bo5570b$125b2o1913bo248bo31bo535bobo4864bo5570b$124b2o1928b2o232bo32b2o5401bo5b3o5562b$2055b2o245b2o16bobo549b3o4846bobo5bo2bo5562b$2054bo248b2o569bo4857bo5562b$2069b2o231bo32b3o535bo4858bo5562b$2068bobo246b2o18bo549b2o4840bobo22b3o5538b$2070bo245bobo17bo551b2o4863bo2bo5538b$2084bo233bo31b2o535bo4868bo5538b$2084b2o246bo18b2o549b2o4852bo5538b$190bo1892bobo246b2o16bo550bobo4849bobo5539b$189bobo2139bobo31b2o536bo10391b$189bobo1906b3o263bobo550bo10377b$190bo1909bo245b3o17bo550b2o4843b3o5530b$2099bo248bo31bo535bobo4843bo2bo5529b$2113b2o232bo32b2o5380bo5532b$2114b2o245b2o16bobo549b3o4822bo5bo5532b$2113bo248b2o569bo2657b2o2148bo13b3o5bobo5529b$2128b2o231bo32b3o535bo2656b2ob2o2146b3o12bob2o5536b$2127bobo246b2o18bo549b2o2641b4o2146b2obo13b3o5536b$2129bo245bobo17bo551b2o2641b2o2147b3o14b2o5537b$2143bo233bo31b2o535bo4793b2o5553b$2143b2o246bo18b2o549b2o10332b$2142bobo246b2o16bo550bobo10332b$2390bobo31b2o536bo3263b2o7067b$2157b3o263bobo550bo3248b4o7066b$2159bo245b3o17bo550b2o3247b2ob2o7065b$2158bo248bo31bo535bobo3249b2o7066b$2172b2o232bo32b2o5298b3o5553b$2173b2o245b2o16bobo549b3o4745bo2bo5553b$2172bo248b2o569bo4748bo5553b$2187b2o231bo32b3o535bo4749bo5553b$2186bobo246b2o18bo549b2o4725b3o3bobo5554b$185bo2002bo245bobo17bo551b2o4724bo2bo5559b$184bobo2015bo233bo31b2o535bo4726bo5562b$184bobo2015b2o246bo18b2o549b2o2309bo2400bo7b3o5552b$185bo2015bobo246b2o16bo550bobo2309bo2401bobo4bo2bo5551b$2449bobo31b2o536bo2309bo2408bo5554b$2216b3o263bobo550bo4704bo5554b$2218bo245b3o17bo550b2o2586bo2bo2114bobo20b3o5528b$2217bo248bo31bo535bobo2590bo2136bo2bo5527b$2231b2o232bo32b2o3123bo3bo2136bo5530b$2232b2o245b2o16bobo549b3o2572b4o2136bo5530b$140bo2090bo248b2o569bo4713bobo5527b$138bobo2105b2o231bo32b3o535bo10244b$139b2o2104bobo246b2o18bo549b2o10229b$2247bo245bobo17bo551b2o4705b3o5520b$2261bo233bo31b2o535bo4706bo2bo5520b$2261b2o246bo18b2o549b2o4693bo5520b$2260bobo246b2o16bo550bobo4685bo7bo5520b$2508bobo31b2o536bo4670bo13b3o3bobo5521b$2275b3o263bobo550bo4655b3o11b2obo5527b$2277bo245b3o17bo550b2o4654bob2o10b3o5528b$2276bo248bo31bo535bobo4655b3o11b2o5528b$2290b2o232bo32b2o5192b2o5542b$2291b2o245b2o16bobo549b3o10184b$180bo2109bo248b2o569bo10184b$179bobo2123b2o231bo32b3o535bo10185b$179bobo2122bobo246b2o18bo549b2o10170b$180bo2125bo245bobo17bo551b2o10169b$2320bo233bo31b2o535bo10171b$2320b2o246bo18b2o549b2o4609b3o5543b$2319bobo246b2o16bo550bobo2519b2o2088bo2bo5542b$2567bobo31b2o536bo2518b4o2087bo5545b$2334b3o263bobo550bo2504b2ob2o2086bo5545b$2336bo245b3o17bo550b2o2505b2o2080b3o5bobo5542b$2335bo248bo31bo535bobo4586bo2bo5550b$2349b2o232bo32b2o5126bo5550b$2350b2o245b2o16bobo549b3o4574bo5b3o5542b$2349bo248b2o569bo4571bobo5bo2bo5542b$2364b2o231bo32b3o535bo4583bo5542b$2363bobo246b2o18bo549b2o3112b2o1454bo5542b$2365bo245bobo17bo551b2o3109b2ob2o1450bobo22b3o5518b$2379bo233bo31b2o535bo3111b4o1475bo2bo5518b$2379b2o246bo18b2o549b2o3096b2o1479bo5518b$2378bobo246b2o16bo550bobo4577bo5518b$2626bobo31b2o536bo4574bobo5519b$2393b3o263bobo550bo10082b$2395bo245b3o17bo550b2o10081b$175bo2218bo248bo31bo535bobo4568b3o5510b$174bobo2231b2o232bo32b2o5105bo2bo5509b$174bobo2232b2o245b2o16bobo549b3o2092bo2460bo5512b$175bo2232bo248b2o569bo2092bo2454bo5bo5512b$2423b2o231bo32b3o535bo2093bo2439bo13b3o5bobo5509b$2422bobo246b2o18bo549b2o4517b3o12bob2o5516b$2424bo245bobo17bo551b2o4515b2obo13b3o5516b$153bobo2282bo233bo31b2o535bo2451b4o2062b3o14b2o5517b$154b2o2282b2o246bo18b2o549b2o2434bo3bo2063b2o5533b$154bo2282bobo246b2o16bo550bobo2438bo7598b$2685bobo31b2o536bo2434bo2bo7599b$2452b3o263bobo550bo10023b$2454bo245b3o17bo550b2o10022b$2453bo248bo31bo535bobo10022b$2467b2o232bo32b2o10559b$2468b2o245b2o16bobo549b3o4471b3o5533b$2467bo248b2o569bo4470bo2bo5533b$2482b2o231bo32b3o535bo4474bo5533b$2481bobo246b2o18bo549b2o4459bo5533b$2483bo245bobo17bo551b2o4449b3o3bobo5534b$2497bo233bo31b2o535bo4451bo2bo5539b$2497b2o246bo18b2o549b2o4435bo5542b$2496bobo246b2o16bo550bobo4435bo7b3o5532b$170bo2573bobo31b2o536bo4436bobo4bo2bo5531b$169bobo2339b3o263bobo550bo4429bo5534b$169bobo2341bo245b3o17bo550b2o4428bo5534b$170bo2341bo248bo31bo535bobo4429bobo20b3o5508b$2526b2o232bo32b2o4989bo2bo5507b$2527b2o245b2o16bobo549b3o4437bo5510b$2526bo248b2o569bo4437bo5510b$2541b2o231bo32b3o535bo2383b2o2054bobo5507b$2540bobo246b2o18bo549b2o2366b2ob2o7563b$2542bo245bobo17bo551b2o2365b4o7564b$2556bo233bo31b2o535bo2368b2o2062b3o5500b$2556b2o246bo18b2o549b2o4415bo2bo5500b$2555bobo246b2o16bo550bobo4418bo5500b$2803bobo31b2o536bo4410bo7bo5500b$2570b3o263bobo550bo2974b2o1405bo13b3o3bobo5501b$2572bo245b3o17bo550b2o2972b4o1403b3o11b2obo5507b$2571bo248bo31bo535bobo2972b2ob2o1402bob2o10b3o5508b$2585b2o232bo32b2o3511b2o1404b3o11b2o5508b$2586b2o245b2o16bobo549b3o4365b2o5522b$2585bo248b2o569bo9889b$2600b2o231bo32b3o535bo9890b$2599bobo246b2o18bo549b2o9875b$2601bo245bobo17bo551b2o9874b$2615bo233bo31b2o535bo9876b$2615b2o246bo18b2o549b2o9860b$2614bobo246b2o16bo550bobo1876bo2457b3o5523b$2862bobo31b2o536bo1876bo2457bo2bo5522b$2629b3o263bobo550bo1862bo2457bo5525b$2631bo245b3o17bo550b2o4319bo5525b$2630bo248bo31bo535bobo2311bo2bo1997b3o5bobo5522b$2644b2o232bo32b2o2852bo1995bo2bo5530b$2645b2o245b2o16bobo549b3o2296bo3bo1998bo5530b$2644bo248b2o569bo2297b4o1998bo5b3o5522b$2659b2o231bo32b3o535bo4297bobo5bo2bo5522b$2658bobo246b2o18bo549b2o4293bo5522b$2660bo245bobo17bo551b2o4292bo5522b$2674bo233bo31b2o535bo4291bobo22b3o5498b$2674b2o246bo18b2o549b2o4299bo2bo5498b$2673bobo246b2o16bo550bobo4302bo5498b$2921bobo31b2o536bo4302bo5498b$2688b3o263bobo550bo4285bobo5499b$2690bo245b3o17bo550b2o9786b$2689bo248bo31bo535bobo9786b$2703b2o232bo32b2o4830b3o5490b$2704b2o245b2o16bobo549b3o4278bo2bo5489b$2703bo248b2o569bo4278bo5492b$2718b2o231bo32b3o535bo4273bo5bo5492b$2717bobo246b2o18bo549b2o4243bo13b3o5bobo5489b$2719bo245bobo17bo551b2o4241b3o12bob2o5496b$2733bo233bo31b2o535bo4242b2obo13b3o5496b$2733b2o246bo18b2o549b2o4226b3o14b2o5497b$2732bobo246b2o16bo550bobo4227b2o5513b$2980bobo31b2o536bo2244b2o7496b$2747b3o263bobo550bo2229b4o7495b$2749bo245b3o17bo550b2o2228b2ob2o7494b$2748bo248bo31bo535bobo2230b2o7495b$2762b2o232bo32b2o10264b$2763b2o245b2o16bobo549b3o9712b$2762bo248b2o569bo4196b3o5513b$2777b2o231bo32b3o535bo4196bo2bo5513b$2776bobo246b2o18bo549b2o4184bo5513b$2778bo245bobo17bo551b2o2836b2o1345bo5513b$2792bo233bo31b2o535bo2836b2ob2o1335b3o3bobo5514b$2792b2o246bo18b2o549b2o2820b4o1336bo2bo5519b$2791bobo246b2o16bo550bobo2821b2o1337bo5522b$3039bobo31b2o536bo4160bo7b3o5512b$2806b3o263bobo550bo4147bobo4bo2bo5511b$2808bo245b3o17bo550b2o4153bo5514b$2807bo248bo31bo535bobo4153bo5514b$2821b2o232bo32b2o4691bobo20b3o5488b$2822b2o245b2o16bobo549b3o4162bo2bo5487b$2821bo248b2o569bo1659bo2502bo5490b$2836b2o231bo32b3o535bo1660bo2502bo5490b$2835bobo246b2o18bo549b2o1645bo2503bobo5487b$2837bo245bobo17bo551b2o9638b$2851bo233bo31b2o535bo9640b$2851b2o246bo18b2o549b2o2160b4o1977b3o5480b$2850bobo246b2o16bo550bobo2159bo3bo1976bo2bo5480b$3098bobo31b2o536bo2163bo1979bo5480b$2865b3o263bobo550bo2145bo2bo1972bo7bo5480b$2867bo245b3o17bo550b2o4105bo13b3o3bobo5481b$2866bo248bo31bo535bobo4104b3o11b2obo5487b$2880b2o232bo32b2o4641bob2o10b3o5488b$2881b2o245b2o16bobo549b3o4090b3o11b2o5488b$2880bo248b2o569bo4090b2o5502b$2895b2o231bo32b3o535bo9595b$2894bobo246b2o18bo549b2o9580b$2896bo245bobo17bo551b2o9579b$2910bo233bo31b2o535bo9581b$2910b2o246bo18b2o549b2o9565b$2909bobo246b2o16bo550bobo9565b$3157bobo31b2o536bo4059b3o5503b$2924b3o263bobo550bo4045bo2bo5502b$2926bo245b3o17bo550b2o4044bo5505b$2925bo248bo31bo535bobo4044bo5505b$2939b2o232bo32b2o4574b3o5bobo5502b$2940b2o245b2o16bobo549b3o4021bo2bo5510b$2939bo248b2o569bo4024bo5510b$2954b2o231bo32b3o535bo4025bo5b3o5502b$2953bobo246b2o18bo549b2o2093b2o1912bobo5bo2bo5502b$2955bo245bobo17bo551b2o2090b2ob2o1922bo5502b$2969bo233bo31b2o535bo2092b4o1923bo5502b$2969b2o246bo18b2o549b2o2077b2o1921bobo22b3o5478b$2968bobo246b2o16bo550bobo4024bo2bo5478b$3216bobo31b2o536bo4027bo5478b$2983b3o263bobo550bo4013bo5478b$2985bo245b3o17bo550b2o2698b2o1309bobo5479b$2984bo248bo31bo535bobo2697b4o6790b$2998b2o232bo32b2o3234b2ob2o6789b$2999b2o245b2o16bobo549b3o2684b2o1317b3o5470b$2998bo248b2o569bo4003bo2bo5469b$3013b2o231bo32b3o535bo4004bo5472b$3012bobo246b2o18bo549b2o3983bo5bo5472b$3014bo245bobo17bo551b2o3967bo13b3o5bobo5469b$3028bo233bo31b2o535bo3968b3o12bob2o5476b$3028b2o246bo18b2o549b2o3951b2obo13b3o5476b$3027bobo246b2o16bo550bobo3951b3o14b2o5477b$3275bobo31b2o536bo1443bo2508b2o5493b$3042b3o263bobo550bo1429bo8003b$3044bo245b3o17bo550b2o1428bo8003b$3043bo248bo31bo535bobo9432b$3057b2o232bo32b2o2573bo2bo7392b$3058b2o245b2o16bobo549b3o2025bo7391b$3057bo248b2o569bo2021bo3bo7391b$3072b2o231bo32b3o535bo2023b4o1895b3o5493b$3071bobo246b2o18bo549b2o3906bo2bo5493b$3073bo245bobo17bo551b2o3908bo5493b$3087bo233bo31b2o535bo3910bo5493b$3087b2o246bo18b2o549b2o3885b3o3bobo5494b$3086bobo246b2o16bo550bobo3885bo2bo5499b$3334bobo31b2o536bo3885bo5502b$3101b3o263bobo550bo3871bo7b3o5492b$3103bo245b3o17bo550b2o3871bobo4bo2bo5491b$3102bo248bo31bo535bobo3878bo5494b$3116b2o232bo32b2o4415bo5494b$3117b2o245b2o16bobo549b3o3864bobo20b3o5468b$3116bo248b2o569bo3887bo2bo5467b$3131b2o231bo32b3o535bo3888bo5470b$3130bobo246b2o18bo549b2o3873bo5470b$3132bo245bobo17bo551b2o3873bobo5467b$3146bo233bo31b2o535bo9345b$3146b2o246bo18b2o549b2o9329b$3145bobo246b2o16bo550bobo3866b3o5460b$3393bobo31b2o536bo3865bo2bo5460b$3160b3o263bobo550bo1955b2o1897bo5460b$3162bo245b3o17bo550b2o1953b4o1888bo7bo5460b$3161bo248bo31bo535bobo1953b2ob2o1872bo13b3o3bobo5461b$3175b2o232bo32b2o2492b2o1872b3o11b2obo5467b$3176b2o245b2o16bobo549b3o3814bob2o10b3o5468b$3175bo248b2o569bo3815b3o11b2o5468b$3190b2o231bo32b3o535bo3816b2o5482b$3189bobo246b2o18bo549b2o9285b$3191bo245bobo17bo551b2o9284b$3205bo233bo31b2o535bo2563b2o6721b$3205b2o246bo18b2o549b2o2545b2ob2o6720b$3204bobo246b2o16bo550bobo2545b4o6721b$3452bobo31b2o536bo2546b2o6722b$3219b3o263bobo550bo3770b3o5483b$3221bo245b3o17bo550b2o3769bo2bo5482b$3220bo248bo31bo535bobo3769bo5485b$3234b2o232bo32b2o4306bo5485b$3235b2o245b2o16bobo549b3o3747b3o5bobo5482b$3234bo248b2o569bo3746bo2bo5490b$3249b2o231bo32b3o535bo1227bo2522bo5490b$3248bobo246b2o18bo549b2o1212bo2522bo5b3o5482b$3250bo245bobo17bo551b2o1211bo2519bobo5bo2bo5482b$3264bo233bo31b2o535bo3744bo5482b$3264b2o246bo18b2o549b2o3728bo5482b$3263bobo246b2o16bo550bobo1885b4o1836bobo22b3o5458b$3511bobo31b2o536bo1884bo3bo1860bo2bo5458b$3278b3o263bobo550bo1874bo1863bo5458b$3280bo245b3o17bo550b2o1869bo2bo1864bo5458b$3279bo248bo31bo535bobo3734bobo5459b$3293b2o232bo32b2o9733b$3294b2o245b2o16bobo549b3o9181b$3293bo248b2o569bo3728b3o5450b$3308b2o231bo32b3o535bo3729bo2bo5449b$3307bobo246b2o18bo549b2o3714bo5452b$3309bo245bobo17bo551b2o3707bo5bo5452b$3323bo233bo31b2o535bo3694bo13b3o5bobo5449b$3323b2o246bo18b2o549b2o3677b3o12bob2o5456b$3322bobo246b2o16bo550bobo3676b2obo13b3o5456b$3570bobo31b2o536bo3676b3o14b2o5457b$3337b3o263bobo550bo3663b2o5473b$3339bo245b3o17bo550b2o9137b$3338bo248bo31bo535bobo9137b$3352b2o232bo32b2o9674b$3353b2o245b2o16bobo549b3o9122b$3352bo248b2o569bo9122b$3367b2o231bo32b3o535bo9123b$3366bobo246b2o18bo549b2o3632b3o5473b$3368bo245bobo17bo551b2o1817b2o1811bo2bo5473b$3382bo233bo31b2o535bo1817b2ob2o1813bo5473b$3382b2o246bo18b2o549b2o1801b4o1814bo5473b$3381bobo246b2o16bo550bobo1802b2o1806b3o3bobo5474b$3629bobo31b2o536bo3610bo2bo5479b$3396b3o263bobo550bo3596bo5482b$3398bo245b3o17bo550b2o3595bo7b3o5472b$3397bo248bo31bo535bobo2423b2o1171bobo4bo2bo5471b$3411b2o232bo32b2o2959b4o1177bo5474b$3412b2o245b2o16bobo549b3o2407b2ob2o1176bo5474b$3411bo248b2o569bo2409b2o1178bobo20b3o5448b$3426b2o231bo32b3o535bo3613bo2bo5447b$3425bobo246b2o18bo549b2o3598bo5450b$3427bo245bobo17bo551b2o3597bo5450b$3441bo233bo31b2o535bo3600bobo5447b$3441b2o246bo18b2o549b2o9034b$3440bobo246b2o16bo550bobo9034b$3688bobo31b2o536bo3591b3o5440b$3455b3o263bobo550bo996bo2579bo2bo5440b$3457bo245b3o17bo550b2o995bo2582bo5440b$3456bo248bo31bo535bobo995bo2574bo7bo5440b$3470b2o232bo32b2o4092bo13b3o3bobo5441b$3471b2o245b2o16bobo549b3o1746bo2bo1789b3o11b2obo5447b$3470bo248b2o569bo1750bo1788bob2o10b3o5448b$3485b2o231bo32b3o535bo1747bo3bo1789b3o11b2o5448b$3484bobo246b2o18bo549b2o1733b4o1789b2o5462b$3486bo245bobo17bo551b2o8989b$3500bo233bo31b2o535bo8991b$3500b2o246bo18b2o549b2o8975b$3499bobo246b2o16bo550bobo8975b$3747bobo31b2o536bo8975b$3514b3o263bobo550bo8961b$3516bo245b3o17bo550b2o3494b3o5463b$3515bo248bo31bo535bobo3494bo2bo5462b$3529b2o232bo32b2o4031bo5465b$3530b2o245b2o16bobo549b3o3479bo5465b$3529bo248b2o569bo3472b3o5bobo5462b$3544b2o231bo32b3o535bo3472bo2bo5470b$3543bobo246b2o18bo549b2o3460bo5470b$3545bo245bobo17bo551b2o3459bo5b3o5462b$3559bo233bo31b2o535bo3458bobo5bo2bo5462b$3559b2o246bo18b2o549b2o3453bo5462b$3558bobo246b2o16bo550bobo3453bo5462b$3806bobo31b2o536bo3450bobo22b3o5438b$3573b3o263bobo550bo3460bo2bo5438b$3575bo245b3o17bo550b2o1679b2o1781bo5438b$3574bo248bo31bo535bobo1678b4o1780bo5438b$3588b2o232bo32b2o2215b2ob2o1776bobo5439b$3589b2o245b2o16bobo549b3o1665b2o7219b$3588bo248b2o569bo8886b$3603b2o231bo32b3o535bo3454b3o5430b$3602bobo246b2o18bo549b2o3439bo2bo5429b$3604bo245bobo17bo551b2o3438bo5432b$3618bo233bo31b2o535bo3434bo5bo5432b$3618b2o246bo18b2o549b2o2272b2o1129bo13b3o5bobo5429b$3617bobo246b2o16bo550bobo2270b2ob2o1127b3o12bob2o5436b$3865bobo31b2o536bo2270b4o1127b2obo13b3o5436b$3632b3o263bobo550bo2257b2o1128b3o14b2o5437b$3634bo245b3o17bo550b2o3387b2o5453b$3633bo248bo31bo535bobo8842b$3647b2o232bo32b2o9379b$3648b2o245b2o16bobo549b3o8827b$3647bo248b2o569bo8827b$3662b2o231bo32b3o535bo8828b$3661bobo246b2o18bo549b2o779bo8033b$3663bo245bobo17bo551b2o778bo2577b3o5453b$3677bo233bo31b2o535bo780bo2576bo2bo5453b$3677b2o246bo18b2o549b2o3344bo5453b$3676bobo246b2o16bo550bobo3344bo5453b$3924bobo31b2o536bo1610b4o1721b3o3bobo5454b$3691b3o263bobo550bo1595bo3bo1721bo2bo5459b$3693bo245b3o17bo550b2o1598bo1721bo5462b$3692bo248bo31bo535bobo1594bo2bo1722bo7b3o5452b$3706b2o232bo32b2o3858bobo4bo2bo5451b$3707b2o245b2o16bobo549b3o3313bo5454b$3706bo248b2o569bo3313bo5454b$3721b2o231bo32b3o535bo3315bobo20b3o5428b$3720bobo246b2o18bo549b2o3323bo2bo5427b$3722bo245bobo17bo551b2o3322bo5430b$3736bo233bo31b2o535bo3324bo5430b$3736b2o246bo18b2o549b2o3309bobo5427b$3735bobo246b2o16bo550bobo8739b$3983bobo31b2o536bo8739b$3750b3o263bobo550bo3302b3o5420b$3752bo245b3o17bo550b2o3300bo2bo5420b$3751bo248bo31bo535bobo3303bo5420b$3765b2o232bo32b2o3832bo7bo5420b$3766b2o245b2o16bobo549b3o3265bo13b3o3bobo5421b$3765bo248b2o569bo3264b3o11b2obo5427b$3780b2o231bo32b3o535bo3265bob2o10b3o5428b$3779bobo246b2o18bo549b2o3251b3o11b2o5428b$3781bo245bobo17bo551b2o3250b2o5442b$3795bo233bo31b2o535bo1544b2o7150b$3795b2o246bo18b2o549b2o1526b2ob2o7149b$3794bobo246b2o16bo550bobo1526b4o7150b$4042bobo31b2o536bo1527b2o7151b$3809b3o263bobo550bo8666b$3811bo245b3o17bo550b2o8665b$3810bo248bo31bo535bobo3219b3o5443b$3824b2o232bo32b2o2685b2o1069bo2bo5442b$3825b2o245b2o16bobo549b3o2132b4o1068bo5445b$3824bo248b2o569bo2132b2ob2o1067bo5445b$3839b2o231bo32b3o535bo2135b2o1061b3o5bobo5442b$3838bobo246b2o18bo549b2o3182bo2bo5450b$3840bo245bobo17bo551b2o3184bo5450b$3854bo233bo31b2o535bo3186bo5b3o5442b$3854b2o246bo18b2o549b2o3167bobo5bo2bo5442b$3853bobo246b2o16bo550bobo3178bo5442b$4101bobo31b2o536bo3178bo5442b$3868b3o263bobo550bo3161bobo22b3o5418b$3870bo245b3o17bo550b2o562bo2621bo2bo5418b$3869bo248bo31bo535bobo562bo2624bo5418b$3883b2o232bo32b2o1099bo2624bo5418b$3884b2o245b2o16bobo549b3o3169bobo5419b$3883bo248b2o569bo1471bo2bo7116b$3898b2o231bo32b3o535bo1476bo7115b$3897bobo246b2o18bo549b2o1457bo3bo1702b3o5410b$3899bo245bobo17bo551b2o1457b4o1702bo2bo5409b$3913bo233bo31b2o535bo3165bo5412b$3913b2o246bo18b2o549b2o3143bo5bo5412b$3912bobo246b2o16bo550bobo3128bo13b3o5bobo5409b$4160bobo31b2o536bo3127b3o12bob2o5416b$3927b3o263bobo550bo3112b2obo13b3o5416b$3929bo245b3o17bo550b2o3111b3o14b2o5417b$3928bo248bo31bo535bobo3112b2o5433b$3942b2o232bo32b2o9084b$3943b2o245b2o16bobo549b3o8532b$3942bo248b2o569bo8532b$3957b2o231bo32b3o535bo8533b$3956bobo246b2o18bo549b2o8518b$3958bo245bobo17bo551b2o8517b$3972bo233bo31b2o535bo3083b3o5433b$3972b2o246bo18b2o549b2o3066bo2bo5433b$3971bobo246b2o16bo550bobo3069bo5433b$4219bobo31b2o536bo3069bo5433b$3986b3o263bobo550bo3046b3o3bobo5434b$3988bo245b3o17bo550b2o3045bo2bo5439b$3987bo248bo31bo535bobo1404b2o1639bo5442b$4001b2o232bo32b2o1940b4o1638bo7b3o5432b$4002b2o245b2o16bobo549b3o1388b2ob2o1638bobo4bo2bo5431b$4001bo248b2o569bo1390b2o1646bo5434b$4016b2o231bo32b3o535bo3039bo5434b$4015bobo246b2o18bo549b2o3025bobo20b3o5408b$4017bo245bobo17bo551b2o3047bo2bo5407b$4031bo233bo31b2o535bo3049bo5410b$4031b2o246bo18b2o549b2o3033bo5410b$4030bobo246b2o16bo550bobo1997b2o1035bobo5407b$4278bobo31b2o536bo1995b2ob2o6444b$4045b3o263bobo550bo1981b4o6445b$4047bo245b3o17bo550b2o1981b2o1043b3o5400b$4046bo248bo31bo535bobo3025bo2bo5400b$4060b2o232bo32b2o3565bo5400b$4061b2o245b2o16bobo549b3o3005bo7bo5400b$4060bo248b2o569bo2990bo13b3o3bobo5401b$4075b2o231bo32b3o535bo2990b3o11b2obo5407b$4074bobo246b2o18bo549b2o2975bob2o10b3o5408b$4076bo245bobo17bo551b2o345bo2629b3o11b2o5408b$4090bo233bo31b2o535bo347bo2629b2o5422b$4090b2o246bo18b2o549b2o331bo8053b$4089bobo246b2o16bo550bobo8385b$4337bobo31b2o536bo8385b$4104b3o263bobo550bo1321b4o7046b$4106bo245b3o17bo550b2o1319bo3bo7046b$4105bo248bo31bo535bobo1323bo7046b$4119b2o232bo32b2o1856bo2bo1621b3o5423b$4120b2o245b2o16bobo549b3o2929bo2bo5422b$4119bo248b2o569bo2929bo5425b$4134b2o231bo32b3o535bo2930bo5425b$4133bobo246b2o18bo549b2o2908b3o5bobo5422b$4135bo245bobo17bo551b2o2906bo2bo5430b$4149bo233bo31b2o535bo2911bo5430b$4149b2o246bo18b2o549b2o2895bo5b3o5422b$4148bobo246b2o16bo550bobo2892bobo5bo2bo5422b$4396bobo31b2o536bo2903bo5422b$4163b3o263bobo550bo2889bo5422b$4165bo245b3o17bo550b2o2885bobo22b3o5398b$4164bo248bo31bo535bobo2909bo2bo5398b$4178b2o232bo32b2o3449bo5398b$4179b2o245b2o16bobo549b3o2897bo5398b$4178bo248b2o569bo2894bobo5399b$4193b2o231bo32b3o535bo8297b$4192bobo246b2o18bo549b2o8282b$4194bo245bobo17bo551b2o2888b3o5390b$4208bo233bo31b2o535bo2890bo2bo5389b$4208b2o246bo18b2o549b2o1253b2o1619bo5392b$4207bobo246b2o16bo550bobo1251b2ob2o1612bo5bo5392b$4455bobo31b2o536bo1251b4o1598bo13b3o5bobo5389b$4222b3o263bobo550bo1238b2o1598b3o12bob2o5396b$4224bo245b3o17bo550b2o2836b2obo13b3o5396b$4223bo248bo31bo535bobo2836b3o14b2o5397b$4237b2o232bo32b2o3374b2o5413b$4238b2o245b2o16bobo549b3o1858b2o6377b$4237bo248b2o569bo1857b4o6376b$4252b2o231bo32b3o535bo1858b2ob2o6375b$4251bobo246b2o18bo549b2o1845b2o6376b$4253bo245bobo17bo551b2o8222b$4267bo233bo31b2o535bo8224b$4267b2o246bo18b2o549b2o2792b3o5413b$4266bobo246b2o16bo550bobo2791bo2bo5413b$4514bobo31b2o536bo2794bo5413b$4281b3o263bobo550bo2780bo5413b$4283bo245b3o17bo550b2o2770b3o3bobo5414b$4282bo248bo31bo535bobo129bo2640bo2bo5419b$4296b2o232bo32b2o666bo2640bo5422b$4297b2o245b2o16bobo549b3o114bo2640bo7b3o5412b$4296bo248b2o569bo2756bobo4bo2bo5411b$4311b2o231bo32b3o535bo1197bo2bo1563bo5414b$4310bobo246b2o18bo549b2o1186bo1562bo5414b$4312bo245bobo17bo551b2o1181bo3bo1563bobo20b3o5388b$4326bo233bo31b2o535bo1184b4o1586bo2bo5387b$4326b2o246bo18b2o549b2o2758bo5390b$4325bobo246b2o16bo550bobo2758bo5390b$4573bobo31b2o536bo2759bobo5387b$4340b3o263bobo550bo8135b$4342bo245b3o17bo550b2o8134b$4341bo248bo31bo535bobo2751b3o5380b$4355b2o232bo32b2o3287bo2bo5380b$4356b2o245b2o16bobo549b3o2738bo5380b$4355bo248b2o569bo2730bo7bo5380b$4370b2o231bo32b3o535bo2716bo13b3o3bobo5381b$4369bobo246b2o18bo549b2o2700b3o11b2obo5387b$4371bo245bobo17bo551b2o2699bob2o10b3o5388b$4385bo233bo31b2o535bo2702b3o11b2o5388b$4385b2o246bo18b2o549b2o2686b2o5402b$4384bobo246b2o16bo550bobo8090b$4632bobo31b2o536bo8090b$4399b3o263bobo550bo8076b$4401bo245b3o17bo550b2o8075b$4400bo248bo31bo535bobo8075b$4414b2o232bo32b2o1666b2o6944b$4415b2o245b2o16bobo549b3o1113b4o1537b3o5403b$4414bo248b2o569bo1113b2ob2o1536bo2bo5402b$4429b2o231bo32b3o535bo1116b2o1537bo5405b$4428bobo246b2o18bo549b2o2640bo5405b$4430bo245bobo17bo551b2o2632b3o5bobo5402b$4444bo233bo31b2o535bo2633bo2bo5410b$4444b2o246bo18b2o549b2o2620bo5410b$4443bobo246b2o16bo550bobo2620bo5b3o5402b$4691bobo31b2o536bo1722b2o893bobo5bo2bo5402b$4458b3o263bobo550bo1706b2ob2o903bo5402b$4460bo245b3o17bo550b2o1705b4o904bo5402b$4459bo248bo31bo535bobo1706b2o902bobo22b3o5378b$4473b2o232bo32b2o3171bo2bo5378b$4474b2o245b2o16bobo549b3o2622bo5378b$4473bo248b2o569bo2622bo5378b$4488b2o231bo32b3o535bo2620bobo5379b$4487bobo246b2o18bo549b2o7987b$4489bo245bobo17bo551b2o7986b$4503bo233bo31b2o450bo84bo2615b3o5370b$4503b2o246bo18b2o449bo99b2o2599bo2bo5369b$4502bobo246b2o16bo451bo98bobo2599bo5372b$4750bobo31b2o536bo2593bo5bo5372b$4517b3o263bobo550bo2564bo13b3o5bobo5369b$4519bo245b3o17bo550b2o1045b4o1513b3o12bob2o5376b$4518bo248bo31bo535bobo1044bo3bo1512b2obo13b3o5376b$4532b2o232bo32b2o1585bo1512b3o14b2o5377b$4533b2o245b2o16bobo549b3o1029bo2bo1514b2o5393b$4532bo248b2o569bo7942b$4547b2o231bo32b3o535bo7943b$4546bobo246b2o18bo549b2o7928b$4548bo245bobo17bo551b2o7927b$4562bo233bo31b2o535bo7929b$4562b2o246bo18b2o549b2o7913b$4561bobo246b2o16bo550bobo2517b3o5393b$4809bobo31b2o536bo2516bo2bo5393b$4576b3o263bobo550bo2505bo5393b$4578bo245b3o17bo550b2o2504bo5393b$4577bo248bo31bo535bobo2495b3o3bobo5394b$4591b2o232bo32b2o3032bo2bo5399b$4592b2o245b2o16bobo549b3o2480bo5402b$4591bo248b2o569bo2480bo7b3o5392b$4606b2o231bo32b3o535bo2482bobo4bo2bo5391b$4605bobo246b2o18bo549b2o2474bo5394b$4607bo245bobo17bo551b2o2473bo5394b$4621bo233bo31b2o535bo2476bobo20b3o5368b$4621b2o246bo18b2o549b2o2483bo2bo5367b$4620bobo246b2o16bo550bobo978b2o1503bo5370b$4868bobo31b2o536bo976b2ob2o1502bo5370b$4635b3o263bobo550bo962b4o1504bobo5367b$4637bo245b3o17bo550b2o962b2o6875b$4636bo248bo31bo535bobo7839b$4650b2o232bo32b2o3013b3o5360b$4651b2o245b2o16bobo549b3o2460bo2bo5360b$4650bo248b2o569bo1583b2o878bo5360b$4665b2o231bo32b3o535bo1583b4o869bo7bo5360b$4664bobo246b2o18bo549b2o1568b2ob2o853bo13b3o3bobo5361b$4666bo245bobo17bo551b2o1569b2o853b3o11b2obo5367b$4680bo233bo31b2o535bo2426bob2o10b3o5368b$4680b2o246bo18b2o549b2o2411b3o11b2o5368b$4679bobo246b2o16bo550bobo2411b2o5382b$4927bobo31b2o536bo7795b$4694b3o263bobo550bo7781b$4696bo245b3o17bo550b2o7780b$4695bo248bo31bo535bobo7780b$4709b2o232bo32b2o233bo8083b$4710b2o245b2o16bobo233bo315b3o7765b$4709bo248b2o251bo317bo2379b3o5383b$4724b2o231bo32b3o535bo2380bo2bo5382b$4723bobo246b2o18bo549b2o907bo2bo1454bo5385b$4725bo245bobo17bo551b2o910bo1453bo5385b$4739bo233bo31b2o535bo908bo3bo1446b3o5bobo5382b$4739b2o246bo18b2o549b2o893b4o1445bo2bo5390b$4738bobo246b2o16bo550bobo2345bo5390b$4986bobo31b2o536bo2345bo5b3o5382b$4753b3o263bobo550bo2328bobo5bo2bo5382b$4755bo245b3o17bo550b2o2338bo5382b$4754bo248bo31bo535bobo2338bo5382b$4768b2o232bo32b2o2872bobo22b3o5358b$4769b2o245b2o16bobo549b3o2344bo2bo5358b$4768bo248b2o569bo2347bo5358b$4783b2o231bo32b3o535bo2348bo5358b$4782bobo246b2o18bo549b2o2330bobo5359b$4784bo245bobo17bo551b2o7691b$4798bo233bo31b2o535bo7693b$4798b2o246bo18b2o549b2o2324b3o5350b$4797bobo246b2o16bo550bobo2324bo2bo5349b$5045bobo31b2o536bo2324bo5352b$4812b3o263bobo550bo2304bo5bo5352b$4814bo245b3o17bo550b2o2288bo13b3o5bobo5349b$4813bo248bo31bo535bobo2287b3o12bob2o5356b$4827b2o232bo32b2o2823b2obo13b3o5356b$4828b2o245b2o16bobo549b3o839b2o1430b3o14b2o5357b$4827bo248b2o569bo838b4o1430b2o5373b$4842b2o231bo32b3o535bo839b2ob2o6804b$4841bobo246b2o18bo549b2o826b2o6805b$4843bo245bobo17bo551b2o7632b$4857bo233bo31b2o535bo7634b$4857b2o246bo18b2o549b2o7618b$4856bobo246b2o16bo550bobo7618b$5104bobo31b2o536bo2242b3o5373b$4871b3o263bobo550bo1433b2o792bo2bo5373b$4873bo245b3o17bo550b2o1430b2ob2o794bo5373b$4872bo248bo31bo535bobo1430b4o795bo5373b$4886b2o232bo32b2o1968b2o787b3o3bobo5374b$4887b2o245b2o16bobo549b3o2205bo2bo5379b$4886bo248b2o569bo2205bo5382b$4901b2o231bo32b3o535bo2206bo7b3o5372b$4900bobo246b2o18bo549b2o2192bobo4bo2bo5371b$4902bo245bobo17bo551b2o2198bo5374b$4916bo233bo31b2o535bo2200bo5374b$4916b2o246bo18b2o16bo532b2o2185bobo20b3o5348b$4915bobo246b2o16bo18bo531bobo2208bo2bo5347b$5163bobo31b2o2bo533bo2208bo5350b$4930b3o263bobo550bo2194bo5350b$4932bo245b3o17bo550b2o2194bobo5347b$4931bo248bo31bo535bobo770b4o6770b$4945b2o232bo32b2o1306bo3bo6770b$4946b2o245b2o16bobo549b3o758bo1427b3o5340b$4945bo248b2o569bo754bo2bo1427bo2bo5340b$4960b2o231bo570bo2189bo5340b$4959bobo246b2o568b2o2166bo7bo5340b$4961bo245bobo569b2o2150bo13b3o3bobo5341b$4975bo233bo31b2o535bo2151b3o11b2obo5347b$4975b2o265b2o549b2o2135bob2o10b3o5348b$4974bobo264bo550bobo2136b3o11b2o5348b$5794bo2136b2o5362b$4989b3o816bo7486b$4991bo245b3o568b2o7485b$4990bo248bo31bo535bobo7485b$5004b2o232bo32b2o8022b$5005b2o263bobo549b3o7470b$5004bo819bo7470b$5019b2o802bo2105b3o5363b$5018bobo246b2o568b2o2090bo2bo5362b$5020bo245bobo569b2o2089bo5365b$5034bo233bo31b2o535bo2091bo5365b$5034b2o265b2o549b2o2068b3o5bobo5362b$5033bobo264bo550bobo2067bo2bo5370b$5853bo703b2o1365bo5370b$5048b3o816bo687b2ob2o1364bo5b3o5362b$5050bo245b3o568b2o686b4o1362bobo5bo2bo5362b$5049bo248bo31bo535bobo687b2o1374bo5362b$5063b2o232bo32b2o2600bo5362b$5064b2o263bobo549b3o2045bobo22b3o5338b$5063bo819bo2069bo2bo5338b$5078b2o802bo1309b2o762bo5338b$5077bobo246b2o568b2o1293b4o761bo5338b$5079bo245bobo569b2o1292b2ob2o757bobo5339b$5093bo233bo31b2o535bo1296b2o6100b$5093b2o265b2o549b2o7382b$5092bobo264bo550bobo2049b3o5330b$5912bo2049bo2bo5329b$5107b3o816bo2035bo5332b$5109bo245b3o568b2o2028bo5bo5332b$5108bo248bo31bo535bobo2013bo13b3o5bobo5329b$5122b2o232bo32b2o2549b3o12bob2o5336b$5123b2o263bobo549b3o1996b2obo13b3o5336b$5122bo819bo1996b3o14b2o5337b$5137b2o802bo1998b2o5353b$5136bobo246b2o568b2o7338b$5138bo245bobo569b2o631bo2bo6702b$5152bo233bo31b2o535bo637bo6701b$5152b2o265b2o549b2o617bo3bo6701b$5151bobo264bo550bobo618b4o6701b$5971bo7323b$5166b3o816bo1953b3o5353b$5168bo245b3o568b2o1951bo2bo5353b$5167bo248bo31bo535bobo1954bo5353b$5181b2o232bo32b2o2491bo5353b$5182b2o263bobo549b3o1930b3o3bobo5354b$5181bo819bo1930bo2bo5359b$5196b2o802bo1931bo5362b$5195bobo246b2o568b2o1916bo7b3o5352b$5197bo245bobo569b2o1916bobo4bo2bo5351b$5211bo233bo31b2o535bo1925bo5354b$5211b2o265b2o549b2o1909bo5354b$5210bobo264bo550bobo1910bobo20b3o5328b$6030bo1933bo2bo5327b$5225b3o816bo1919bo5330b$5227bo245b3o568b2o1918bo5330b$5226bo248bo31bo535bobo1919bobo5327b$5240b2o232bo32b2o7786b$5241b2o263bobo549b3o7234b$5240bo819bo564b2o1345b3o5320b$5255b2o802bo564b4o1343bo2bo5320b$5254bobo246b2o568b2o549b2ob2o1345bo5320b$5256bo245bobo569b2o550b2o1338bo7bo5320b$5270bo233bo31b2o535bo1877bo13b3o3bobo5321b$5270b2o265b2o549b2o1860b3o11b2obo5327b$5269bobo264bo550bobo1860bob2o10b3o5328b$6089bo1861b3o11b2o5328b$5284b3o816bo1847b2o5342b$5286bo245b3o568b2o1157b2o6031b$5285bo248bo31bo535bobo1155b2ob2o6030b$5299b2o232bo32b2o1692b4o6031b$5300b2o263bobo549b3o1141b2o6032b$5299bo819bo7175b$5314b2o802bo7176b$5313bobo246b2o568b2o1815b3o5343b$5315bo245bobo569b2o1814bo2bo5342b$5329bo233bo31b2o535bo1816bo5345b$5329b2o265b2o549b2o1800bo5345b$5328bobo264bo550bobo1793b3o5bobo5342b$6148bo1792bo2bo5350b$5343b3o816bo1781bo5350b$5345bo245b3o568b2o1780bo5b3o5342b$5344bo248bo31bo535bobo1777bobo5bo2bo5342b$5358b2o232bo32b2o1032b4o1289bo5342b$5359b2o263bobo549b3o479bo3bo1289bo5342b$5358bo819bo483bo1286bobo22b3o5318b$5373b2o802bo480bo2bo1311bo2bo5318b$5372bobo246b2o568b2o1783bo5318b$5374bo245bobo569b2o1782bo5318b$5388bo233bo31b2o535bo1781bobo5319b$5388b2o265b2o549b2o7087b$5387bobo264bo550bobo7087b$6207bo1774b3o5310b$5402b3o816bo1760bo2bo5309b$5404bo245b3o568b2o1759bo5312b$5403bo248bo31bo535bobo1753bo5bo5312b$5417b2o232bo32b2o2275bo13b3o5bobo5309b$5418b2o263bobo549b3o1722b3o12bob2o5316b$5417bo819bo1721b2obo13b3o5316b$5432b2o802bo1722b3o14b2o5317b$5431bobo246b2o568b2o1708b2o5333b$5433bo245bobo569b2o7042b$5447bo233bo31b2o535bo7044b$5447b2o265b2o549b2o7028b$5446bobo264bo550bobo7028b$6266bo7028b$5461b3o816bo414b2o6598b$5463bo245b3o568b2o411b2ob2o1261b3o5333b$5462bo248bo31bo535bobo411b4o1261bo2bo5333b$5476b2o232bo32b2o949b2o1265bo5333b$5477b2o263bobo549b3o1664bo5333b$5476bo819bo1655b3o3bobo5334b$5491b2o802bo1656bo2bo5339b$5490bobo246b2o568b2o1019b2o620bo5342b$5492bo245bobo569b2o1017b4o619bo7b3o5332b$5506bo233bo31b2o535bo1019b2ob2o619bobo4bo2bo5331b$5506b2o265b2o549b2o1005b2o627bo5334b$5505bobo264bo550bobo1634bo5334b$6325bo1635bobo20b3o5308b$5520b3o816bo1644bo2bo5307b$5522bo245b3o568b2o1643bo5310b$5521bo248bo31bo535bobo1643bo5310b$5535b2o232bo32b2o2181bobo5307b$5536b2o263bobo549b3o6939b$5535bo819bo6939b$5550b2o802bo1637b3o5300b$5549bobo246b2o568b2o1621bo2bo5300b$5551bo245bobo569b2o1623bo5300b$5565bo233bo31b2o535bo358bo2bo1255bo7bo5300b$5565b2o265b2o549b2o346bo1239bo13b3o3bobo5301b$5564bobo264bo550bobo342bo3bo1238b3o11b2obo5307b$6384bo343b4o1238bob2o10b3o5308b$5579b3o816bo1572b3o11b2o5308b$5581bo245b3o568b2o1571b2o5322b$5580bo248bo31bo535bobo6895b$5594b2o232bo32b2o7432b$5595b2o263bobo549b3o6880b$5594bo819bo6880b$5609b2o802bo6881b$5608bobo246b2o568b2o6866b$5610bo245bobo569b2o1539b3o5323b$5624bo233bo31b2o535bo1541bo2bo5322b$5624b2o265b2o549b2o1525bo5325b$5623bobo264bo550bobo1525bo5325b$6443bo1518b3o5bobo5322b$5638b3o816bo1503bo2bo5330b$5640bo245b3o568b2o1505bo5330b$5639bo248bo31bo535bobo1505bo5b3o5322b$5653b2o232bo32b2o2039bobo5bo2bo5322b$5654b2o263bobo549b3o1498bo5322b$5653bo819bo1498bo5322b$5668b2o802bo290b2o1204bobo22b3o5298b$5667bobo246b2o568b2o274b4o1227bo2bo5298b$5669bo245bobo569b2o273b2ob2o1229bo5298b$5683bo233bo31b2o535bo277b2o1230bo5298b$5683b2o265b2o549b2o1490bobo5299b$5682bobo264bo550bobo6792b$6502bo6792b$5697b3o816bo1485b3o5290b$5699bo245b3o568b2o1484bo2bo5289b$5698bo248bo31bo535bobo882b2o600bo5292b$5712b2o232bo32b2o1417b2ob2o593bo5bo5292b$5713b2o263bobo549b3o865b4o579bo13b3o5bobo5289b$5712bo819bo866b2o579b3o12bob2o5296b$5727b2o802bo1447b2obo13b3o5296b$5726bobo246b2o568b2o1432b3o14b2o5297b$5728bo245bobo569b2o1432b2o5313b$5742bo233bo31b2o535bo6749b$5742b2o265b2o549b2o6733b$5741bobo264bo550bobo6733b$6561bo6733b$5756b3o816bo6719b$5758bo245b3o568b2o6718b$5757bo248bo31bo535bobo1402b3o5313b$5771b2o232bo32b2o1938bo2bo5313b$5772b2o263bobo549b3o205b4o1180bo5313b$5771bo819bo204bo3bo1180bo5313b$5786b2o802bo209bo1171b3o3bobo5314b$5785bobo246b2o568b2o190bo2bo1172bo2bo5319b$5787bo245bobo569b2o1365bo5322b$5801bo233bo31b2o535bo1367bo7b3o5312b$5801b2o265b2o549b2o1352bobo4bo2bo5311b$5800bobo264bo550bobo1359bo5314b$6620bo1359bo5314b$5815b3o816bo1346bobo20b3o5288b$5817bo245b3o568b2o1368bo2bo5287b$5816bo248bo31bo535bobo1368bo5290b$5830b2o232bo32b2o1905bo5290b$5831b2o263bobo549b3o1354bobo5287b$5830bo819bo6644b$5845b2o802bo6645b$5844bobo246b2o568b2o1347b3o5280b$5846bo245bobo569b2o1345bo2bo5280b$5860bo233bo31b2o535bo1350bo5280b$5860b2o265b2o549b2o1326bo7bo5280b$5859bobo264bo550bobo1311bo13b3o3bobo5281b$6679bo1310b3o11b2obo5287b$5874b3o816bo1296bob2o10b3o5288b$5876bo245b3o568b2o138b2o1156b3o11b2o5288b$5875bo248bo31bo535bobo136b2ob2o1155b2o5302b$5889b2o232bo32b2o673b4o6460b$5890b2o263bobo549b3o122b2o6461b$5889bo819bo6585b$5904b2o802bo6586b$5903bobo246b2o568b2o6571b$5905bo245bobo569b2o743b2o5825b$5919bo233bo31b2o535bo744b4o518b3o5303b$5919b2o265b2o549b2o728b2ob2o517bo2bo5302b$5918bobo264bo550bobo730b2o518bo5305b$6738bo1250bo5305b$5933b3o816bo1229b3o5bobo5302b$5935bo245b3o568b2o1227bo2bo5310b$5934bo248bo31bo535bobo1230bo5310b$5948b2o232bo32b2o1767bo5b3o5302b$5949b2o263bobo549b3o1212bobo5bo2bo5302b$5948bo819bo1223bo5302b$5963b2o802bo1224bo5302b$5962bobo246b2o568b2o1206bobo22b3o5278b$5964bo245bobo569b2o1229bo2bo5278b$5978bo233bo31b2o535bo1234bo5278b$5978b2o265b2o549b2o67bo2bo1147bo5278b$5977bobo264bo550bobo71bo1143bobo5279b$6797bo67bo3bo6425b$5992b3o816bo54b4o6425b$5994bo245b3o568b2o1209b3o5270b$5993bo248bo31bo535bobo1209bo2bo5269b$6007b2o232bo32b2o1746bo5272b$6008b2o263bobo549b3o1188bo5bo5272b$6007bo819bo1173bo13b3o5bobo5269b$6022b2o802bo1173b3o12bob2o5276b$6021bobo246b2o568b2o1157b2obo13b3o5276b$6023bo245bobo569b2o1156b3o14b2o5277b$6037bo233bo31b2o535bo1159b2o5293b$6037b2o265b2o549b2o6438b$6036bobo264bo550bobo6438b$6856bo6438b$6051b3o816bo6424b$6053bo245b3o568b2o6423b$6052bo248bo31bo535bobo6423b$6066b2o232bo32b2o1664b3o5293b$6067b2o263bobo549b3o1111bo2bo5293b$6066bo819bo1114bo5293b$6081b2o802bo1115bo5293b$6080bobo246b2o1661b3o3bobo5294b$6082bo245bobo1661bo2bo5299b$6096bo233bo31b2o1628bo5302b$6096b2o265b2o1627bo7b3o5292b$6095bobo264bo532bo1097bobo4bo2bo5291b$6894bobo1103bo5294b$6110b3o781bobo1103bo5294b$6112bo245b3o534bo1105bobo20b3o5268b$6111bo248bo31bo1631bo2bo5267b$6125b2o232bo32b2o1144b2o484bo5270b$6126b2o263bobo497b2o643b2ob2o483bo5270b$6125bo765bobo642b4o485bobo5267b$6140b2o751b2o642b2o5756b$6139bobo246b2o502bo6402b$6141bo245bobo500bobo1139b3o5260b$6155bo233bo31b2o466b2o1140bo2bo5260b$6155b2o265b2o465b3o1142bo5260b$6154bobo264bo1604bo7bo5260b$8011bo13b3o3bobo5261b$6169b3o1838b3o11b2obo5267b$6171bo245b3o1590bob2o10b3o5268b$6170bo248bo31bo1559b3o11b2o5268b$6184b2o232bo32b2o1558b2o5282b$6185b2o263bobo6842b$6184bo7110b$6199b2o677bo6416b$6198bobo246b2o428b3o6415b$6200bo245bobo427b5o6414b$6214bo233bo31b2o394b2ob3o6413b$6214b2o265b2o394b2ob2o1127b3o5283b$6213bobo264bo398bo1129bo2bo5282b$8009bo5285b$6228b3o1778bo5285b$6230bo245b3o1523b3o5bobo5282b$6229bo248bo31bo1490bo2bo5290b$6243b2o232bo32b2o1492bo5290b$6244b2o263bobo1492bo5b3o5282b$6243bo1757bobo5bo2bo5282b$6258b2o1752bo5282b$6257bobo246b2o1504bo5282b$6259bo245bobo1501bobo22b3o5258b$6273bo233bo31b2o1492bo2bo5258b$6273b2o265b2o1494bo5258b$6272bobo264bo1496bo5258b$6898bo1134bobo5259b$6287b3o609b2o6394b$6289bo245b3o329bo30b2o6395b$6288bo248bo31bo296b3o1173b3o5250b$6302b2o232bo32b2o294bo2b2o1172bo2bo5249b$6303b2o263bobo294bo3bo1172bo5252b$6302bo564bobo1166bo5bo5252b$6317b2o1702bo13b3o5bobo5249b$6316bobo246b2o297b2ob2o1151b3o12bob2o5256b$6318bo245bobo299bo1152b2obo13b3o5256b$6332bo233bo31b2o284bobo719b2o411b3o14b2o5257b$6332b2o265b2o284b2o718b4o411b2o5273b$6331bobo264bo286bo719b2ob2o5685b$6866b4o737b2o5686b$6346b3o517bobobo6424b$6348bo245b3o272bo6425b$6347bo248bo31bo6666b$6361b2o232bo32b2o6665b$6362b2o263bobo1389b3o5273b$6361bo507bo1148bo2bo5273b$6376b2o492b2o1149bo5273b$6375bobo246b2o243b2o1150bo5273b$6377bo245bobo1386b3o3bobo5274b$6391bo233bo31b2o1353bo2bo5279b$6391b2o265b2o1352bo5282b$6390bobo264bo198bo1155bo7b3o5272b$6855b3o1155bobo4bo2bo5271b$6405b3o446b2o2bo1161bo5274b$6407bo245b3o199b5o1160bo5274b$6406bo248bo31bo167b2o2bo1161bobo20b3o5248b$6420b2o232bo32b2o167bo2bo1184bo2bo5247b$6421b2o263bobo167bobo1185bo5250b$6420bo1623bo5250b$6435b2o1608bobo5247b$6434bobo246b2o6610b$6436bo245bobo6610b$6450bo233bo31b2o1334b3o5240b$6450b2o265b2o1332bo2bo5240b$6449bobo264bo1337bo5240b$8046bo7bo5240b$6464b3o379bo1184bo13b3o3bobo5241b$6466bo245b3o130bo1184b3o11b2obo5247b$6465bo248bo31bo98b3o1182bob2o10b3o5248b$6479b2o232bo32b2o166bo1116b3o11b2o5248b$6480b2o263bobo164bobo1116b2o5262b$6479bo433b2o6380b$6494b2o6799b$6493bobo246b2o6551b$6495bo245bobo6551b$6509bo233bo31b2o6518b$6509b2o265b2o6517b$6508bobo264bo1253b3o5263b$6900bo1128bo2bo5262b$6523b3o375bo1127bo5265b$6525bo245b3o125b3o1127bo5265b$6524bo248bo31bo1216b3o5bobo5262b$6538b2o232bo32b2o1214bo2bo5270b$6539b2o263bobo869b2o346bo5270b$6538bo1135b2ob2o345bo5b3o5262b$6553b2o1119b4o343bobo5bo2bo5262b$6552bobo246b2o872b2o355bo5262b$6554bo245bobo1229bo5262b$6568bo233bo31b2o49bo1143bobo22b3o5238b$6568b2o265b2o46bobo1167bo2bo5238b$6567bobo264bo49b2o1170bo5238b$8056bo5238b$6582b3o1468bobo5239b$6584bo245b3o6462b$6583bo248bo31bo6430b$6597b2o232bo32b2o1196b3o5230b$6598b2o263bobo1196bo2bo5229b$6597bo271bo1192bo5232b$6612b2o256bo1185bo5bo5232b$6611bobo246b2o6b3o1170bo13b3o5bobo5229b$6613bo245bobo1178b3o12bob2o5236b$6627bo233bo31b2o1144b2obo13b3o5236b$6627b2o265b2o1143b3o14b2o5237b$6626bobo264bo1146b2o5253b$13295b$6641b3o6651b$6643bo245b3o6403b$6642bo179b2o67bo31bo6371b$6656b2o164b2o66bo32b2o6370b$6657b2o165bo97bobo6370b$6656bo165b2o1215b3o5253b$6671b2o149b2o1214bo2bo5253b$6670bobo246b2o6bobo1111bo5253b$6672bo151b2o92bobo7b2o1111bo5253b$6686bo137b2o94bo7bo23b2o1078b3o3bobo5254b$6686b2o265b2o1077bo2bo5259b$6685bobo264bo1079bo5262b$8032bo7b3o5252b$6700b3o1330bobo4bo2bo5251b$6702bo111bobo131b3o1089bo5254b$6701bo112b2o134bo31bo1057bo5254b$6715b2o98bo98bo34bo32b2o1057bobo20b3o5228b$6716b2o197b2o64bobo1080bo2bo5227b$6715bo198b2o1148bo5230b$6730b2o1332bo5230b$6729bobo246b2o1085bobo5227b$6731bo245bobo6315b$6745bo233bo31b2o6282b$6745b2o265b2o730b2o326b3o5220b$6744bobo264bo731b4o324bo2bo5220b$7743b2ob2o326bo5220b$6759b3o136bobo844b2o319bo7bo5220b$6761bo137b2o106b3o1041bo13b3o3bobo5221b$6760bo138bo109bo31bo1008b3o11b2obo5227b$6774b2o232bo32b2o1007bob2o10b3o5228b$6775b2o263bobo1008b3o11b2o5228b$6774bo1276b2o5242b$6789b2o6504b$6788bobo246b2o6256b$6790bo245bobo6256b$6804bo78bo154bo31b2o6223b$6804b2o78b2o185b2o6222b$6803bobo77b2o185bo6224b$8049b3o5243b$6818b3o1228bo2bo5242b$6820bo245b3o980bo5245b$6819bo248bo31bo948bo5245b$7067bo32b2o940b3o5bobo5242b$7099bobo939bo2bo5250b$8044bo5250b$8044bo5b3o5242b$7096b2o943bobo5bo2bo5242b$6830b3o262bobo954bo5242b$7097bo31b2o921bo5242b$6943bo186b2o917bobo22b3o5218b$6944bo184bo943bo2bo5218b$6942b3o1131bo5218b$8076bo5218b$7125b3o945bobo5219b$7127bo31bo6135b$7126bo32b2o6134b$6788bo2bo366bobo921b3o5210b$6788bob2o1290bo2bo5209b$6790b2o1290bo5212b$6930bo224b2o919bo5bo5212b$6928bobo223bobo904bo13b3o5bobo5209b$6792b2o135b2o225bo31b2o870b3o12bob2o5216b$6792b2o395b2o868b2obo13b3o5216b$7188bo870b3o14b2o5217b$8060b2o5233b$13295b$6783bo400b3o6108b$6783bobo400bo31bo6076b$6783b2o129bo270bo32b2o6075b$6826bo88bo301bobo6075b$6826bo86b3o898b2o5479b$6826bo985b2ob2o242b3o5233b$7214b2o596b4o242bo2bo5233b$7213bobo597b2o246bo5233b$7215bo31b2o812bo5233b$7248b2o802b3o3bobo5234b$7247bo804bo2bo5239b$8052bo5242b$6899bo1152bo7b3o5232b$6897bobo343b3o807bobo4bo2bo5231b$6898b2o345bo31bo782bo5234b$7244bo32b2o781bo5234b$7276bobo782bobo20b3o5208b$8084bo2bo5207b$8084bo5210b$7273b2o809bo5210b$6767b3o502bobo810bobo5207b$6767bo2bo503bo31b2o5987b$6769b2o536b2o5986b$7306bo785b3o5200b$6765bo2bo1322bo2bo5200b$6766b2o1326bo5200b$6769b2o186bo344b3o781bo7bo5200b$6768b3o49b3o135b2o344bo31bo734bo13b3o3bobo5201b$6769bo187b2o344bo32b2o732b3o11b2obo5207b$6766b2ob2o564bobo732bob2o10b3o5208b$6766b2ob2o1300b3o11b2o5208b$6766bo3bo31bo1268b2o5222b$6766bo3bo29bobo529b2o5961b$6767bo33b2o528bobo5961b$7333bo31b2o5928b$7366b2o5927b$6943bobo419bo5929b$6944b2o6349b$6944bo1124b3o5223b$7361b3o705bo2bo5222b$6772bo590bo31bo673bo5225b$6773bo588bo32b2o672bo5225b$6771b3o620bobo665b3o5bobo5222b$8061bo2bo5230b$8064bo5230b$6928bo462b2o671bo5b3o5222b$6929b2o459bobo668bobo5bo2bo5222b$6928b2o462bo31b2o646bo5222b$7425b2o645bo5222b$6816bo607bo457b2o185bobo22b3o5198b$6816bo1064b4o208bo2bo5198b$6816bo1064b2ob2o210bo5198b$6753bo666b3o460b2o211bo5198b$6751b2o669bo31bo638bobo5199b$6752b2o667bo32b2o5839b$6912bobo538bobo5839b$6913b2o1187b3o5190b$6913bo1188bo2bo5189b$7450b2o650bo5192b$7449bobo644bo5bo5192b$7451bo31b2o596bo13b3o5bobo5189b$7484b2o594b3o12bob2o5196b$7483bo595b2obo13b3o5196b$8079b3o14b2o5197b$8080b2o5213b$7479b3o5813b$7481bo31bo5781b$7480bo32b2o5780b$7512bobo5780b$6973bo6321b$6811bo159bobo6321b$6810bobo159b2o535b2o568b3o5213b$6810bo2bo694bobo567bo2bo5213b$6811b2o697bo31b2o537bo5213b$7543b2o536bo5213b$7542bo529b3o3bobo5214b$8072bo2bo5219b$8072bo5222b$6959bo578b3o531bo7b3o5212b$6960bo579bo31bo500bobo4bo2bo5211b$6958b3o578bo32b2o506bo5214b$7571bobo506bo5214b$8081bobo20b3o5188b$6786bo1317bo2bo5187b$6787b2o779b2o534bo5190b$6786b2o779bobo534bo5190b$7569bo31b2o502bobo5187b$7602b2o5691b$6944bo656bo5693b$6942bobo1167b3o5180b$6943b2o1166bo2bo5180b$7597b3o514bo5180b$7599bo31bo474bo7bo5180b$7598bo32b2o458bo13b3o3bobo5181b$7630bobo457b3o11b2obo5187b$6727bo1362bob2o10b3o5188b$6727bobo73b2o1147b2o137b3o11b2o5188b$6727b2o72bo126bo698b2o321b2ob2o136b2o5202b$6801b3o125bo696bobo321b4o5341b$6803b2o122b3o698bo31b2o289b2o5342b$7661b2o5632b$7660bo5634b$6805b2o6488b$6805b2o6488b$7656b3o430b3o5203b$7658bo31bo398bo2bo5202b$7657bo32b2o397bo5205b$6715bo80bobo890bobo397bo5205b$6714bobo79b2o1284b3o5bobo5202b$6713bo3bo79bo1283bo2bo5210b$6714bo2bo968b2o396bo5210b$6714bo2bo967bobo396bo5b3o5202b$6715bobo268bobo698bo31b2o360bobo5bo2bo5202b$6987b2o731b2o370bo5202b$6987bo731bo372bo5202b$8089bobo22b3o5178b$8113bo2bo5178b$7715b3o398bo5178b$7717bo31bo366bo5178b$6797bo918bo32b2o362bobo5179b$6796bobo949bobo5544b$6796bobo174bo6321b$6797bo176b2o1146b3o5170b$6973b2o770b2o375bo2bo5169b$7744bobo375bo5172b$7746bo31b2o336bo5bo5172b$7779b2o320bo13b3o5bobo5169b$7778bo321b3o12bob2o5176b$8099b2obo13b3o5176b$8099b3o14b2o5177b$7774b3o323b2o5193b$6957bobo816bo31bo5486b$6958b2o815bo32b2o5485b$6958bo848bobo5485b$13295b$6722bo6572b$6723bo1080b2o5489b$6721b3o1079bobo293b3o5193b$6813bobo989bo31b2o259bo2bo5193b$6814b2o1022b2o261bo5193b$6814bo127bo894bo263bo5193b$6943b2o1075b2o70b3o3bobo5194b$6792bo149b2o1075b4o69bo2bo5199b$6791bobo1039b3o183b2ob2o68bo5202b$6791bobo1041bo31bo153b2o69bo7b3o5192b$6792bo1041bo32b2o224bobo4bo2bo5191b$7866bobo231bo5194b$6697bo1402bo5194b$6695b2o1404bobo20b3o5168b$6696b2o74bo1090b2o259bo2bo5167b$6771bo1090bobo259bo5170b$6771b3o1090bo31b2o226bo5170b$7897b2o226bobo5167b$7896bo5398b$7002bo6292b$7003bo1128b3o5160b$7001b3o888b3o236bo2bo5160b$7894bo31bo207bo5160b$7893bo32b2o198bo7bo5160b$7925bobo183bo13b3o3bobo5161b$8110b3o11b2obo5167b$8110bob2o10b3o5168b$7922b2o187b3o11b2o5168b$7921bobo187b2o5182b$6989bo933bo31b2o5338b$6987bobo966b2o5337b$6988b2o965bo5339b$13295b$6784b3o6508b$6784bo2bo1163b3o5341b$6788bo1164bo31bo123b3o5183b$6785b3o1164bo32b2o122bo2bo5182b$7984bobo122bo5185b$6973bo1135bo5185b$6974bo1127b3o5bobo5182b$6972b3o1006b2o118bo2bo5190b$7980bobo121bo5190b$7982bo31b2o88bo5b3o5182b$6736bo1278b2o84bobo5bo2bo5182b$6737b2o1275bo97bo5182b$6736b2o37b2o52bo1282bo5182b$6774bo2bo52bo1278bobo22b3o5158b$6774bo2bo50b3o1179b3o120bo2bo5158b$6774bo183bo1053bo31bo91bo5158b$6777bo178bobo1052bo32b2o90bo5158b$6775b3o179b2o1084bobo87bobo5159b$6750b3o24b2o6516b$6749bo2bo25bo6516b$6749bo4bo1285b2o48b2o50b3o5150b$6754bo1284bobo46b2ob2o49bo2bo5149b$6672bo81b2o14bo1270bo31b2o13b4o50bo5152b$6673b2o76bob2o13b2o1304b2o13b2o45bo5bo5152b$6667b2o83bo16b2o1302bo47bo13b3o5bobo5149b$6667bo1452b3o12bob2o5156b$6669b3o1447b2obo13b3o5156b$6666bo5bo1396b3o47b3o14b2o5157b$6667bo4bo1398bo31bo16b2o5173b$6668bo2bo344bo1053bo32b2o5190b$6670bo88bobo255b2o1083bobo5190b$6665bo91bo4bo253b2o6277b$6664bo92bo4bo6532b$6664b3o94b2o1336b2o5194b$6740bobo1355bobo5194b$6740b2o15b2o2b2o1337bo18b3o5173b$6741bo15b2o2b2o1355bo2bo5173b$6758bob3o1358bo5173b$6761bo1359bo5173b$6760bo241bobo1113bobo5174b$6654bo2b2o344b2o6290b$6658b2o343bo6291b$6657b2o1461b3o5172b$6744bo1375bo2bo5171b$6653b2o2b2o84bobo50bobo1321bo5174b$6659bo83bobo51b2o1321bo5174b$6653b4o87bo52bo1323bobo20b3o5148b$6655bo2bo1485bo2bo5147b$6987bo1156bo5150b$6988b2o1154bo5150b$6987b2o1156bobo5147b$13295b$13295b$6785bo1366b3o5140b$6786b2o1363bo2bo5140b$6785b2o56bo1310bo5140b$6844b2o1300bo7bo5140b$6843b2o1286bo13b3o3bobo5141b$6971bobo1156b3o11b2obo5147b$6972b2o1156bob2o10b3o5148b$6972bo1158b3o11b2o5148b$8131b2o5162b$6678bo6616b$6679bo6615b$6677b3o6615b$13295b$6739bo6555b$6738bobo6554b$6738bobo1388b3o5163b$6739bo1389bo2bo5162b$8129bo5165b$8097b2o30bo5165b$6665bo366bo1064b2o31bobo5162b$6663bobo364bobo6262b$6664b2o72bo292b2o6262b$6737bo1392b3o5162b$6716bo20b3o1389bo2bo5162b$6715bo1416bo5162b$6715b3o1414bo5162b$8129bobo22b3o5138b$8153bo2bo5138b$7018bo1137bo5138b$7019bo1136bo5138b$7017b3o1133bobo5139b$6633bobo6659b$6633b2o6660b$6634bo177bo1349b3o5130b$6813bo1348bo2bo5129b$6811b3o1348bo5132b$6734bo1421bo5bo5132b$6733bobo1405bo13b3o5bobo5129b$6733bobo267bo1136b3o12bob2o5136b$6734bo266bobo1135b2obo13b3o5136b$7002b2o1135b3o14b2o5137b$6622bo1517b2o5153b$6621b3o76b3o6592b$6621b4o75bobo98bo6493b$6700bo2bo95bobo6493b$6701b3o96b2o57bo6435b$6621b4o76b3o153bobo6435b$6621b4o74bo2bo155b2o127bo6307b$6623bo78bo285bo1150b3o5153b$6699bo286b3o1149bo2bo5153b$6700b2o1439bo5153b$6699b3o1439bo5153b$6692bo6b2o1437bobo5154b$6693b2o3bobo2b2o6590b$6692b2o4bobo2b2o6590b$6698b3o1439b3o5152b$8140bo2bo5151b$8140bo5154b$8140bo5154b$6729bo1411bobo20b3o5128b$6728bobo1433bo2bo5127b$6728bobo1433bo5130b$6678bobo48bo315bobo1116bo5130b$6679b2o32b2o331b2o1117bobo5127b$6679bo26bo4bo334bo1040b2o5206b$6704bobo4b3o1373b2o5206b$6705b2o6b2o1457b3o5120b$8171bo2bo5120b$8174bo5120b$6715b2o1449bo7bo5120b$6715b2o1434bo13b3o3bobo5121b$6629bo402bo1117b3o11b2obo5127b$6630b2o401b2o1115bob2o10b3o5128b$6629b2o401b2o1117b3o11b2o5128b$6706bobo1442b2o5142b$6706b2o6587b$6684bobo20bo118bo6468b$6684b2o141b2o6466b$6685bo140b2o6467b$6694bo6600b$6693bobo6599b$6693bobo320bobo1130b3o5143b$6694bo29bo292b2o1130bo2bo5142b$6600bo122bobo291bo1131bo5145b$6599bob2o120bobo1423bo5145b$6601b2o121bo1425bobo5142b$6600b3o211bobo6478b$6815b2o6478b$6604b2o209bo56bobo1275b3o5142b$6603b3o267b2o1274bo2bo5142b$6873bo127bo1150bo5142b$7002b2o1148bo5142b$6596bo404b2o1146bobo22b3o5118b$6595bo1577bo2bo5118b$6595b3o1578bo5118b$8176bo5118b$8173bobo5119b$13295b$13295b$8182b3o5110b$8182bo2bo5109b$8182bo5112b$8176bo5bo5112b$8161bo13b3o5bobo5109b$6687b2o372bo1098b3o12bob2o5116b$6687b2o30bo342bo1096b2obo13b3o5116b$6718bobo339b3o1096b3o14b2o5117b$6718bobo1439b2o5133b$6719bo6575b$13295b$8077b2o5216b$8077b2o5216b$13295b$13295b$6645bo402bo1110b3o5133b$6643bobo400bobo1109bo2bo5133b$6644b2o15b2o19bo364b2o1112bo5133b$6661bobo17bo1479bo5133b$6663bo17b3o1474bobo5134b$6661bobo178bo6452b$6661b2o177bobo6452b$6662b2o177b2o1317b3o5132b$6663b2o1495bo2bo5131b$6611bo51b2o367bo1127bo5134b$6612bo420bo1126bo5134b$6610b3o418b3o1127bobo20b3o5108b$8184bo2bo5107b$6682b2o1500bo5110b$6653bo15b3o10b2o146bo1353bo5110b$6653bobo12bo3bo158bo1353bobo5107b$6653b2o18bo155b3o56bo6406b$6710bo178bo6405b$6668b2o3bo35bobo175b3o1302b3o5100b$6670b3o36bob2o304bo1173bo2bo5100b$6711bo303bobo1176bo5100b$6572bo443b2o1168bo7bo5100b$6570b2o140bob2o1455bo13b3o3bobo5101b$6571b2o140b2o1455b3o11b2obo5107b$6641b3o1526bob2o10b3o5108b$6644bo1526b3o11b2o5108b$6641bo2bo62bo1463b2o5122b$6642b2o61b2o6588b$6642b2o62b2o6587b$6641bo2bo6650b$6641bo6653b$6643b2o6650b$13295b$7075bo1093b3o5123b$7076b2o1091bo2bo5122b$7075b2o1092bo5125b$6677b2o1490bo5125b$6677b2o1491bobo5122b$13295b$6633bo6661b$6632b3o1535b3o5122b$6632b3o1534bo2bo5122b$8067b2o103bo5122b$6632b4o22bobo400bobo1003b2o103bo5122b$6631b5o23b2o401b2o1105bobo22b3o5098b$6631b2obo24bo402bo1130bo2bo5098b$8196bo5098b$6654b3o1539bo5098b$6632b2o20bo2bo197bobo1335bobo5099b$6631bo22bo2bo198b2o6437b$6856bo6438b$6630bobo2bo21b2o1543b3o5090b$6625bo4bob3obo19bo2bo386bo1155bo2bo5089b$6626b2ob3ob2obo19bo2bo387b2o1153bo5092b$6625b2o3bobo17bo5bo389b2o1148bo5bo5092b$6630b3o18bo1529bo13b3o5bobo5089b$6631bo17b3o1528b3o12bob2o5096b$6720bo123bo1334b2obo13b3o5096b$6721b2o122b2o1332b3o14b2o5097b$6672b2o46b2o122b2o56bo1277b2o5113b$6672b2o229b2o6390b$6902b2o6391b$6645b2o383bobo6262b$6645b2o384b2o6262b$6546bo92bo7bo383bo6263b$6546bobo88bobo5b2o6648b$6546b2o90b2o5b2o1532b3o5113b$8178bo2bo5113b$6647b2o1532bo5113b$6647b2o32bo1499bo5113b$6681bobo1494bobo5114b$6681b2o6612b$13295b$8180b3o5112b$6637bobo1540bo2bo5111b$6637b2o1541bo5114b$6615bobo20bo452bo1088bo5114b$6615b2o472bobo1089bobo20b3o5088b$6616bo9bo463b2o1112bo2bo5087b$6625bobo1576bo5090b$6625bobo1576bo5090b$6626bo1578bobo5087b$13295b$13295b$8212b3o5080b$7077bo1133bo2bo5080b$7078bo1135bo5080b$7076b3o1127bo7bo5080b$8057b2o132bo13b3o3bobo5081b$8057b2o131b3o11b2obo5087b$6871bo1318bob2o10b3o5088b$6872bo1318b3o11b2o5088b$6870b3o1318b2o5102b$13295b$13295b$7062bo6232b$7060bobo6232b$7061b2o6232b$13295b$8189b3o5103b$6736bo123bo1328bo2bo5102b$6621bo112bobo121bobo1328bo5105b$6620bobo112b2o122b2o57bo1270bo5105b$6620bobo293bobo1271bobo5102b$6621bo295b2o127bo6248b$7047bo6247b$7045b3o1142b3o5102b$6521bobo1665bo2bo5102b$6521b2o1669bo5102b$6522bo1669bo5102b$8189bobo22b3o5078b$8213bo2bo5078b$6656bobo1557bo5078b$6656b2o1558bo5078b$6657bo1555bobo5079b$13295b$6613bo6681b$6612bo1609b3o5070b$6591bo20b3o1607bo2bo5069b$6590bo513bobo1115bo5072b$6590b3o512b2o1109bo5bo5072b$7105bo1095bo13b3o5bobo5069b$6507b3o1690b3o12bob2o5076b$8199b2obo13b3o5076b$6507bobo106bo1582b3o14b2o5077b$6510bo104bobo1582b2o5093b$6506bo3bo104bobo6677b$6616bo6678b$6506bo2b2o580bo6203b$7092b2o6201b$7091b2o6202b$6507bo6787b$6507bo1691b3o5093b$6506bo378bo1312bo2bo5093b$6507bob2o375b2o1159b2o152bo5093b$6511bo373b2o1160b2o152bo5093b$6504bo4bo1688bobo5094b$13295b$6505bobo567bobo6217b$6505b3o568b2o1122b3o5092b$7076bo1123bo2bo5091b$8200bo5094b$8200bo5094b$6749bobo121bobo1325bobo20b3o5068b$6750b2o122b2o1348bo2bo5067b$6750bo123bo56bobo1290bo5070b$6932b2o1290bo5070b$6513bo97bo320bo127bo1164bobo5067b$6514b2o94bobo448b2o6232b$6513b2o95bobo447b2o6233b$6611bo1620b3o5060b$8231bo2bo5060b$8234bo5060b$8226bo7bo5060b$6632bo1578bo13b3o3bobo5061b$6569b3o59bo1578b3o11b2obo5067b$6568bo2bo59b3o1576bob2o10b3o5068b$6568bo4bo1637b3o11b2o5068b$6573bo1637b2o5082b$6490bo82b2o14bo6705b$6490bobo77bob2o13b2o6706b$6490b2o79bo16b2o530bo6174b$7121bo6173b$7119b3o6173b$13295b$8209b3o5083b$8209bo2bo5082b$6578bobo1628bo5085b$6576bo4bo1627bo5085b$6576bo4bo1628bobo5082b$6580b2o24bo6688b$6559bobo43bobo499bo6187b$6559b2o15b2o2b2o23bobo497bobo1102b3o5082b$6477bo82bo15b2o2b2o24bo499b2o1101bo2bo5082b$6477bo99bob3o1630bo5082b$6476bobo101bo1631bo5082b$6579bo321bo1307bobo22b3o5058b$6478b2o419bobo1331bo2bo5058b$6900b2o1334bo5058b$6478b2o1756bo5058b$7091bo945b2o194bobo5059b$7092bo944b2o5256b$7090b3o6202b$8242b3o5050b$6475b2o1765bo2bo5049b$6475b3o287bo123bo1352bo5052b$6479bo286bo123bo1345bo5bo5052b$6477b2o285b3o121b3o56bo1273bo13b3o5bobo5049b$6948bo1271b3o12bob2o5056b$6946b3o1270b2obo13b3o5056b$6474bobo52bo546bo1142b3o14b2o5057b$6474bobo50bobo544bobo1143b2o5073b$6475bo52b2o545b2o6218b$6601bo6693b$6600bobo6692b$6600bobo6692b$6601bo6693b$6608bo6686b$6606b2o1611b3o5073b$6483bo123b2o1609bo2bo5073b$6484bo1736bo5073b$6482b3o1736bo5073b$8218bobo5074b$13295b$7134bo6160b$7135b2o1083b3o5072b$7134b2o1084bo2bo5071b$8220bo5074b$8220bo5074b$8221bobo20b3o5048b$8244bo2bo5047b$6460bo96bo1686bo5050b$6458b2o96bo1687bo5050b$6459b2o74bo20b3o1686bobo5047b$6534bo585bobo6172b$6534b3o584b2o6172b$6596bo524bo1130b3o5040b$6595bobo1653bo2bo5040b$6595bobo1656bo5040b$6596bo317bobo1329bo7bo5040b$6915b2o1314bo13b3o3bobo5041b$6915bo1314b3o11b2obo5047b$8230bob2o10b3o5048b$7105bo1125b3o11b2o5048b$7106b2o1123b2o5062b$6522b3o580b2o6188b$6445b3o73bo3bo1501b2o5266b$6446bo79bo1500b2o5266b$6446b3o330bo123bo6391b$6521b2o3bo253b2o122b2o6389b$6523b3o253b2o122b2o56bo6333b$6962b2o1265b3o5063b$6961b2o1266bo2bo5062b$6542bobo544bobo1137bo5065b$6543b2o545b2o1137bo5065b$6543bo546bo1139bobo5062b$6444bobo6848b$6444bobo6848b$8230b3o5062b$6447bo143bo1637bo2bo5062b$6582bo7bobo1639bo5062b$6582bobo5bobo1639bo5062b$6497bo84b2o7bo1637bobo22b3o5038b$6443bobo52b2o1753bo2bo5038b$6444bo52b2o1757bo5038b$8256bo5038b$8253bobo5039b$7150bo6144b$6535b3o610bobo6144b$6534bo2bo611b2o1111b3o5030b$6534bo4bo1722bo2bo5029b$6539bo1722bo5032b$6451bobo85b2o1715bo5bo5032b$6452b2o82bob2o1701bo13b3o5bobo5029b$6452bo78bo5bo1702b3o12bob2o5036b$6529bobo1707b2obo13b3o5036b$6530b2o604bo1102b3o14b2o5037b$7137bo1102b2o5053b$7135b3o6157b$13295b$13295b$6930bo6364b$6586bo344bo6363b$6428bo156bobo341b3o6363b$6427bo97bobo57bobo1651b3o5053b$6427b3o95b2o59bo1651bo2bo5053b$6503bobo20bo594bo1119bo5053b$6503b2o614bobo1119bo5053b$6504bo615b2o1116bobo5054b$13295b$13295b$6795bo123bo1320b3o5052b$6793bobo121bobo1097b2o221bo2bo5051b$6794b2o122b2o57bo1039b2o221bo5054b$6975bobo1262bo5054b$6415b3o140bo417b2o127bo1135bobo20b3o5028b$6414bo3bo140bo546bo1157bo2bo5027b$6419bo137b3o544b3o1157bo5030b$8264bo5030b$6414b2o3bo70b3o1772bobo5027b$6416b3o71b3o6802b$6490bo2bo6801b$6491b3o1778b3o5020b$6491b2o64bobo1711bo2bo5020b$6557b2o1715bo5020b$6513bo44bo22bo1684bo7bo5020b$6511bobo66bobo1668bo13b3o3bobo5021b$6512b2o66bobo1667b3o11b2obo5027b$6581bo1668bob2o10b3o5028b$8251b3o11b2o5028b$7163bobo1085b2o5042b$7164b2o6129b$7164bo6130b$13295b$6467bo6827b$6468bo6826b$6466b3o6826b$8249b3o5043b$6543b3o1703bo2bo5042b$7150bo1098bo5045b$6543bobo605b2o1096bo5045b$6546bo27bo575b2o1098bobo5042b$6504bo37bo3bo26b3o6719b$6503b3o66b2o2bo6718b$6424bo78bob2o35bo2b2o25bo3bo367bo1305b3o5042b$6422bobo79bo2bo64bob2o369b2o1302bo2bo5042b$6423b2o72bo7b2o65b2o370b2o1306bo5042b$6498b2o5bo37bo1708bo5042b$6497b2o44bo1705bobo22b3o5018b$6542bo591bobo1136bo2bo5018b$6543bob2o588b2o1139bo5018b$6547bo25b2o2bo557bo1140bo5018b$6540bo4bo27bobobo1695bobo5019b$6576bo6718b$6541bobo264bobo121bobo6360b$6541b3o29bo235b2o122b2o1347b3o5010b$6396bobo95bo76bo2b2o233bo123bo56bobo1289bo2bo5009b$6396b2o96bobo72b2o420b2o1289bo5012b$6397bo74bo21b2o73bo421bo127bo887b2o267bo5bo5012b$6472bobo94bobo548b2o885b2o252bo13b3o5bobo5009b$6472b2o645b2o1139b3o12bob2o5016b$8259b2obo13b3o5016b$8259b3o14b2o5017b$6549bo1710b2o5033b$6550b2o6743b$6549b2o6744b$6385bo6909b$6384b3o6908b$6384b4o138bobo31bo6734b$6527b2o30bo6735b$6527bo31b3o1697b3o5033b$6384b4o1870bo2bo5033b$6384b4o71bo719bo1081bo5033b$6386bo72bo720bo1080bo5033b$6458bobo717b3o1077bobo5034b$6526bo6768b$6460b2o64bobo6766b$6481bo44b2o1732b3o5032b$6460b2o20b2o1776bo2bo5031b$6481b2o81b2o1694bo5034b$6563bobo1694bo5034b$6564bo1696bobo20b3o5008b$7166bo1117bo2bo5007b$6457b2o705bobo1117bo5010b$6457b3o705b2o1117bo5010b$6461bo1823bobo5007b$6459b2o6834b$6437bobo520bo6334b$6438b2o518bobo1331b3o5000b$6438bo17bobo54bo445b2o1330bo2bo5000b$6456bobo54bo1780bo5000b$6457bo54bobo635bo1135bo7bo5000b$7151bo1119bo13b3o3bobo5001b$6514b2o26b3o604b3o1118b3o11b2obo5007b$6541bo2bo1725bob2o10b3o5008b$6514b2o25bo3bo11b2o1712b3o11b2o5008b$6392bo78b2o67b2obobo10bobo265bo123bo1322b2o5022b$6393b2o76bobo66b2ob2o13bo266bo123bo6345b$6392b2o71bo7b2o66b3o28bo250b3o121b3o56bo6288b$6466bo4bobo98b2o433bo6287b$6464b3o4bo39b2o58bobo431b3o6287b$6471bo2bo36b3o621bo6159b$6515bo70b3o544bobo6159b$6473b2o38b2o27b2obo42bo545b2o1133b3o5023b$6542bobobo40bo1409b2o270bo2bo5022b$6545bo55b2o1394b2o270bo5025b$6510bobo89b2o1665bo5025b$6510bobo30bo57bo1668bobo5022b$6365bo98bo46bo27bo3bo72b2o6677b$6365bobo94b2o74b2o75bobo6677b$6365b2o75bo20b2o72b2o78bo1652b3o5022b$6440b2o97bo91bo1637bo2bo5022b$6441b2o188b2o1639bo5022b$6630bobo1639bo5022b$8269bobo22b3o4998b$6519bo125b3o545bo1099bo2bo4998b$6355bo164bo126bo546b2o1100bo4998b$6353b6o76b2o81b3o125bo546b2o1101bo4998b$6353b2o2b2o76b2o223b2o1631bobo4999b$6437bo223b2o6632b$6357bo77b3o59bo162bo6634b$6353b2o2bo76bobo58bobo30bobo144b2o1625b3o4990b$6353b2o3bo76b2o59b2o30b2o144bobo1625bo2bo4989b$6357bo76bo94bo146bo1625bo4992b$6355bobo76bo255bo1605bo5bo4992b$6356bo75bo257b2o487bobo1099bo13b3o5bobo4989b$6689bobo488b2o1098b3o12bob2o4996b$6496bo683bo1098b2obo13b3o4996b$6494b2o208b3o1572b3o14b2o4997b$6453bo41b2o209bo1573b2o5013b$6454bo250bo267bobo6319b$6452b3o78b2o184b2o253b2o6319b$6532bobo185b2o252bo6320b$6533bo185bo6575b$6734b2o428bo6130b$6733bobo429b2o6128b$6445bo289bo428b2o1113b3o5013b$6444b3o302bo1528bo2bo5013b$6443b2o2bo301b2o1530bo5013b$6408bo339bobo87bo123bo1318bo5013b$6406bobo430b2o122b2o1313bobo5014b$6407b2o354b3o72b2o122b2o56bo6274b$6443b2o36b3o281bo255b2o6272b$6444b3o35bo281bo255b2o1258b3o5012b$6447bo34b3o27bo265b2o368bobo1129bo2bo5011b$6445b3o63b3o265b2o368b2o1129bo5014b$6445b2o63bo2b2o263bo370bo1130bo5014b$6510bo3bo11b2o265b2o1486bobo20b3o4988b$6364bo147bobo12b2o263bobo1509bo2bo4987b$6365bo79bobo78bo267bo1509bo4990b$6363b3o80b2o61b2ob2o27b2o265bo1178b2o315bo4990b$6441bob2obo64bo28bobo265b2o1177b2o316bobo4987b$6442b2o36bobo59bo264bobo6485b$6442bo37bobo73bo6738b$6556b2o264b3o1487b3o4980b$6483bo27b4o40bobo266bo1486bo2bo4980b$6511bobobo307bo1490bo4980b$6514bo55b3o264b2o1467bo7bo4980b$6572bo265b2o369bo1081bo13b3o3bobo4981b$6479bobo89bo265bo369bobo1080b3o11b2obo4987b$6335bo96bo47bo26b2o76b2o621b2o1080bob2o10b3o4988b$6333b2o96bo74bobo77b2o1703b3o11b2o4988b$6334b2o74bo20b3o72bo78bo1705b2o5002b$6409bo97bo92b2o6693b$6409b3o187bobo6693b$6601bo6693b$6615bo6679b$6615b2o578bo6099b$6487bobo124bobo579bo6098b$6488b2o704b3o1092b3o5003b$6488bo140b3o1657bo2bo5002b$6631bo1657bo5005b$6467bo162bo358bo1299bo5005b$6468b2o27bo146b2o344bo1299bobo5002b$6467b2o28bobo145b2o341b3o6304b$6497b2o145bo6650b$6659b2o1629b3o5002b$6658bobo519bo1108bo2bo5002b$6660bo517bobo1111bo5002b$6464bo209bo504b2o1111bo5002b$6463bo210b2o1613bobo22b3o4978b$6463b3o207bobo1637bo2bo4978b$6421bobo554bo1337bo4978b$6422b2o78b2o184b3o285bobo1337bo4978b$6422bo78bobo186bo286b2o57bo1276bobo4979b$6502bo186bo344bobo6258b$6703b2o330b2o127bo6130b$6704b2o459bo1156b3o4970b$6703bo459b3o1156bo2bo4969b$6718b2o1602bo4972b$6717bobo1596bo5bo4972b$6378bo72b3o265bo1581bo13b3o5bobo4969b$6379b2o69bo3bo278bo1566b3o12bob2o4976b$6378b2o75bo25b3o249b2o1564b2obo13b3o4976b$6481bo2bo247bobo1564b3o14b2o4977b$6450b2o3bo27b2o1815b2o4993b$6452b3o292b3o1227b2o5316b$6479bo2bo266bo1227b2o5316b$6480b2o266bo6546b$6483b2o10b3o264b2o6531b$6482b3o12bo265b2o6530b$6483bo12bo265bo459bobo6070b$6480b2ob2o25b2o265b2o444b2o1074b3o4993b$6309bo98bo71b2ob2o26b2o263bobo444bo1074bo2bo4993b$6309bobo94b2o72bo3bo25bo267bo1522bo4993b$6309b2o75bo20b2o71bo3bo40b2o265bo1508bo4993b$6384b2o95bo42bobo265b2o1504bobo4994b$6385b2o139bo264bobo6501b$6540bo6754b$6540b2o264b3o1491b3o4992b$6539bobo266bo400bo1090bo2bo4991b$6477b2o328bo402b2o1088bo4994b$6476bobo75b3o264b2o386b2o1089bo4994b$6477bo78bo265b2o1477bobo20b3o4968b$6555bo265bo1502bo2bo4967b$6569b2o265b2o165bo1320bo4970b$6570b2o263bobo166b2o1318bo4970b$6569bo267bo165b2o1320bobo4967b$6584b2o265bo6443b$6583bobo265b2o6442b$6460bo124bo264bobo340bobo1136b3o4960b$6458bobo138bo594b2o1135bo2bo4960b$6459b2o138b2o264b3o326bo1139bo4960b$6598bobo266bo1458bo7bo4960b$6437bo428bo1444bo13b3o3bobo4961b$6438bo28bo145b3o264b2o109bobo1316b3o11b2obo4967b$6436b3o26b2o148bo265b2o109b2o1316bob2o10b3o4968b$6466b2o146bo265bo111bo56bobo1259b3o11b2o4968b$6628b2o265b2o153b2o1259b2o4982b$6629b2o263bobo153bo127bo6116b$6628bo267bo282b2o6114b$6643b2o265bo267b2o6115b$6290b3o139bobo207bobo265b2o6383b$6290bo2bo138b2o210bo264bobo6383b$6288bo4bo100bo38bo38b2o184bo6636b$6392bobo76bobo184b2o264b3o1382b3o4983b$6288bo104b2o77bo184bobo266bo1382bo2bo4982b$6289bo635bo1383bo4985b$6290b2obo378b3o264b2o1368bo4985b$6291bo2bo379bo265b2o1368bobo4982b$6291b2o380bo265bo6355b$6292bo2bo391b2o265b2o6339b$6295bo68bo56bo266b2o263bobo1011b2o341b3o4982b$6291bo71b3o54b3o264bo267bo282bo728b2o340bo2bo4982b$6294bo67b2o2bo53b4o27bo250b2o265bo269bo1072bo4982b$6291b3o69b5o82b3o248bobo265b2o266b3o1072bo4982b$6363b2o2bo14bo67bo2bo249bo264bobo1338bobo22b3o4958b$6364bo2bo14bobo35b4o28b2o263bo1615bo2bo4958b$6364bobo15b2o36b4o28bo14bo249b2o264b3o1350bo4958b$6422bo26b2o16b2o247bobo266bo1350bo4958b$6449b4o13bobo515bo1348bobo4959b$6450bo2bo277b3o264b2o6295b$6451bo29b3o249bo265b2o6294b$6450bo32bo248bo265bo226bo1116b3o4950b$6372bo76b2o31bo263b2o265b2o208bobo1116bo2bo4949b$6279bo90b6o72bo5bo41b2o249b2o263bobo209b2o1116bo4952b$6277b2o91b2o2b2o72b2o3b2o42b2o247bo267bo1321bo5bo4952b$6278b2o72bo2bo93b2o45bo264b2o265bo1292bo13b3o5bobo4949b$6352bob2o18bo136b2o247bobo256bo8b2o1290b3o12bob2o4956b$6354b2o14b2o2bo135bobo249bo254bobo7bobo1289b2obo13b3o4956b$6370b2o3bo136bo263bo241b2o1299b3o14b2o4957b$6374bo151bo249b2o264b3o1275b2o4973b$6356b2o14bobo151b2o247bobo266bo164bo6085b$6356b2o15bo72b2o77bobo515bo166bo6084b$6445bobo342b3o264b2o149b3o6084b$6446bo93b3o249bo265b2o6235b$6542bo248bo265bo6237b$6347bo193bo263b2o200bo64b2o6221b$6347bobo205b2o249b2o200bo62bobo1245b3o4973b$6347b2o14bo192b2o247bo200b3o56bo7bo1244bo2bo4973b$6362b3o190bo264b2o244bo20bo1233bo4973b$6365bo204b2o247bobo242b3o20b2o1232bo4973b$6363b2o63bo140bobo249bo264bobo105bo1123bobo4974b$6364bo64b2o140bo263bo356bobo6100b$6428b2o155bo249b2o264b3o89b2o6100b$6585b2o247bobo266bo1216b3o4972b$6584bobo515bo1217bo2bo4971b$6407bobo25bo413b3o264b2o1202bo4974b$6408b2o24bo164b3o249bo265b2o1201bo4974b$6408bo25b3o164bo248bo265bo1204bobo20b3o4948b$6600bo263b2o265b2o1211bo2bo4947b$6614b2o249b2o263bobo1211bo4950b$6615b2o247bo267bo1211bo4950b$6614bo264b2o265bo1198bobo4947b$6401bo227b2o247bobo265b2o6147b$6401bobo224bobo249bo264bobo6147b$6306bo94b2o38b2o187bo263bo357bo1099b3o4940b$6307b2o52bo78bobo201bo249b2o264b3o90b2o1096bo2bo4940b$6306b2o53bo79bo202b2o247bobo266bo89b2o703b2o395bo4940b$6643bobo515bo795b2o387bo7bo4940b$6908b3o264b2o1154bo13b3o3bobo4941b$6658b3o249bo265b2o1152b3o11b2obo4947b$6257bo133bo268bo248bo265bo1154bob2o10b3o4948b$6256b3o130b6o26bo237bo263b2o265b2o1139b3o11b2o4948b$6255b2o2bo129b2o2b2o25b3o250b2o249b2o263bobo1139b2o4962b$6256b5o159b3o251b2o247bo267bo6103b$6256b2o2bo132bo279bo264b2o298bobo6054b$6257bo2bo128b2o2bo26b4o264b2o247bobo299b2o6054b$6257bobo129b2o3bo24b5o263bobo249bo299bo6055b$6393bo25b2obo266bo263bo6341b$6391bobo42b2o265bo249b2o6340b$6392bo42bobo265b2o247bobo77bobo1294b3o4963b$6420b2o15bo264bobo328b2o1294bo2bo4962b$6419bo31bo515b3o63bo1295bo4965b$6451b2o264b3o249bo1359bo4965b$6418bobo2bo26bobo266bo248bo229b2o23bo1106bobo4962b$6418bob3obo293bo263b2o214b2o24b2o6069b$6247bo169b3ob2obo40b3o264b2o249b2o238b2o6070b$6246bo97bobo71bobo46bo265b2o247bo1347b3o4962b$6246b3o95b2o72b3o45bo265bo264b2o1330bo2bo4962b$6322bobo20bo73bo60b2o265b2o247bobo22bo1310bo4962b$6322b2o157b2o263bobo249bo23b2o1308bo4962b$6323bo156bo267bo263bo8b2o56bo1249bobo22b3o4938b$6495b2o265bo249b2o66b2o1271bo2bo4938b$6416b2o76bobo265b2o247bobo65b2o1275bo4938b$6415bobo78bo264bobo1592bo4938b$6416bo93bo515b3o1324bobo4939b$6510b2o264b3o249bo6266b$6509bobo266bo248bo6267b$6777bo263b2o1319b3o4930b$6524b3o264b2o249b2o1318bo2bo4929b$6526bo265b2o247bo1320bo4932b$6525bo265bo264b2o1298bo5bo4932b$6539b2o265b2o247bobo1283bo13b3o5bobo4929b$6400bo139b2o263bobo249bo1282b3o12bob2o4936b$6401bo137bo267bo263bo1267b2obo13b3o4936b$6399b3o152b2o265bo249b2o1266b3o14b2o4937b$6553bobo265b2o247bobo1267b2o4953b$6555bo264bobo370b2o6100b$6322bo246bo515b3o105b2o73bo6026b$6320bobo80bobo163b2o264b3o249bo178bobo6026b$6321b2o80b2o163bobo266bo248bo180b2o6026b$6404bo431bo263b2o6193b$6583b3o264b2o249b2o6192b$6585bo265b2o247bo846b2o390b3o4953b$6584bo265bo264b2o830b2o389bo2bo4953b$6371bo226b2o265b2o247bobo1224bo4953b$6369b2o40b2o186b2o263bobo249bo1224bo4953b$6270bo99b2o38bobo185bo267bo263bo123bo1083bobo4954b$6271bo139bo201b2o265bo249b2o123bo6039b$6269b3o340bobo265b2o247bobo121b3o6039b$6614bo264bobo1458b3o4952b$6628bo515b3o1193bo2bo4951b$6628b2o264b3o151bo97bo1193bo4954b$6627bobo266bo152bo95bo1194bo4954b$6895bo151b3o109b2o1180bobo20b3o4928b$6642b3o264b2o249b2o1202bo2bo4927b$6644bo265b2o247bo1204bo4930b$6643bo265bo264b2o63bo1124bo4930b$6657b2o265b2o247bobo61bobo1125bobo4927b$6223bo96bo86b2o249b2o263bobo249bo62b2o6055b$6221b2o96bo88b2o247bo267bo6369b$6222b2o74bo20b3o85bo264b2o265bo1432b3o4920b$6297bo124b2o247bobo265b2o96bo1333bo2bo4920b$6297b3o121bobo249bo264bobo94bobo1336bo4920b$6423bo263bo348b2o57bo1270bo7bo4920b$6437bo249b2o264b3o137bobo1255bo13b3o3bobo4921b$6437b2o247bobo266bo138b2o1254b3o11b2obo4927b$6436bobo515bo1395bob2o10b3o4928b$6701b3o264b2o1381b3o11b2o4928b$6451b3o249bo265b2o1380b2o4942b$6287bo2b2o161bo248bo265bo6326b$6291b2o159bo263b2o265b2o6310b$6290b2o174b2o249b2o263bobo6310b$6467b2o247bo267bo6310b$6286b2o2b2o174bo264b2o265bo6296b$6292bo188b2o247bobo265b2o6295b$6286b4o190bobo249bo264bobo1349b3o4943b$6288bo2bo190bo263bo1602bo2bo4942b$6496bo249b2o264b3o1334bo4945b$6496b2o247bobo266bo1334bo4945b$6495bobo515bo1336bobo4942b$6335bobo41bo380b3o264b2o252bobo6011b$6336b2o40bo131b3o249bo265b2o252b2o6011b$6336bo41b3o131bo248bo265bo254bo1067b3o4942b$6511bo263b2o265b2o1305bo2bo4942b$6525b2o249b2o263bobo1308bo4942b$6526b2o247bo267bo1308bo4942b$6525bo264b2o265bo1291bobo22b3o4918b$6345bo194b2o247bobo265b2o1314bo2bo4918b$6286bo58bobo191bobo249bo264bobo878b2o437bo4918b$6285bobo12b3o42b2o194bo263bo462bo668b2o437bo4918b$6285bobo11bo2bo252bo249b2o264b3o195b2o1102bobo4919b$6286bo12bo2bo252b2o247bobo266bo194b2o6025b$6202bo95bo2bo252bobo515bo6222b$6201b3o94bo2bo517b3o264b2o1294b3o4910b$6200b2o2bo97b2o265b3o249bo240bo24b2o1293bo2bo4909b$6302b2o267bo248bo242b2o21bo1295bo4912b$6204b2o94bo3bo265bo263b2o226b2o37b2o1273bo5bo4912b$6204b2o97b2o279b2o249b2o263bobo1258bo13b3o5bobo4909b$6203bo2bo98bo279b2o247bo267bo1257b3o12bob2o4916b$6202b3o95bo3bo279bo264b2o265bo135bobo1104b2obo13b3o4916b$6301b3o295b2o247bobo265b2o135b2o1104b3o14b2o4917b$6298bo299bobo249bo264bobo135bo1106b2o4933b$6296bobo301bo263bo6430b$6297b2o315bo249b2o264b3o6162b$6614b2o247bobo184bobo79bo6162b$6613bobo435b2o78bo6163b$6878b3o170bo56bobo34b2o6148b$6628b3o249bo228b2o35b2o6147b$6630bo248bo229bo35bo1213b3o4933b$6629bo263b2o265b2o1196bo2bo4933b$6191bo451b2o249b2o263bobo1199bo4933b$6190bo90bo6bobo353b2o247bo267bo1199bo4933b$6190b3o87bobo5b2o353bo264b2o265bo1182bobo4934b$6266bobo11bobo6bo368b2o247bobo265b2o6118b$6266b2o13bo375bobo249bo264bobo6118b$6267bo391bo263bo1436b3o4932b$6326b3o344bo249b2o264b3o1168bo2bo4931b$6326bo2bo343b2o247bobo266bo1168bo4934b$6324bo4bo342bobo515bo1169bo4934b$6937b3o264b2o1155bobo20b3o4908b$6324bo31b3o328b3o249bo265b2o1177bo2bo4907b$6325bo30bo2bo329bo248bo265bo1179bo4910b$6326b2obo21bo8bo327bo263b2o265b2o76bo1086bo4910b$6327bo2bo21bo4b3o342b2o249b2o263bobo77bo1086bobo4907b$6327b2o21b3o350b2o247bo267bo75b3o5996b$6328bo2bo370bo264b2o265bo6060b$6331bo385b2o247bobo265b2o1156b3o4900b$6327bo388bobo249bo264bobo1155bo2bo4900b$6330bo387bo263bo1411bo4900b$6327b3o402bo249b2o264b3o1135bo7bo4900b$6732b2o247bobo266bo1120bo13b3o3bobo4901b$6731bobo515bo1120b3o11b2obo4907b$6996b3o285bo1085bob2o10b3o4908b$6347bobo396b3o249bo283bobo1086b3o11b2o4908b$6276bo70b2o399bo248bo285b2o642b2o442b2o4922b$6275bobo70bo398bo263b2o914b2o5366b$6275bobo483b2o249b2o248b2o6031b$6276bo485b2o247bo66bo183b2o4bo6026b$6761bo264b2o48bobo6216b$6315bo460b2o247bobo49b2o6216b$6313b2o460bobo249bo239bo6027b$6216bo97b2o461bo263bo225bo1101b3o4923b$6217bo573bo249b2o1326bo2bo4922b$6215b3o573b2o247bobo1326bo4925b$6790bobo1576bo4925b$7055b3o1312bobo4922b$6805b3o249bo8bo6228b$6807bo248bo10bo6227b$6347b2o457bo258b3o2b2o52bo1245b3o4922b$6346bobo471b2o249b2o52bo1243bo2bo4922b$6347bo473b2o247bo52b3o1246bo4922b$6167b2o651bo264b2o1285bo4922b$6167b2o666b2o247bobo1282bobo22b3o4898b$6169bo94bo569bobo249bo1306bo2bo4898b$6167b2o94bo572bo263bo1295bo4898b$6167b2o73bo20b3o584bo249b2o1294bo4898b$6241bo608b2o247bobo1291bobo4899b$6169b2o70b3o27bo577bobo6443b$6169b2o99bobo841b3o6178b$6270bobo591b3o249bo140b2o1143b3o4890b$6271bo594bo248bo141b2o1143bo2bo4889b$6865bo263b2o1271bo4892b$6879b2o249b2o1264bo5bo4892b$6159bobo718b2o247bo1251bo13b3o5bobo4889b$6159b2o718bo264b2o1234b3o12bob2o4896b$6160bo733b2o247bobo165bo1067b2obo13b3o4896b$6893bobo249bo166b2o1065b3o14b2o4897b$6895bo263bo151b2o1067b2o4913b$6909bo249b2o6134b$6336bobo570b2o247bobo6134b$6336bo2bo568bobo6384b$6148bobo185bo2bob2o830b3o6119b$6148bo2bo185b2ob3o7b2o571b3o249bo6119b$6147bo3b2o188bo7bobo573bo248bo6120b$6147bo194bo8bo572bo263b2o1189b3o4913b$6323bo41bo572b2o249b2o106bobo1078bo2bo4913b$6147bo2b3o140bo28bo42b2o572b2o247bo109b2o1081bo4913b$6147b2o143b3o27b3o39bobo571bo264b2o93bo1082bo4913b$6149b3o139b2o2bo657b2o247bobo1173bobo4914b$6149b3o140b5o82b3o570bobo249bo6090b$6266bo25b2o2bo84bo572bo136bobo124bo698b2o5376b$6265bobo25bo2bo83bo587bo123b2o124b2o697b2o461b3o4912b$6265bobo25bobo98b2o572b2o122bo124bobo32b2o1126bo2bo4911b$6266bo128b2o570bobo282b2o1126bo4914b$6230bo163bo837b3o1145bo4914b$6231b2o176b2o571b3o249bo1146bobo20b3o4888b$6222b3o5b2o176bobo573bo248bo1170bo2bo4887b$6221bo2bo185bo572bo263b2o1155bo4890b$6221bo2bo199bo572b2o249b2o1154bo4890b$6220bo2bo200b2o572b2o80bo166bo1157bobo4887b$6220bo2bo199bobo571bo83b2o6212b$6224b2o57bo728b2o66b2o56bo6156b$6224b2o56bo155b3o570bobo125b2o1271b3o4880b$6222bo3bo14b3o38b3o155bo572bo124b2o1271bo2bo4880b$6178bobo44b2o14bo2bo194bo587bo1386bo4880b$6179b2o46bo17bo207b2o572b2o1377bo7bo4880b$6179bo42bo3bo15b3o209b2o570bobo1362bo13b3o3bobo4881b$6223b3o227bo1936b3o11b2obo4887b$6468b2o571b3o1346bob2o10b3o4888b$6467bobo573bo1347b3o11b2o4888b$6469bo572bo1348b2o4902b$6483bo572b2o6237b$6483b2o572b2o6236b$6157bo103bo220bobo571bo6238b$6158b2o100bobo808b2o6222b$6157b2o101bobo234b3o570bobo6222b$6232bobo26bo237bo572bo6222b$6232b2o264bo587bo1302b3o4903b$6210bobo20bo278b2o572b2o239bo1061bo2bo4902b$6210b2o24b2o275b2o570bobo237bobo1061bo4905b$6211bo24b2o274bo813b2o1061bo4905b$6527b2o571b3o1287bobo4902b$6526bobo573bo6192b$6239b2o63b2o222bo572bo6193b$6239b2o64b2o235bo572b2o1273b3o4902b$6128bo175bo237b2o572b2o1271bo2bo4902b$6128bobo188b2o220bobo571bo1276bo4902b$6128b2o188bobo809b2o181bo1078bo4902b$6199bo120bo235b3o570bobo182bo1074bobo22b3o4878b$6198b3o133bo223bo572bo180b3o1098bo2bo4878b$6198b4o132b2o221bo587bo1270bo4878b$6123b2o208bobo235b2o572b2o1269bo4878b$6123bob2o445b2o533bo36bobo1266bobo4879b$6125b2o71b4o146b3o220bo536bo6186b$6123b2o73b4o148bo235b2o518b3o50b3o6133b$6121b2o77bo148bo235bobo573bo1260b3o4870b$6256bo106b2o222bo572bo746b2o513bo2bo4869b$6121bobo131bobo106b2o235bo572b2o731b2o513bo4872b$6122bo132bobo105bo237b2o572b2o1239bo5bo4872b$6256bo121b2o220bobo571bo1226bo13b3o5bobo4869b$6377bobo809b2o1209b3o12bob2o4876b$6379bo235b3o570bobo1208b2obo13b3o4876b$6393bo223bo478bo93bo1208b3o14b2o4877b$6393b2o221bo477bobo107bo1195b2o4893b$6259bo132bobo235b2o463b2o57bo49b2o6089b$6257b2o372b2o519bobo48bobo6089b$6234b2o22b2o147b3o220bo522b2o6140b$6197bo36b2o17bobo153bo235b2o571b3o6074b$6109bo86bobo55b2o152bo235bobo573bo6074b$6108b3o85bobo55bo167b2o222bo572bo6075b$6111bo85bo225b2o235bo572b2o1164b3o4893b$6109b2o101bo209bo237b2o572b2o1162bo2bo4893b$6110bo100b3o223b2o220bobo571bo1167bo4893b$6210bo2b2o221bobo809b2o1151bo4893b$6214bo223bo235b3o570bobo1148bobo4894b$6214b2o236bo223bo572bo6045b$6173bo42bo235b2o221bo587bo6031b$6171bobo39b4o234bobo235b2o572b2o1135b3o4892b$6172b2o32bo6b2o475b2o570bobo1135bo2bo4891b$6207b2o42bo214b3o220bo1710bo4894b$6206b2o42bobo215bo235b2o571b3o1120bo4894b$6250bobo214bo235bobo573bo60bobo1058bobo20b3o4868b$6251bo229b2o222bo572bo62b2o1081bo2bo4867b$6482b2o235bo572b2o47bo1082bo4870b$6481bo237b2o572b2o1129bo4870b$6131bo364b2o220bobo571bo1132bobo4867b$6107bo24bo362bobo809b2o5986b$6107bo22b3o364bo235b3o570bobo5986b$6201bo309bo223bo572bo1123b3o4860b$6201bobo25b2o280b2o221bo587bo1108bo2bo4860b$6179bo12bo8b2o26b2o279bobo235b2o572b2o3bo1106bo4860b$6179bobo9bobo555b2o570bobo4b2o1096bo7bo4860b$6179b2o10bobo331b3o220bo578b2o1082bo13b3o3bobo4861b$6192bo334bo235b2o571b3o1071b3o11b2obo4867b$6253bo272bo235bobo573bo1071bob2o10b3o4868b$6116bo136bo286b2o222bo356bo215bo1073b3o11b2o4868b$6114bobo136bo287b2o235bo343b2o1287b2o4882b$6115b2o423bo237b2o341b2o6172b$6555b2o220bobo6515b$6554bobo6738b$6556bo235b3o6500b$6570bo223bo6500b$6246bo323b2o221bo1103b2o5396b$6245bobo321bobo235b2o1088b2o510b3o4883b$6245bobo560b2o1599bo2bo4882b$6246bo337b3o220bo301bobo1297bo4885b$6586bo235b2o286b2o1297bo4885b$6090bobo492bo235bobo286bo56bobo1240bobo4882b$6090b2o507b2o222bo344b2o6125b$6091bo508b2o235bo330bo172b2o5952b$6599bo237b2o502b2o1067b3o4882b$6614b2o220bobo1570bo2bo4882b$6224b2o387bobo1796bo4882b$6224b2o389bo235b3o1558bo4882b$6182b2o3b2o440bo223bo1555bobo22b3o4858b$6181bo2bo2b2o440b2o221bo1580bo2bo4858b$6181bo2bo443bobo235b2o1568bo4858b$6079bo102b2o683b2o1567bo4858b$6078b3o166b3o393b3o220bo1566bobo4859b$6078b4o563bo235b2o6412b$6644bo235bobo6412b$6658b2o222bo1559b3o4850b$6078b4o577b2o235bo1545bo2bo4849b$6078b4o576bo237b2o1544bo4852b$6080bo592b2o220bobo438bobo1097bo5bo4852b$6241bo430bobo660bobobo1081bo13b3o5bobo4849b$6240bobo431bo235b3o1507b3o12bob2o4856b$6240bobo445bo223bo420bo7bo1077b2obo13b3o4856b$6145bo95bo446b2o221bo420bo9bo1076b3o14b2o4857b$6146b2o539bobo235b2o406bo7bo1078b2o4873b$6145b2o779b2o404bo9bo5952b$6176bobo523b3o220bo407bo7bo5953b$6154b3o19b2o526bo235b2o6353b$6157bo19bo525bo235bobo393bobobo5955b$6154b3o560b2o222bo394bobo5956b$6069bo149b2o497b2o235bo6339b$6068b3o148b2o496bo237b2o1462b3o4873b$6068bo2bo85b2o18b2o3b2o548b2o220bobo1461bo2bo4873b$6070b2o57bobo25b2o17bo2bo2b2o547bobo403bo1283bo4873b$6070bo59b2o44bo2bo553bo235b3o163bobo1283bo4873b$6067b2o61bo46b2o64bo503bo223bo164b2o1280bobo4874b$6067b4o172bo503b2o221bo6324b$6068bo2bo77bo93bo502bobo235b2o6309b$6069bo77b2o836b2o1433b3o4872b$6068bo79b2o13b3o595b3o220bo1435bo2bo4871b$6067b2o94b3o597bo235b2o1419bo4874b$6066bo5bo90bo2bo595bo235bobo331bo1087bo4874b$6066b2o3b2o13bo77b3o609b2o222bo124bo205bobo1087bobo20b3o4848b$6067b2o18b2o54b3o18b2o70bo540b2o235bo111bo204bobo553b2o555bo2bo4847b$6086b2o55bo2bo88bobo538bo237b2o108b3o56bo148bo554b2o555bo4850b$6143bo2bo88bobo553b2o220bobo168bo1259bo4850b$6142b4o90bo553bobo389b3o142b2o7b2o1107bobo4847b$6142b2o648bo235b3o295bo2bo5bo2bo5956b$6141bo664bo223bo296b2o7b2o5957b$6142bo663b2o221bo1422b3o4840b$6142bo662bobo235b2o287bo1118bo2bo4840b$7044b2o285bobo1120bo4840b$6072bobo745b3o220bo287bobo1112bo7bo4840b$6073b2o139b2o606bo235b2o272bo1098bo13b3o3bobo4841b$6073bo140b2o605bo235bobo1370b3o11b2obo4847b$6172b2o3b2o656b2o222bo1370bob2o10b3o4848b$6171bo2bo2b2o657b2o235bo1357b3o11b2o4848b$6171bo2bo660bo237b2o1356b2o4862b$6172b2o676b2o220bobo6220b$6237b3o609bobo6443b$6153bo697bo235b3o6205b$6152b3o710bo223bo6205b$6151b2o2bo709b2o221bo6206b$6053bo97bo3bo708bobo235b2o6191b$6052bo74bo23bob2o948b2o222bo1101b3o4863b$6052b3o71bobo22b2o726b3o220bo223bobo1100bo2bo4862b$6125b2ob2o31bo69bo649bo235b2o207bobo1100bo4865b$6126bo2bo29bobo68bobo647bo235bobo208bo1101bo4865b$6126bo3bo29b2o68bobo661b2o222bo1311bobo4862b$6126bo104bo663b2o235bo189b2o7b2o5962b$6152b2o2bo737bo237b2o187bo2bo5bo2bo5961b$6152bobobo752b2o220bobo188b2o7b2o1097b3o4862b$6126b2o27bo752bobo1518bo2bo4862b$6127bo782bo416bo1104bo4862b$6924bo221bo179bobo1103bo4862b$6124bo20bo9bo768b2o219bo180bobo1100bobo22b3o4838b$6124bob2ob2o15bo4bo2bobo52b2o712bobo219b3o179bo1125bo2bo4838b$6123b2ob2ob2o13b3o9bo52b2o2245bo4838b$6124bobo23b2o2b2o11b2o3b2o764b3o1515bo4838b$6125bo40bo2bo2b2o766bo1512bobo4839b$6166bo2bo769bo6355b$6167b2o64bo719b2o6340b$6233bo720b2o1506b3o4830b$6233bo719bo1508bo2bo4829b$6968b2o1492bo4832b$6102bo864bobo169bo1316bo5bo4832b$6100bobo866bo163b3o4b2o1299bo13b3o5bobo4829b$6101b2o28bo5bo2bo842bo148bo3bo2b2o56bo124bo1117b3o12bob2o4836b$6132b2o3bob2o842b2o152bo60b2o121bobo1115b2obo13b3o4836b$6131b2o6b2o85bo755bobo212b2o122bobo553b2o560b3o14b2o4837b$6115bo109bobo904b2o3bo184bo554b2o561b2o4853b$6114b3o108bobo769b3o134b3o6158b$6113b2o2bo23b2o83bo772bo317b2o7b2o5967b$6141b2o855bo317bo2bo5bo2bo5966b$6088bo28b2o893b2o303b2o7b2o5967b$6089bo27b2o894b2o6280b$6087b3o26bo2bo892bo309bo5972b$6115b3o14bo894b2o292bobo1115b3o4853b$6132bobo891bobo292bobo1114bo2bo4853b$6132b2o70b2o822bo293bo1118bo4853b$6160bo43b2o836bo1398bo4853b$6159bobo880b2o1394bobo4854b$6159bobo879bobo6251b$6160bo7134b$6126bo929b3o1381b3o4852b$6126b2o99b3o828bo1381bo2bo4851b$6029bo98bo928bo1382bo4854b$6027b2o97b2o943b2o1367bo4854b$6028b2o74bo20bobo944b2o1367bobo20b3o4828b$6103bo22bo944bo1392bo2bo4827b$6103b3o18bobo959b2o229bo1146bo4830b$6122bo962bobo228bobo1145bo4830b$6122bobo96bo865bo228bobo1146bobo4827b$6022b2o196bobo878bo215bo5977b$6022b2o196bobo878b2o6192b$6024bo196bo878bobo39bo169b2o7b2o1149b3o4820b$6022b3o1115bobo168bo2bo5bo2bo1147bo2bo4820b$6021bobo84bo1006b3o23b2o169b2o7b2o1151bo4820b$6022b2o83bobo49bo957bo1348bo7bo4820b$6021bo85bobo50b2o954bo200bo1133bo13b3o3bobo4821b$6021bo86bo50b2o969b2o184bobo1131b3o11b2obo4827b$6019bo1111b2o183bobo1131bob2o10b3o4828b$6199b2o929bo186bo1133b3o11b2o4828b$6155bo43b2o944b2o1304b2o4842b$6154bobo987bobo6148b$6154bobo989bo6148b$6155bo958b3o6178b$6223bo893bo6177b$6223bo890b3o38bo6139b$6223bo929bobo6139b$7154b2o57bo1235b3o4843b$7117b2o92bobo1235bo2bo4842b$7117b2o93b2o1235bo4845b$7312bo1136bo4845b$7311bobo1136bobo4842b$6216bo1094bobo553b2o5426b$6215bobo891bo202bo554b2o5426b$6102bo112bobo889b2o1341b3o4842b$6103b2o111bo891b2o197b2o7b2o1131bo2bo4842b$6103b2o1039bo161bo2bo5bo2bo1133bo4842b$6101bo1042bo162b2o7b2o1134bo4842b$6100bo3b2o1038bo1304bobo22b3o4818b$6101bo2b2o1206bo1160bo2bo4818b$6102b2o1036b3o3b3o162bobo1162bo4818b$7311bobo1162bo4818b$6194b2o948bo167bo1160bobo4819b$6150bo43b2o948bo6150b$6028bobo118bobo992bo6150b$6029b2o118bobo2330b3o4810b$6029bo72bo47bo2331bo2bo4809b$6100b2o2380bo4812b$6080bo20b2o114b3o2256bo5bo4812b$6078b2o2381bo13b3o5bobo4809b$6079b2o2379b3o12bob2o4816b$6075b3o2381b2obo13b3o4816b$6075bo2bo1014bo1365b3o14b2o4817b$6074bo3bo1013b3o212bo1152b2o4833b$6074b3o2bo1012bo2bo210bobo5986b$5997bo77b4o132bo882b2o210bobo5986b$5996bo213bobo881bo212bo5987b$5996b3o211bobo878b2o6202b$6072bobo100bo35bo879b4o207b2o7b2o5982b$6072b2o99bobo916bo2bo205bo2bo5bo2bo5981b$6073bo100b2o917bo44b3o161b2o7b2o1146b3o4833b$7092bo1365bo2bo4833b$6096b2o993b2o43bo5bo164bo1153bo4833b$6096b2o992bo5bo39bo5bo163bobo1152bo4833b$7090b2o3b2o29bo9bo5bo163bobo1149bobo4834b$6189b2o900b2o34b2o178bo5987b$6145bo43b2o935b2o10b3o6154b$6144bobo2313b3o4832b$6085bo58bobo1021bobo1289bo2bo4831b$6084b3o58bo1023b2o1289bo4834b$6083b2o2bo125bo955bo56bobo1231bo4834b$6083b2ob2o125bo1013b2o1232bobo20b3o4808b$6086b3o124bo1013bo1256bo2bo4807b$6084bob2o2396bo4810b$6083bo2bo1009bobo1385bo4810b$6086bo1010b2o1386bobo4807b$6083bobo1011bo204bo5992b$6084bo1216bobo5991b$6206bo1094bobo553b2o633b3o4800b$6085b3o117bobo1094bo554b2o632bo2bo4800b$6084bob2o117bobo2286bo4800b$6085b2obo117bo1090b2o7b2o1178bo7bo4800b$7134bo161bo2bo5bo2bo1162bo13b3o3bobo4801b$7134bo162b2o7b2o1162b3o11b2obo4807b$6055bo1078bo1335bob2o10b3o4808b$6054b3o34b2o1209bo1168b3o11b2o4808b$6044bo8bo2b2o33b2o1037b3o3b3o162bobo1167b2o4822b$6045bo7b3o1017b3o225bobo5991b$6043b3o138b2o887bob3o56bo167bo5992b$6140bo43b2o948bo6160b$6139bobo934bobo55bo6160b$6053bo85bobo934bobo6216b$6056bo83bo936b2o6216b$6053bo3bo2411b3o4823b$6054b2ob2o148b3o2259bo2bo4822b$7070bo1398bo4825b$7070bobo1396bo4825b$5972b2o1096b2o1398bobo4822b$5970bo85bo13bo7224b$5970b3o84b2o10bo1227bo5997b$5972b2o82b2o9b2ob2o1224bobo1171b3o4822b$6066b5o117bobo10bo1094bobo1170bo2bo4822b$6065b2o2bo119b2o9bobo1094bo1174bo4822b$5974b2o89bob4o118bo10bobo2269bo4822b$5974b2o89bo4bo130bo1090b2o7b2o1166bobo22b3o4798b$6065bo2b2o1221bo2bo5bo2bo1189bo2bo4798b$6067b2o1059b3o161b2o7b2o1193bo4798b$7142bo1353bo4798b$5965bobo95bo22b2o1038bo5bo7bobo154bo1195bobo4799b$5965b2o96bobo20b2o1038bo5bo8b2o153bobo5996b$5966bo74bo21b2o1061bo5bo51bo111bobo5996b$6041bobo135b2o1004bo111bo1204b3o4790b$6041b2o92bo43b2o947b3o52b3o56bo1259bo2bo4789b$6134bobo1106bo1258bo4792b$6134bobo1104b3o1252bo5bo4792b$6135bo2345bo13b3o5bobo4789b$6048bo154bo908bo1367b3o12bob2o4796b$6047bobo153bo909bo1365b2obo13b3o4796b$6047bobo153bo907b3o1365b3o14b2o4797b$6048bo2431b2o4813b$13295b$13295b$7292bo6002b$7291bobo6001b$6196bo1094bobo553b2o5446b$6195bobo1094bo554b2o5446b$6195bobo887bo1393b3o4813b$6196bo886bobo201b2o7b2o1180bo2bo4813b$7084b2o38bo161bo2bo5bo2bo1182bo4813b$7124bo162b2o7b2o1183bo4813b$7124bo1353bobo4814b$6081b2o1209bo6002b$6081b2o1037b3o3b3o162bobo6001b$7291bobo1186b3o4812b$6174b2o948bo167bo1187bo2bo4811b$6130bo43b2o948bo1355bo4814b$6129bobo992bo1355bo4814b$6129bobo2349bobo20b3o4788b$6130bo914bobo1456bo2bo4787b$5982bobo58bo1001b2o1457bo4790b$5983b2o57bobo152b2o847bo1457bo4790b$5983bo58bobo152b2o2306bobo4787b$6043bo7251b$13295b$8512b3o4780b$7287bo1223bo2bo4780b$7286bobo1225bo4780b$6191bo1094bobo1217bo7bo4780b$6190bobo1094bo1203bo13b3o3bobo4781b$6190bobo2297b3o11b2obo4787b$5941bo249bo963bobo124b2o7b2o1197bob2o10b3o4788b$5940bo97bobo1115b2o123bo2bo5bo2bo1197b3o11b2o4788b$5940b3o95b2o1080bo35bo125b2o7b2o1198b2o4802b$6016bobo20bo1079bobo76bo6096b$6016b2o58b2o1041bobo77b2o86bo6007b$6017bo58b2o1042bo77b2o56bo29bobo6006b$7257b2o27bobo6006b$6169b2o1085b2o29bo6007b$6125bo43b2o7124b$5930b2o192bobo2362b3o4803b$5929b3o192bobo2362bo2bo4802b$5929bo2bo192bo2363bo4805b$5929b2ob2o104bo2450bo4805b$5929b2ob2o103bobo152b2o2296bobo4802b$5928b2ob2o104bobo152b2o7101b$5929bo108bo7256b$5930b3o70b3o2484b3o4802b$5931bo71b3o2483bo2bo4802b$6003bo2bo1275bo1209bo4802b$6004b3o1091bobo180bobo1208bo4802b$6004b2o180bo912b2o180bobo553b2o650bobo22b3o4778b$6185bobo911bo182bo554b2o674bo2bo4778b$6185bobo2328bo4778b$6186bo1090b2o7b2o1228bo4778b$7276bo2bo5bo2bo1224bobo4779b$7112b3o162b2o7b2o6007b$7112bo2bo6179b$6071b2o1039bo2bo166bo1239b3o4770b$6071b2o1208bobo1238bo2bo4769b$7115b2o164bobo1238bo4772b$6164b2o855bo92bo2bo164bo1233bo5bo4772b$5998bobo119bo43b2o854bo93bo2bo1383bo13b3o5bobo4769b$5998bo120bobo896b2ob2o91bo1385b3o12bob2o4776b$5998bo3bo116bobo895b5o1477b2obo13b3o4776b$6002bo117bo895b2o2bo1478b3o14b2o4777b$6001b2o30bo982bob4o1478b2o4793b$6032bobo152b2o827bo4bo6273b$6032bobo152b2o827bo2b2o6274b$6033bo984b2o6275b$6017bo7277b$6016b3o995bo6280b$5939bo76bob2o994bobo260bo6017b$5937bobo77bo2bo993b2o87bo67bo104bobo1220b3o4793b$5938b2o70bo7b2o161bo919b2o69bo103bobo1219bo2bo4793b$6011b2o5bo161bobo919b2o66b3o104bo1223bo4793b$6010b2o168bobo1090b2o1226bo4793b$6181bo1032bo58b2o6b2o1215bobo4794b$7212bobo65bo2bo6011b$5912b3o1298b2o66b2o6012b$5912bo2bo2584b3o4792b$5912bo2bo150b2o1209bo1222bo2bo4791b$5913bo2bo149b2o1038bo169bobo1221bo4794b$5913b3o1189bobo168bobo1221bo4794b$5914b2o91bo151b2o944bobo169bo1223bobo20b3o4768b$6007bobo105bo43b2o945bo1417bo2bo4767b$5985bo21b2o105bobo2407bo4770b$5985bobo9bo116bobo2407bo4770b$5985b2o9bobo116bo2409bobo4767b$5996bobo29bo7266b$5997bo29bobo152b2o7111b$6027bobo152b2o2348b3o4760b$6028bo2502bo2bo4760b$5904bo2629bo4760b$5902b2o2622bo7bo4760b$5903b2o1367bo1238bo13b3o3bobo4761b$7271bobo1236b3o11b2obo4767b$6176bo1094bobo553b2o681bob2o10b3o4768b$6175bobo1094bo554b2o682b3o11b2o4768b$6175bobo1090b2o1241b2o4782b$6176bo1091b2o6b2o6017b$7275bo2bo6016b$7027bo248b2o6017b$7025bobo6267b$6061b2o963b2o98bo145bo6022b$6061b2o1038bo25b2o142bobo6021b$7100bobo23b2o143bobo1235b3o4783b$6154b2o944bobo169bo1236bo2bo4782b$6110bo43b2o945bo1407bo4785b$6109bobo2397bo4785b$5992bo116bobo2398bobo4782b$5991bobo116bo7184b$5991bobo29bo7271b$5992bo29bobo152b2o2331b3o4782b$6022bobo152b2o810bobo1517bo2bo4782b$5952bobo68bo965b2o1521bo4782b$5953b2o1035bo86bo107bo1326bo4782b$5953bo1123bobo106b2o1321bobo22b3o4758b$5965b3o1109b2o106b2o80bo1265bo2bo4758b$5965bo2bo1297bobo1267bo4758b$5964bo3bo202bo1055bobo36bobo1267bo4758b$5964b2o204bobo1055b2o37bo1265bobo4759b$5965bobo202bobo1055bo34b2o6030b$5966b2o2bo200bo1091b2o6b2o6022b$5925bo40bo2bo1123b3o174bo2bo1268b3o4750b$5926b2o38bo1126bo2bo174b2o1269bo2bo4749b$5925b2o38b2ob2o1121bo4bo1445bo4752b$5966bobo13bobo71b2o1209bo1268bo5bo4752b$5967bo14b2o72b2o1033bo174bobo1252bo13b3o5bobo4749b$5983bo1108bo173bobo1251b3o12bob2o4756b$6149b2o942b2obo170bo1251b2obo13b3o4756b$6105bo43b2o943bo2bo1421b3o14b2o4757b$6104bobo987b2o1424b2o4773b$5977b2o8bo116bobo988bo2bo6196b$5977bobo6bobo116bo992bo6196b$5979b2o5bobo29bo1075bo6200b$5878bo99bo8bo29bobo152b2o923bo6197b$5878bobo95bobo38bobo152b2o920b3o6198b$5878b2o75bo19b2o41bo7276b$5953b2o20b3o2541b3o4773b$5954b2o2562bo2bo4773b$7262bo1258bo4773b$7261bobo1257bo4773b$6166bo1094bobo553b2o699bobo4774b$6165bobo1094bo554b2o5476b$6165bobo872bobo215b2o6035b$5959bo206bo874b2o215b2o6b2o1252b3o4772b$5958bobo1080bo37b2o61bo122bo2bo1251bo2bo4771b$5958bobo1120bo58bobo123b2o1252bo4774b$5959bo1009bo112bo58b2o1377bo4774b$6051b2o915b3o108bobo180bo1258bobo20b3o4748b$6051b2o914bo2b2o108bo180bobo1280bo2bo4747b$6971bo110bobo176bobo1280bo4750b$6144b2o825b2o109bobo177bo1281bo4750b$6100bo43b2o827bo81b3o25bo1461bobo4747b$6099bobo868b4o81bo2bo6236b$5982bo116bobo868b2o83bo2bo6236b$5981bobo116bo955bo2bo14bobo1475b3o4740b$5981bobo29bo1042b3o15b2o1475bo2bo4740b$5982bo29bobo152b2o888b2o16bo125bo1352bo4740b$6012bobo152b2o1030bobo1344bo7bo4740b$6013bo1186b2o1329bo13b3o3bobo4741b$5975bo1267bo1286b3o11b2obo4747b$5975b2o1267bo1285bob2o10b3o4748b$5974bo2bo1264b3o12bo1273b3o11b2o4748b$5975bobo980b2o103bobo190bobo1272b2o4762b$5974bo2bo183bo795bo2bo102bo2bo189bobo6036b$5941bo32bo2bo182bobo793b3o103bo3b2o189bo6037b$5939bobo32bobo183bobo884bo14bo190b2o6040b$5940b2o12bo20b3o183bo796bobo84b2o206b2o6b2o6032b$5953bobo1090b2o14bo2b3o192bo2bo6031b$5953bobo1005bo100b2o197b2o6032b$5954bo1005b2o102b3o1462b3o4763b$6046b2o1016b3o190bo1271bo2bo4762b$6046b2o1208bobo1270bo4765b$6952bo303bobo1270bo4765b$6139b2o810bo305bo1272bobo4762b$6095bo43b2o810b3o6341b$6094bobo952bo59bo6185b$5853bobo95bo142bobo951bobo59b2o1418b3o4762b$5853b2o96bobo141bo952bobo58b2o1418bo2bo4762b$5854bo74bo21b2o55bo1040bo1482bo4762b$5929bobo75bobo152b2o2368bo4762b$5929b2o76bobo152b2o2365bobo22b3o4738b$6008bo2544bo2bo4738b$8556bo4738b$8556bo4738b$7252bo1300bobo4739b$7089bobo159bobo6041b$6156bo933b2o159bobo553b2o5486b$6155bobo932bo64bobo88b2o4bo554b2o753b3o4730b$6155bobo998b2o88b2o1314bo2bo4729b$5949bo206bo999bo99b2o1304bo4732b$5948bobo1304bo2bo1297bo5bo4732b$5948bobo31bobo1271b2o1283bo13b3o5bobo4729b$5949bo33b2o2555b3o12bob2o4736b$5937bo45bo57b2o1209bo1286b2obo13b3o4736b$5935b2ob2o101b2o940bo267bobo1285b3o14b2o4737b$5935b2ob2o1041bobo267bobo1286b2o4753b$5936bob3o193b2o846b2o268bo6042b$5935b3o196b2o7159b$7044bo6250b$7043bobo168bobo6078b$6087bo955bobo169b2o6078b$5936b2o65bo83b2o955bo170bo6079b$5936b2o17bo46bobo84bo67b2o2380b3o4753b$5954bo47bobo82b2o68b2o810bo1568bo2bo4753b$5935bo20bo46bo83bo882bo1570bo4753b$5934bob2ob2o13b2o1012b3o1570bo4753b$5933b2o4b2o14b2o132b2o952bo1494bobo4754b$5933b2ob2o16bobo132b2o952bobo201bo6047b$5935bo19b2o11b2o1051bo21b2o201bobo6046b$5955bo13b2o180bo869bobo222bobo1291b3o4752b$5909b3o56bo181bobo868b2o218b2o4bo1292bo2bo4751b$5909bo2bo167bo69bobo1088b2o1297bo4754b$5908bo3bo166bo71bo1099b2o1287bo4754b$5908b2o34bo134b3o1168bo2bo1287bobo20b3o4728b$5909bobo30b2obo1305b2o1311bo2bo4727b$5910b2o2bo27b3o984bo1634bo4730b$5910bo2bo27b2o93b2o891bo317bo1316bo4730b$5910bo125b2o885b2o321bobo1316bobo4727b$5829bo79b2ob2o1009bob2o198bo120bobo6046b$5828bo81bobo216b2o795b2o195bobo121bo6047b$5828b3o80bo217b2o795bobo195b2o1446b3o4720b$6923bo3b2o110bo1531bo2bo4720b$6927bo110bobo1533bo4720b$7038bobo1525bo7bo4720b$5998bo1040bo1511bo13b3o3bobo4721b$5997bobo152b2o766bobo1627b3o11b2obo4727b$5987b2o8bobo152b2o766b2o1628bob2o10b3o4728b$5987b2o9bo922bo183bo1445b3o11b2o4728b$5921bo1083b3o98bo1444b2o4742b$5919b2o1084bo2bo95b3o64bo6123b$5899bo20b2o1085b2o163bo69bo6052b$5897b2o1271b3o68bobo6051b$5898b2o246bo856bo2bo234bobo553b2o5496b$6145bobo856b2o230b2o4bo554b2o5496b$6145bobo859b2o227b2o6057b$6146bo859b3o237b2o1301b3o4743b$7007bo237bo2bo1300bo2bo4742b$6996bobo5b2ob2o237b2o1301bo4745b$6997b2o5b2ob2o1540bo4745b$6031b2o964bo6bo3bo233bo1307bobo4742b$6031b2o971bo3bo232bobo6051b$7005bo224bo10bobo6051b$6099bo24b2o12b3o1090bo10bo1307b3o4742b$6100bo23b2o13bo1089b3o1317bo2bo4742b$6098b3o38b3o892bo1517bo4742b$7033bobo1516bo4742b$6983bo49bobo1513bobo22b3o4718b$6984b2o48bo1538bo2bo4718b$6147b2o834b2o25bo7b2o1556bo4718b$5990b3o154b2o862bo5bo2bo1555bo4718b$5990bo2bo1015b3o5bo2bo1552bobo4719b$5990bo2bo1023bo6277b$5991bo2bo142bobo880bo6274b$5991b3o143bobo878b3o216bo1344b3o4710b$5992b2o62bo963b2o214bobo1343bo2bo4709b$6054b2o84bo880bo214bobo1343bo4712b$6055b2o876bobo295b2o4bo1338bo5bo4712b$6901bo32b2o295b2o1328bo13b3o5bobo4709b$6900b3o31bo78bo227b2o1317b3o12bob2o4716b$6136bobo760bo2b2o107b2o227bo2bo1315b2obo13b3o4716b$6137bo761b4o88bo20b2o227b2o1316b3o14b2o4717b$5805bo118bo977bobo84b2o147bobo1419b2o4733b$5803b2o120b2o99b2o874bo2bo84b2o147b2o96bo6057b$5804b2o118b2o56bo43b2o874b3o234bo96bobo6056b$5980b2o919bobo95bo236bobo6056b$5981b2o136b2o780bobo94bobo236bo6057b$6119b2o780b3o94bobo6294b$6145b2o852bo29bo6265b$7028bobo1528b3o4733b$6142b2ob2o881bobo1527bo2bo4733b$6142bo2bo883bo89bo1441bo4733b$5895bo246bobo975b2o1439bo4733b$5895bobo79b2o1140b2o64bo1372bobo4734b$5873bo21b2o80b2o1207b2o6107b$5873bobo1309b2o6108b$5873b2o2685b3o4732b$6012bo2547bo2bo4731b$6013b2o874bo1670bo4734b$6012b2o875bobo895b2o771bo4734b$6121bo767b2o335b2o559b2o772bobo20b3o4708b$6120bo1105b2o1356bo2bo4707b$6120b3o1113b2o1346bo4710b$7235bo2bo1345bo4710b$7236b2o1347bobo4707b$13295b$6021b2o1209bo6062b$6021b2o1208bobo1358b3o4700b$7231bobo1357bo2bo4700b$7232bo1361bo4700b$6992b2o1592bo7bo4700b$6992b2o30bo1546bo13b3o3bobo4701b$7023bobo1544b3o11b2obo4707b$6136b2o885bobo1544bob2o10b3o4708b$6136b2o886bo1546b3o11b2o4708b$6003bo2567b2o4722b$6004b2o7289b$6003b2o7290b$6030bo7264b$6030bobo916bo6345b$6030b2o918bo6344b$6948b3o6344b$6966bo20bo1581b3o4723b$6966b2o19bobo231b2o1346bo2bo4722b$6968bo18b2o165bo66b2o1346bo4725b$5779bo160bo1025b2o187bo75b2o1336bo4725b$5779bobo156bobo1025bo186b3o74bo2bo1336bobo4722b$5779b2o158b2o15bo1274b2o6062b$5956bobo1009b2o6325b$5956b2o58b2o898bo51b2o257bo1342b3o4722b$5967bo48b2o896bobo309bobo1340bo2bo4722b$5966bobo946b2o309bobo1343bo4722b$5966bobo1258bo1344bo4722b$5967bo991bo27b2o1580bobo22b3o4698b$6958bo16bo11b2o30bo115bo1457bo2bo4698b$5870bobo89b2o7b2o985b3o13bobo41bobo112bobo1460bo4698b$5870b2o89bo2bo5bo2bo157b2o840bo3bo40bobo113b2o65bo1394bo4698b$5848bobo20bo90b2o7b2o158b2o841bo2bo41bo179bobo1391bobo4699b$5848b2o1124bo2bo222b2o6093b$5849bo117bo1007bobo6317b$5966bobo1043b2o1588b3o4690b$5966bobo895bobo144b3o1588bo2bo4689b$5967bo896b2o145bo2bo1587bo4692b$6097bo767bo145b2ob2o1580bo5bo4692b$6095b2o914b2ob2o1565bo13b3o5bobo4689b$6096b2o848b3o61b2ob2o762b2o801b3o12bob2o4696b$6945bo3bo61bo204b2o559b2o800b2obo13b3o4696b$6950bo61b3o201b2o1361b3o14b2o4697b$7013bo212b2o1352b2o4713b$6945b2o3bo274bo2bo6066b$6947b3o276b2o6067b$13295b$7222bo6072b$7221bobo6071b$7221bobo6071b$7222bo1356b3o4713b$6982b2o1594bo2bo4713b$6982b2o1597bo4713b$8581bo4713b$6126b2o2450bobo4714b$6126b2o810bo6356b$6936b2ob2o6354b$6936b2ob2o22bo1616b3o4712b$6937bob3o22b2o1614bo2bo4711b$6936b3o24b2o1615bo4714b$8580bo4714b$8581bobo20b3o4688b$7168bo1435bo2bo4687b$5754bobo196bobo981b2o20b3o207b2o1433bo4690b$5754b2o198b2o981b2o19bo2bo206b2o41b2o1391bo4690b$5755bo198bo1003bo4bo247b2o1392bobo4687b$6936bo26bo257b2o6072b$6929bobo3bob2ob2o21b2o56bo198bo2bo6071b$6930b2o2b2o4b2o18bob2o55bobo199b2o1389b3o4680b$6065b2o863bo3b2ob2o16bo5bo58b2o1589bo2bo4680b$6064b4o868bo16bobo1658bo4680b$5957bo106b2ob2o885b2o256b2o3b2o1387bo7bo4680b$5846bo109bobo107b2o1080bobo60bo2bo2b2o1372bo13b3o3bobo4681b$5845bo110bobo1190b2o60bo2bo1375b3o11b2obo4687b$5824bo20b3o109bo1019b2o170bo62b2o1376bob2o10b3o4688b$5823bo1153b2o1612b3o11b2o4688b$5823b3o126b2o7b2o2628b2o4702b$5951bo2bo5bo2bo157b2o7172b$5952b2o7b2o158b2o717bo102bo5b3o6343b$6839bo104bo7bo38bobo6301b$5957bo881b3o100b3o4b3o39b2o6302b$5956bobo112bo920bo6302b$5956bobo112bobo7221b$5957bo113b2o879b2o1635b3o4703b$6952b2o1635bo2bo4702b$8589bo4705b$7767b2o820bo4705b$7206b2o559b2o821bobo4702b$6944bo261b2o6087b$6942b2o272b2o6077b$6922bo20b2o270bo2bo1371b3o4702b$6920b2o294b2o1371bo2bo4702b$6921b2o1669bo4702b$6931bo1660bo4702b$6930bobo274b2o3b2o1375bobo22b3o4678b$6930bobo273bo2bo2b2o1399bo2bo4678b$6931bo274bo2bo1406bo4678b$7207b2o1407bo4678b$8613bobo4679b$13295b$6116b2o7177b$6116b2o2504b3o4670b$8622bo2bo4669b$8622bo4672b$8616bo5bo4672b$5730bo1453bo1416bo13b3o5bobo4669b$5729bo1452bobo1415b3o12bob2o4676b$5729b3o1451b2o1414b2obo13b3o4676b$8599b3o14b2o4677b$8600b2o4693b$7034bobo164b2o6092b$7035b2o164b2o6092b$7035bo175b2o6082b$7210bo2bo6081b$5941b2o1221bo46b2o6082b$5822bo118b2o1222bo6129b$5820b2o313b2o789bo236b3o1433b3o4693b$5800bo20b2o310b2ob2o787bobo274b2o3b2o1389bo2bo4693b$5798b2o333b4o788bobo273bo2bo2b2o1392bo4693b$5799b2o333b2o790bo274bo2bo1396bo4693b$7202b2o1394bobo4694b$6816bo150bo6327b$6814b2o150bo6328b$6111b2o702b2o149b3o1631b3o4692b$6046bobo62b2o2487bo2bo4691b$6046b2o2552bo4694b$6047bo2552bo4694b$6900bo1700bobo20b3o4668b$6899b3o1722bo2bo4667b$6898b2o2bo1721bo4670b$6899b5o1720bo4670b$6899b2o2bo14bo1706bobo4667b$6900bo2bo14bobo836b2o5536b$6900bobo15b2o276b2o559b2o5536b$5939b2o1255b2o1434b3o4660b$5939b2o1265b2o1423bo2bo4660b$7205bo2bo1425bo4660b$7206b2o1418bo7bo4660b$8611bo13b3o3bobo4661b$6908bo12bo1688b3o11b2obo4667b$6906b6o8bobo1687bob2o10b3o4668b$6906b2o2b2o8bobo270bob3o1413b3o11b2o4668b$6888bo2bo29bo270bobo1416b2o4682b$6888bob2o18bo280bo3b2obo6096b$6890b2o14b2o2bo280bo2bobobo6096b$6906b2o3bo279b2obo3bo6096b$6106b2o802bo282bob2o6098b$6106b2o784b2o14bobo6384b$5706bo1185b2o15bo6385b$5704b2o2903b3o4683b$5705b2o2902bo2bo4682b$8609bo4685b$6884bo165bo1558bo4685b$6885b2o164bo1558bobo4682b$6879b2o18bo149b3o6243b$6879bo18b3o6394b$6881b3o17bo289b2o1417b3o4682b$6878bo5bo14b2o277bo12b2o1416bo2bo4682b$5796bo1082bo4bo15bo278b2o20b2o1409bo4682b$5796bobo1081bo2bo294b2o20bo2bo1408bo4682b$5774bo21b2o133b2o949bo318b2o1406bobo22b3o4658b$5774bobo154b2o270b2o672bo1755bo2bo4658b$5774b2o426b4o670bo39bo1719bo4658b$6202b2ob2o669b3o36bobo1718bo4658b$6204b2o584bo124bobo25bo1689bobo4659b$6790bobo123bo24b2o6352b$6022bo767b2o150b2o6351b$6021bo2620b3o4650b$6021b3o847b2o1769bo2bo4649b$6101b2o768bobo1768bo4652b$6101b2o770bo15b3o1744bo5bo4652b$6871bobo15bo2bo1728bo13b3o5bobo4649b$6870bo20b2o4bo1722b3o12bob2o4656b$6870bobo24bo1721b2obo13b3o4656b$6870bo16bo2bo1728b3o14b2o4657b$6869bo18b2o1730b2o4673b$6891b2o6402b$6890b3o6402b$6891bo855b2o5546b$6888b2ob2o293b2o559b2o5546b$5929b2o957b2ob2o293b2o6107b$5929b2o927b3o27bo3bo303b2o6097b$6861bo26bo3bo302bo2bo1420b3o4673b$6858bo2bo27bo306b2o1420bo2bo4673b$6859b2o1760bo4673b$6859b2o50bo1709bo4673b$6858bo2bo48bobo1705bobo4674b$6858bo21b3o27bobo6382b$6860b2o17bo2bo28bo6383b$6879b2obo1737b3o4672b$8620bo2bo4671b$5680bo2939bo4674b$5680bobo413b2o2522bo4674b$5680b2o414b2o781b2o1740bobo20b3o4648b$6879b4o1761bo2bo4647b$6880bo2bo180bo1579bo4650b$6850bo30bobo181b2o1577bo4650b$6849b3o29bobo180b2o1579bobo4647b$6849b3o6443b$13295b$6849b4o30bo310bo1457b3o4640b$5771bobo1074b5o27bo2bo308bobo1456bo2bo4640b$5771b2o1075b2obo27b5o297b2o10b2o1459bo4640b$5749bobo20bo1104bo2bo300b2o9bo1453bo7bo4640b$5749b2o1120b3o4b2o311b2o1438bo13b3o3bobo4641b$5750bo1098b2o20bo2bo315bo2bo1436b3o11b2obo4647b$5921b2o925bo22bo2bo316b2o1437bob2o10b3o4648b$5921b2o842bobo149bo1713b3o11b2o4648b$6273b2o490b2o80bobo2bo21b2o30bo10bobo1711b2o4662b$5998bo272b2ob2o490bo80bob3obo19bo2bo28bobo9b2o6376b$5996b2o273b4o571b3ob2obo19bo2bo28bobo6387b$5997b2o273b2o573bobo17bo5bo32bo6388b$6847b3o18bo6426b$6840b3o5bo17b3o6426b$6840bo2bo6451b$6091b2o746bo3bo1785b3o4663b$6091b2o747bo2b2o1784bo2bo4662b$6842bo1786bo4665b$6840b2o1787bo4665b$6839b3o20b2o1766bobo4662b$6839b3o20b2o6431b$6856bo7bo6430b$6854bobo5b2o1766b3o4662b$6841b2o12b2o5b2o1765bo2bo4662b$6840bob2o893b2o893bo4662b$6840bo3bo19b2o310b2o559b2o893bo4662b$5919b2o922bo20b2o310b2o1451bobo22b3o4638b$5919b2o2732bo2bo4638b$8656bo4638b$8656bo4638b$6831b3o10bo1808bobo4639b$6830bo2bo11bo6bo48bo6393b$6830bo2bo9b3o5bobo46bobo6392b$6829bo2bo18bob2o45bobo1759b3o4630b$5655bobo1171bo2bo20bo47bo1760bo2bo4629b$5655b2o1176b2o1827bo4632b$5656bo1176b2o19bob2o1798bo5bo4632b$6831bo3bo19b2o1784bo13b3o5bobo4629b$6086b2o746b2o244bo1559b3o12bob2o4636b$6086b2o748bo241bobo1558b2obo13b3o4636b$6831bo3bo13bo229b2o1558b3o14b2o4637b$6832b3o12b2o1791b2o4653b$6848b2o6445b$5747bo7547b$5746bo7548b$5725bo20b3o7546b$5724bo1118b3o6449b$5724b3o1095b3o18bo2bo6448b$6822bo2bo17bo2bo324b2o1466b3o4653b$6741bo80bo2bo16b4o325b2o1465bo2bo4653b$6740bo82bo2bo15b2o48bobo1746bo4653b$6740b3o80b3o15bo50b2o1747bo4653b$5911b2o59bo851b2o16bo50bo1744bobo4654b$5911b2o59bobo366b2o499bo6452b$5972b2o366b4o552bo6398b$6340b2ob2o550bobo1742b3o4652b$6342b2o551bobo1742bo2bo4651b$6896bo1743bo4654b$6730bo2b2o95bobo1807bo4654b$6734b2o94bo2bo1807bobo20b3o4628b$6733b2o78b2o14bo3b2o1829bo2bo4627b$6081b2o728bo17bo1834bo4630b$6081b2o646b2o2b2o76b3o1850bo4630b$6735bo77b2o14bo2b3o1830bobo4627b$6729b4o96b2o6464b$6731bo2bo96b3o6461b$6815b2o14b3o1838b3o4620b$6815b2o1854bo2bo4620b$8674bo4620b$8666bo7bo4620b$7727b2o922bo13b3o3bobo4621b$6805b2obo357b2o559b2o921b3o11b2obo4627b$5909b2o892bo4bo357b2o1482bob2o10b3o4628b$5909b2o891bo5bo1842b3o11b2o4628b$6802bo18b3o1827b2o4642b$6801b2ob2obo14bo6472b$5631bo1088bo80b2obo2bo14b3o6470b$5630bo1087b2ob2o80b4o84bo6403b$5630b3o1085b2ob2o81b3o83bobo6402b$6719bob3o166bobo6402b$6718b3o80bo89bo6403b$6799b2o292bobo1553b3o4643b$6800b2o292b2o1553bo2bo4642b$7094bo1554bo4645b$6076b2o641b2o99bobo1826bo4645b$6076b2o641b2o99bobo1827bobo4642b$5723bo7571b$5721b2o995bo75b2o27bo6471b$5701bo20b2o993bob2ob2o70b2o1854b3o4642b$5699b2o1015b2o4b2o72bo16bo1835bo2bo4642b$5700b2o1014b2ob2o20bo52b3o15b3o1837bo4642b$6718bo20bobo51bobo16bob2o3bobo1830bo4642b$6740b2o52b2o15b2o7bo46bo1781bobo22b3o4618b$6793bo17b2o54b2o1804bo2bo4618b$6793bo17b2o54b3o291b2o1513bo4618b$5947bobo841bo23bo51b2o292b2o1513bo4618b$5947b2o865b2o51b2o1804bobo4619b$5948bo863bobo53bo6426b$5901b2o908bo2bo54bobo6423b$5901b2o805b3o14bo86bobo55bo1811b3o4610b$6411b2o294bo2bo15bo55bo29b3o71bo1795bo2bo4609b$6409b2ob2o293bo2bo13b3o54b3o28b2obo69bobo1794bo4612b$6409b4o293bo2bo71b4o27bo2bo45bo23bobo1788bo5bo4612b$6410b2o294bo2bo103bo47bobo22bo1774bo13b3o5bobo4609b$6710b2o149b2o1797b3o12bob2o4616b$5936bo773b2o69b4o1874b2obo13b3o4616b$5935b3o770bo3bo68b4o19bo1854b3o14b2o4617b$5935b4o132b2o638b2o70bo19b3o1854b2o4633b$6071b2o640bo88b2o2bo6488b$6708bo3bo6582b$5935b4o770b3o6583b$5935b4o7356b$5937bo864b2o6491b$6803b3o6489b$6806bo1852b3o4633b$6804b3o1851bo2bo4633b$6772b3o29b2o911b2o942bo4633b$6771bo3bo103bo276b2o559b2o942bo4633b$5899b2o977b3o275b2o1500bobo4634b$5607bo291b2o875bo27bobo70bo2b2o6413b$5605b2o1164b5o29b2o70b3o6415b$5606b2o1088bobo73bo27bob2obo1854b3o4632b$6696b2o103b2o1857bo2bo4631b$6697bo97bo5bo307bo1550bo4634b$6772b2o20b3o80bo232bo1549bo4634b$6772b2o19bo2b2o82bo227b3o1550bobo20b3o4608b$6772bo24bo79bo3bo1802bo2bo4607b$6771b2o24b2o79b2ob2o1801bo4610b$6769b2obob3o22bo1884bo4610b$5697bo1077b2o19b4o1885bobo4607b$5697bobo366b2o701bo2bo16bo6b2o6497b$5675bo21b2o367b2o702b3o17b2o86b3o6414b$5675bobo1086bo24b2o87bobo1811b3o4600b$5675b2o1077bobo6b3o110bo3bo1810bo2bo4600b$6755b2o5bo2b2o109bobo1815bo4600b$5943bo811bo6bo3bo109b3o1807bo7bo4600b$5944b2o818bobo1904bo13b3o3bobo4601b$5943b2o2725b3o11b2obo4607b$6761b2ob2o19bo1884bob2o10b3o4608b$6763bo21b2o1884b3o11b2o4608b$6777bobo7bo363b2o1518b2o4622b$6778b2o5b2o364b2o6142b$6739bo38bo6bo6509b$6740b2o21b4o98bo6429b$5891b2o846b2o22bobobo19b2o76bobo6427b$5891b2o586b2o285bo20b2o47bobo26b2o6428b$6478b4o354b2o24bo6432b$5917bo560b2ob2o354bo23b3o1805b3o4623b$5918b2o560b2o378bo2b2o1804bo2bo4622b$5912b2o852bo93b3obo1804bo4625b$5587bo324bo854b2o94b2o1804bo4625b$5586b3o325b3o849b2o6b3o1893bobo4622b$5585b2o2bo321bo5bo805bobo48bob3o80bo6435b$5585bo326bo4bo143b2o661b2o132bo6436b$5585b3o325bo2bo144b2o661bo52bobo78b3o1809b3o4622b$5585b2obo326bo837bo23bobo1889bo2bo4622b$5586bob2o320bo841b3o23b2o95b2o1795bo4622b$5586b2o321bo841b2o2bo119b2o1795bo4622b$5587bob2o318b3o840b5o1912bobo22b3o4598b$5586b2ob2o1161b2o2bo14bo1921bo2bo4598b$5586b2ob2o1162bo2bo14bobo1922bo4598b$5588bo1164bobo15b2o1923bo4598b$7707b2o984bobo4599b$6672bo473b2o559b2o5586b$5889b2o780bo474b2o6147b$5889b2o8b2o770b3o2028b3o4590b$5898b3o1222bo1578bo2bo4589b$5898bo2bo859bo362b2o1576bo4592b$5898b2ob2o856b6o80bo277b2o1571bo5bo4592b$5576b2o320b2ob2o856b2o2b2o79b3o1834bo13b3o5bobo4589b$5576bobo318b2ob2o942b3o1833b3o12bob2o4596b$5578bo319bo864bo1915b2obo13b3o4596b$5576bobo93bobo224b3o837b3o17b2o2bo80b4o1831b3o14b2o4597b$5576b2o94b2o226bo838bob3o15b2o3bo78b5o1832b2o4613b$5577b2o71bobo20bo1089bo79b2obo6448b$5578b2o70b2o1090bobo16bobo6531b$5578b2o71bo404b2o684bobo17bo6532b$6056b2o685b2o99b2o6449b$5959bo883bo24b2o6425b$5957bobo908b2o6425b$5958b2o776bo105bobo2bo1831b3o4613b$5568bo1167bobo103bob3obo1829bo2bo4613b$5568bobo1165b2o103b3ob2obo1832bo4613b$5568b2o1272bobo1836bo4613b$6842b3o1833bobo4614b$6843bo6451b$7141b2o6152b$5923bo825b3o60bo328b2o1537b3o4612b$5924bo824bobo59bo1868bo2bo4611b$5922b3o824bo2bo58b3o1866bo4614b$5881b2o867b3o1927bo4614b$5881b2o867b3o1928bobo20b3o4588b$6549b2o197bo2bo1952bo2bo4587b$6547b2ob2o199bo99bo1852bo4590b$6547b4o197bo100bobo1852bo4590b$6548b2o199b2o99b2o1853bobo4587b$6748b3o6544b$5908bo839b2o81b3o6461b$5906bobo838bobo2b2o77bo2bo1877b3o4580b$5907b2o142b2o694bobo2b2o77bo2bo1876bo2bo4580b$6051b2o694b3o1964bo4580b$6834b2o27b2o1841bo7bo4580b$5602bo1230bo2bo26b2o1826bo13b3o3bobo4581b$5603bo1229bo2bo1853b3o11b2obo4587b$5601b3o1229bo1856bob2o10b3o4588b$8691b3o11b2o4588b$6648bo2042b2o4602b$6646b2o6647b$6647b2o1048b2o5596b$7697b2o5596b$13295b$13295b$5589bo7705b$5587bobo3099b3o4603b$5588b2o58bo1173bo1866bo2bo4602b$5647bo1172b2o1867bo4605b$5626bo20b3o1171b2o1866bo4605b$5625bo1191b3o1870bobo4602b$5625b3o1189bo2bo6474b$6816bo3bo6474b$6816b3o2bo1868b3o4602b$5622bo349bobo758bobo81b4o1868bo2bo4602b$5621b3o349b2o71b2o685b2o1957bo4602b$5620b2o2bo348bo72b2o663bobo20bo121b2o1834bo4602b$5543bobo78bo1086b2o101bobo39b2o1831bobo22b3o4578b$5543b2o78bo1088bo101b2o1897bo2bo4578b$5544bo74bo1195bo1900bo4578b$5619bobo3094bo4578b$5619b2o3092bobo4579b$13295b$5937bo850bo6506b$5938b2o846b2o1934b3o4570b$5532bobo402b2o848b2o1933bo2bo4569b$5532bo2bo3186bo4572b$5531bo3b2o3179bo5bo4572b$5531bo3169bo13b3o5bobo4569b$6782b3o1915b3o12bob2o4576b$5531bo2b3o1080b2o163bo2bo1913b2obo13b3o4576b$5531b2o1083b4o162bo2bo1913b3o14b2o4577b$5533b3o94b3o983b2ob2o160b4o15b3o1897b2o4593b$5533b3o93bo2bo288bobo694b2o161b2o6512b$5629bo3bo288b2o856bo19bobo6492b$5616bo11b2obobo288bo858bo21bo6491b$5615bobo10b2ob2o1148bo17bo3bo6491b$5615bobo11b3o7663b$5616bo424b2o756bo2b2o41bo6449b$6041b2o803b2o3b2o1846b3o4593b$6845b2o4b2o1845bo2bo4593b$6800bo1900bo4593b$5630b2obo986bo179bo1900bo4593b$5630bobobo984bob2o176bo1898bobo4594b$5633bo987b2o177bob2o6491b$6620b3o181bo6490b$6797bo4bo1897b3o4592b$5633bo990b2o1061b2o1011bo2bo4591b$5602bobo29bo988b3o172bobo24bobo859b2o1011bo4594b$5603b2o23b2o2bobo1163b3o25b2o1872bo4594b$5603bo29bo1192bo1874bobo20b3o4568b$6616bo2107bo2bo4567b$6615bo2108bo4570b$6615b3o2106bo4570b$8725bobo4567b$13295b$5988bo720bo6585b$5541bo447bo718bo97bo1925b3o4560b$5542b2o67bo375b3o697bo20b3o96b2o1922bo2bo4560b$5541b2o67bobo1073bo119b2o1926bo4560b$5610bobo3bobo986bo2b2o76b3o2037bo7bo4560b$5611bo4b2o418b2o571b2o233b2o1865bo13b3o3bobo4561b$5594bobo20bo418b2o570b2o234b2o1864b3o11b2obo4567b$5594b2o3114bob2o10b3o4568b$5595bo1008b2o2b2o179bobo1919b3o11b2o4568b$6610bo179b2o1919b2o4582b$5953bo650b4o182bo6504b$5951bobo652bo2bo6685b$5952b2o7341b$5512bo1270bo6511b$5512bobo1268bobo6509b$5512b2o1269b2o6510b$8709b3o4583b$8709bo2bo4582b$8709bo4585b$5937bo818bo1952bo4585b$5938bo816bo1954bobo4582b$5936b3o748b2o66b3o6537b$6595bo89b2ob2o6605b$5580bo1012b2ob2o87b4o2021b3o4582b$5579bobo1011b2ob2o88b2o2021bo2bo4582b$5578b2ob2o1011bob3o2113bo4582b$5579bo2bo1010b3o35bo2080bo4582b$5579bo3bo20b2o1026bo204b2o1870bobo22b3o4558b$5579bo24b2o425b2o597b3o204b2o1894bo2bo4558b$6031b2o2703bo4558b$6594b2o2140bo4558b$5579b2o1013b2o2137bobo4559b$5580bo7714b$6593bo6701b$5577bo1014bob2ob2o2143b3o4550b$5577bob2ob2o1007b2o4b2o2143bo2bo4549b$5576b2ob2ob2o1007b2ob2o20bo2125bo4552b$5577bobo1013bo20bobo1060b2o1057bo5bo4552b$5578bo1036b2o1060b2o1042bo13b3o5bobo4549b$8720b3o12bob2o4556b$8719b2obo13b3o4556b$8719b3o14b2o4557b$8720b2o4573b$6002bo682bo6609b$5557bo445b2o678b2o137bo6472b$5555bobo444b2o579b3o14bo62bo20b2o134bobo6472b$5556b2o11bo14bo5bo2bo988bo2bo15bo59b2o158b2o6472b$5568b3o14b2o3bob2o988bo2bo13b3o60b2o6631b$5491b3o73b2o2bo12b2o6b2o987bo2bo6710b$5491bo2bo72bo1013bo2bo2134b3o4573b$5491bo2bo72b3o29b2o984b2o218bo26b2o1884bo2bo4573b$5567b2obo23b2o3b2o425b2o557b2o219bo25b2o1887bo4573b$5494b2o72bob2o22b2o430b2o555bo3bo216b3o1914bo4573b$5493bo2bo71b2o396bobo617b2o2130bobo4574b$5493bo2bo72bob2o394b2o619bo6706b$5493bo74b2ob2o394bo615bo3bo6707b$5568b2ob2o12bo998b3o171bobo1959b3o4572b$5570bo14bobo1062bo107b2o1960bo2bo4571b$5585b2o1062b3o107bo1960bo4574b$6648b5o2067bo4574b$6648b2ob3o2067bobo20b3o4548b$6649b2ob2o2090bo2bo4547b$5580b2o369bo699bo80bo2011bo4550b$5580bob2o368b2o776b2o2012bo4550b$5582b2o367b2o778b2o2012bobo4547b$5482bo97b2o7713b$5480b2o96b2o1175b2o6538b$5481b2o74bo1013bobo180b4o1994b3o4540b$5556bo21bobo990b2o181b2ob2o1992bo2bo4540b$5556b3o20bo992bo71b2o110b2o1996bo4540b$6644bo2bo2098bo7bo4540b$5476b3o1165b3o2084bo13b3o3bobo4541b$5476bo2bo1345b2o1903b3o11b2obo4547b$5476bo2bo114b2o1229b2o1903bob2o10b3o4548b$5475b4o115b2o425b2o2708b3o11b2o4548b$5475b2o85bo458b2o2708b2o4562b$5474bo86bobo7731b$5475bo85bobo7731b$5475bo86bo1076bo6655b$6629bobo6b3o6654b$6630b2o5bo2b2o21bo6631b$6630bo6bo3bo20b3o6630b$6639bobo19b2o2bo2063b3o4563b$6662b5o1000b2o1060bo2bo4562b$6636b2ob2o21b2o2bo1000b2o1060bo4565b$6638bo24bo2bo2062bo4565b$6018bo637bobo4bobo2064bobo4562b$6016bobo638b2o6636b$6017b2o595bo42bo6637b$6615b2o21b4o2088b3o4562b$6614b2o22bobobo2086bo2bo4562b$6641bo2090bo4562b$8732bo4562b$8729bobo22b3o4538b$8753bo2bo4538b$5982bo658bo2114bo4538b$5505bo83b2o392bo658b2o2112bo4538b$5506b2o81b2o390b3o32b2o623b2o6b3o2101bobo4539b$5505b2o50bo458b2o580bobo48bob3o80bo6560b$5556bobo1040b2o132bo6561b$5556bobo1040bo52bobo78b3o2026b3o4530b$5557bo1070bo23bobo2107bo2bo4529b$6627b3o23b2o2107bo4532b$6626b2o2bo2125bo5bo4532b$6627b5o2109bo13b3o5bobo4529b$5967bo659b2o2bo14bo59bo2033b3o12bob2o4536b$5483bobo479bobo660bo2bo14bobo57bobo2030b2obo13b3o4536b$5484b2o480b2o660bobo15b2o58b2o2031b3o14b2o4537b$5484bo70bo3184b2o4553b$5553b2o992bo6747b$5533bo20b2o990bo6748b$5531b2o1013b3o6746b$5532b2o7761b$6636bo188b2o6468b$6634b6o183b2ob2o6467b$6634b2o2b2o183b4o1912b3o4553b$6618bo205b2o1912bo2bo4553b$5526b2o1089bo20bo2102bo4553b$5526b2o1089b3o14b2o2bo2102bo4553b$5446b3o79bo55b2o1048b2o3bo2098bobo4554b$5446bob3o75b3o55b2o425b2o625bo6656b$5525bobo24bo458b2o623bobo6656b$5449bobo74b2o23bobo1083bo2102b3o4552b$5449bobo73bo25bobo3186bo2bo4551b$5450b2o73bo26bo3187bo4554b$5523bo3216bo4554b$8741bobo20b3o4528b$5443bo3320bo2bo4527b$5443bobo3318bo4530b$5443b2o586bobo1623b2o1105bo4530b$6032b2o1623b2o1106bobo4527b$6032bo7262b$13295b$8772b3o4520b$8771bo2bo4520b$8774bo4520b$5536bo3229bo7bo4520b$5431b3o87bo13b3o3213bo13b3o3bobo4521b$5434bo85bobo11b2o2bo457bo2753b3o11b2obo4527b$5431bo2bo85bobo474b2o2751bob2o10b3o4528b$5432b2o87bo474b2o616bo2136b3o11b2o4528b$5432b2o1181bo94bo2040b2o4542b$5431bo2bo99b2o43b2o1032b3o92b2o6585b$5431bo103b3o41b2o425b2o701b2o6584b$5433b2o103bo8bo458b2o591b3o6693b$5536b3o7bobo1049bo2bo6693b$5536b2o8bobo1049b2obo6693b$5547bo7747b$5499bo480bobo698bobo2065b3o4543b$5500bo35bobo442b2o698b2o2066bo2bo4542b$5498b3o36b2o442bo616b2o82bo2066bo4545b$5532bob2obo1060b4o2147bo4545b$5533b2o988bo75bo2bo2147bobo4542b$5533bo987b2o77bobo6692b$6522b2o76bobo6692b$8750b3o4542b$8749bo2bo4542b$6602bo13bo2135bo4542b$5458bo1141bobo11b2o277b2o1857bo4542b$5456bobo1142b2o12b2o275b4o1853bobo22b3o4518b$5457b2o57bo6bo1087b3o278b2ob2o1876bo2bo4518b$5515bobo4bo1067b3o18bo2bo279b2o1880bo4518b$5501bo13bobo4b3o1065bo2bo16bo3bo2161bo4518b$5500bo15bo1073bo2bo16b3o2bo2157bobo4519b$5500b3o1108b4o6680b$5574b2o423b2o592b2o6700b$5574b2o423b2o591bo2bo2186b3o4510b$5440bo101bo1049bo2bo12bobo2171bo2bo4509b$5441bo99bobo1048bo15b2o2172bo4512b$5439b3o99bobo1065bo2166bo5bo4512b$5542bo3218bo13b3o5bobo4509b$6047bo2712b3o12bob2o4516b$6048bo2710b2obo13b3o4516b$6046b3o2710b3o14b2o4517b$8760b2o4533b$6601b3o1043b2o5646b$6603bo1043b2o5646b$6601b3o6691b$6581bo6713b$5414bo1164b2o21bo6692b$5414bo1165b2o18b3o6692b$5408b2o1188b3o2158b3o4533b$5408bob2o1187b2o2157bo2bo4533b$5411b2o1215bo2132bo4533b$5411bobo92b2o3b2o1116b2o53bo2076bo4533b$5408bo3b2o91bo2bo2b2o1115b2o54bobo2071bobo4534b$5412bo92bo2bo1175b2o6609b$5506b2o7787b$5569b2o3189b3o4532b$5405bobo161b2o3189bo2bo4531b$5405b2o130bo1119bo2102bo4534b$5406bo129bobo1117bo2103bo4534b$5536bobo1117b3o2102bobo20b3o4508b$5537bo3246bo2bo4507b$8784bo4510b$6497bo2286bo4510b$6497bobo2285bobo4507b$5398b3o1096b2o6796b$5400bo7894b$5398b3o78b3o3310b3o4500b$5478bo2bo3309bo2bo4500b$5399bo71bobo4bo4bo3310bo4500b$5397b3o72b2o9bo3302bo7bo4500b$5395b3o74bo10b2o14bo3271bo13b3o3bobo4501b$5396b2o82bob2o13b2o3271b3o11b2obo4507b$5481bo16b2o1463b2o1805bob2o10b3o4508b$6961b2ob2o1805b3o11b2o4508b$5501b2o3b2o1453b4o1806b2o4522b$5500bo2bo2b2o1454b2o6331b$5500bo2bo7791b$5454bo46b2o7792b$5455b2o31bobo73b2o7729b$5454b2o30bo4bo72b2o7729b$5486bo4bo40bo7762b$5490b2o39bobo527bo2707b3o4523b$5468b2obo59bobo528b2o2705bo2bo4522b$5466bo4bo14b2o2b2o40bo528b2o2706bo4525b$5465bo5bo14b2o2b2o3277bo4525b$5465bo21bob3o3278bobo4522b$5464b2ob2obo19bo1086bo6717b$5418bobo43b2obo2bo18bo1087bobo6715b$5419b2o45b4o1085bo21b2o1058b2o1131b3o4522b$5419bo47b3o1085bobo1079b2o1130bo2bo4522b$6555b2o2215bo4522b$5464bo3307bo4522b$5462b2o3305bobo22b3o4498b$5463b2o1179bo2148bo2bo4498b$6642bobo14bobo2134bo4498b$6643b2o14b2o2135bo4498b$5405bo1254bo2132bobo4499b$5406b2o88b2o3b2o7792b$5405b2o88bo2bo2b2o7792b$5495bo2bo3303b3o4490b$5476bo19b2o1135bo20b2o2146bo2bo4489b$5475b3o81b2o1070b2o21bobo2145bo4492b$5475bob2o80b2o1071b2o22b2o2138bo5bo4492b$5451bo22b2o51bo1127bo2125bo13b3o5bobo4489b$5450b3o21b2o50bobo1124bobo2124b3o12bob2o4496b$5449b5o20b2o50bobo943bobo177b2o2125b2obo13b3o4496b$5449b2ob3o23bo48bo944b2o178b3o2124b3o14b2o4497b$5450b2ob2o22b2o994bo152b2o2152b2o4513b$5374bo77bo22bobo1148b2o6667b$5374bobo97bo2bo1150bo6666b$5374b2o99bobo9bo1138b3o6666b$5475b3o10bo1136bobo6667b$5475b2obo7b3o1137b2o6667b$5475bo2bo1146bo6669b$5476bo1148bo2153b3o4513b$6623bo2154bo2bo4513b$8781bo4513b$7031b2o1748bo4513b$5442bo1587b4o1744bobo4514b$5441bobo1586b2ob2o6260b$5440b2ob2o25bo20b2o3b2o1534b2o6261b$5441bo2bo23bobo19bo2bo2b2o3282b3o4512b$5441bo3bo23b2o19bo2bo3286bo2bo4511b$5441bo49b2o3287bo4514b$5554b2o521bo2702bo4514b$5554b2o519bobo568b2o2133bobo20b3o4488b$5441b2o21bo57bo553b2o567bobo2156bo2bo4487b$5442bo20b3o55bobo1122bo2157bo4490b$5462b2o2bo54bobo3280bo4490b$5434bo4bo23b5o54bo1029bobo2250bobo4487b$5435bo3bob2ob2o17b2o2bo1084b2o6741b$5433b3o2b2ob2ob2o18bo2bo1062bobo20bo6741b$5439bobo15bobo4bobo1063b2o2280b3o4480b$5440bo17b2o1071bo2279bo2bo4480b$5458bo2168b2o1185bo4480b$7627b2o1177bo7bo4480b$8791bo13b3o3bobo4481b$8790b3o11b2obo4487b$8790bob2o10b3o4488b$5421bo3369b3o11b2o4488b$5419bobo3369b2o4502b$5420b2o24bo5bo2bo1176bobo6660b$5447b2o3bob2o28bo1148b2o6660b$5446b2o6b2o27bobo1147bo6661b$5483bobo7809b$5484bo7810b$5456b2o1170bo6666b$5456b2o91b2o897bo179bobo2158b3o4503b$5549b2o896bo180b2o11b2o2146bo2bo4502b$5517bo929b3o190bobo2146bo4505b$5349b3o164bobo1122bo2147bo4505b$5352bo94bo68bobo3271bobo4502b$5349b3o95bobo67bo1083bo6693b$5425bo21b2o1151bo6694b$5425bobo1172b3o2187b3o4502b$5352b2o71b2o3362bo2bo4502b$5352b2o81bo3356bo4502b$5434bobo3355bo4502b$5434bobo3352bobo22b3o4478b$5435bo3377bo2bo4478b$5344bo3471bo4478b$5342b2o3472bo4478b$5343b2o3468bobo4479b$5483bobo7809b$5484b2o1615b2o6192b$5479bo4bo1614b2ob2o1718b3o4470b$5478bobo1618b4o1719bo2bo4469b$5478bobo609bobo1007b2o1720bo4472b$5479bo611b2o2723bo5bo4472b$6091bo2709bo13b3o5bobo4469b$5544b2o3254b3o12bob2o4476b$5544b2o982bo2270b2obo13b3o4476b$5512bo1014bo2271b3o14b2o4477b$5511bobo992bo20b3o2270b2o4493b$5511bobo991bo6789b$5512bo992b3o6787b$13295b$13295b$13295b$13295b$7617b2o1180b3o4493b$5428b2o2187b2o1179bo2bo4493b$5428b2o3371bo4493b$8801bo4493b$8798bobo4494b$13295b$13295b$8800b3o4492b$5474bo3325bo2bo4491b$5473bobo1127bobo2194bo4494b$5473bobo948bo178b2o2195bo4494b$5361bo41b3o68bo947b2o180bo2196bobo20b3o4468b$5362b2o39bo2bo1016b2o2399bo2bo4467b$5361b2o40bo2bo132b2o3283bo4470b$5404bo2bo14bobo114b2o3283bo4470b$5404b3o15b2o83bo1069bo2247bobo4467b$5405b2o16bo82bobo1066b2o6718b$5506bobo1067b2o6717b$5507bo3324b3o4460b$8831bo2bo4460b$8834bo4460b$8826bo7bo4460b$5411bobo3397bo13b3o3bobo4461b$5318bo92bo2bo3395b3o11b2obo4467b$5318bobo89bo3b2o7b2o3385bob2o10b3o4468b$5318b2o75bo14bo12b2o74bo3311b3o11b2o4468b$5393b2o105bo3310b2o4482b$5394b2o14bo2b3o82b3o7794b$5410b2o7883b$5412b3o691bo1062b2o6124b$5312bo99b3o692bo1060b4o6123b$5312b2o155bo635b3o1060b2ob2o6122b$5314bo153bobo1699b2o6123b$5312b2o154bobo3338b3o4483b$5311bobo155bo1034bo2304bo2bo4482b$5312bo1189b2o2305bo4485b$5310bobo221b2o946bo20b2o2304bo4485b$5308bo73bo151b2o944b2o2328bobo4482b$5308bobo70b3o118bo978b2o6812b$5380b5o116bobo7791b$5380b2ob3o115bobo3306b3o4482b$5381b2ob2o116bo3306bo2bo4482b$5383bo3428bo4482b$8812bo4482b$8809bobo22b3o4458b$8833bo2bo4458b$5299bo2307b2o1227bo4458b$5298b3o117b2o2187b2o1227bo4458b$5301bo116b2o3413bobo4459b$5299b2o7994b$5300bo7994b$6579bo2262b3o4450b$6578bo2263bo2bo4449b$5376bo1021bo179b3o2261bo4452b$5376bo87bo933bobo2435bo5bo4452b$5463bobo932b2o2421bo13b3o5bobo4449b$5379b3o81bobo929bo2424b3o12bob2o4456b$5379b3o82bo929b3o2422b2obo13b3o4456b$6393bo2b2o153bo2267b3o14b2o4457b$5529b2o862b3obo153bobo2266b2o4473b$5395bo133b2o865b2o153b2o6742b$5394b3o100bo7797b$5393b2o2bo98bobo893bo6902b$5319bo74b5o97bobo892bo6903b$5297bo22bo73b2o2bo98bo893b3o6901b$5297bo20b3o74bo2bo7896b$5388bobo4bobo3421b3o4473b$5389b2o3427bo2bo4473b$5389bo123bo3307bo4473b$5514b2o3305bo4473b$5413b2o98b2o3303bobo4474b$5413b2o7880b$6120bo7174b$5306bo814b2o2697b3o4472b$5304bobo813b2o2698bo2bo4471b$5305b2o78bo3434bo4474b$5384bo1854b2o1579bo4474b$5363bo20b3o72bo1018bo758b2ob2o1579bobo20b3o4448b$5362bo12bo82bobo1017bobo756b4o1603bo2bo4447b$5362b3o9bobo81bobo995bo21b2o758b2o1604bo4450b$5374bobo82bo996bobo2385bo4450b$5375bo1080b2o2387bobo4447b$5524b2o7769b$5524b2o7769b$5492bo3359b3o4440b$5280bobo208bobo3357bo2bo4440b$5280b2o209bobo3360bo4440b$5281bo210bo3353bo7bo4440b$8831bo13b3o3bobo4441b$8830b3o11b2obo4447b$8830bob2o10b3o4448b$8831b3o11b2o4448b$7597b2o1232b2o4462b$5408b2o993bo1193b2o5696b$5408b2o994bo150bo6739b$6402b3o148b2o6740b$6554b2o6739b$13295b$13295b$8829b3o4463b$5454bo3374bo2bo4462b$5370bo82bobo1070bobo2300bo4465b$5369bobo81bobo1070b2o2301bo4465b$5369bobo82bo1072bo2302bobo4462b$5370bo7924b$5344b3o1021bo69b3o6854b$5333bo9bo2bo1019b2o70bo2bo2388b3o4462b$5334b2o7b2obo140bo879b2o68bo3bo2387bo2bo4462b$5333b2o151bobo948b4o2391bo4462b$5486bobo949bo2393bo4462b$5487bo3341bobo22b3o4438b$5343b2o3508bo2bo4438b$5343b4o3509bo4438b$5344bo2bo3508bo4438b$5345bobo1090b2ob2o2410bobo4439b$5345bobo788bo301bob3o6852b$5319bobo81b2o729bobo7158b$5320b2o81b2o730b2o2725b3o4430b$5320bo26bo13bo3500bo2bo4429b$5345bobo11b2o1080bo2420bo4432b$5346b2o12b2o1080bo8bo2404bo5bo4432b$5356b3o1081b3o7bobo854b2o1532bo13b3o5bobo4429b$5356bo2bo1090bob2o852b4o1530b3o12bob2o4436b$5355bo3bo89bo1002bo853b2ob2o1528b2obo13b3o4436b$5355b3o2bo4bo82bobo1857b2o1529b3o14b2o4437b$5356b4o4bobo81bobo1002bob2o2383b2o4453b$5364bobo82bo1004b2o6839b$5256bo108bo7929b$5255bo97bobo7939b$5255b3o95b2o1093bo6846b$5331bobo20bo89b3o35bo963b2o6847b$5331b2o113bo34bobo942bo20b2o6846b$5332bo111b3o34bobo940b2o2413b3o4453b$5482bo942b2o2411bo2bo4453b$5445bo3395bo4453b$5443b3o3395bo4453b$5338bo102b3o973bo2420bobo4454b$5337bobo102b2o974b2o109bo6765b$5337bobo1077b2o110bobo1055b2o5706b$5338bo59b2o1129b2o1056b2o1251b3o4452b$5398b2o3440bo2bo4451b$8840bo4454b$8840bo4454b$6502bo2338bobo20b3o4428b$6501bo2362bo2bo4427b$6501b3o2360bo4430b$8864bo4430b$5360bo3504bobo4427b$5359bobo980bo6952b$5359bobo980bobo6950b$5360bo981b2o2528b3o4420b$8871bo2bo4420b$8874bo4420b$5477bo3388bo7bo4420b$5476bobo3372bo13b3o3bobo4421b$5476bobo3371b3o11b2obo4427b$5477bo3372bob2o10b3o4428b$8851b3o11b2o4428b$6149bobo2699b2o4442b$6150b2o7143b$6150bo310bo6833b$5331b2o1129b2o6831b$5331b2o60b2o56bo1003bo5b2o6832b$5393b2o57b2o1002b2o6837b$5451b2o1002b2o6838b$8849b3o4443b$8849bo2bo4442b$8849bo4445b$7377b2o1470bo4445b$7375b2ob2o1470bobo4442b$5232bo96bo2045b4o5916b$5230b2o96bo2047b2o5917b$5231b2o95b3o1091bo2427b3o4442b$5352bo1069bobo2424bo2bo4442b$5303b3o46b2o66bo979bo21b2o2428bo4442b$5303bob3o44b3o65bobo977bobo2449bo4442b$5352b2o66b2o50bo927b2o2447bobo22b3o4418b$5306bobo43b2o117bobo3399bo2bo4418b$5306bobo44bo117bobo3402bo4418b$5307b2o45bobo115bo960bo2442bo4418b$5355bo1075bobo70bobo2366bobo4419b$6432b2o70b2o6789b$5300bo1204bo6789b$5300bobo43bo3535b3o4410b$5300b2o24b2o18bobo2228b2o1303bo2bo4409b$5326b2o18b2o40b2o2187b2o1303bo4412b$5388b2o1088bo2397bo5bo4412b$6476b2o2383bo13b3o5bobo4409b$6477b2o2381b3o12bob2o4416b$5313b3o3543b2obo13b3o4416b$5313bobo3543b3o14b2o4417b$5313bo2bo1000bobo2540b2o4433b$5314b3o1000b2o6976b$5314b3o1001bo6976b$5312bo2bo7979b$5315bo997b3o6979b$5312bo999bo2bo6979b$5313b2o997b2o2bo6978b$5312b3o1000b2o2542b3o4433b$5312b2o3544bo2bo4433b$5311bobo2b2o847bo146bo2548bo4433b$5311bobo2b2o848bo143b2o91b3o2455bo4433b$5311b3o850b3o144b2o90bo2bo2451bobo4434b$6381b3o17bo4bo70bo6817b$6381bo2bo90bobo6817b$6379bo4bo16bo69bo4b2o2382b3o4432b$6402bo66bobo2388bo2bo4431b$5321b2o1056bo23b2obo63b2o2388bo4434b$5321b2o60b2o995bo23bo2bo2452bo4434b$5383b2o996b2obo19b2o2455bobo20b3o4408b$6382bo2bo19bo2bo2475bo2bo4407b$6382b2o24bo2475bo4410b$6383bo2bo17bo2479bo4410b$5206bo1179bo20bo1037b2o1438bobo4407b$5206bobo154bo1018bo21b3o1037b4o5847b$5206b2o153bobo1021bo1058b2ob2o5846b$5362b2o1018b3o1061b2o1444b3o4400b$5395bobo3493bo2bo4400b$5395b2o3497bo4400b$5396bo3489bo7bo4400b$8871bo13b3o3bobo4401b$8870b3o11b2obo4407b$6446bobo31bo2389bob2o10b3o4408b$5297bobo1147b2o30bo2391b3o11b2o4408b$5297b2o1093bo54bo31b3o2389b2o4422b$5275bobo20bo1091b2o6903b$5275b2o44bobo1046bo20b2o6902b$5276bo44b2o1045b2o6925b$5322bo1046b2o6924b$6452bo6842b$5316b2o1134bobo1112b2o5726b$5316b2o60b2o941bo130b2o1113b2o1300b3o4423b$5378b2o942b2o2545bo2bo4422b$6321b2o2546bo4425b$8869bo4425b$8870bobo4422b$13295b$13295b$8870b3o4422b$8869bo2bo4422b$8872bo4422b$8872bo4422b$8869bobo22b3o4398b$6179bo104bo2608bo2bo4398b$6180b2o101bob2o2609bo4398b$6179b2o104b2o2609bo4398b$6284b3o203bobo2400bobo4399b$6462b3o26b2o6802b$6288b2o171bo2bo19bobo4bo6803b$6287b3o171bo3bo19b2o2415b3o4390b$6460b2obobo19bo2416bo2bo4389b$6460b2ob2o2437bo4392b$6280bo154b3o23b3o2432bo5bo4392b$5386b2o891bo155bo2bo2442bo13b3o5bobo4389b$5385b4o890b3o152bo3bo2441b3o12bob2o4396b$5385b2ob2o1029bo15bo2b2o2439b2obo13b3o4396b$5181bobo203b2o1031b2o15bo2441b3o14b2o4397b$5181b2o1214bo21b2o14b2o25b2obo2414b2o4413b$5182bo1215b2o34b3o25bobobo6828b$6397b2o35b3o28bo6829b$7515b2o5778b$6463bo1049b2ob2o5777b$6436b2o21bo3bo1049b4o5778b$6435bob2o19b2o1054b2o5779b$6435bo3bo17b2o2420b3o4413b$5273bo1164bo20bo2418bo2bo4413b$5272bo3608bo4413b$5251bo20b3o1091bo2514bo4413b$5250bo1115bobo2509bobo4414b$5250b3o1091bo21b2o71bo6855b$6344bobo93bo6854b$6344b2o92b3o2439b3o4412b$8880bo2bo4411b$8880bo4414b$6337bo2542bo4414b$6335bobo110bobo2430bobo20b3o4388b$6336b2o110b2o1107b2o1345bo2bo4387b$5420b4o1025bo1107b2o1345bo4390b$5419bo3bo3480bo4390b$5423bo3481bobo4387b$5419bo2bo7872b$6422bo6872b$6420b2o2490b3o4380b$6295bo125b2o2488bo2bo4380b$6296bo2617bo4380b$6294b3o156b2o2451bo7bo4380b$6195bo256bobo2436bo13b3o3bobo4381b$6193bobo257bo2436b3o11b2obo4387b$6194b2o310bo2383bob2o10b3o4388b$6507bo2383b3o11b2o4388b$6500bo4b3o2383b2o4402b$6501bo6793b$6499b3o6793b$6256b2o7037b$6256b2o7037b$6258bo7036b$6256b2o7037b$6256b2o2631b3o4403b$5157bo1277bo2453bo2bo4402b$5156bo1101b2o173bobo2453bo4405b$5156b3o297b2o800b2o153bo20b2o2453bo4405b$5454b2ob2o865b3o84bobo32b2o2442bobo4402b$5454b4o866bo2bo84b2o33b2o6846b$5455b2o866bo3bo118bo6848b$6323b2o136b2o2427b3o4402b$6248bobo73bobo133bobo1120b2o1304bo2bo4402b$6248b2o75b2o2bo132bo1119b4o1306bo4402b$6249bo75bo2bo147bo1105b2ob2o1305bo4402b$5249bo1075bo150b2o1106b2o1303bobo22b3o4378b$5247b2o1075b2ob2o146bobo2435bo2bo4378b$5227bo20b2o1075bobo13bobo2572bo4378b$5225b2o1099bo14b2o147b3o2423bo4378b$5226b2o1114bo149bo2420bobo4379b$6491bo6803b$6505b2o6788b$6506b2o2414b3o4370b$6336b2o167bo2416bo2bo4369b$6336bobo11bobo71bo2497bo4372b$6338b2o11b2o70bo2492bo5bo4372b$6337bo13bo71b3o2475bo13b3o5bobo4369b$6335bobo2562b3o12bob2o4376b$6314bo19b2o2563b2obo13b3o4376b$5488bo2bo820b2o20b3o1210b2o1350b3o14b2o4377b$5492bo820b2o1232b2o1351b2o4393b$5488bo3bo903bo6898b$5489b4o903bobo6896b$6309bo86b2o6897b$6310b2o6983b$6309b2o6984b$6208bobo7084b$6209b2o306bo2381b3o4393b$6209bo301bo5bo2380bo2bo4393b$6510bo3bob2o2383bo4393b$6514bo2386bo4393b$6510bo4bo2382bobo4394b$6512b3o6780b$6267bobo243bo6781b$6268b2o2630b3o4392b$6268bo2631bo2bo4391b$8900bo4394b$8900bo4394b$5133bo1314bobo2450bobo20b3o4368b$5131b2o1316b2o2473bo2bo4367b$5132b2o1292bobo20bo2474bo4370b$6427b2o2495bo4370b$5524b2o901bo2497bobo4367b$5523b4o7768b$5523b2ob2o696bo7070b$5525b2o696bo2708b3o4360b$6223b3o2705bo2bo4360b$8934bo4360b$5223bo3702bo7bo4360b$5223bobo2427b2o1256bo13b3o3bobo4361b$5201bo21b2o2426b2ob2o1254b3o11b2obo4367b$5201bobo1308b2o1137b4o1255bob2o10b3o4368b$5201b2o1309b2o1138b2o1257b3o11b2o4368b$8911b2o4382b$13295b$13295b$6366bo6928b$6367bo32bo6894b$6365b3o30b2o6895b$6310bo88b2o6894b$6310bobo2596b3o4383b$6288bo21b2o2597bo2bo4382b$6288bobo2618bo4385b$6288b2o2619bo4385b$6371bobo2536bobo4382b$6371b2o1164b2o5756b$5558b4o763bo46bo1164b2o5756b$5557bo3bo761bobo2584b3o4382b$5561bo662bo99b2o2583bo2bo4382b$5557bo2bo664bo2686bo4382b$6223b3o2686bo4382b$8909bobo22b3o4358b$8933bo2bo4358b$8936bo4358b$6507b2o2427bo4358b$6283bo223b2o2424bobo4359b$6284bo7010b$6282b3o7010b$8942b3o4350b$8942bo2bo4349b$6464bo2477bo4352b$5107bo1357bo2470bo5bo4352b$5107bobo1272bo59bo20b3o2455bo13b3o5bobo4349b$5107b2o1272b3o59bo2476b3o12bob2o4356b$6380b2o2bo56b3o2475b2obo13b3o4356b$6380bo3bo2534b3o14b2o4357b$6380bob2o2536b2o4373b$6200bo154bo24b2o6913b$6198b2o154b3o6938b$5594b2o603b2o152bo2b2o6937b$5592b2ob2o756bo3bo6937b$5198bobo391b4o759bobo6937b$5198b2o393b2o786b2o2bo6909b$5176bobo20bo1152b2ob2o24bobobo2533b3o4373b$5176b2o1176bo29bo1336b2o1195bo2bo4373b$5177bo2542b4o1197bo4373b$6381bo1338b2ob2o1196bo4373b$6379bo2b2o118b2o1218b2o1194bobo4374b$6354b4o19b2o123b2o6791b$6354bobobo18bo6917b$6357bo19bobo2540b3o4372b$8920bo2bo4371b$6285bobo2632bo4374b$6285b2o2633bo4374b$6263bobo20bo70bo2563bobo20b3o4348b$6263b2o93b2o2584bo2bo4347b$6264bo92b2o2585bo4350b$8944bo4350b$8945bobo4347b$6338bobo27bo6926b$6339b2o26bo6927b$5626bo2bo608bo100bo27b3o1157b2o1423b3o4340b$5630bo608b2o1286b2o1422bo2bo4340b$5626bo3bo607b2o2714bo4340b$5627b4o3315bo7bo4340b$8931bo13b3o3bobo4341b$6340bo2589b3o11b2obo4347b$6340bobo2587bob2o10b3o4348b$6297bo42b2o2589b3o11b2o4348b$6298b2o2631b2o4362b$6297b2o73b2o123b2o6796b$6371bobo123b2o6796b$6372bo6922b$6478bo6816b$5082bobo1394b2o6814b$5082b2o1372bo21b2o6815b$5083bo1373b2o2470b3o4363b$6456b2o2471bo2bo4362b$6352b3o2574bo4365b$6352bobo2574bo4365b$6174bo177bo2bo2574bobo4362b$6174bobo176b3o6939b$6174b2o177b3o6939b$5174bo1151bo24bo2bo2575b3o4362b$5173bo488b2o660b2ob2o25bo2574bo2bo4362b$5152bo20b3o485b4o659b2ob2o22bo2580bo4362b$5151bo509b2ob2o659bob3o22b2o11b2o2565bo4362b$5151b3o509b2o659b3o24b3o10bobo2562bobo22b3o4338b$6351b2o13bo2586bo2bo4338b$6350bobo2b2o23bo2575bo4338b$6350bobo2b2o23b2o2574bo4338b$6325b2o23b3o26bobo1409b2o1160bobo4339b$6325b2o1462b2ob2o5501b$6394b3o95b2o1295b4o5502b$6261bo62bo71bo95b2o1296b2o1170b3o4330b$6260bo62bob2ob2o65bo2566bo2bo4329b$6239bo20b3o59b2o4b2o79b2o2551bo4332b$6238bo83b2ob2o21b2o60b2o2544bo5bo4332b$6238b3o83bo22bobo59bo2531bo13b3o5bobo4329b$6348bo75b2o2514b3o12bob2o4336b$6423bobo2513b2obo13b3o4336b$6425bo2513b3o14b2o4337b$6439bo2500b2o4353b$6439b2o6854b$6254bo183bobo6854b$6252bobo7040b$6253b2o76bo121b3o6839b$6332bo122bo1061b2o5776b$5696b4o630b3o121bo1062b2o5776b$5695bo3bo3239b3o4353b$5699bo765b3o2470bo2bo4353b$5695bo2bo614bo2627bo4353b$6311bobo22bobo124bo5bo2471bo4353b$6312b2o22b2o125bo5bo2468bobo4354b$6337bo125bo5bo16b2o6807b$6486b2o6807b$5058bo1406b3o2472b3o4352b$5057bo3882bo2bo4351b$5057b3o1250bo2629bo4354b$6308b2o2630bo4354b$6309b2o32b2o2596bobo20b3o4328b$6342bobo2619bo2bo4327b$6343bo2620bo4330b$6149bobo2812bo4330b$6149b2o2814bobo4327b$6150bo172b3o6969b$5150bo1172b3o6969b$5148b2o1173bo2bo2645b3o4320b$5128bo20b2o1173b3o2644bo2bo4320b$5126b2o1196b2o2648bo4320b$5127b2o3837bo7bo4320b$5732b2o3217bo13b3o3bobo4321b$5730b2ob2o726bo2488b3o11b2obo4327b$5730b4o404bo156b3o163bo2488bob2o10b3o4328b$5731b2o404b3o156bo41b2o121bo2489b3o11b2o4328b$6137b4o155b3o40b2o2610b2o4342b$6338bo118b3o3b3o1393b2o5434b$6237bo115b2o126b2o1375b4o5433b$6137b4o94b2o115bobo106bo19b2o1375b2ob2o5432b$6137b4o74bo20b2o116bo106bo1398b2o5433b$6139bo73b2o153bo92bo6833b$6214b2o152b2o6925b$6367bobo2579b3o4343b$6294bobo2652bo2bo4342b$6294bobo85b3o2564bo4345b$6384bo2564bo4345b$6297bo85bo2566bobo4342b$6267bobo49b2o76b2o6896b$6268b2o48bobo77b2o6895b$6268bo50bo77bo2552b3o4342b$6293bobo116b2o2535bo2bo4342b$6294bo116bobo2538bo4342b$6413bo2538bo4342b$5764bo2bo659bo1079b2o1440bobo22b3o4318b$5768bo658b2o1078b2o1464bo2bo4318b$5764bo3bo657bobo2547bo4318b$5765b4o3207bo4318b$6441b3o12b2o2515bobo4319b$6443bo6851b$5034bo1266bobo138bo13bo3bo6834b$5032b2o1268b2o156bo15b2o2504b3o4310b$5033b2o1267bo149bobo2bo2bo15b2o2504bo2bo4309b$6451bo2bo2527bo4312b$6145bo305bo2524bo5bo4312b$6146b2o157bo145b5o2505bo13b3o5bobo4309b$6145b2o158bobo145bo2bo2503b3o12bob2o4316b$6305b2o147b2o2503b2obo13b3o4316b$8959b3o14b2o4317b$8960b2o4333b$5124bo8170b$5124bobo1151bo35b2o6979b$5102bo21b2o1151bo35bobo6979b$5102bobo1172b3o34bo6980b$5102b2o8191b$13295b$6118bo2840b3o4333b$5800b2o316bobo2837bo2bo4333b$5799b4o315b2o2841bo4333b$5799b2ob2o3157bo4333b$5801b2o3155bobo4334b$6211bo7083b$6211bobo7081b$6189bo21b2o239bo2507b3o4332b$6189bobo259bobo17b2o1456b2o1029bo2bo4331b$6189b2o260bobo17b2o1454b2ob2o1028bo4334b$6452bo1474b4o1029bo4334b$7928b2o1031bobo20b3o4308b$8984bo2bo4307b$8984bo4310b$6283bo2700bo4310b$6284bo2700bobo4307b$6282b3o7010b$13295b$8992b3o4300b$8991bo2bo4300b$8994bo4300b$8986bo7bo4300b$8971bo13b3o3bobo4301b$8970b3o11b2obo4307b$7497b2o1471bob2o10b3o4308b$5834b4o1659b2o1472b3o11b2o4308b$5833bo3bo3133b2o4322b$5008bo828bo7457b$5008bobo822bo2bo7458b$5008b2o8285b$6447bo6847b$6161bo284bobo17b2o6827b$6159bobo118bobo163bobo17b2o6827b$6160b2o118b2o165bo2521b3o4323b$6281bo2687bo2bo4322b$8969bo4325b$8969bo4325b$5099bobo3868bobo4322b$5099b2o1153bo7040b$5077bobo20bo1151b2o7041b$5077b2o1174b2o2715b3o4322b$5078bo3890bo2bo4322b$8972bo4322b$6093bobo2876bo4322b$6093b2o2874bobo22b3o4298b$6094bo2898bo2bo4298b$8996bo4298b$8996bo4298b$5870b2o314bobo2804bobo4299b$5868b2ob2o313b2o7107b$5868b4o292bobo20bo7107b$5869b2o293b2o2836b3o4290b$6165bo2836bo2bo4289b$6442bo1554b2o1003bo4292b$6441bobo17b2o1533b4o996bo5bo4292b$6441bobo17b2o1533b2ob2o980bo13b3o5bobo4289b$6442bo1555b2o980b3o12bob2o4296b$6297bo2681b2obo13b3o4296b$6298b2o2679b3o14b2o4297b$6297b2o2681b2o4313b$13295b$13295b$13295b$13295b$13295b$13295b$8979b3o4313b$8978bo2bo4313b$8981bo4313b$4983b3o3995bo4313b$4986bo915bo2bo1581b2o1489bobo4314b$4983b3o920bo1580b2o5806b$5902bo3bo7388b$5903b4o3073b3o4312b$4986b2o1186bobo79bo2723bo2bo4311b$4986b2o1187b2o78bo2724bo4314b$6175bo79b3o179bo2542bo4314b$6436bobo17b2o2523bobo20b3o4288b$6436bobo17b2o2546bo2bo4287b$4978bo96bo1361bo2566bo4290b$4976b2o96bo3929bo4290b$4977b2o74bo20b3o1151bo2776bobo4287b$5052bo1175bobo7064b$5052b3o1173b2o7065b$9012b3o4280b$6069bo2941bo2bo4280b$6068bo2945bo4280b$6068b3o2935bo7bo4280b$8991bo13b3o3bobo4281b$8990b3o11b2obo4287b$6162bo2827bob2o10b3o4288b$6161bo2829b3o11b2o4288b$6140bo20b3o2827b2o4302b$5938b2o199bo7155b$5937b4o198b3o7153b$5937b2ob2o7353b$5939b2o7354b$13295b$13295b$6432bo2556b3o4303b$6313bo117bobo17b2o1614b2o920bo2bo4302b$6311bobo117bobo17b2o1612b2ob2o919bo4305b$6312b2o118bo1632b4o920bo4305b$8066b2o922bobo4302b$13295b$13295b$8990b3o4302b$8989bo2bo4302b$8992bo4302b$8992bo4302b$4995bo3993bobo22b3o4278b$4996b2o4015bo2bo4278b$4995b2o4019bo4278b$9016bo4278b$9013bobo4279b$13295b$6049b3o138bo1286b2o5816b$5972b4o72bo2bo139bo40bo1244b2o1543b3o4270b$5971bo3bo72bo2bo137b3o38b2o2790bo2bo4269b$5975bo71bo2bo180b2o2789bo4272b$5971bo2bo72bo2bo2965bo5bo4272b$6051b2o2948bo13b3o5bobo4269b$4952bo98bo999b2o2947b3o12bob2o4276b$4952bobo94b2o998bo3bo371bo20b2o2551b2obo13b3o4276b$4952b2o75bo20b2o1000b2o149bobo218b3o19b2o2551b3o14b2o4277b$5027b2o1025bo148b2o218b2o2bo2572b2o4293b$5028b2o1019bo3bo150bo219b5o6866b$6050b3o371b2o2bo6866b$6425bo2bo6866b$6425bobo6867b$13295b$13295b$8999b3o4293b$6116b2o20bo2859bo2bo4293b$6116b2o18b2o2863bo4293b$6118bo18b2o2862bo4293b$5016bo1099b2o2880bobo4294b$5015b3o1098b2o7177b$5014b5o1018bobo375bo6879b$5014b2ob3o1017b2o79b2o294bo2585b3o4292b$5015b2ob2o988b2o28bo79b2o294b3o2583bo2bo4291b$5017bo988b2ob2o2989bo4294b$6006b4o2990bo4294b$6007b2o317bobo2672bobo20b3o4268b$6327b2o2695bo2bo4267b$6106bo18bo201bo1807b2o887bo4270b$6105bobo16b3o314b2o1691b4o886bo4270b$6105bob2o14b5o313b2o1691b2ob2o886bobo4267b$6107bo15b2ob3o2007b2o5157b$6124b2ob2o7166b$6108bob2o14bo2905b3o4260b$6109b2o2920bo2bo4260b$5010bo4023bo4260b$5010bo4015bo7bo4260b$6103bo106bo2800bo13b3o3bobo4261b$5013b3o1085b2o106b3o2798b3o11b2obo4267b$5013b3o1086b2o104b2o2bo2797bob2o10b3o4268b$4931b3o1275b5o2797b3o11b2o4268b$4931bo2bo1274b2o2bo2797b2o4282b$4931bo2bo94bo1153bo20bo5bo2bo7081b$5028b3o1085bo65b3o20b2o3bobo7082b$4934b2o91b2o2bo1083bobo63bo2b2o18b2o7089b$4933bo2bo91b5o1007bo2bo70b2ob2o66bo1281b2o5826b$4933bo2bo91b2o2bo1011bo70bo2bo66b2o1280b2o5826b$4933bo95bo2bo1007bo3bo70bo3bo67bo7107b$5022bobo4bobo1009b4o70bo68b4o2821b3o4283b$5023b2o1159b2o2823bo2bo4282b$5023bo3985bo4285b$6115b2o2892bo4285b$6064bobo49bo83bo2809bobo4282b$6018bo46b2o132bo7095b$6017b3o45bo47bo85b3o7093b$6016bo2b2o92bob2ob2o2890b3o4282b$6016b4o92b2ob2ob2o2889bo2bo4282b$4922bo96bo999bobo91bobo2896bo4282b$4920b2o96bo1000bo2bo91bo2897bo4282b$4921b2o74bo20b3o998b3o150bo2836bobo22b3o4258b$4996bo12bo1008bobo151bobo2858bo2bo4258b$4996b3o9bobo1007bobo151b2o2862bo4258b$5008bobo1007b3o3015bo4258b$4916b3o90bo4023bobo4259b$4916bo2bo1471bo6903b$4916bo2bo1469b2o6904b$4915b4o1471b2o2650b3o4250b$4915b2o1283b2o2840bo2bo4249b$4914bo1161b2o121bobo140bo2699bo4252b$4915bo1159b4o121bo142bo2692bo5bo4252b$4915bo1159b2ob2o261b3o2677bo13b3o5bobo4249b$6077b2o2941b3o12bob2o4256b$9019b2obo13b3o4256b$6006bo3012b3o14b2o4257b$6006bobo3011b2o4273b$6006b2o2197b2o5088b$8203b2ob2o5087b$8203b4o5088b$6099bo2104b2o5089b$6099bobo7193b$6077bo21b2o7194b$6077bobo2939b3o4273b$6077b2o2939bo2bo4273b$5004bo4016bo4273b$5003bobo4015bo4273b$5003bobo4012bobo4274b$5004bo8290b$6190b2o7103b$4945bo1242b2o3bo2826b3o4272b$4946b2o1245bo2826bo2bo4271b$4945b2o1241bo15bo2815bo4274b$6189b2o2bo10b2o1251b2o1561bo4274b$6110b4o76bo2bo9bobo1251b2o1562bobo20b3o4248b$6109bo3bo2930bo2bo4247b$6080bo32bo104b3o2823bo4250b$6081bo27bo2bo63bo43bo2823bo4250b$6079b3o92b2o43bo2825bobo4247b$6063bo111b2o56b2o7060b$4923bobo1135b2ob2o168b2o7059b$4924b2o1135b2ob2o167bo2818b3o4240b$4924bo70bo1066bob3o181b2o2801bo2bo4240b$4993b2o1066b3o183bobo2804bo4240b$4973bo20b2o1151bobo99bo2796bo7bo4240b$4971b2o1174b2o114bo2767bo13b3o3bobo4241b$4972b2o1059bo114bo114b2o2765b3o11b2obo4247b$6031bobo28b2o198bobo2765bob2o10b3o4248b$4999bo1032b2o28b2o2967b3o11b2o4248b$4998bobo1276b3o85bo2665b2o4262b$4998bobo984b3o73bo217bo85bobo6927b$4890bo75b2o31bo985bo2bo71bob2ob2o211bo86b2o6928b$4889bo76b2o1017bo2bo70b2o4b2o225b2o7001b$4887b2ob2o76bo1090b2ob2o229b2o61bo6938b$4886b5o75b3o23bo995b2o71bo230bo64b2o6936b$4885b2o2bo75bobo22b6o991bo2bo316b2o47b2o6937b$4885bob4o75b2o22b2o2b2o991bo2bo315bobo2720b3o4263b$4885bo4bo74bo1021bo158b2o160bo2720bo2bo4262b$4885bo2b2o75bo28bo1149b2ob2o173bo2706bo4265b$4887b2o74bo26b2o2bo1149b4o174b2o2705bo4265b$4990b2o3bo1149b2o174bobo2706bobo4262b$4883bo110bo8300b$4883bobo106bobo1073bo5b3o259b3o1934b2o5020b$4883b2o108bo1075bo7bo260bo31bo1901b4o754b3o4262b$6067b3o4b3o260bo32b2o1900b2ob2o752bo2bo4262b$6351b2o16bobo1902b2o756bo4262b$6352b2o2678bo4262b$5976bo100b2o272bo32b3o2642bobo22b3o4238b$5974b2o101b2o287b2o18bo2666bo2bo4238b$5975b2o388bobo17bo2670bo4238b$4976bo1390bo31b2o2655bo4238b$4961bo13b3o1403bo18b2o2651bobo4239b$4960bobo11b2o2bo1090bo311b2o16bo6895b$4960bobo1104b2o311bobo31b2o6879b$4961bo1085bo20b2o343bobo2646b3o4230b$6045b2o348b3o17bo2646bo2bo4229b$4974b2o1070b2o349bo31bo2632bo4232b$4975b3o1418bo32b2o2625bo5bo4232b$4978bo1431b2o16bobo2610bo13b3o5bobo4229b$4976b3o1115bo83bo2bo229b2o1034b2o1591b3o12bob2o4236b$4976b2o1117b2o53bo31bo227bo32b3o1001b2o1590b2obo13b3o4236b$6094b2o54bobo25bo3bo242b2o18bo2593b3o14b2o4237b$4939bo1210b2o27b4o241bobo17bo2595b2o4253b$4940bo35bobo1447bo31b2o6835b$4938b3o36b2o1461bo18b2o6834b$4972bob2obo1462b2o16bo6836b$4973b2o26bo1121bo315bobo31b2o6820b$4973bo28bo1119bo349bobo6820b$5000b3o1119b3o329b3o17bo6820b$6046bobo407bo31bo2550b3o4253b$6047b2o406bo32b2o2548bo2bo4253b$6047bo421b2o16bobo2551bo4253b$4896bo1573b2o2569bo4253b$4894bobo1134bo437bo32b3o2533bobo4254b$4895b2o59bo6bo1066b3o451b2o18bo6790b$4955bobo4bo1067bo2bo449bobo17bo6791b$4941bo13bobo4b3o1067b2o451bo31b2o2521b3o4252b$4940bo15bo1075bo466bo18b2o2520bo2bo4251b$4940b3o29bo1026bo29b2o468b2o16bo2522bo4254b$4970b2o1028b2o27b4o465bobo31b2o2506bo4254b$4971b2o1026b2o29bo2bo497bobo2507bobo20b3o4228b$6031bo481b3o17bo2530bo2bo4227b$6030bo183b2o299bo31bo2516bo4230b$6029b2o182b4o297bo32b2o2515bo4230b$4858bobo1093bo73bo5bo178b2ob2o310b2o16bobo2516bobo4227b$4858b2o1093b3o72b2o3b2o180b2o312b2o6764b$4859bo1092b2o2bo72b2o497bo32b3o6731b$5953b5o585b2o18bo2508b3o4220b$5953b2o2bo584bobo17bo2508bo2bo4220b$5954bo2bo586bo31b2o1765b2o729bo4220b$5954bobo601bo18b2o1762b2ob2o720bo7bo4220b$6558b2o16bo1764b4o706bo13b3o3bobo4221b$6557bobo31b2o1749b2o706b3o11b2obo4227b$6590bobo2457bob2o10b3o4228b$6043b2o527b3o17bo2458b3o11b2o4228b$6034bobo5bo2bo528bo31bo2444b2o4242b$6035b2o4b3o529bo32b2o6687b$6035bo551b2o16bobo6687b$4946b2o3b2o1090bobo542b2o6705b$4945bo2bo2b2o991bo642bo32b3o6672b$4945bo2bo994bo102bo555b2o18bo6672b$4946b2o995b3o99b2o554bobo17bo6673b$6110bo492bo31b2o2412b3o4243b$6108bobo14bobo489bo18b2o2411bo2bo4242b$6037bo71b2o14b2o490b2o16bo2413bo4245b$6036bo89bo489bobo31b2o785b2o1610bo4245b$6015bo20b3o209b4o397bobo785b2o1611bobo4242b$6014bo232bo3bo379b3o17bo6643b$6014b3o234bo381bo31bo6629b$5015bo1083bo20b2o125bo2bo381bo32b2o2383b3o4242b$5016b2o1079b2o21bobo523b2o16bobo2382bo2bo4242b$5015b2o1045bo35b2o22b2o523b2o2403bo4242b$6063bo57bo524bo32b3o2370bo4242b$4919b3o1139b3o55bobo539b2o18bo2367bobo22b3o4218b$4918bo2bo1196b2o540bobo17bo2392bo2bo4218b$4909bobo6bo4bo1194b3o541bo31b2o2380bo4218b$4910b2o11bo1168b2o582bo18b2o2379bo4218b$4910bo12b2o14bo1152b2o582b2o16bo2378bobo4219b$4920bob2o13b2o1155bo580bobo31b2o6584b$4921bo16b2o1152b3o613bobo6584b$6091bobo596b3o17bo2371b3o4210b$4941b2o1072bo76b2o598bo31bo2357bo2bo4209b$4940bo2bo1069bobo75bo599bo32b2o2356bo4212b$4940bo2bo1070b2o75bo613b2o16bobo2350bo5bo4212b$4941b2o1146bo616b2o2353bo13b3o5bobo4209b$4928bobo1774bo32b3o2319b3o12bob2o4216b$4833bo92bo4bo1788b2o18bo2318b2obo13b3o4216b$4833b2o91bo4bo1787bobo17bo2319b3o14b2o4217b$4833b3o94b2o1066b3o720bo31b2o2305b2o4233b$4833b2o74bobo1085bo2bo283b2o449bo18b2o6539b$4833b2o74b2o15b2o2b2o1035bo33bo280b2ob2o448b2o16bo6541b$4834bo75bo15b2o2b2o1036bo28b2o283b4o448bobo31b2o6525b$4835bobo89bob3o1034b3o28b2o3bo280b2o482bobo6525b$4836bo93bo1071bo746b3o17bo6525b$4929bo1070bo111b2o637bo31bo1627b2o4882b$5998b3o110bobo636bo32b2o1625b4o645b3o4233b$4827bo1170b2o112bo651b2o16bobo1625b2ob2o643bo2bo4233b$4827bobo1168bo766b2o1645b2o647bo4233b$4827b2o1170b2o763bo32b3o2261bo4233b$5921b3o75bobo777b2o18bo2258bobo4234b$5921bo2bo73bo3bo775bobo17bo6496b$5925bo73b2o779bo31b2o6481b$5922b3o869bo18b2o2245b3o4232b$6794b2o16bo2247bo2bo4231b$4936b2o1855bobo31b2o2231bo4234b$4935bo2bo1887bobo2231bo4234b$4935bo2bo1869b3o17bo2232bobo20b3o4208b$4936b2o1065bo6b2o798bo31bo2241bo2bo4207b$6001bobo8bo796bo32b2o2240bo4210b$6002b2o9bo809b2o16bobo2240bo4210b$6010bobo85bobo723b2o2259bobo4207b$6011bo87b2o215bo2bo503bo32b3o568b2o5866b$5031bo880bobo98bobo83bo220bo517b2o18bo568b2o5866b$5029bobo880b2o99bobo300bo3bo516bobo17bo2234b3o4200b$5030b2o881bo100bo61bo240b4o518bo31b2o2218bo2bo4200b$6077b2o15bo758bo18b2o2220bo4200b$6076b2o16bobo756b2o16bo2214bo7bo4200b$4925bo1079bobo86b2o11b2o743bobo31b2o2183bo13b3o3bobo4201b$4926bo1078b2o99bobo776bobo2182b3o11b2obo4207b$4924b3o1056bobo20bo100bo759b3o17bo2182bob2o10b3o4208b$5983b2o884bo31bo2169b3o11b2o4208b$5984bo82bo800bo32b2o2168b2o4222b$4911bo1154bo21bo793b2o16bobo6392b$4910b3o1153b3o19b2o793b2o6410b$4909bo2b2o1114bobo59bo791bo32b3o6377b$4913bo1115b2o57b2o807b2o18bo6377b$4913b2o1114bo57bobo806bobo17bo6378b$4844bo70bo15b2o1155bo809bo31b2o6363b$4842bobo67b4o14bo2bo1152bobo823bo18b2o2136b3o4223b$4843b2o67b2o16bo2bo1150bo827b2o16bo2138bo2bo4222b$4931b2o1123bo2b2o23bobo824bobo31b2o2122bo4225b$6060b2o882bobo2122bo4225b$6059b2o865b3o17bo2123bobo4222b$4881b3o1097bo946bo31bo6334b$4881bob3o1096b2o71b2o2b2o291b2o573bo32b2o6333b$5981b2o78bo289b4o586b2o16bobo2108b3o4222b$4884bobo1168b4o292b2ob2o586b2o2125bo2bo4222b$4884bobo1170bo2bo292b2o586bo32b3o2095bo4222b$4885b2o2069b2o18bo2095bo4222b$4802bobo95bo2054bobo17bo2093bobo22b3o4198b$4802b2o96bobo2054bo31b2o2102bo2bo4198b$4803bo74bo21b2o2069bo18b2o1489b2o613bo4198b$4878bobo1086bo1003b2o16bo1489b2ob2o612bo4198b$4878b2o1053bobo30b3o1001bobo31b2o1473b4o610bobo4199b$5934b2o29bo2b2o1033bobo1474b2o4813b$5934bo30bo3bo1015b3o17bo6289b$5967bobo1017bo31bo2082b3o4190b$4791bobo1286b2o904bo32b2o2081bo2bo4189b$4791bo2bo1169b2ob2o110bobo918b2o16bobo2081bo4192b$4790bo3b2o1170bo113bo920b2o2093bo5bo4192b$4790bo2209bo32b3o2045bo13b3o5bobo4189b$4927b2o2086b2o18bo2044b3o12bob2o4196b$4790bo2b3o131b2o960b2o1123bobo17bo2044b2obo13b3o4196b$4790b2o1097bobo74b4o1046bo31b2o2029b3o14b2o4197b$4792b3o1096bo74bobobo1059bo18b2o2029b2o4213b$4792b3o70bo178bobo842bobo77bo1060b2o16bo6246b$4865bo179b2o842b2o1138bobo31b2o6230b$4864bobo178bo844b2o1170bobo352b2o5876b$5891b2o493b4o654b3o17bo352b2o5876b$4866b2o1023b2o76bo415bo3bo656bo31bo6216b$5970b2o417bo655bo32b2o6215b$4866b2o1101b2o6b3o405bo2bo670b2o16bobo1999b3o4213b$5977bob3o85bo992b2o2016bo2bo4213b$6065bobo991bo32b3o1986bo4213b$5881bo98bobo83b2o1006b2o18bo1986bo4213b$4781b3o1097bobo96bobo1090bobo17bo1984bobo4214b$4780bo3bo78b2o1016b2o98b2o61bo1030bo31b2o6186b$4863b3o1179bo18bo1024bo18b2o6185b$4785bo81bo1175b3o16b2o1025b2o16bo1972b3o4212b$4780b5o80b2o1107bo88b2o1023bobo31b2o1956bo2bo4211b$4781bo75bob2o64bo1048bobo98b2o1044bobo1956bo4214b$4858b3o62bobo1026bo21b2o98bobo1026b3o17bo1956bo4214b$4858bo3bobo28bo30b2o1026bobo120bo1029bo31bo1943bobo20b3o4188b$4781b2o79bobo26bobo29bo1028b2o1150bo32b2o1965bo2bo4187b$4781b2o80bo28b2o28b2o1111bobo1080b2o16bobo1965bo4190b$4781bo140b2o1111b2o16bobo1063b2o1983bo4190b$4780b2o1215bo38bo14bo4bo1061bo32b3o1951bobo4187b$4778b2obob3o1209bobo53bo4bo1076b2o18bo6141b$4784b2o1210b2o57b2o1075bobo17bo6142b$4778bo2bo18bo76b2o2255bo31b2o1944b3o4180b$4779b3o19b2o74bobo1171b2o2b2o1091bo18b2o1942bo2bo4180b$4800b2o69bo7b2o1170b2o2b2o365b2o724b2o16bo1947bo4180b$4872bo4bobo1144bobo25bob3o363b2ob2o722bobo31b2o1923bo7bo4180b$4870b3o4bo1146bo2bo27bo364b4o756bobo1908bo13b3o3bobo4181b$4877bo2bo1142bo3b2o25bo366b2o739b3o17bo1907b3o11b2obo4187b$5949bo73bo1140bo31bo1893bob2o10b3o4188b$4879b2o1069bo1212bo32b2o1351b2o540b3o11b2o4188b$5948b3o72bo2b3o1148b2o16bobo1350b4o539b2o4202b$6023b2o1153b2o1368b2ob2o4742b$4786bobo1236b3o1149bo32b3o1337b2o4743b$4787b2o1236b3o1164b2o18bo6082b$4787bo82bo2320bobo17bo6083b$4868b2o2323bo31b2o6068b$4848bo20b2o2336bo18b2o6067b$4846b2o2359b2o16bo1863b3o4203b$4847b2o9bo57b2o984bo1303bobo31b2o1847bo2bo4202b$4857bobo56b2o982bobo1336bobo1847bo4205b$4857bobo200bo840b2o31b3o1284b3o17bo1847bo4205b$4858bo202bo872bo2bo1285bo31bo1834bobo4202b$5059b3o871bo3bo1284bo32b2o6038b$4765bo1167b4o111b2o1186b2o16bobo6038b$4764bo1169bo112bobo1187b2o1851b3o4202b$4764b3o1281bo1187bo32b3o1817bo2bo4202b$6454bo2bo793b2o18bo135b2o1683bo4202b$6458bo791bobo17bo136b2o1683bo4202b$6454bo3bo793bo31b2o1803bobo22b3o4178b$5856b3o75b2ob2o516b4o807bo18b2o1826bo2bo4178b$5859bo74bob3o1327b2o16bo1831bo4178b$5856b3o1406bobo31b2o1815bo4178b$7298bobo1812bobo4179b$7280b3o17bo5994b$5859b2o76bo1344bo31bo5980b$5859b2o77bo9b2obo1329bo32b2o1806b3o4170b$5936b3o7bo4bo1343b2o16bobo1806bo2bo4169b$5945bo5bo81bo1262b2o1824bo4172b$4906bobo1036bo88b2o1259bo32b3o1785bo5bo4172b$4907b2o942bo92b2ob2obo82b2o1275b2o18bo1770bo13b3o5bobo4169b$4907bo941b2o93b2obo2bo1358bobo17bo1770b3o12bob2o4176b$4853bo57b2o937b2o94b4o1361bo31b2o1754b2obo13b3o4176b$4852bobo56b2o1034b3o60bobo19bo1292bo18b2o1753b3o14b2o4177b$4852bobo1156b2o18bo1293b2o16bo1756b2o4193b$4853bo1090bo66bo19b3o1290bobo31b2o5935b$4816bo1125b2o1413bobo5935b$4814bobo1105bo20b2o98b2o1294b3o17bo5935b$4815b2o11bo1091b2o120bobo1296bo31bo5921b$4827b3o1091b2o120bo1296bo32b2o5920b$4826b2o2bo1173bo485b2o862b2o16bobo5920b$4826bo1177bobo482b4o862b2o1742b3o4193b$4826b3o1134bo40b2o15b2o466b2ob2o860bo32b3o1708bo2bo4193b$4826b2obo1134b2o54b3o468b2o876b2o18bo1711bo4193b$4827bob2o1132b2o55bo2bo1344bobo17bo1712bo4193b$4802bo24b2o1191b2ob2o1345bo31b2o1694bobo4194b$4803bo24bob2o1188b2ob2o1359bo18b2o5890b$4801b3o23b2ob2o1187b2ob2o1360b2o16bo1216b2o4674b$4827b2ob2o12bo1175bo1362bobo1231b2ob2o478b3o4192b$4829bo14bobo1174b3o2593b4o479bo2bo4191b$4844b2o1146b3o27bo1375b3o1217b2o480bo4194b$5995bo1404bo31bo1667bo4194b$5915bobo74bo2bo1403bo32b2o1667bobo20b3o4168b$5916b2o75b2o1436bobo1690bo2bo4167b$4839b2o233bo841bo76b2o3129bo4170b$4839bob2o5bo226b2o915bo2bo3128bo4170b$4841b2o4bobo224b2o916bo1435b2o1695bobo4167b$4741bo97b2o6bobo1144b2o1431bobo5865b$4739b2o96b2o9bo2580bo31b2o5832b$4740b2o74bo2645b2o1668b3o4160b$4815bo21bobo2621bo1669bo2bo4160b$4815b3o20bo1029bo3265bo4160b$5869b2o3255bo7bo4160b$5868b2o1587b3o1651bo13b3o3bobo4161b$6524b4o931bo31bo1618b3o11b2obo4167b$5903bo619bo3bo930bo32b2o1617bob2o10b3o4168b$4729bo1172b3o622bo962bobo1618b3o11b2o4168b$4729b2o90bo1079b2o2bo110b2o505bo2bo868b2o1714b2o4182b$4728bo2bo88bobo1192bobo1377b2o5898b$4729bobo88bobo1193bo1470b2o5806b$4728bo2bo89bo2664bobo5806b$4728bo2bo1169b2o1585bo31b2o5773b$4728bobo1094b2o75b3o1616b2o5772b$4729b3o1092bo2bo77bo1614bo5774b$5823b3o77b3o3203b3o4183b$5903b2o3204bo2bo4182b$5825bobo1688b3o1590bo4185b$7518bo31bo1558bo4185b$4843bo984bo74bobo12bo1598bo32b2o1558bobo4182b$4842bobo982b2o75b2o12bobo1628bobo5743b$4842bobo1059bo13b2o81bo7293b$4843bo1071bo86bo3107b3o4182b$5819bo94b3o83b3o1543b2o1561bo2bo4182b$5818bo94bo2b2o1627bobo1564bo4182b$4719bo1098b3o92b3obo1629bo31b2o1531bo4182b$4718bobo1195b2o61bo1600b2o1527bobo22b3o4158b$4717b2ob2o1255bobo20bobo1576bo1553bo2bo4158b$4718bo2bo94bo1095bo65b2o20b2o558b2o2574bo4158b$4718bo3bo91bo3bo1092bo89bo556b2ob2o2573bo4158b$4718bo94bo4bo1071bo20b3o644b4o1013b3o1555bobo4159b$5889bo121b2o546b2o1016bo31bo5685b$4812bo2bobo1071b3o118bobo1563bo32b2o5684b$4718b2o93bo5bo1154bo36bo1596bobo1076b2o453b3o4150b$4719bo94b2o1156b2o2712b4o452bo2bo4149b$4817bo1113bo41b2o2711b2ob2o451bo4152b$4716bo1215bo1672b2o1081b2o446bo5bo4152b$4716bob2ob2o1207b3o56bo1614bobo1514bo13b3o5bobo4149b$4715b2ob2ob2o367bo897b3o1615bo31b2o1480b3o12bob2o4156b$4716bobo17bobo349bobo897b4o1647b2o1478b2obo13b3o4156b$4717bo19b2o350b2o2547bo1480b3o14b2o4157b$4737bo76bo4305b2o4173b$4812b2o24bo1149b4o7303b$4792bo20b2o22bobo1148b4o1642b3o5658b$4790b2o45bobo1150bo1645bo31bo5626b$4791b2o45bo1045bo76bo1673bo32b2o5625b$4787b3o1092bobo75b3o1704bobo5625b$4787bo2bo1092b2o74b5o7331b$4723bo62bo3bo1168b2ob3o3154b3o4173b$4724b2o60b3o2bo1168b2ob2o1699b2o1452bo2bo4173b$4723b2o62b4o1171bo629bo2bo1067bobo1455bo4173b$6596bo1068bo31b2o1422bo4173b$6592bo3bo1101b2o1418bobo4174b$4784bobo1806b4o1100bo5597b$4784b2o1050bo1548b2o5908b$4785bo1051bo1547b2o1733b3o4172b$4809b2o1024b3o1855b3o1424bo2bo4171b$4809b2o2884bo31bo1392bo4174b$7694bo32b2o1391bo4174b$7726bobo1392bobo20b3o4148b$4702bo4441bo2bo4147b$4702bobo1165b3o111b2o3158bo4150b$4702b2o1165bo2bo110bobo1737b2o1419bo4150b$4797bo1071bo2bo111bo1737bobo1420bobo4147b$4796b3o1069bo2bo1852bo31b2o5537b$4795b2o2bo33bo1034bo2bo1885b2o5536b$4795b2ob2o32bobo957b2o78b2o1882bo1395b3o4140b$4798b3o31bobo959bo77b2o3277bo2bo4140b$4796bob2o33bo961bo74bo3bo3279bo4140b$4795bo2bo993bobo78b2o1877b3o1391bo7bo4140b$4798bo994bo81bo1878bo31bo1344bo13b3o3bobo4141b$4795bobo997bobo72bo3bo13bo1864bo32b2o1342b3o11b2obo4147b$4796bo998bobo73b3o12b2o1897bobo1342bob2o10b3o4148b$5796bo90b2o739b2o2501b3o11b2o4148b$4797b3o1167bobo657b4o2500b2o4162b$4796bob2o1168b2o657b2ob2o1150b2o5511b$4797b2obo986bobo178bo660b2o1150bobo5511b$5787b2o93b3o1898bo31b2o5478b$5788bo93bo2bo59bo1870b2o5477b$4804b2o1076bo2bo60b2o21bo1845bo5479b$4804b2o1075b4o60b2o22bobo2785b2o4536b$4752bo350bobo775b2o86b2o2784b2ob2o369b3o4163b$4753bo350b2o774bo1930b3o941b4o370bo2bo4162b$4751b3o350bo753bobo20bo1931bo31bo910b2o371bo4165b$5858b2o21bo97b2o1831bo32b2o1282bo4165b$4765bo1093bo82bo35bobo1863bobo1283bobo4162b$4764b3o1174bo37bo7315b$4763bo2b2o1173b3o7351b$4763b4o61bo1068bobo1941b2o1287b3o4162b$4766bobo58bobo1068b2o1940bobo1286bo2bo4162b$4766bo2bo57bobo1068bo1943bo31b2o1256bo4162b$4739bo26b3o59bo1128bo1917b2o1255bo4162b$4737bobo25bobo1188bobo1915bo1254bobo22b3o4138b$4738b2o25bobo14bo1172bo3bo3193bo2bo4138b$4765b3o13bo1174bo2bo3196bo4138b$4781b3o1172bo2bo1910b3o1283bo4138b$5957bobo1912bo31bo1248bobo4139b$5850bo811b4o1205bo32b2o5389b$5851b2o808bo3bo1237bobo5389b$5850b2o77bo735bo2496b3o4130b$4679b2o95b2o1150b3o730bo2bo710b2o1785bo2bo4129b$4679bobo94bobo1152bo1443b2o523b2o1260bo4132b$4681b2o95bo20b2o1128b2o1968bobo1254bo5bo4132b$4679bobo94bobo20b2o1129bo1970bo31b2o1206bo13b3o5bobo4129b$4679bo95bo3158b2o1204b3o12bob2o4136b$4679bo2bo70bo21bobo3155bo1205b2obo13b3o4136b$4753bobo19bo4363b3o14b2o4137b$4681b2o70b2o19bo1027bobo3335b2o4153b$5803b2o2124b3o5363b$5803bo2127bo31bo5331b$7930bo32b2o5330b$4823bo3138bobo5330b$4672bo149bobo8470b$4670b2o86bo63bobo8470b$4671b2o84bobo63bo1128b2o2005b2o1178b3o4153b$4757bobo1079bo111bobo2004bobo1177bo2bo4153b$4758bo1079b3o111bo2007bo31b2o1147bo4153b$5837bo2b2o85bo2065b2o1146bo4153b$5837b4o86bo2064bo1145bobo4154b$5840bobo7452b$5759b3o78bo2bo854b2o6595b$5759bob3o76b3o853b2ob2o1287b3o1149b3o4152b$5839bobo854b4o1290bo31bo1117bo2bo4151b$5119bo642bobo74bobo14bo840b2o1290bo32b2o1116bo4154b$5120bo641bobo74b3o13bo2165bobo1116bo4154b$4794b2o322b3o642b2o90b3o2967b2o314bobo20b3o4128b$4794b2o1140bo2887b4o336bo2bo4127b$5934bobo2081b2o804b2ob2o335bo4130b$5756bo178b2o2080bobo806b2o336bo4130b$5756bobo2260bo31b2o1112bobo4127b$5756b2o92b2o61bo2138b2o5241b$5850bobo61bo24bo2111bo5243b$5852bo59b3o22b2o3233b3o4120b$4753bo1096bobo85b2o3231bo2bo4120b$4752bobo63bo1030bo2197b3o1124bo4120b$4752bo2bo61bobo1007bo21bobo2197bo31bo1084bo7bo4120b$4751bo3bo61bobo1007bobo19bo2198bo32b2o1068bo13b3o3bobo4121b$4750b2obob2o61bo1008b2o19bo98b2o2131bobo1067b3o11b2obo4127b$4750bo4bo1154bobo33bobo3201bob2o10b3o4128b$4751b4o1155b2o35bo3203b3o11b2o4128b$4753bo1112bo44bo2165b2o1072b2o4142b$5864bobo2209bobo5216b$5865b2o863bo2bo1344bo31b2o5183b$4691bo2042bo1376b2o5182b$4692b2o2036bo3bo1375bo5184b$4691b2o2038b4o6560b$4750bobo1171b3o1438b2o5928b$4750b2o1173bo1439b2o739b3o1040b3o4143b$4727b2obo20bo37b2o1134b3o2180bo31bo1008bo2bo4142b$4725bo4bo58b2o1027bo2288bo32b2o1007bo4145b$4724bo5bo1088bo2319bobo1007bo4145b$4724bo1092b3o3330bobo4142b$4723b2ob2obo8565b$4723b2obo2bo1166b3o2237b2o5157b$4725b4o3406bobo1012b3o4142b$4646bo79b3o1167bobo2238bo31b2o978bo2bo4142b$4646bobo1250bo23bobo2244b2o980bo4142b$4646b2o75bo89bo1081bo3bo23bobo2243bo982bo4142b$4721b2o89bobo4334bobo22b3o4118b$4722b2o88bobo956bo123bo2b2o26bo3246bo2bo4118b$4813bo955bobo2393b3o1008bo4118b$4746b2o1022b2o2395bo31bo976bo4118b$4746b2o1148bo2269bo32b2o972bobo4119b$5896bo25bobo2273bobo5094b$5895bo27bo7371b$5896bob2o866b2o2414b3o4110b$4711bo23bo397bo766bo864b4o1426b2o985bo2bo4109b$4634bo76b2o21b3o397b2o757bo4bo21b2o843b2ob2o1424bobo985bo4112b$4633bobo74bo2bo20bob2o395b2o784bobo845b2o1427bo31b2o946bo5bo4112b$4632bo3bo74bobo19b2o1159bobo23bo2308b2o930bo13b3o5bobo4109b$4633bo2bo73bo2bo19b2o1071b3o85b3o2331bo931b3o12bob2o4116b$4633bo2bo73bo2bo19b2o49b2o944b2obo72bo2bo3349b2obo13b3o4116b$4634bobo73bobo24bo46b2o942bo4bo72bo2bo3085b2o262b3o14b2o4117b$4711b3o22b2o989bo5bo2490b3o666b2ob2o262b2o4133b$4734bobo990bo81b2o2415bo31bo634b4o4398b$4733bo2bo989b2ob2obo75bo2bo2413bo32b2o634b2o4399b$4734bobo989b2obo2bo75bo2bo12bobo2430bobo5035b$4734b3o991b4o76bo15b2o7469b$4734b2obo991b3o93bo76bo7392b$4734bo2bo1165b2o2349b2o5039b$4735bo72bo917bo175b2o2349bobo903b3o4133b$4807bobo914b2o2529bo31b2o869bo2bo4133b$4807bobo915b2o2561b2o871bo4133b$4808bo1070bobo25bo2379bo873bo4133b$4741b2o1074b3o60b2o24bo3251bobo4134b$4741b2o1076bo60bo25b3o7386b$4709bo1107b3o2463b3o5009b$4708bobo1086bo2487bo31bo842b3o4132b$4708bobo1084b2o21bo2465bo32b2o841bo2bo4131b$4709bo14bo1071b2o18b3o981b4o1512bobo841bo4134b$4723b3o1088b3o62bo35b2o882bo3bo2356bo4134b$4722b2o2bo1088b2o62bobo32bobo886bo2357bobo20b3o4108b$5832bo46b2o34bo883bo2bo552b2o956b2o869bo2bo4107b$4726b2o1105b2o1520b2o955bobo869bo4110b$4726b2o51b2o1051b2o2480bo31b2o836bo4110b$4641bo83bo2bo50b2o3566b2o836bobo4107b$4642bo81b3o3619bo4948b$4640b3o8652b$4619b3o96bobo4471b3o4100b$4618bo2bo97b2o1172bo2448b3o846bo2bo4100b$4618b2obo97bo1172b3o2449bo31bo817bo4100b$4622b2o1268b3o2448bo32b2o808bo7bo4100b$4622b2o1160bobo2588bobo793bo13b3o3bobo4101b$4621bo2bo178bo981b2o105b4o3274b3o11b2obo4107b$4620bo181bobo980bo105b5o3274bob2o10b3o4108b$4620b3o179bobo1086b2obo2477b2o797b3o11b2o4108b$4621bo181bo3567bobo797b2o4122b$4713bo22b2o1127bo2507bo31b2o4888b$4712bo23b2o1125b2ob2o24b2o2512b2o4887b$4691bo12bo7b3o434bo713b2ob2o23bo2513bo4889b$4690bo12bobo441bobo714bob3o7426b$4690b3o10bobo442b2o587bo125b3o24bobo2bo7399b$4704bo1033b2o150bob3obo939b2o1563b3o4891b$5737b2o150b3ob2obo937b2ob2o1564bo31bo733b3o4123b$5890bobo941b4o1564bo32b2o732bo2bo4122b$5864b2o24b3o942b2o1597bobo732bo4125b$5864b2o25bo3277bo4125b$4608bobo163b2o4187b2o205bobo4122b$4608b2o164b2o1087bo2567b2o529b4o4329b$4609bo1252bob2ob2o2561bobo529b2ob2o4328b$5861b2o4b2o19b2o2542bo31b2o498b2o204b3o4122b$5861b2ob2o21bobo2575b2o702bo2bo4122b$5863bo24bo2575bo707bo4122b$5700bo3471bo4122b$5700bobo72bo3393bobo22b3o4098b$5700b2o72b3o2683b3o730bo2bo4098b$4798bo898bo75b2o2bo2684bo31bo701bo4098b$4797bobo896b3o75b5o2682bo32b2o700bo4098b$4797bobo895bo2b2o74b2o2bo14bo2699bobo697bobo4099b$4798bo896b3obo75bo2bo14bobo7499b$4731b2o965b2o75bobo15b2o75bo7424b$4731b2o1138bo2618b2o710b3o4090b$4699bo994bo174b3o2617bobo710bo2bo4089b$4698bobo992bo2797bo31b2o677bo4092b$4698bobo992b3o1172bo2bo1652b2o670bo5bo4092b$4699bo1148bo1023bo1650bo657bo13b3o5bobo4089b$5783bo62bobo26bobo990bo3bo2307b3o12bob2o4096b$5781b6o60b2o26b2o992b4o2306b2obo13b3o4096b$4655bo1125b2o2b2o89bo1468b2o1172b3o657b3o14b2o4097b$4656b2o1107bo1579b2o1174bo31bo626b2o4113b$4655b2o112b2o993bo20bo2734bo32b2o4740b$4769b2o993b3o14b2o2bo2766bobo4740b$5781b2o3bo62bo7445b$4591bo1193bo61b2o34b2o7410b$4590b3o1190bobo14bo47b2o32bobo2664b2o4744b$4589bo2b2o1190bo16bo81bo2664bobo4744b$4589b3o77b3o1127b3o2748bo31b2o595b3o4113b$4668bo2bo3911b2o593bo2bo4113b$4633bobo32bo4bo3908bo598bo4113b$4634b2o37bo119bo4387bo4113b$4589bo44bo38b2o14bo102bobo4383bobo4114b$4592bo77bob2o13b2o103bobo3783b3o4714b$4589bo3bo77bo16b2o103bo368bobo3415bo31bo4682b$4590b2ob2o131b2o435b2o696bo2717bo32b2o566b3o4112b$4726b2o435bo589bo106bobo2748bobo566bo2bo4111b$4694bo1056bobo105b2ob2o3316bo4114b$4693bobo1056b2o106bo2bo3316bo4114b$4592bo100bobo1164bo3bo1039b2o1702b2o571bobo20b3o4088b$4593b2o83bobo13bo1165bo1042b4o1700bobo594bo2bo4087b$4592b2o82bo4bo2221b2ob2o1701bo31b2o561bo4090b$4676bo4bo2223b2o1735b2o560bo4090b$4680b2o1151bo26b2o2779bo563bobo4087b$4659bobo1170b3o26bo7433b$4659b2o15b2o2b2o82b2o939bo126bo2bo7459b$4660bo15b2o2b2o82b2o940bo127b2o22bo2778b3o393b2o177b3o4080b$4677bob3o1022b3o127bo23bob2ob2o2774bo31bo359b2ob2o175bo2bo4080b$4680bo1150b2o24b2ob2ob2o2773bo32b2o358b4o179bo4080b$4578bo100bo1151b4o23bobo2809bobo359b2o172bo7bo4080b$4578b2o1252bo2bo23bo3331bo13b3o3bobo4081b$4580bo1252bo3356b3o11b2obo4087b$4578b2o1252bo2834b2o521bob2o10b3o4088b$4578bo84bo1167b2o2833bobo522b3o11b2o4088b$4662bobo123bo1041bo5bo2831bo31b2o489b2o4102b$4580b2o80bobo122bobo1040b2o3b2o19b2o2843b2o4592b$4580b2o81bo123bobo1041b2o22bobo2842bo4594b$4788bo881bo185bo7438b$4721b2o945b2o7625b$4721b2o946b2o3025b3o4596b$4571bo117bo4008bo31bo4564b$4570bo117bobo1051b3o2952bo32b2o457b3o4103b$4570b3o115bobo1051bo2bo17bo2965bobo457bo2bo4102b$4689bo1056bo14b2o1175b4o2247bo4105b$5743b3o16b2o1173bo3bo2247bo4105b$5836bobo1102bo1784b2o462bobo4102b$5837b2o1098bo2bo394b2o1388bobo4567b$5837bo1497b2o1390bo31b2o4534b$4759b2o3999b2o428b3o4102b$4759b2o1053bo2944bo429bo2bo4102b$5815b2o27bo3347bo4102b$5751bo62b2o28bobo3345bo4102b$4649bo1101b2o91b2o2909b3o431bobo22b3o4078b$4650bo1099bo2bo3003bo31bo423bo2bo4078b$4648b3o1082bobo15bobo3002bo32b2o425bo4078b$5733b2o15bo2bo3034bobo425bo4078b$4658bo519bo555bo15bo2bo63bo3395bobo4079b$4657bobo123bo395bo570bobo63bo7478b$4657bobo122bobo392b3o571b3o62b3o32b2o2932b2o4508b$4658bo123bobo981bobo81bobo2931bobo435b3o4070b$4783bo983b2o82bo2934bo31b2o402bo2bo4069b$4716b2o1049bo3051b2o401bo4072b$4608bo107b2o4100bo397bo5bo4072b$4606bobo75bo4516bo13b3o5bobo4069b$4607b2o48bo25bobo4514b3o12bob2o4076b$4656bo26bobo4128b3o382b2obo13b3o4076b$4635bo20b3o25bo2289b2o1840bo31bo350b3o14b2o4077b$4634bo2337b2ob2o1838bo32b2o350b2o4093b$4552b3o79b3o1082bo1252b4o1871bobo4445b$4551bo2bo1165b2o1251b2o6320b$4551b2obo1164b2o107b3o7464b$4590bo163b2o1072bo2bo3012b2o255b2o4192b$4591bo162b2o1074b2o3011bobo254b4o4191b$4589b3o4253bo31b2o221b2ob2o4190b$4551b2o1273bo2bo3048b2o222b2o95b3o4093b$4551b4o1272b2o3048bo320bo2bo4093b$4552bo2bo1274b2o3369bo4093b$4553bobo1273b3o3369bo4093b$4553bobo1244b3o27bo3042b3o322bobo4094b$5799bo2bo24b2ob2o3043bo31bo4387b$4622bo25b2o3b2o123bo865bo158bo23b2ob2o3042bo32b2o4386b$4555bo65b3o23bo2bo2b2o122bobo864bobo152b2o26bo3bo3074bobo291b3o4092b$4553bobo68bo22bo2bo126bobo864b2o153b2o3bo22bo3bo3368bo2bo4091b$4554b2o66b2o24b2o128bo1025bo23bo3371bo4094b$4623bo87b2o1089bo3100b2o295bo4094b$4711b2o1087b3o3099bobo296bobo20b3o4068b$4679bo1120b2o3102bo31b2o286bo2bo4067b$4678bobo89b3o1027bo3136b2o285bo4070b$4542b3o133bobo92bo1027b2o21b2o1180bo2bo1926bo287bo4070b$4542bo2bo133bo90bo2bo1027bobo19bobo1184bo2214bobo4067b$4542bo2bo225b2o1027bo3bo19bo1181bo3bo6284b$4543bo2bo224b2o1028b2o1204b4o1921b3o4360b$4543b3o224bo2bo2551b2o1607bo31bo265b3o4060b$4544b2o224bo2554b2o1606bo32b2o263bo2bo4060b$4749b2o21b2o936b2o19bo3233bobo266bo4060b$4749b2o959bobo17bo3495bo7bo4060b$5712bo17b3o3478bo13b3o3bobo4061b$5710bobo92bo3156b2o246b3o11b2obo4067b$4620bo1089b2o91bobo3155bobo246bob2o10b3o4068b$4620bo571bo518b2o91b2o3157bo31b2o214b3o11b2o4068b$5193b2o517b2o3282b2o213b2o4082b$5192b2o518b2o68bo3212bo4299b$4534bo1248bo30bo7480b$4532b2o109b2o3b2o1131b3o28b2o7481b$4533b2o99b3o5bo2bo2b2o1163b2o3176b3o4301b$4609b3o9bobo10bo2bo4bo2bo4347bo31bo4269b$4609bo2bo9b2o14bo4b2o1057bo15b3o3271bo32b2o4268b$4607bo4bo9bo6bo5b3o68b2o994bobo12bo3bo3302bobo182b3o4083b$4627bobo76b2o994b2o18bo3486bo2bo4082b$4607bo20b2o44bo1110bobo3421bo4085b$4608bo64bobo1041b2o3bo62b2o3234b2o186bo4085b$4609b2obo60bobo1043b3o13bo50bo32b2o1221b2o1976bobo187bobo4082b$4610bo2bo60bo1058bobo82bobo1220b4o1977bo31b2o4239b$4610b2o1122b2o83bo1221b2ob2o2009b2o4238b$4604bo6bo2bo2428b2o2009bo155b3o4082b$4605b2o7bo4594bo2bo4082b$4604b2o4bo4601bo4082b$4613bo11bobo116b2o33bo4270b3o159bo4082b$4610b3o12b2o117b2o34bo4271bo31bo86b2o36bobo22b3o4058b$4626bo151b3o4270bo32b2o83b2ob2o59bo2bo4058b$9083bobo83b4o63bo4058b$4621b3o4546b2o64bo4058b$4620bo2bo4609bobo4059b$4620b2o2bo994bobo3458b2o4213b$4568bobo52b2o994b2o176bo3281bobo4213b$4569b2o1049bo175b3o3282bo31b2o127b3o4050b$4569bo50bo17b2o3b2o1150b2o2bo3314b2o126bo2bo4049b$4597b2o19b2o17bo2bo2b2o1150b2ob2o3313bo128bo4052b$4595bo23b2o16bo2bo1157b3o3435bo5bo4052b$4595b3o40b2o112bo1043bob2o3421bo13b3o5bobo4049b$4597b2o102b2o47b2o1043bo2bo3310b3o108b3o12bob2o4056b$4701b2o48b2o1045bo3312bo31bo75b2obo13b3o4056b$4669bo1099bo25bobo3312bo32b2o74b3o14b2o4057b$4555bo43b2o67bobo1097b3o25bo3345bobo75b2o4073b$4556b2o41b2o67bobo1096bo2b2o7523b$4555b2o112bo1097bo3bo25b3o1276b4o6215b$5769bobo24bob2o1275bo3bo2059b2o4154b$5797b2obo1278bo2058bobo4154b$4589b2obo1173b2ob2o1304bo2bo236b2o1823bo31b2o4121b$4587bo4bo1175bo1546b2o1856b2o4120b$4586bo5bo146b2o4431bo46b3o4073b$4586bo18b3o131b2o1051b2o3424bo2bo4073b$4585b2ob2obo14bo601bo582bobo3427bo4073b$4585b2obo2bo14b3o597bobo559b4o20bo3375b3o50bo4073b$4587b4o43b2o571b2o559bobobo3397bo31bo15bobo4074b$4508bo79b3o42b3o1135bo3397bo32b2o4091b$4508bobo126bo4563bobo4091b$4508b2o75bo51b2o1060bobo3518b3o4072b$4583b2o51bob2o1059b2o3519bo2bo4071b$4584b2o45b2o4bobo1037bobo20bo70bo3426b2o20bo4074b$4631bo6b2o1037b2o93b2o3423bobo20bo4074b$4604bobo24bo1046bo92b2o3426bo21bobo20b3o4048b$4604bobo4637bo2bo4047b$4696b2o4546bo4050b$4607bo88b2o1050bobo31bo3461bo4050b$4664bo1084b2o30bo3463bobo4047b$4597bo65bobo1083bo31b3o7511b$4596b3o21bo42bobo8629b$4596bob2o3bobo12bobo43bo2447b2o2138b3o4040b$4595b2o7bo14b2o2489b2ob2o2136bo2bo4040b$4595b2o196bo2316b4o2140bo4040b$4595b2o197b2o958bo1356b2o2133bo7bo4040b$4582bo16bo193b2o959bobo3474bo13b3o3bobo4041b$4581bobo14b2o1154b2o3474b3o11b2obo4047b$4581bobo12bobo1188b2o3441bob2o10b3o4048b$4492b3o87bo12bo2bo996bo190bobo3442b3o11b2o4048b$4492bo2bo100bobo995bo192bo3443b2o4062b$4494b2o100b3o995b3o7698b$4596b2obo8695b$4490bo2bo102bo2bo4614b2o4079b$4491b2o104bo4616b2o4079b$4494b2o130bo8668b$4493b3o129bobo8667b$4494bo130bobo8667b$4491b2ob2o130bo8668b$4491b2ob2o8799b$4491bo3bo75bo119b2o8602b$4491bo3bo73bobo119b2o8602b$4492bo77b2o87bo8635b$4658bobo1103b3o7528b$4658bobo1102bo2bo1377bo2bo2082b3o4062b$4659bo1103bo3bo1380bo2080bo2bo4062b$5762b2obobo1376bo3bo2083bo4062b$5762b2ob2o1378b4o2083bo4062b$5763b3o1539b2o1922bobo22b3o4038b$4497bo79bo643bobo2081b2o1946bo2bo4038b$4498bo77bobo643b2o4032bo4038b$4496b3o77bobo643bo513b3o3517bo4038b$4577bo3bo1154bo2bo3513bobo4039b$4581bobo1091bo59bo3bo24b2obo7527b$4559bo21b2o1091bo60b4o25bobobo7526b$4559bobo1091bo20b3o59bo30bo3494b3o4030b$4559b2o1091bo3609bo2bo4029b$5652b3o110bo3496bo4032b$4621bo1139bo3bo3490bo5bo4032b$4620bobo1137b2o3479bo13b3o5bobo4029b$4620bobo1113b2ob2o18b2o3479b3o12bob2o4036b$4478bo142bo1114bob3o20bo3477b2obo13b3o4036b$4476b2o4761b3o14b2o4037b$4477b2o207b2o4552b2o4053b$4633bobo50b2o8607b$4634b2o18bo1084bo7555b$4634bo18bobo1084bo7554b$4653bobo153bo928b3o1439b2o6113b$4546bo107bo152bobo2369b4o6112b$4546bo261b2o2369b2ob2o6111b$4545bobo2633b2o6112b$5750bobo7542b$4547b2o1022bo178b2o7543b$5569b2o180bo7543b$4547b2o21b2o998b2o7723b$4570b2o8723b$13295b$5724bo3515b3o4052b$5722b2o3516bo2bo4051b$4544b2o1177b2o3479b2o34bo4054b$4544b3o4657b2o34bo4054b$4548bo67bo1138b2o3484bobo20b3o4028b$4546b2o67bobo1136bobo3507bo2bo4027b$4615bobo1137bo3508bo4030b$4616bo4647bo4030b$4543bobo4719bobo4027b$4543bobo135b2o8612b$4544bo136b2o8612b$4649bo4622b3o4020b$4648bobo4620bo2bo4020b$4648bobo4623bo4020b$4649bo587bo1976b4o2048bo7bo4020b$4511bo46b2o678bo1974bo3bo2033bo13b3o3bobo4021b$4512b2o44bobo675b3o1978bo2032b3o11b2obo4027b$4511b2o39bo7b2o2651bo2bo78b2o1953bob2o10b3o4028b$4553bo4bobo2734b2o1954b3o11b2o4028b$4551b3o4bo1092bo3599b2o4042b$4558bo2bo3b2o1082b2o7644b$4456bo108b2o1062bo20b2o7643b$4455b3o102b2o1065b2o7666b$4454b2o2bo1169b2o7665b$4455b5o8835b$4455b2o2bo8835b$4456bo2bo8835b$4456bobo92bo59bo8683b$4528b2o19b2o59bobo8682b$4526bo23b2o58bobo36bo8645b$4526b3o82bo38bo8644b$4528b2o118b3o8644b$4676b2o8617b$4676b2o144bobo4425b3o4042b$4530b2o112bo178b2o4424bo2bo4042b$4530b2o111bobo177bo4428bo4042b$4445bo197bobo1080bo3525bo4042b$4445b2o197bo1080bo1524b2o1997bobo22b3o4018b$4445b3o1097bo179b3o1520b2ob2o2020bo2bo4018b$4445b2o74bobo1021bobo1700b4o2024bo4018b$4445b2o74b2o1022b2o1702b2o2025bo4018b$4446bo75bo4750bobo4019b$4447bobo86b3o8756b$4448bo88bo22b2o1136bo7596b$4537b3o20b2o1136bobo3581b3o4010b$5698b2o3582bo2bo4009b$4439bo4842bo4012b$4439bobo4834bo5bo4012b$4439b2o4753b2o65bo13b3o5bobo4009b$9194b2o64b3o12bob2o4016b$4606bo4652b2obo13b3o4016b$4522bo82bobo4651b3o14b2o4017b$4521bobo11bobo67bobo4652b2o4033b$4521bobo11bobo68bo8688b$4522bo8772b$4538bo132b2o8622b$4671b2o8622b$4639bo611bo8043b$4638bobo611b2o275b3o7763b$4534bobo101bobo610b2o276bo2bo7762b$4535bo103bo891b2o7762b$13295b$5527bo2bo94bo7669b$5528b2o95bobo7667b$5531b2o70bo21b2o7668b$5530b3o70bobo7689b$4555b2o974bo71b2o3655b3o4032b$4469bo85b2o971b2ob2o3727bo2bo4031b$4470bo1057b2ob2o3727bo4034b$4468b3o1057bo3bo3727bo4034b$5528bo3bo3728bobo20b3o4008b$5529bo3754bo2bo4007b$4663bo4620bo4010b$4601bo62b2o4618bo4010b$4517bo82bobo60b2o4620bobo4007b$4516bobo81bobo235bo8456b$4516bobo82bo237bo8455b$4456bo60bo319b3o4452b3o4000b$4454bobo209b2o866bo3756bo2bo4000b$4455b2o62bo146b2o867bo166bo3591bo4000b$4518bo115bo898b3o164b2o3584bo7bo4000b$4497bo20b3o112bobo1065b2o3568bo13b3o3bobo4001b$4496bo136bobo2682b2o1950b3o11b2obo4007b$4496b3o135bo2682b4o1949bob2o10b3o4008b$7317b2ob2o1949b3o11b2o4008b$7319b2o1950b2o4022b$5673bobo7619b$5673b2o7620b$5674bo7620b$4414bobo133b2o8743b$4414b2o70bo2b2o59b2o963bo7779b$4415bo74b2o1021b2o7780b$4489b2o1023b2o7779b$13295b$4485b2o2b2o4693b2o4109b$4491bo4692b2o4109b$4485b4o107bo8698b$4487bo2bo21bo82bobo8697b$4511bobo81bobo8697b$4511bobo82bo4673b3o4022b$4512bo754bo4001bo2bo4022b$5265bobo4004bo4022b$5266b2o4004bo4022b$4629bo4639bobo22b3o3998b$4628bobo4662bo2bo3998b$4628bobo969bobo3693bo3998b$4629bo970b2o3694bo3998b$5576bo24bo3691bobo3999b$5575bobo7717b$4485bo1089bob2o7716b$4484bobo12b3o1075bo3724b3o3990b$4484bobo11bo2bo4800bo2bo3989b$4485bo12bo2bo43b2o1031bob2o3720bo3992b$4497bo2bo44b2o1032b2o3715bo5bo3992b$4497bo2bo4780bo13b3o5bobo3989b$4501b2o4777b3o12bob2o3996b$4501b2o1070bo3705b2obo13b3o3996b$4499bo3bo1067b2o3706b3o14b2o3997b$4502b2o348bo719b2o3706b2o4013b$4504bo86bo261b2o8440b$4469bobo27bo3bo3bo82bobo259b2o732b3o7706b$4470b2o28b3o3bobo81bobo955bo7746b$4470bo26bo8bobo82bo957b2o35bobo87bo7618b$4495bobo9bo1040b2o39bo86bobo7616b$4496b2o1087bo3bo86b2o7617b$13295b$4624bo960bo2b2o7705b$4623bobo8669b$4623bobo1023bo7645b$4624bo961bo61bo1739b2o5905b$5586bo61b3o1735b2ob2o5904b$4389bo1195bo1800b4o5905b$4389b2o89bo6bobo1096bob2o1797b2o1891b3o4012b$4389b3o87bobo5b2o1000bo100bo3689bo2bo4011b$4389b2o74bobo11bobo6bo1000bobo91bo4bo3691bo4014b$4389b2o74b2o13bo59b2o947b2o3789bo4014b$4390bo75bo73b2o1042bobo3694bobo20b3o3988b$4391bobo1190b3o3717bo2bo3987b$4392bo4911bo3990b$9304bo3990b$9174b2o129bobo3987b$4383bo4790b2o4119b$4383bobo200bo8708b$4383b2o117bo82bobo692bobo4029b3o3980b$4501bobo81bobo693b2o4028bo2bo3980b$4501bobo82bo694bo310bo3721bo3980b$4502bo1090b2o3711bo7bo3980b$5586bo5b2o3697bo13b3o3bobo3981b$5587b2o3701b3o11b2obo3987b$4619bo966b2o3702bob2o10b3o3988b$4618bobo4670b3o11b2o3988b$4618bobo4670b2o4002b$4619bo8675b$13295b$13295b$13295b$13295b$4473b2o1094bo7725b$4473b2o60b2o1032bobo7723b$4535b2o1010bo21b2o7724b$4448bo1098bobo7745b$4447b3o418bo678b2o7746b$4446bo2b2o415bobo8426b$4446b3o418b2o8426b$5564bo7730b$4581bo980bobo86bobo3636b3o4002b$4497bo82bobo980b2o86b2o3636bo2bo4002b$4446bo49bobo81bobo1069bo3639bo4002b$4449bo46bobo82bo4710bo4002b$4446bo3bo46bo4791bobo22b3o3978b$4447b2ob2o4861bo2bo3978b$5625bo3690bo3978b$4400bo213bo1008b2o3691bo3978b$4398bobo212bobo1008b2o3687bobo3979b$4399b2o48bo13bo149bobo2840b2o5837b$4450b2o10bo151bo2840b4o5836b$4449b2o9b2ob2o999bobo1988b2ob2o1862b3o3970b$4459b5o1000b2o1991b2o1863bo2bo3969b$4458b2o2bo1002bo3856bo3972b$4458bob4o4852bo5bo3972b$4458bo4bo4b2o4831bo13b3o5bobo3969b$4458bo2b2o5b2o60b2o4768b3o12bob2o3976b$4460b2o68b2o4767b2obo13b3o3976b$9299b3o14b2o3977b$4358bobo95bo4843b2o3993b$4358b2o96bobo837bo7998b$4359bo74bo21b2o839bo3866b2o4129b$4434bobo858b3o3866b2o4129b$4434b2o140bo1031bo7686b$4492bo82bobo1028bobo7686b$4491bobo81bobo1024bo4b2o7686b$4491bobo82bo1023bobo7692b$4492bo1108b2o7692b$13295b$13295b$4609bo8685b$4608bobo838bo7845b$4345b3o260bobo837b3o7844b$4345b3o261bo838bob2o3848b3o3992b$4345bo2bo1098b2o3851bo2bo3991b$4346b3o72bo1025b2o94b2obo3753bo3994b$4346b2o73bo1025b2o92bo4bo3753bo3994b$4420bobo1028bo69b2obo15bo5bo3754bobo20b3o3968b$4463b2o985b2o67bo4bo15bo3783bo2bo3967b$4422b2o39b2o60b2o354bobo564bobo67bo5bo14b2ob2obo3778bo3970b$4525b2o355b2o563bo2bo67bo20b2obo2bo3778bo3970b$4422b2o458bo565bobo66b2ob2obo17b4o3780bobo3967b$5448b3o66b2obo2bo18b3o32bobo47bo7667b$5448b2obo67b4o55b2o46bo7668b$5448bo2bo68b3o16bo38bo47b3o3703b3o3960b$5449bo87b2o3792bo2bo3960b$4419b2o150bo945bo20b2o3794bo3960b$4419b3o65bo82bobo942b2o3809bo7bo3960b$4423bo62bobo81bobo943b2o3793bo13b3o3bobo3961b$4421b2o63bobo82bo1027bo3710b3o11b2obo3967b$4413bob2o70bo1111bobo3708bob2o10b3o3968b$4414b3o1035bo146b2o3710b3o11b2o3968b$4414bo3bobo1032b2o3856b2o3982b$4418bobo183bo847b2o7841b$4419bo183bobo8689b$4603bobo8689b$4604bo2921b2o5767b$7524b2ob2o5766b$7524b4o5767b$4352bo80b2o3090b2o5768b$4353b2o78bobo8859b$4352b2o73bo7b2o21b2o8835b$4428bo4bobo22b2o60b2o8773b$4426b3o4bo86b2o788bo122bo7861b$4433bo2bo874b2o120bobo7859b$5310b2o121b2o7860b$4435b2o1184bobo3686b3o3982b$5622b2o3530b2o153bo2bo3982b$5615bobo4bo3531b2o156bo3982b$4566bo1049b2o3694bo3982b$4482bo82bobo1048bo3692bobo22b3o3958b$4327bo98bo54bobo81bobo4765bo2bo3958b$4327bobo94b2o55bobo82bo4769bo3958b$4327b2o75bo20b2o55bo4853bo3958b$4402b2o4929bobo3959b$4403b2o9bo1135bo7744b$4413bobo183bo951b2o7742b$4413bobo182bobo819bo107bo21b2o3790b3o3950b$4414bo183bobo819bo108b2o3811bo2bo3949b$4599bo819bobo106b2o3812bo3952b$9336bo5bo3952b$4897bo523b2o3898bo13b3o5bobo3949b$4898bo4421b3o12bob2o3956b$4896b3o522b2o3896b2obo13b3o3956b$4453b2o1138bo3725b3o14b2o3957b$4453b2o60b2o1077bo5b2o3718b2o3973b$4515b2o1075b3o7bo7692b$5513bo89bo7691b$5418b2o93bobo84bobo7692b$5418b3o70bo21b2o86bo7693b$5422bo68bobo109bobo7689b$5420b2o69b2o81b2o27bobo7689b$4561bo1011bo2bo27bo7690b$4477bo82bobo1010bo2bo7718b$4476bobo81bobo854bobo48bo104bo7721b$4476bobo82bo855bobo46bobo107bo18bobo7697b$4477bo940bo48b2o105b3o18b2o7698b$5576b2o18bo7698b$4409bo1167bo7717b$4408bobo183bo4725b3o3972b$4408bobo182bobo4724bo2bo3971b$4409bo183bobo973bo2024b2o1724bo3974b$4368bo225bo972b2o2024b4o1723bo3974b$4366bobo1057bo141b2o2023b2ob2o1723bobo20b3o3948b$4367b2o1058bo2167b2o1747bo2bo3947b$5425b3o3916bo3950b$5326bo4017bo3950b$4448b2o874bobo4018bobo3947b$4448b2o60b2o813b2o310bo7657b$4510b2o1126bo7656b$4382bo1248bo4b3o3713b3o3940b$4381b3o1248bo3718bo2bo3940b$4380b2o2bo1245b3o3721bo3940b$4381b5o1206b2o3550b2o200bo7bo3940b$4302bobo76b2o2bo14bo1190bobo3550b2o185bo13b3o3bobo3941b$4302b2o78bo2bo14bobo153bo846bo188bo3737b3o11b2obo3947b$4303bo78bobo15b2o70bo82bobo843b2o3927bob2o10b3o3948b$4471bobo81bobo844b2o3927b3o11b2o3948b$4471bobo82bo1009bo3764b2o3962b$4472bo1091bobo7728b$5544bo20b2o7728b$4404bo1137bobo7750b$4390bo12bobo183bo953b2o7750b$4388b6o9bobo182bobo8704b$4388b2o2b2o10bo183bobo320bo479bo7903b$4372bo216bo322b2o477b2o7902b$4371bo20bo518b2o477bo2bo7901b$4289b3o79b3o14b2o2bo998bobo7901b$4289b3o96b2o3bo996bo2bo7901b$4289bo2bo99bo997bo2bo7901b$4290b3o97bobo50b2o945bobo95bobo7804b$4290b2o99bo51b2o60b2o884b3o94b2o7805b$4505b2o959bobo20bo94bo3745b3o3962b$5466b2o117b2o3742bo2bo3962b$5467bo116b2o3746bo3962b$4375bo4956bo3962b$4374bobo1085b3o122b2o3740bobo22b3o3938b$4374bobo1084bo2bo16bobo87bo14bobo3764bo2bo3938b$4375bo175bo909b2o2bo16b2o86bo16bo3768bo3938b$4467bo82bobo911b2o16bo87b3o3783bo3938b$4466bobo81bobo1039b2o3759bobo3939b$4466bobo82bo909bo129bobo7701b$4467bo991b2o132bo7701b$5460b2o145bo3754b3o3930b$4399bo1143bo63b2o3753bo2bo3929b$4398bobo183bo958bobo60bobo3753bo3932b$4398bobo182bobo854bo102b2o3811bo5bo3932b$4399bo183bobo855b2o178b3o3717bo13b3o5bobo3929b$4584bo855b2o181bo2040b2o1674b3o12bob2o3936b$5339bobo280bo2039b2ob2o1672b2obo13b3o3936b$5340b2o294b2o2024b4o1673b3o14b2o3937b$5340bo296b2o2024b2o1675b2o3953b$5636bo7658b$4438b2o1032bo172bo7649b$4296bo141b2o60b2o969b3o172b2o3b3o7641b$4297b2o201b2o968bo2b2o170b2o2b2o2bo7641b$4296b2o1100bobo69bo3bo175b3o7642b$4276bo1122b2o71bobo176bo7643b$4275b3o92bo1028bo7895b$4274b2o2bo90bobo1097b2ob2o3660b2o4159b$4369bobo1099bo3662b2o4159b$4278b2o90bo175bo1032bobo7713b$4278b2o182bo82bobo1032b2o7713b$4277bo2bo180bobo81bobo1009bobo20bo7714b$4276b3o182bobo82bo924b4o83b2o7735b$4462bo1008bobobo82bo3781b3o3952b$4370bo1103bo3865bo2bo3951b$4368b2o24bo532bo443bo3968bo3954b$4348bo20b2o22bobo183bo345bobo442bo3969bo3954b$4346b2o45bobo182bobo345b2o442b3o3968bobo20b3o3928b$4347b2o45bo183bobo894bo3888bo2bo3927b$4579bo895bo3888bo3930b$5474bo3889bo3930b$9365bobo3927b$13295b$4265bo9029b$4264bo168b2o4937b3o3920b$4264b3o166b2o60b2o4874bo2bo3920b$4495b2o4877bo3920b$5497bo3868bo7bo3920b$5498bo48bo3803bo13b3o3bobo3921b$4365bo1130b3o46b2o3803b3o11b2obo3927b$4364bobo1090bo88b2o103b2o3697bob2o10b3o3928b$4364bobo1090bobo191b2o3698b3o11b2o3928b$4365bo175bo893bo21b2o3892b2o3942b$4457bo82bobo892bobo7857b$4456bobo81bobo892b2o7858b$4456bobo82bo976bobo7774b$4457bo1060b2o7775b$5456bo62bo7775b$4389bo1064bobo7838b$4388bobo183bo780bo99b2o7838b$4388bobo182bobo780bo7938b$4389bo183bobo778b3o2375b2o5561b$4574bo3156b4o5560b$7731b2ob2o5559b$7733b2o5560b$4312bo8982b$4310bobo1101bo3935b3o3942b$4311b2o115b2o985bo3933bo2bo3942b$4428b2o60b2o921b3o3936bo3942b$4490b2o4860bo3942b$9349bobo22b3o3918b$5595bo3777bo2bo3918b$4360bo1235bo3779bo3918b$4326bo32bobo1211bo20b3o49b2o3476b2o250bo3918b$4290bo34b3o31bobo1212bo71b2o3476b2o247bobo3919b$4291bo32b2o2bo31bo175bo1035b3o7720b$4289b3o33b5o122bo82bobo8757b$4325b2o2bo14bo106bobo81bobo4844b3o3910b$4326bo2bo14bobo104bobo82bo403bobo404bo4034bo2bo3909b$4326bobo15b2o106bo488b2o402b2o4035bo3912b$4941bo404b2o4028bo5bo3912b$4384bo4976bo13b3o5bobo3909b$4383bobo183bo4790b3o12bob2o3916b$4383bobo182bobo4788b2obo13b3o3916b$4384bo183bobo4788b3o14b2o3917b$4334bo234bo4790b2o3933b$4241bo90b6o8957b$4239b2o91b2o2b2o8957b$4240b2o74bo8978b$4315bo20bo8958b$4315b3o14b2o2bo86b2o1086bo7783b$4332b2o3bo85b2o60b2o1025b2o5bo7775b$4336bo148b2o1024b2o5bob2o7773b$4334bobo1095bobo85b2o7773b$4335bo1096b2o85b3o7773b$4229bo125bo1054bobo20bo7861b$4229b2o123bobo1053b2o111b2o116b2o7652b$4228bo2bo122bobo1054bo81bo28b3o116b2o7652b$4229bobo87bo35bo175bo961b2o7800b$4228bo2bo86bobo126bo82bobo960b3o3864b3o3932b$4228bo2bo86bobo125bobo81bobo936bobo21b2o20bo3844bo2bo3931b$4228bobo88bo126bobo82bo938b2o21b2o19bo3845bo3934b$4229b3o215bo921bo100bo23bo19b3o3843bo3934b$5370b2o123bobo3863bobo20b3o3908b$4379bo989b2o125bo3887bo2bo3907b$4378bobo183bo4819bo3910b$4378bobo182bobo4818bo3910b$4379bo183bobo921bo3897bobo3907b$4564bo922bobo2312b2o5491b$5428bo58b2o2311b2ob2o5490b$5429b2o2369b4o1588b3o3900b$5428b2o2371b2o1588bo2bo3900b$9394bo3900b$4418b2o4966bo7bo3900b$4418b2o60b2o1127bo3761bo13b3o3bobo3901b$4480b2o1128b2o3758b3o11b2obo3907b$5587bo21b2o3759bob2o10b3o3908b$4304bo1283b2o3781b3o11b2o3908b$4305b2o43bo1236b2o3782b2o3922b$4304b2o43bobo1159b2o123b2o3476b2o4179b$4349bobo604bo553bobo123b2o3476b2o4179b$4314bo35bo175bo430bo363bo189bo7783b$4313bobo126bo82bobo427b3o363bobo7971b$4313bobo125bobo81bobo793b2o7972b$4314bo126bobo82bo8768b$4442bo8852b$13295b$4236bobo135bo8920b$4237b2o134bobo183bo8735b$4237bo76bo58bobo182bobo8734b$4312b2o60bo183bobo8734b$4292bo20b2o244bo8735b$4290b2o5078b3o3922b$4291b2o5076bo2bo3922b$9372bo3922b$5408bo3963bo3922b$4210b2o201b2o992bo3961bobo22b3o3898b$4210bobo200b2o60b2o909bo20b3o3983bo2bo3898b$4212bo262b2o908bo118bo3891bo3898b$4210bobo1172b3o114bobo3891bo3898b$4210b2o1291b2o3888bobo3899b$4211b2o132bo1145b2o7802b$4212b2o130bobo1138bo5b2o13b2o123b2o7662b$4212b2o130bobo1139bo6bo11bobo123b2o3769b3o3890b$4345bo175bo962b3o4b2o13bo3895bo2bo3889b$4304b2o3b2o126bo82bobo862bo105b2o3909bo3892b$4303bo2bo2b2o125bobo81bobo860bobo125bo3884bo5bo3892b$4303bo2bo129bobo82bo862b2o78b2o27b2o16b2o3868bo13b3o5bobo3889b$4202bo101b2o131bo1026bobo26b2o15bobo3867b3o12bob2o3896b$4202bobo1261b2o3911b2obo13b3o3896b$4202b2o165bo1094bobo58b3o3851b3o14b2o3897b$4368bobo183bo909bo62bo3852b2o3913b$4368bobo182bobo888bo19bo2bo58bo7768b$4369bo183bobo886bobo38bobo54b2o2328b2o5423b$4554bo888b2o21b2o15b2o56b2o2326b4o5422b$5484bo55bo2328b2ob2o5421b$5555b2o2314b2o5422b$5554bobo68bo7669b$5556bo66bobo7669b$4408b2o1047bo112bo32bo20b2o7669b$4408b2o60b2o41b3o939b2o113b2o29bobo7691b$4470b2o40bo2bo940b2o111bobo30b2o7691b$4512bo3bo8778b$4511b2obobo453bo613b3o7708b$4340bo170b2ob2o455b2o323bobo287bo7708b$4339bobo170b3o455b2o324b2o287bo40b2o3476b2o274b3o3912b$4339bobo955bo301b2o25b2o3476b2o274bo2bo3911b$4340bo1259b2o3778bo3914b$4270bo28b2o3b2o126bo1166bo3780bo3914b$4252bo16b3o26bo2bo2b2o125bobo1048b2o3897bobo20b3o3888b$4253bo14b2o2bo25bo2bo129bobo79b2obo964bobo3920bo2bo3887b$4251b3o15b5o14b2o9b2o34b3o94bo80bobobo964bo3921bo3890b$4269b2o2bo13bo2bo46bo178bo4887bo3890b$4270bo2bo12b3o46b3o26bo5040bobo3887b$4270bobo90bobo183bo8745b$4288bobo45bo26bobo182bobo8744b$4334b3o27bo152bo30bobo4861b3o3880b$4291bo40b3o180bobo31bo4861bo2bo3880b$4290b2o41b2o181b2o866bo4029bo3880b$4223bo1158b2o4022bo7bo3880b$4221bobo1138bo20b2o4006bo13b3o3bobo3881b$4222b2o58bo1077b2o238bo3789b3o11b2obo3887b$4281bo121b2o956b2o237bo3789bob2o10b3o3888b$4181b3o76bo20b3o119b2o60b2o1133bo3790b3o11b2o3888b$4181bo2bo74bo205b2o4924b2o3902b$4181bo2bo74b3o1334b3o3b3o7690b$5620b2o7673b$4184b2o1414bo19b2o7673b$4183bo2bo312bobo896bobo62bo136bo7694b$4183bo2bo312b2o898b2o61b3o9bo125bo7694b$4183bo316bo898bo61bo2b2o7b2o7820b$4294b2o3b2o126bo1037bo6bo3b3o7816b$4293bo2bo2b2o125bobo1036b2o6b2o2b3o7815b$4293bo2bo129bobo1038bo6bo4bo7815b$4294b2o131bo1036b4o8b3o5b2o7809b$4247b3o1207bobo4b2o11b2o4bobo7809b$4246bo3bo108bo917bo157bo22b2o25bo7809b$4251bo106bobo183bo731b3o155b3o21bo40bo7795b$4358bobo182bobo729bo2b2o153b2o2bo61b2o3889b3o3902b$4246b2o3bo107bo60bo122bobo729b4o155b5o59bobo3888bo2bo3902b$4172bo75b3o168b3o122bo733bobo153b2o2bo2501b2o1450bo3902b$4170b2o246b5o855bo2bo153bo2bo74b3o2422b2ob2o1449bo3902b$4171b2o245b2ob3o854b3o154bobo77bo2422b4o1447bobo22b3o3878b$4342bo76b2ob2o853bobo234bo2424b2o1472bo2bo3878b$4343b2o76bo855bobo248b2o3886bo3878b$4342b2o54b2o877b3o172bo76b2o63b3o3819bo3878b$4398b2o60b2o524bo465bobo73bo3884bobo3879b$4460b2o522bobo465b2o89b2o47bo5bo7696b$4985b2o555bobo47bo5bo7696b$5544bo47bo5bo16b2o3805b3o3870b$5558bo56b2o3805bo2bo3869b$5425bo132b2o34b3o3497b2o326bo3872b$4266bo26b2o1129bo132bobo3534b2o320bo5bo3872b$4267b2o24b2o1129b3o3974bo13b3o5bobo3869b$4266b2o15bo5b2o1281b3o3825b3o12bob2o3876b$4284bo3bo2bo19bo1262bo3824b2obo13b3o3876b$4282b3o3bo2bo19bobo951bo307bo3825b3o14b2o3877b$4289b2o20b2o952bobo319b2o3811b2o3893b$4260b3o1002b2o321b2o7705b$4259bo2bo91bo175bobo920b2o132bo7707b$4259bo4bo88bobo175b2o6bo912bobo7840b$4264bo88bobo175bo6bobo817bo94bo7841b$4236bobo25b2o88bo183bobo817bobo7934b$4237b2o22bob2o274bo796bo21b2o7935b$4237bo18bo5bo1073bobo7956b$4254bobo1079b2o7957b$4255b2o9038b$13295b$4393b2o31bobo8866b$4393b2o32b2o26b2o8838b$4427bo27b2o18bo938bo7880b$4195bo278bo940bo175bo3808b3o3892b$4196b2o276b3o936b3o174bobo17b2o3788bo2bo3891b$4195b2o1393bobo17b2o3788bo3894b$4250bobo1338bo3808bo3894b$4228b2o20b2o36b2o5111bobo20b3o3868b$4227bo2bo20bo36b2o5134bo2bo3867b$4227bo2bo5193bo3870b$4227bo5196bo3870b$4230bo170bo5023bobo3867b$4228b3o169bo8894b$4230b2o168b3o8892b$4231bo5200b3o3860b$4146bo5284bo2bo3860b$4146bobo134bo5150bo3860b$4146b2o75bo58bobo3723b2o1416bo7bo3860b$4221b2o60bo3723b4o1400bo13b3o3bobo3861b$4222b2o1068bo2714b2ob2o1398b3o11b2obo3867b$5245b3o42bobo134bobo2579b2o1399bob2o10b3o3868b$4236b3o760bobo243bo2bo42b2o134b2o3982b3o11b2o3868b$5000b2o242bo3bo179bo3982b2o3882b$4236bobo149b2o610bo243b2o8049b$4216b2o21bo148b2o60b2o793bobo8047b$4216b2o17bo3bo210b2o794b2o2bo8044b$4218bo1027bo2bo151bo184bo7708b$4216b3o16bo2b2o42bo963bo152b2o184bobo17b2o7688b$4215bobo62bo964b2ob2o150b2o183bobo17b2o7688b$4216b2o63bo3b2o959bobo337bo3497b2o4209b$4215bo20bo51bo958bo3836b2o4209b$4215bo20bo46bo3bo9007b$4213bo21bo48b4o9007b$4236bob2o9055b$4240bo9054b$4233bo4bo9056b$4252bo1080bobo4074b3o3882b$4234bobo16bo1079b2o4074bo2bo3882b$4234b3o14b3o1057bobo20bo4077bo3882b$4278bo1032b2o4099bo3882b$4277bobo955bo76bo4096bobo22b3o3858b$4128b3o147bo954b2o4198bo2bo3858b$4128bo2bo310bo791b2o4200bo3858b$4127bo3bo94bo216bo4992bo3858b$4127b4o80bo13b3o213b3o4989bobo3859b$4128bo81bobo11b2o2bo222bo976bo7866b$4210bobo236b2o978b2o7864b$4211bo233b2o3b2o976b2o4012b3o3850b$4445b2o4995bo2bo3849b$4224b2o1355bo3860bo3852b$4128b2ob2o92b3o1352bobo17b2o3834bo5bo3852b$4128bob3o95bo1351bobo17b2o3819bo13b3o5bobo3849b$4226b3o90b2o1260bo3838b3o12bob2o3856b$4226b2o90b4o5097b2obo13b3o3856b$4318b2ob2o5096b3o14b2o3857b$4131bo188b2o5098b2o3873b$4132bo93bobo9066b$4130b3o94b2o9066b$4222bob2obo9067b$4223b2o9070b$4223bo9071b$4118b3o9174b$4117bo2bo152bo1031bobo95bo7891b$4117bo4bo149bobo740bo290b2o94bo7892b$4122bo150bo742bo289bo95b3o2673b2o5215b$4122b2o890b3o200bo2858b2ob2o5214b$4119bob2o1093b3o2857b4o5215b$4120bo85bo6bo1001b2o2bo2857b2o5216b$4205bobo4bo1002bo3bo8075b$4191bo13bobo4b3o1000bob2o156bo4044b3o3872b$4190bo15bo272b2o734b2o158bobo4042bo2bo3871b$4190b3o284b2ob2o778bo114b2o4043bo3874b$4477b4o780b2o313bo3843bo3874b$4478b2o780b2o313bobo17b2o3824bobo20b3o3848b$5575bobo17b2o3847bo2bo3847b$5216b2o2bo355bo3497b2o368bo3850b$4353b4o859bobobo3853b2o368bo3850b$4108bobo241bo3bo862bo4225bobo3847b$4108b2o246bo931b2o19bo7985b$4109bo156bo85bo2bo932bobo17bo7986b$4267b2o1021bo17b3o4141b3o3840b$4266b2o950bobo67bobo4160bo2bo3840b$5219b2o67b2o4164bo3840b$5219bo69b2o4155bo7bo3840b$5290b2o4139bo13b3o3bobo3841b$4268bo1021b2o4138b3o11b2obo3847b$4267bobo5160bob2o10b3o3848b$4268bo5162b3o11b2o3848b$5444bo3986b2o3862b$5442bobo7850b$4201bo1078bo15b3o144b2o7850b$4200bobo1077bobo12bo3bo7995b$4200bobo308bo2bo688bo76b2o18bo7994b$4201bo313bo686bo8092b$4511bo3bo686b3o90b2o3bo7994b$4512b4o781b3o271bo7723b$5570bobo17b2o7703b$5570bobo17b2o7703b$4145bo1425bo7723b$4146b2o241b2o8904b$4145b2o240b2ob2o8903b$4387b4o8904b$4388b2o5040b3o3862b$9429bo2bo3862b$5321bo4110bo3862b$5322bo56bo4052bo3862b$5029bo290b3o54b2o4050bobo22b3o3838b$5030b2o346b2o4073bo2bo3838b$4131bobo895b2o4425bo3838b$4132b2o4012b2o1308bo3838b$4132bo56bo3955b4o1304bobo3839b$4187b2o998b3o2955b2ob2o5145b$4168bo19b2o997bobo160bobo2794b2o5146b$4168bo27bo990bo2bo159b2o4110b3o3830b$4162b2o31bobo990b3o85bo74bo4110bo2bo3829b$4162bob2o29bobo349b2o639b3o83bobo4185bo3832b$4165b2o29bo349b4o636bo2bo85b2o4179bo5bo3832b$4165bobo378b2ob2o638bo4251bo13b3o5bobo3829b$4162bo3b2o380b2o636bo379bo3873b3o12bob2o3836b$4084bo81bo1020b2o376bobo17b2o3852b2obo13b3o3836b$4083bo1102b3o376bobo17b2o3852b3o14b2o3837b$4083b3o335bo2bo761b2o378bo3497b2o374b2o3853b$4159bobo263bo759bobo2b2o3872b2o4229b$4159b2o260bo3bo759bobo2b2o42bo8060b$4160bo261b4o759b3o47bo326bo7732b$5233b3o23b3o300b2o7731b$5259bo2bo301bo7730b$5259bo2bo299b2o7731b$5561bobo7731b$4173bo1088b2o298bo7732b$4172b3o1086bo2bo295bobo7732b$4172bo2bo1085bo2bo12bobo177bobo98bo7736b$4174b2o1085bo15b2o179b2o98bobo7734b$4174bo1018bo84bo179bo7836b$4171b2o1018bobo8101b$4171b4o1017b2o4246b3o3852b$4158bo13bo2bo15bo5248bo2bo3851b$4157bobo13bo16bobo5247bo3854b$4157bobo12bo17bobo5247bo3854b$4158bo12b2o18bo389b4o685b3o4168bobo20b3o3828b$4170bo5bo403bo3bo687bo4191bo2bo3827b$4170b2o3b2o407bo685b3o4191bo3830b$4171b2o407bo2bo666bo329b2o3882bo3830b$5248b2o21bo308b2o3883bobo3827b$4457b2o790b2o18b3o8023b$4456b4o711bobo93b3o8025b$4456b2ob2o710b2o95b2o4202b3o3820b$4184bo273b2o712bo162bo4135bo2bo3820b$4182b2ob2o1149b2o15bo4120bo3820b$4182b2ob2o858bo289b2o16bobo4110bo7bo3820b$4147bo35bob3o855bobo307b2o4096bo13b3o3bobo3821b$4148bo33b3o859b2o4404b3o11b2obo3827b$4146b3o5301bob2o10b3o3828b$9451b3o11b2o3828b$5326bo4124b2o3842b$4183b2o1140bo21bo7947b$4183b2o1140b3o19b2o2867b2o5077b$5289bobo57bo219bo2644b2ob2o5076b$4182bo975b3o129b2o55b2o221bo2643b4o5077b$4153bo27bob2ob2o970b3o129bo55bobo219b3o2644b2o5078b$4152bobo25b2o4b2o970bo2bo185bo7947b$4152bobo25b2ob2o974b3o158b2o23bobo7947b$4060bo92bo3bo24bo434b2o540b2o159bobo20bo7951b$4058b2o96bo458b2ob2o702bo20bobo7949b$4059b2o74bo20b3o456b4o701bobo7972b$4134bo481b2o701bo255b2o7718b$4134b3o1111bo70bobo253b2o7718b$5249b2o68bo3734b2o4239b$4491b4o753b2o68bo3735b2o394b3o3842b$4490bo3bo1043bo3910bo2bo3842b$4189bo304bo736bo304b2o3914bo3842b$4190bo299bo2bo736b3o304b2o3913bo3842b$4188b3o1038b2o2bo4215bobo22b3o3818b$5473bo3999bo2bo3818b$5474bo4001bo3818b$5472b3o4001bo3818b$5206bobo20b2o4242bobo3819b$5207b2o21b3o8062b$5207bo25bo8061b$5231b3o4248b3o3810b$4121bo1109b2o106b2o4141bo2bo3809b$4120b3o1215bobo4141bo3812b$4120b3o45bo1170bo4136bo5bo3812b$4166b2o1063bobo12bo4214bo13b3o5bobo3809b$4120b4o22b2o19b2o480bo2bo579b2o12bobo4211b3o12bob2o3816b$4119b5o22b2o505bo511bo66bo13b2o4211b2obo13b3o3816b$4119b2obo526bo3bo512b2o75bo4215b3o14b2o3817b$4650b4o511b2o75b3o4215b2o3833b$5241bo2b2o8049b$4120b2o1119b3obo8049b$4119bo1124b2o8049b$4527b2o8766b$4118bobo2bo401b2ob2o528bobo179bo8054b$4118bob3obo400b4o530b2o178bo8055b$4117b3ob2obo401b2o531bo158bo20b3o8053b$4118bobo1096bo110bo7966b$4118b3o1096b3o106bobo7966b$4119bo1020bo186b2o7966b$5140bobo8152b$5140b2o163bo7989b$5306bo16bo7971b$5304b3o14b2o2961b2o1174b3o3832b$5322b2o2959b4o1173bo2bo3831b$4133b2o1199b2o2947b2ob2o1172bo3834b$4133b2o1198bobo2949b2o1173bo3834b$4034bo92bo7bo1198bo4126bobo20b3o3808b$4034bobo88bobo5b2o5349bo2bo3807b$4034b2o90b2o5b2o6b2o542b2o607bobo19b2o4166bo3810b$4141b2o541b4o606b2o20b2o4166bo3810b$4135b2o547b2ob2o575bo30bo22bo4166bobo3807b$4135b2o549b2o574bobo51b3o7976b$5263b2o50bobo17bo7959b$5316b2o17b2o175bo3979b3o3800b$4203bo355bo2bo752bo18bobo175bobo3529b2o445bo2bo3800b$4204b2o357bo751bo196b2o3530b2o448bo3800b$4125bobo75b2o354bo3bo723b3o23bo35b3o4134bo7bo3800b$4125b2o433b4o637b3o85bo61bo135bo3983bo13b3o3bobo3801b$4103bobo20bo1073bo2bo83b3o60bo137b2o3980b3o11b2obo3807b$4103b2o1099bo17bo141b2o121b2o3981bob2o10b3o3808b$4104bo1095b2o21bo64bo76b2o4104b3o11b2o3808b$5200b2o3bo15b3o62b3o75bo4106b2o3822b$5205bo78b3o92b2o7914b$5203bo81b2o91bobo7914b$5201b3o176bo7914b$5201b2o191bo7900b$4142bo1058bo192b2o7899b$4142bobo1057b2o189bobo7899b$4142b2o1058bobo8090b$5181bo19bo3bo202b3o7884b$5179bobo20b2o206bo7884b$4136b2o1042b2o227bo7885b$4136b2o581b4o700b2o7870b$4718bo3bo585b2o114b2o7869b$4722bo584bobo113bo7871b$4718bo2bo352bo233bo129b2o4030b3o3822b$5075bo130bo6b2o222bobo4029bo2bo3822b$4595b2o476b3o128bobo8bo223bo4032bo3822b$4594b4o607b2o9bo236bo4018bo3822b$4594b2ob2o614bobo237b2o4014bobo22b3o3798b$4596b2o616bo237bobo4038bo2bo3798b$5115bobo98bobo4277bo3798b$5115b2o99bobo248b3o4026bo3798b$5116bo100bo251bo31bo3991bobo3799b$5468bo32b2o7792b$5482b2o16bobo7792b$5208bobo272b2o4017b3o3790b$5208b2o272bo32b3o3984bo2bo3789b$5186bobo20bo84bo202b2o18bo3984bo3792b$4009bobo1174b2o107b2o199bobo17bo2837b2o1140bo5bo3792b$4009b2o1176bo106b2o202bo31b2o2820b2ob2o1124bo13b3o5bobo3789b$4010bo1501bo18b2o2819b4o1124b3o12bob2o3796b$5512b2o16bo2822b2o1124b2obo13b3o3796b$5277bobo11bo219bobo31b2o3932b3o14b2o3797b$5278b2o10bo253bobo3933b2o3813b$4755b2o521bo9b2ob2o233b3o17bo7748b$4753b2ob2o529b5o11b2o223bo31bo7734b$4219bo533b4o529b2o2bo11bobo222bo32b2o7733b$4101bo115bobo534b2o530bob4o11bo237b2o16bobo7733b$4100bo117b2o1066bo4bo250b2o7751b$4079bo20b3o1160bo22bo2b2o250bo32b3o3457b2o4259b$4078bo550b4o630bobo22b2o266b2o18bo3457b2o4259b$4078b3o547bo3bo603bo26b2o290bobo17bo7719b$4632bo539b3o62b2o21bo23bo272bo31b2o7704b$4628bo2bo604b2o21b3o22bobo284bo18b2o7703b$5172bobo83bo2b2o21b2o285b2o16bo7705b$5175bo82b3obo307bobo31b2o7689b$5171bo3bo85b2o340bobo7689b$5585b3o17bo3874b3o3812b$5171bo2b2o81bo329bo31bo3860bo2bo3811b$5256bo329bo32b2o3859bo3814b$5256b3o341b2o16bobo3859bo3814b$5172bo21bobo404b2o3878bobo20b3o3788b$5172bo22b2o403bo32b3o3868bo2bo3787b$5171bo23bo419b2o18bo3868bo3790b$5172bob2o438bobo17bo3869bo3790b$5176bo439bo31b2o3855bobo3787b$4787bo2bo378bo4bo455bo18b2o7644b$4791bo296bo541b2o16bo7646b$4787bo3bo297b2o79bobo456bobo31b2o3847b3o3780b$4788b4o296b2o80b3o489bobo3846bo2bo3780b$5644b3o17bo3849bo3780b$5646bo31bo3827bo7bo3780b$5091bo187b2o364bo32b2o3811bo13b3o3bobo3781b$4665b2o423bo187bobo378b2o16bobo3810b3o11b2obo3787b$4663b2ob2o422b3o186bo380b2o3828bob2o10b3o3788b$4663b4o518b2o472bo32b3o3796b3o11b2o3788b$4664b2o519bobo486b2o18bo3796b2o3802b$5178bo8bo485bobo17bo7601b$5179b2o4bobo487bo31b2o7586b$5178b2o5b2o502bo18b2o7585b$3985bo1200b2o501b2o16bo7587b$3984bo1202b2o499bobo31b2o7571b$3984b3o1200b2o532bobo7571b$5703b3o17bo2698b2o4871b$5705bo31bo2683b4o4870b$5704bo32b2o2682b2ob2o4869b$5718b2o16bobo2684b2o4870b$5177bo541b2o7574b$5177bobo538bo32b3o7541b$4232bobo588b2o330bo21b2o89bo464b2o18bo7541b$4077bo155b2o587b4o329bobo111bo462bobo17bo3737b3o3802b$4075b2o156bo588b2ob2o328b2o110b3o464bo31b2o3721bo2bo3802b$4055bo20b2o746b2o922bo18b2o3723bo3802b$4053b2o1693b2o16bo3725bo3802b$4054b2o1115bo80bo6b2o486bobo31b2o3706bobo22b3o3778b$4697bo2bo470b2o77bobo5bo2bo12b2o504bobo3241b2o487bo2bo3778b$4701bo471bo77b2o5bo2bo11bobo486b3o17bo3241b2o490bo3778b$4697bo3bo469b2o85bo15bo489bo31bo3719bo3778b$4698b4o468bobo88bo501bo32b2o3715bobo3779b$5171bo87b3o515b2o16bobo7497b$5169bobo89b2o515b2o7515b$5167bo62b2o30bo514bo32b3o3709b3o3770b$5167bobo62bo559b2o18bo3709bo2bo3769b$5210bo22bo557bobo17bo3710bo3772b$5211bo18bobo21bo538bo31b2o3689bo5bo3772b$5209b3o19bo20b2o553bo18b2o3673bo13b3o5bobo3769b$5233bobo17b2o552b2o16bo3674b3o12bob2o3776b$5233bobo570bobo31b2o3657b2obo13b3o3776b$5234bo604bobo3657b3o14b2o3777b$5821b3o17bo3658b2o3793b$5104bo718bo31bo7439b$5102bobo120bobo594bo32b2o7438b$5103b2o120b2o609b2o16bobo7438b$4857b4o365bo610b2o7456b$4856bo3bo975bo32b3o7423b$4860bo206bo783b2o18bo7423b$4856bo2bo205b2o783bobo17bo7424b$5066b2o784bo31b2o7409b$4733b2o1131bo18b2o7408b$4732b4o1130b2o16bo7410b$4732b2ob2o1128bobo31b2o7394b$4734b2o1162bobo7394b$5250b2o628b3o17bo7394b$3961bo1287bobo630bo31bo3585b3o3792b$3959b2o1289bo630bo32b2o3584bo2bo3791b$3960b2o1933b2o16bobo3584bo3794b$5896b2o3602bo3794b$5178bo716bo32b3o3570bobo20b3o3768b$5179bo730b2o18bo3593bo2bo3767b$5177b3o729bobo17bo3594bo3770b$5911bo31b2o2547b2o1030bo3770b$4248bo1676bo18b2o2544b2ob2o1030bobo3767b$4249bo880bobo792b2o16bo2546b4o4801b$4051bo195b3o880b2o792bobo31b2o2531b2o4802b$4051bobo1077bo825bobo3572b3o3760b$4029bo21b2o1886b3o17bo3571bo2bo3760b$4029bobo861b2o1046bo31bo3560bo3760b$4029b2o860b2ob2o1044bo32b2o3551bo7bo3760b$4891b4o1059b2o16bobo3536bo13b3o3bobo3761b$4892b2o253bo807b2o3553b3o11b2obo3767b$5145b2o807bo32b3o3520bob2o10b3o3768b$5146b2o821b2o18bo3024b2o495b3o11b2o3768b$4767b4o469bobo725bobo17bo3025b2o495b2o3782b$4766bo3bo470b2o727bo31b2o7291b$4770bo459b2o9bo742bo18b2o7290b$4766bo2bo460bob2o11b2o737b2o16bo7292b$5224bo7b2o10bobo736bobo31b2o7276b$5225b2o5b2o11bo770bobo7276b$5224b2o3b2o767b3o17bo7276b$6000bo31bo7262b$5232b2o765bo32b2o7261b$6013b2o16bobo7261b$6014b2o7279b$5117bobo81bo811bo32b3o7246b$5118b2o80bo827b2o18bo7246b$5118bo81b3o824bobo17bo7247b$5222bo806bo31b2o3447b3o3782b$5221bo821bo18b2o3445bo2bo3782b$4925bo2bo112bo179b3o819b2o16bo3450bo3782b$4929bo111bobo998bobo31b2o3434bo3782b$4925bo3bo111b2o1032bobo3431bobo22b3o3758b$4926b4o1127b3o17bo3455bo2bo3758b$6059bo31bo3444bo3758b$6058bo32b2o3443bo3758b$6072b2o16bobo3440bobo3759b$3935b2o866b2o1268b2o7220b$3934bo2bo863b2ob2o1266bo32b3o7187b$3933b3o865b4o1282b2o18bo3434b3o3750b$4802b2o1282bobo17bo3435bo2bo3749b$3935bobo2150bo31b2o3420bo3752b$5192bo909bo18b2o3413bo5bo3752b$3938bo1254b2o907b2o16bo3400bo13b3o5bobo3749b$3937b2o1253b2o27b2o878bobo31b2o3383b3o12bob2o3756b$5220bobo911bobo3382b2obo13b3o3756b$4262bo843bo114bo894b3o17bo3382b3o14b2o3757b$3929bo333b2o840bo1012bo31bo2409b2o958b2o3773b$3928bo97bobo233b2o841b3o1009bo32b2o2407b4o4732b$3928b3o95b2o2103b2o16bobo2407b2ob2o4731b$4004bobo20bo2104b2o2427b2o4732b$4004b2o2125bo32b3o7128b$4005bo2140b2o18bo7128b$4961b2o1182bobo17bo7129b$4960b4o157bo1025bo31b2o7114b$4960b2ob2o156bobo1037bo18b2o7113b$4962b2o157b2o1038b2o16bo7115b$6160bobo31b2o7099b$6193bobo7099b$4835bo2bo1336b3o17bo2808b2o4289b$4839bo1337bo31bo2794b2o4289b$4835bo3bo1336bo32b2o3309b3o3772b$4836b4o1350b2o16bobo3309bo2bo3771b$6191b2o3327bo3774b$6190bo32b3o3294bo3774b$6205b2o18bo3295bobo20b3o3748b$6204bobo17bo3319bo2bo3747b$5133bo82b2o988bo31b2o3304bo3750b$5134bo42bo37bobo1002bo18b2o3303bo3750b$5132b3o40b2o39bo1003b2o16bo3306bobo3747b$5176b2o1041bobo31b2o7040b$5198bo1053bobo7040b$5016b3o177b2o1036b3o17bo3297b3o3740b$5019bo177b2o1037bo31bo3282bo2bo3740b$5016b3o1216bo32b2o3284bo3740b$6249b2o16bobo3276bo7bo3740b$6250b2o3279bo13b3o3bobo3741b$4995b4o20b2o1228bo32b3o3245b3o11b2obo3747b$3946bo1047bo3bo20b2o1243b2o18bo3245bob2o10b3o3748b$3947bo1050bo1264bobo17bo3247b3o11b2o3748b$3945b3o1046bo2bo1267bo31b2o3232b2o3762b$6279bo18b2o6995b$4871b2o138bo1267b2o16bo6997b$4870b4o135b2o1267bobo31b2o6981b$4870b2ob2o135b2o1299bobo6981b$4872b2o334bo1084b3o17bo6981b$5206bobo1086bo31bo6967b$5207b2o1085bo32b2o6966b$6308b2o16bobo6966b$4278bo803bo1226b2o6984b$3905bo96bo273bobo801b2o129b2o1095bo32b3o6951b$3903b2o96bo275b2o802b2o127bobo1110b2o18bo6951b$3904b2o74bo20b3o1207bo1110bobo17bo6952b$3979bo2344bo31b2o6937b$3979b3o2356bo18b2o2271b2o898b3o3762b$5215bo1122b2o16bo2271b2ob2o896bo2bo3762b$5215b2o1120bobo31b2o2255b4o900bo3762b$5096bobo115bobo1153bobo2256b2o901bo3762b$5096b2o1254b3o17bo3156bobo22b3o3738b$5097bo131b3o1122bo31bo3166bo2bo3738b$5031b2o198bo1121bo32b2o3168bo3738b$5029b2ob2o196bo1136b2o16bobo3168bo3738b$5029b4o211b2o1122b2o3183bobo3739b$5030b2o213b2o1120bo32b3o6892b$5244bo1137b2o18bo6892b$5259b2o1120bobo17bo2592b2o566b3o3730b$3967bo937b4o349bobo1122bo31b2o2577b2o566bo2bo3729b$3966b3o935bo3bo351bo1136bo18b2o3144bo3732b$3969bo938bo244b2o119bo1122b2o16bo3140bo5bo3732b$3967b2o935bo2bo245bob2o117b2o1120bobo31b2o3109bo13b3o5bobo3729b$3968bo1178bo7b2o116bobo1153bobo3108b3o12bob2o3736b$5148b2o5b2o1254b3o17bo3107b2obo13b3o3736b$5147b2o3b2o134b3o1122bo31bo3093b3o14b2o3737b$5028bo261bo1121bo32b2o3093b2o3753b$5029b2o124b2o15bo116bo1136b2o16bobo6848b$5028b2o142bobo128b2o1122b2o6866b$5172b2o130b2o1120bo32b3o6833b$5303bo1137b2o18bo6833b$5318b2o1120bobo17bo6834b$5317bobo1122bo31b2o6819b$5145bo173bo1136bo18b2o6818b$3962b2o1180bo188bo1122b2o16bo6820b$3961b3o1099bo2bo77b3o186b2o1120bobo31b2o6804b$3962b3o1102bo264bobo1153bobo6804b$3964b2o1097bo3bo1402b3o17bo6804b$3965bo1019bo78b4o279b3o1122bo31bo6790b$4985bobo361bo1121bo32b2o6789b$3883bo1101b2o361bo1136b2o16bobo3034b3o3752b$3882b3o1477b2o1122b2o3052bo2bo3751b$3881b2o2bo1055b2o420b2o1120bo32b3o3019bo3754b$3882b5o92b3o957b2ob2o418bo1137b2o18bo3019bo3754b$3882b2o2bo92bo2bo956b4o434b2o1120bobo17bo3021bobo20b3o3728b$3883bo2bo96bo307bobo646b2o114bo319bobo1122bo31b2o3029bo2bo3727b$3883bobo88bo5b3o309b2o762bobo319bo1136bo18b2o3028bo3730b$3972bobo317bo763b2o334bo1122b2o16bo3030bo3730b$3973b2o1417b2o1120bobo31b2o3015bobo3727b$5144b2o245bobo1153bobo6745b$5143bobo1383b3o17bo6745b$5144bo261b3o1122bo31bo3008b3o3720b$5072bo335bo1121bo32b2o2133b2o871bo2bo3720b$5071bo335bo1136b2o16bobo2132b4o873bo3720b$5071b3o347b2o1122b2o2150b2ob2o864bo7bo3720b$3872bo1549b2o1120bo32b3o2119b2o850bo13b3o3bobo3721b$3872b2o96bobo1448bo1137b2o18bo2970b3o11b2obo3727b$3872b3o95b2o1464b2o1120bobo17bo2971bob2o10b3o3728b$3872b2o74bobo20bo1127b2o334bobo1122bo31b2o2957b3o11b2o3728b$3872b2o74b2o10bo1137b4o335bo1136bo18b2o2956b2o3742b$3873bo75bo9bobo1136b2ob2o348bo1122b2o16bo6702b$3874bobo82bobo1138b2o349b2o1120bobo31b2o6686b$3875bo84bo1489bobo1153bobo6686b$6588b3o17bo6686b$4973bo2bo488b3o1122bo31bo2361b2o4309b$3866bo1110bo489bo1121bo32b2o2360b2o4309b$3866bobo1104bo3bo488bo1136b2o16bobo6671b$3866b2o1106b4o502b2o1122b2o6689b$5481b2o1120bo32b3o6656b$5044bo435bo1137b2o18bo6656b$5042bobo102bobo345b2o1120bobo17bo6657b$5043b2o102b2o345bobo1122bo31b2o6642b$5139b2o7bo347bo1136bo18b2o6641b$5138bobo369bo1122b2o16bo2898b3o3742b$5139bo370b2o1120bobo31b2o2881bo2bo3742b$5509bobo1153bobo2884bo3742b$5121bo1525b3o17bo2884bo3742b$5119b2o403b3o1122bo31bo2867bobo22b3o3718b$5120b2o404bo1121bo32b2o2890bo2bo3718b$5525bo1136b2o16bobo2893bo3718b$5539b2o1122b2o2911bo3718b$4960bobo577b2o1120bo32b3o2875bobo3719b$3955bo1004b2o171b4o402bo1137b2o18bo6597b$3954bobo1004bo170bo3bo417b2o1120bobo17bo6598b$3954bobo1179bo416bobo1122bo31b2o2870b3o3710b$3955bo1176bo2bo419bo1136bo18b2o2869bo2bo3709b$3896bo1672bo1122b2o16bo2871bo3712b$3897bo409bo701b2o558b2o1120bobo31b2o2849bo5bo3712b$3895b3o410bo699b4o19bobo534bobo1153bobo2834bo13b3o5bobo3709b$4306b3o699b2ob2o18b2o1673b3o17bo2833b3o12bob2o3716b$5010b2o20bo550b3o1122bo31bo2818b2obo13b3o3716b$5585bo1121bo32b2o2817b3o14b2o3717b$5584bo1136b2o16bobo2818b2o3733b$5598b2o1122b2o6571b$5599b2o1120bo32b3o6538b$5048bo85b2o462bo1137b2o18bo6538b$3883bo1162b2o85bobo477b2o1120bobo17bo6539b$3881bobo1163b2o85bo477bobo1122bo31b2o6524b$3882b2o62bo1667bo1136bo18b2o6523b$3945bo1682bo1122b2o16bo1998b2o4525b$3924bo20b3o1680b2o1120bobo31b2o1980b2ob2o4524b$3923bo1703bobo1153bobo1980b4o4525b$3923b3o2839b3o17bo1981b2o4526b$5642b3o1122bo31bo6495b$5644bo1121bo32b2o6494b$3950bo1218b2o472bo1136b2o16bobo6494b$3949bobo1215b2ob2o485b2o1122b2o2777b3o3732b$3949bobo1215b4o487b2o1120bo32b3o2744bo2bo3731b$3841bobo106bo1217b2o487bo1137b2o18bo2744bo3734b$3841b2o70bo2b2o1754b2o1120bobo17bo2745bo3734b$3842bo74b2o1752bobo1122bo31b2o2144b2o585bobo20b3o3708b$3916b2o1125b4o626bo1136bo18b2o2143b2o608bo2bo3707b$5042bo3bo10bobo63bo563bo1122b2o16bo2755bo3710b$3912b2o2b2o1128bo11b2o62bo564b2o1120bobo31b2o2739bo3710b$3918bo1123bo2bo12bo63b3o561bobo1153bobo2740bobo3707b$3912b4o2908b3o17bo6450b$3914bo2bo1783b3o1122bo31bo6436b$5703bo1121bo32b2o2732b3o3700b$5129b2o571bo1136b2o16bobo2731bo2bo3700b$5095bo32bobo585b2o1122b2o2752bo3700b$5095bobo31bo587b2o1120bo32b3o2711bo7bo3700b$5095b2o619bo1137b2o18bo2696bo13b3o3bobo3701b$5731b2o1120bobo17bo2696b3o11b2obo3707b$4936bo793bobo1122bo31b2o2681bob2o10b3o3708b$4935bo796bo1136bo18b2o2681b3o11b2o3708b$4935b3o808bo1122b2o16bo2683b2o3722b$5746b2o1120bobo31b2o6391b$5201bo2bo540bobo1153bobo6391b$3912bo1292bo1677b3o17bo6391b$3911bobo12b3o1272bo3bo554b3o1122bo31bo6377b$3911bobo11bo2bo392bo685bo194b4o556bo1121bo32b2o6376b$3912bo12bo2bo13b2o378b2o682bo754bo1136b2o16bobo6376b$3924bo2bo12bo380b2o683b3o766b2o1122b2o6394b$3924bo2bo12b3o1833b2o1120bo32b3o6361b$3928b2o12b2o1135b2o694bo1137b2o18bo6361b$3928b2o1147b2ob2o708b2o1120bobo17bo6362b$3926bo3bo1146b4o708bobo1122bo31b2o6347b$3929b2o13b2o1132b2o711bo1136bo18b2o6346b$3931bo12b2o1076bo782bo1122b2o16bo6348b$3896bobo27bo3bo1091bobo780b2o1120bobo31b2o2607b3o3722b$3897b2o28b3o1092b2o780bobo1153bobo2606bo2bo3722b$3897bo26bo1199b2o1816b3o17bo2609bo3722b$3922bobo10bobo1185bobo693b3o1122bo31bo2595bo3722b$3923b2o10b2o1187bo696bo1121bo32b2o2591bobo22b3o3698b$3936bo1883bo1136b2o16bobo1858b2o755bo2bo3698b$5834b2o1122b2o1875b4o757bo3698b$5835b2o1120bo32b3o1842b2ob2o756bo3698b$5834bo1137b2o18bo1844b2o754bobo3699b$5849b2o1120bobo17bo6303b$5848bobo1122bo31b2o6288b$3817bo1419b2o611bo1136bo18b2o2594b3o3690b$3816bo90bo6bobo1319b4o624bo1122b2o16bo2596bo2bo3689b$3816b3o87bobo5b2o1320b2ob2o623b2o1120bobo31b2o2580bo3692b$3892bobo11bobo6bo1322b2o623bobo1153bobo2574bo5bo3692b$3892b2o13bo1165bo1927b3o17bo2559bo13b3o5bobo3689b$3893bo1180bo24bo778b3o1122bo31bo2544b3o12bob2o3696b$5072b3o22b2o12bo2bo765bo1121bo32b2o1927b2o613b2obo13b3o3696b$5098b2o15bo763bo1136b2o16bobo1927b2o613b3o14b2o3697b$5111bo3bo777b2o1122b2o2561b2o3713b$5112b4o778b2o1120bo32b3o6243b$5893bo1137b2o18bo6243b$5908b2o1120bobo17bo6244b$5070bobo834bobo1122bo31b2o6229b$5070b2o837bo1136bo18b2o6228b$5071bo47b2o802bo1122b2o16bo6230b$5118bobo802b2o1120bobo31b2o6214b$4912bo206bo802bobo1153bobo6214b$4910b2o2148b3o17bo6214b$4911b2o1024b3o1122bo31bo6200b$5939bo1121bo32b2o6199b$5084b3o851bo1136b2o16bobo6199b$5085bo866b2o1122b2o6217b$5085b3o865b2o1120bo32b3o2469b3o3712b$3952bobo382bo645bo968bo1137b2o18bo2469bo2bo3711b$3953b2o380bobo643b2o288b4o692b2o1120bobo17bo2470bo3714b$3953bo382b2o644b2o286bo3bo691bobo1122bo31b2o2455bo3714b$3900b2o1372bo693bo1136bo18b2o2455bobo20b3o3688b$3900b2o1368bo2bo708bo1122b2o16bo2480bo2bo3687b$5982b2o1120bobo31b2o2464bo3690b$3875bo1271b2o832bobo1153bobo2464bo3690b$3874b3o1206bobo60b4o1969b3o17bo2465bobo3687b$3873bo2b2o1119bobo83bobo60b2ob2o845b3o1122bo31bo6141b$3873b3o1121b2o149b2o848bo1121bo32b2o6140b$4998bo87bo910bo1136b2o16bobo2457b3o3680b$3911bo2099b2o1122b2o2474bo2bo3680b$3910bo2101b2o1120bo32b3o2444bo3680b$3873bo36b3o2098bo1137b2o18bo2436bo7bo3680b$3876bo1205bobo29b2o910b2o1120bobo17bo2422bo13b3o3bobo3681b$3873bo3bo1205bo29bobo909bobo1122bo31b2o2406b3o11b2obo3687b$3874b2ob2o1235bo912bo1136bo18b2o2405bob2o10b3o3688b$6041bo1122b2o16bo2408b3o11b2o3688b$5080b2o959b2o1120bobo31b2o1707b2o683b2o3702b$5079bobo958bobo1153bobo1705b2ob2o4386b$3793bo82bo13bo1189bo2097b3o17bo1705b4o4387b$3791b2o84b2o10bo2165b3o1122bo31bo1692b2o4388b$3792b2o82b2o9b2ob2o2165bo1121bo32b2o6081b$3886b5o2165bo1136b2o16bobo6081b$3885b2o2bo1417b2o761b2o1122b2o6099b$3885bob4o1414b2ob2o761b2o1120bo32b3o6066b$3885bo4bo4b2o1408b4o761bo1137b2o18bo6066b$3885bo2b2o5b2o1409b2o777b2o1120bobo17bo6067b$3887b2o2195bobo1122bo31b2o6052b$6086bo1136bo18b2o1710b2o4339b$3883bo1297b4o915bo1122b2o16bo1712b2o4339b$3883bobo1160bo133bo3bo915b2o1120bobo31b2o6037b$3861bo21b2o1160bo138bo914bobo1153bobo2332b3o3702b$3861bobo1181b3o132bo2bo2053b3o17bo2331bo2bo3702b$3861b2o1204bo1046b3o1122bo31bo2320bo3702b$5066bo1049bo1121bo32b2o2319bo3702b$4886bo179b3o1046bo1136b2o16bobo2316bobo22b3o3678b$4886bobo220b2o1018b2o1122b2o2358bo2bo3678b$4886b2o220bobo1019b2o1120bo32b3o2328bo3678b$5109bo1019bo1137b2o18bo2328bo3678b$6144b2o1120bobo17bo2326bobo3679b$5075b2o1066bobo1122bo31b2o5993b$3968bo1105bobo1068bo1136bo18b2o5992b$3969bo380bobo604bo117bo1083bo1122b2o16bo2321b3o3670b$3967b3o381b2o604bobo1199b2o1120bobo31b2o2305bo2bo3669b$4351bo605b2o1199bobo1153bobo2305bo3672b$5339bo2bo1953b3o17bo2299bo5bo3672b$5343bo829b3o1122bo31bo2270bo13b3o5bobo3669b$5339bo3bo831bo1121bo32b2o2268b3o12bob2o3676b$5340b4o830bo1136b2o16bobo2267b2obo13b3o3676b$4973bo1214b2o1122b2o2285b3o14b2o3677b$4972bo1216b2o1120bo32b3o2253b2o3693b$4972b3o1213bo1137b2o18bo5948b$5217b2o984b2o1120bobo17bo5949b$5215b2ob2o982bobo1122bo31b2o5934b$5215b4o985bo1136bo18b2o5933b$5216b2o1000bo1122b2o16bo5935b$6218b2o1120bobo31b2o5919b$6217bobo1153bobo5919b$7355b3o17bo5919b$5104b2o1126b3o1122bo31bo5905b$5103bobo1128bo1121bo32b2o5904b$5104bo1128bo1136b2o16bobo5904b$3767bo2479b2o1122b2o1601b2o4319b$3767bobo1300b2o1176b2o1120bo32b3o1567b4o4318b$3767b2o1300bobo1175bo1137b2o18bo1567b2ob2o622b3o3692b$5070bo1191b2o1120bobo17bo1570b2o623bo2bo3691b$6261bobo1122bo31b2o2180bo3694b$6263bo1136bo18b2o2179bo3694b$5375b2o900bo1122b2o16bo2182bobo20b3o3668b$5374b4o899b2o1120bobo31b2o2189bo2bo3667b$5374b2ob2o897bobo1153bobo2189bo3670b$5376b2o2036b3o17bo2189bo3670b$3858bobo2430b3o1122bo31bo2176bobo3667b$3858b2o1162bo1270bo1121bo32b2o5845b$3836bobo20bo1160b2o227bo2bo1039bo1136b2o16bobo1494b2o4349b$3836b2o1183b2o230bo1052b2o1122b2o1512b2o686b3o3660b$3837bo1205bo205bo3bo1053b2o1120bo32b3o2166bo2bo3660b$5041b2o207b4o1052bo1137b2o18bo2169bo3660b$4861bobo178b2o1277b2o1120bobo17bo2162bo7bo3660b$4861b2o1457bobo1122bo31b2o2132bo13b3o3bobo3661b$4862bo1459bo1136bo18b2o2130b3o11b2obo3667b$6336bo1122b2o16bo2132bob2o10b3o3668b$5099b2o1235b2o1120bobo31b2o2117b3o11b2o3668b$5098bobo1234bobo1153bobo2117b2o3682b$3982bo383bo732bo2373b3o17bo5801b$3983b2o382bo564bobo1415b3o1122bo31bo5787b$3982b2o381b3o564b2o131b2o1285bo1121bo32b2o5786b$4933bo130bobo1284bo1136b2o16bobo5786b$5065bo1299b2o1122b2o5804b$6366b2o1120bo32b3o5771b$6365bo1137b2o18bo5771b$6380b2o1120bobo17bo5772b$4949bo459b4o966bobo1122bo31b2o5757b$4947b2o459bo3bo968bo1136bo18b2o5756b$4948b2o462bo982bo1122b2o16bo5758b$5408bo2bo983b2o1120bobo31b2o5742b$6394bobo1153bobo5742b$5285b2o2245b3o17bo2057b3o3682b$5284b4o1121b3o1122bo31bo2042bo2bo3682b$5284b2ob2o1122bo1121bo32b2o2044bo3682b$5286b2o1122bo1136b2o16bobo2044bo3682b$6424b2o1122b2o2059bobo22b3o3658b$6425b2o1120bo32b3o2050bo2bo3658b$6424bo1137b2o18bo2053bo3658b$6439b2o1120bobo17bo2054bo3658b$3742bobo1349b2o1342bobo1122bo31b2o2036bobo3659b$3742b2o1349bobo1344bo1136bo18b2o5697b$3743bo1350bo1359bo1122b2o16bo5699b$6454b2o1120bobo31b2o2030b3o3650b$5060b2o1391bobo1153bobo1432b2o596bo2bo3649b$5059bobo2529b3o17bo1430b2ob2o595bo3652b$5060bo1407b3o1122bo31bo1416b4o590bo5bo3652b$6470bo1121bo32b2o1416b2o576bo13b3o5bobo3649b$6469bo1136b2o16bobo1993b3o12bob2o3656b$3834bo2648b2o1122b2o2010b2obo13b3o3656b$3833bo1611b2o1037b2o1120bo32b3o1977b3o14b2o3657b$3812bo20b3o1160bo446b2ob2o1035bo1137b2o18bo1978b2o3673b$3811bo1184bobo444b4o1051b2o1120bobo17bo5654b$3811b3o1182b2o446b2o1051bobo1122bo31b2o5639b$5017bo1481bo1136bo18b2o5638b$4837bo179bobo1493bo1122b2o16bo1279b2o4359b$4836bo180b2o300b4o1190b2o1120bobo31b2o1263b2o4359b$4836b3o479bo3bo1189bobo1153bobo5624b$5322bo2327b3o17bo5624b$5318bo2bo1205b3o1122bo31bo5610b$6529bo1121bo32b2o5609b$6528bo1136b2o16bobo5609b$3998bo381bo527bo1633b2o1122b2o5627b$3996bobo382b2o524bo181b2o1452b2o1120bo32b3o5594b$3997b2o381b2o525b3o178bobo1451bo1137b2o18bo5594b$5089bo1467b2o1120bobo17bo1920b3o3672b$6556bobo1122bo31b2o1905bo2bo3671b$5055b2o1501bo1136bo18b2o1904bo3674b$5054bobo1515bo1122b2o16bo1906bo3674b$5055bo1516b2o1120bobo31b2o1891bobo20b3o3648b$4923bo1647bobo1153bobo1914bo2bo3647b$4923bobo2783b3o17bo1914bo3650b$4923b2o552bo2bo1105b3o1122bo31bo1900bo3650b$5481bo1106bo1121bo32b2o1900bobo3647b$5477bo3bo1105bo1136b2o16bobo5550b$5478b4o1119b2o1122b2o5568b$6602b2o1120bo32b3o1892b3o3640b$6601bo1137b2o18bo1891bo2bo3640b$6616b2o1120bobo17bo1895bo3640b$5355b2o1258bobo1122bo31b2o1872bo7bo3640b$5353b2ob2o1259bo1136bo18b2o1856bo13b3o3bobo3641b$5353b4o1274bo1122b2o16bo1857b3o11b2obo3647b$3718bo1635b2o1275b2o1120bobo31b2o1841bob2o10b3o3648b$3717bo2912bobo1153bobo1842b3o11b2o3648b$3717b3o4048b3o17bo1842b2o3662b$6645b3o1122bo31bo5492b$5084b2o1561bo1121bo32b2o5491b$5083bobo1560bo1136b2o16bobo5491b$5084bo1575b2o1122b2o5509b$6661b2o1120bo32b3o1293b2o4181b$5050b2o1608bo1137b2o18bo1292b4o4180b$5049bobo1623b2o1120bobo17bo1293b2ob2o4179b$3810bo1239bo1623bobo1122bo31b2o1280b2o4180b$3808b2o2866bo1136bo18b2o5461b$3788bo20b2o1160bobo1716bo1122b2o16bo5463b$3786b2o1183b2o540b2o1175b2o1120bobo31b2o5447b$3787b2o1183bo539b4o1173bobo1153bobo5447b$4992bobo517b2ob2o2310b3o17bo5447b$4813bo178b2o520b2o1188b3o1122bo31bo1768b3o3662b$4811b2o180bo1712bo1121bo32b2o1766bo2bo3662b$4812b2o1891bo1136b2o16bobo1769bo3662b$5387bo2bo1328b2o1122b2o1079b2o706bo3662b$5391bo1328b2o1120bo32b3o1046b2o703bobo22b3o3638b$5387bo3bo1327bo1137b2o18bo1775bo2bo3638b$5388b4o1342b2o1120bobo17bo1779bo3638b$4011bobo382bo487bo1848bobo1122bo31b2o1764bo3638b$4012b2o380bobo485b2o1851bo1136bo18b2o1760bobo3639b$4012bo382b2o486b2o1864bo1122b2o16bo5404b$6749b2o1120bobo31b2o5388b$5079b2o1667bobo1153bobo1755b3o3630b$5078bobo2805b3o17bo1755bo2bo3629b$5079bo1683b3o1122bo31bo1741bo3632b$6765bo1121bo32b2o1734bo5bo3632b$4898bobo144b2o1717bo1136b2o16bobo1719bo13b3o5bobo3629b$4898b2o144bobo1731b2o1122b2o1736b3o12bob2o3636b$4899bo145bo1733b2o1120bo32b3o1702b2obo13b3o3636b$6778bo1137b2o18bo1702b3o14b2o3637b$6793b2o1120bobo17bo1704b2o3653b$6792bobo1122bo31b2o5344b$5547b4o1243bo1136bo18b2o5343b$5546bo3bo1257bo1122b2o16bo5345b$5550bo1257b2o1120bobo31b2o5329b$5546bo2bo1257bobo1153bobo5329b$7945b3o17bo5329b$5423b2o1397b3o1122bo31bo5315b$3694bo1727b4o1398bo1121bo32b2o5314b$3692b2o1728b2ob2o1396bo1136b2o16bobo5314b$3693b2o1729b2o1411b2o1122b2o5332b$6838b2o1120bo32b3o5299b$6837bo1137b2o18bo5299b$6852b2o1120bobo17bo5300b$6851bobo1122bo31b2o1630b3o3652b$5074b2o1777bo1136bo18b2o1629bo2bo3651b$5073bobo1791bo1122b2o16bo1631bo3654b$5074bo1792b2o1120bobo31b2o1615bo3654b$3784bo3081bobo1153bobo1616bobo20b3o3628b$3784bobo1160bo92b2o2962b3o17bo1157b2o480bo2bo3627b$3762bo21b2o1160bo92bobo1839b3o1122bo31bo1141b2ob2o479bo3630b$3762bobo1181b3o91bo1842bo1121bo32b2o1140b4o480bo3630b$3762b2o1204bo1913bo1136b2o16bobo1141b2o482bobo3627b$4967bo1928b2o1122b2o5273b$4787bo179b3o1927b2o1120bo32b3o5240b$4787bobo793b2o1311bo1137b2o18bo1617b3o3620b$4787b2o792b2ob2o1325b2o1120bobo17bo1617bo2bo3620b$5581b4o1325bobo1122bo31b2o1605bo3620b$5582b2o1328bo1136bo18b2o1596bo7bo3620b$6926bo1122b2o16bo1583bo13b3o3bobo3621b$4027bo2898b2o1120bobo31b2o830b2o734b3o11b2obo3627b$4028bo380bobo446bo598b4o1464bobo1153bobo830b2o734bob2o10b3o3628b$4026b3o381b2o446bobo595bo3bo2602b3o17bo1567b3o11b2o3628b$4410bo447b2o600bo1479b3o1122bo31bo1553b2o3642b$5456bo2bo1482bo1121bo32b2o5196b$6941bo1136b2o16bobo5196b$6955b2o1122b2o5214b$6956b2o1120bo32b3o5181b$4874bo194b2o1884bo1137b2o18bo5181b$4873bo194bobo1899b2o1120bobo17bo5182b$4873b3o193bo1899bobo1122bo31b2o5167b$6971bo1136bo18b2o5166b$5035b2o1948bo1122b2o16bo5168b$5034bobo1948b2o1120bobo31b2o5152b$5035bo1948bobo1153bobo5152b$8122b3o17bo5152b$6999b3o1122bo31bo5138b$5615bo2bo1382bo1121bo32b2o1492b3o3642b$5619bo1380bo1136b2o16bobo1491bo2bo3642b$5615bo3bo1394b2o1122b2o1512bo3642b$5616b4o1395b2o1120bo32b3o1479bo3642b$3668bo3345bo1137b2o18bo1476bobo22b3o3618b$3668bobo3358b2o1120bobo17bo1501bo2bo3618b$3668b2o3358bobo1122bo31b2o1489bo3618b$5493b2o1535bo1136bo18b2o1488bo3618b$5491b2ob2o1548bo1122b2o16bo1487bobo3619b$5491b4o1549b2o1120bobo31b2o5093b$5492b2o1549bobo1153bobo5093b$8181b3o17bo1480b3o3610b$7058b3o1122bo31bo1466bo2bo3609b$7060bo1121bo32b2o1465bo3612b$3759bobo1302b2o1993bo1136b2o16bobo1459bo5bo3612b$3759b2o1162bo139bobo2007b2o1122b2o1462bo13b3o5bobo3609b$3737bobo20bo1160b2o141bo2009b2o1120bo32b3o1428b3o12bob2o3616b$3737b2o1183b2o2149bo1137b2o18bo1018b2o407b2obo13b3o3616b$3738bo1205bo85b2o2056b2o1120bobo17bo1018b4o406b3o14b2o3617b$4942b2o85bobo2055bobo1122bo31b2o1003b2ob2o406b2o3633b$4762bobo178b2o85bo2058bo1136bo18b2o1004b2o4042b$4762b2o2339bo1122b2o16bo5050b$4763bo2339b2o1120bobo31b2o5034b$5651b2o1449bobo1153bobo5034b$5650b4o2586b3o17bo5034b$5650b2ob2o1462b3o1122bo31bo5020b$4041bo383bo1226b2o1465bo1121bo32b2o5019b$4042b2o382bo406bobo2282bo1136b2o16bobo5019b$4041b2o381b3o406b2o2297b2o1122b2o5037b$4834bo690bo2bo1604b2o1120bo32b3o613b2o4389b$5529bo1602bo1137b2o18bo613b2o4389b$5525bo3bo1617b2o1120bobo17bo5005b$5526b4o1616bobo1122bo31b2o4990b$7148bo1136bo18b2o1354b3o3632b$4850bo2311bo1122b2o16bo1356bo2bo3631b$4848b2o2312b2o1120bobo31b2o1340bo3634b$4849b2o2310bobo1153bobo1340bo3634b$5059b2o3238b3o17bo1341bobo20b3o3608b$5058bobo2115b3o1122bo31bo1350bo2bo3607b$5059bo2118bo1121bo32b2o1349bo3610b$7177bo1136b2o16bobo1349bo3610b$5025b2o2164b2o1122b2o1368bobo3607b$5024bobo2165b2o1120bo32b3o4945b$5025bo2165bo1137b2o18bo4945b$7206b2o1120bobo17bo1343b3o3600b$7205bobo1122bo31b2o1327bo2bo3600b$7207bo1136bo18b2o1329bo3600b$3643bobo2039b4o1532bo1122b2o16bo1323bo7bo3600b$3643b2o2039bo3bo1532b2o1120bobo31b2o1292bo13b3o3bobo3601b$3644bo2043bo1531bobo1153bobo1291b3o11b2obo3607b$5684bo2bo2670b3o17bo1291bob2o10b3o3608b$7235b3o1122bo31bo1278b3o11b2o3608b$5561b2o1674bo1121bo32b2o1277b2o3622b$5560b4o1672bo1136b2o16bobo4901b$5560b2ob2o1685b2o1122b2o4919b$5562b2o1687b2o1120bo32b3o4886b$3735bo3514bo1137b2o18bo4886b$3734bo3530b2o1120bobo17bo4887b$3713bo20b3o1160bo2366bobo1122bo31b2o4872b$3712bo1184bobo2366bo1136bo18b2o4871b$3712b3o1182b2o155b2o2224bo1122b2o16bo4873b$4918bo134bobo2224b2o1120bobo31b2o4857b$4738bo179bobo133bo2224bobo1153bobo4857b$4737bo180b2o3497b3o17bo4857b$4737b3o280b2o2272b3o1122bo31bo868b2o3973b$5019bobo2274bo1121bo32b2o865b2ob2o3972b$5020bo2274bo1136b2o16bobo865b4o348b3o3622b$7309b2o1122b2o884b2o348bo2bo3622b$7310b2o1120bo32b3o1204bo3622b$4057bo381bo369bo2499bo1137b2o18bo1204bo3622b$4055bobo382b2o366bo912b2o1601b2o1120bobo17bo1202bobo22b3o3598b$4056b2o381b2o367b3o908b2ob2o1599bobo1122bo31b2o1211bo2bo3598b$5719b4o1602bo1136bo18b2o1213bo3598b$5720b2o1617bo1122b2o16bo1215bo3598b$7339b2o1120bobo31b2o1196bobo3599b$7338bobo1153bobo397b2o4399b$5595b4o2877b3o17bo397b2o4399b$4824bo769bo3bo1754b3o1122bo31bo1191b3o3590b$4824bobo771bo1756bo1121bo32b2o1190bo2bo3589b$4824b2o768bo2bo1756bo1136b2o16bobo1190bo3592b$7368b2o1122b2o1202bo5bo3592b$7369b2o1120bo32b3o1154bo13b3o5bobo3589b$7368bo1137b2o18bo1153b3o12bob2o3596b$5049b2o2332b2o1120bobo17bo1153b2obo13b3o3596b$5048bobo2331bobo1122bo31b2o1138b3o14b2o3597b$5049bo2334bo1136bo18b2o1138b2o3613b$7398bo1122b2o16bo4755b$5015b2o2381b2o1120bobo31b2o4739b$5014bobo2380bobo1153bobo4739b$3619bo1395bo3519b3o17bo4739b$3618bo3793b3o1122bo31bo4725b$3618b3o3793bo1121bo32b2o4724b$5753bo2bo1656bo1136b2o16bobo4724b$5757bo1669b2o1122b2o4742b$5753bo3bo1670b2o1120bo32b3o4709b$5754b4o1669bo1137b2o18bo4709b$7442b2o1120bobo17bo4710b$7441bobo1122bo31b2o4695b$7443bo1136bo18b2o4694b$3711bo1919b2o1824bo1122b2o16bo1081b3o3612b$3709b2o1918b2ob2o1823b2o1120bobo31b2o1065bo2bo3611b$3689bo20b2o1160bobo754b4o1823bobo1153bobo1065bo3614b$3687b2o1183b2o756b2o2962b3o17bo1065bo3614b$3688b2o1183bo2597b3o1122bo31bo1052bobo20b3o3588b$4893bobo2577bo1121bo32b2o1074bo2bo3587b$4714bo178b2o2577bo1136b2o16bobo1074bo3590b$4712b2o180bo149b2o2440b2o1122b2o1092bo3590b$4713b2o328bobo2441b2o1120bo32b3o1060bobo3587b$5044bo2441bo1137b2o18bo4650b$7501b2o1120bobo17bo744b2o3905b$5010b2o2488bobo1122bo31b2o728b4o321b3o3580b$5009bobo2490bo1136bo18b2o727b2ob2o319bo2bo3580b$4070bobo382bo329bo224bo2505bo1122b2o16bo731b2o323bo3580b$4071b2o380bobo327b2o2731b2o1120bobo31b2o1032bo7bo3580b$4071bo382b2o328b2o2729bobo1153bobo1017bo13b3o3bobo3581b$5789b2o2862b3o17bo1016b3o11b2obo3587b$5788b4o1738b3o1122bo31bo1002bob2o10b3o3588b$5788b2ob2o1739bo1121bo32b2o1002b3o11b2o3588b$5790b2o1739bo1136b2o16bobo1002b2o3602b$7545b2o1122b2o4624b$4799bobo2744b2o1120bo32b3o4591b$4799b2o862bo2bo1878bo1137b2o18bo180b2o4409b$4800bo866bo1892b2o1120bobo17bo181b2o4409b$5663bo3bo1891bobo1122bo31b2o4577b$5664b4o1893bo1136bo18b2o4576b$7575bo1122b2o16bo4578b$7575b2o1120bobo31b2o4562b$7574bobo1153bobo4562b$8712b3o17bo4562b$5039b2o2548b3o1122bo31bo4548b$5038bobo2550bo1121bo32b2o4547b$5039bo2550bo1136b2o16bobo4547b$3595bo4008b2o1122b2o960b3o3602b$3593b2o1410b2o2598b2o1120bo32b3o926bo2bo3602b$3594b2o1408bobo2597bo1137b2o18bo929bo3602b$5005bo2613b2o1120bobo17bo930bo3602b$7618bobo1122bo31b2o912bobo22b3o3578b$7620bo1136bo18b2o935bo2bo3578b$7634bo1122b2o16bo940bo3578b$5823b4o1807b2o1120bobo31b2o924bo3578b$5822bo3bo1806bobo1153bobo921bobo3579b$5826bo2944b3o17bo4503b$3685bo2136bo2bo1822b3o1122bo31bo4489b$3685bobo1160bo2801bo1121bo32b2o915b3o3570b$3663bo21b2o1160bo851b2o1948bo1136b2o16bobo915bo2bo3569b$3663bobo1181b3o848b4o1961b2o1122b2o933bo3572b$3663b2o1204bo828b2ob2o1961b2o1120bo32b3o894bo5bo3572b$4868bo831b2o1961bo1137b2o18bo879bo13b3o5bobo3569b$4688bo179b3o2807b2o1120bobo17bo879b3o12bob2o3576b$4688bobo2986bobo1122bo31b2o863b2obo13b3o3576b$4688b2o2989bo1136bo18b2o862b3o14b2o3577b$7693bo1122b2o16bo865b2o3593b$5034b2o2657b2o1120bobo31b2o4444b$5033bobo2656bobo1153bobo4444b$4086bo947bo3795b3o17bo4444b$4087bo380bobo288bo2947b3o1122bo31bo4430b$4085b3o381b2o288bobo238b2o2707bo1121bo32b2o592b2o3835b$4469bo289b2o238bobo2706bo1136b2o16bobo590b2ob2o3834b$5000bo2721b2o1122b2o608b4o3835b$7723b2o1120bo611b2o3836b$7722bo1137b2o4433b$7737b2o1120bobo4433b$4775bo1083b2o1875bobo1122bo31b2o4400b$4774bo1082b2ob2o1876bo1155b2o4399b$4774b3o1080b4o1891bo1114bo25bo4401b$5858b2o1892b2o1113b2o831b3o3592b$7751bobo1946bo2bo3591b$8867b2o20b3o808bo3594b$5733b4o2029b3o1097b2obo21bo31bo776bo3594b$5732bo3bo2031bo1097bo2bo20bo32b2o776bobo20b3o3568b$5736bo2030bo1098b3o53bobo799bo2bo3567b$5732bo2bo2045b2o1084b2o855bo3570b$7782b2o1940bo3570b$7781bo1137b2o804bobo3567b$7796b2o1120bobo4374b$3569bo1459b2o2764bobo1122bo31b2o4341b$3569bobo1456bobo2766bo1155b2o777b3o3560b$3569b2o1458bo2781bo1140bo778bo2bo3560b$7811b2o1921bo3560b$4995b2o2813bobo1913bo7bo3560b$4994bobo3951b3o760bo13b3o3bobo3561b$4995bo2829b3o1122bo31bo727b3o11b2obo3567b$7827bo1121bo32b2o726bob2o10b3o3568b$7826bo1154bobo727b3o11b2o3568b$5891bo2bo1945b2o1869b2o3582b$3660bobo2232bo1945b2o5452b$3660b2o1162bo1066bo3bo1944bo1137b2o4315b$3638bobo20bo1160b2o1068b4o1959b2o1120bobo4315b$3638b2o1183b2o3029bobo1122bo31b2o4282b$3639bo1205bo3010bo1155b2o4281b$4843b2o3025bo1140bo4283b$4663bobo178b2o923b2o2099b2o5423b$4663b2o1102b2ob2o2097bobo5423b$4664bo1102b4o3236b3o4285b$5768b2o2114b3o1122bo31bo4253b$7886bo1121bo32b2o4252b$7885bo1154bobo4252b$4100bo383bo3414b2o5394b$4101b2o382bo248bobo287b2o2874b2o1808b3o3582b$4100b2o381b3o248b2o287bobo2873bo1137b2o670bo2bo3582b$4735bo288bo2889b2o1120bobo673bo3582b$7913bobo1122bo31b2o454b2o184bo3582b$4990b2o2923bo1155b2o452b4o180bobo22b3o3558b$4989bobo2937bo1140bo454b2ob2o203bo2bo3558b$4990bo2938b2o1596b2o207bo3558b$4751bo3176bobo1805bo3558b$4749b2o4315b3o664bobo3559b$4750b2o1175b2o2014b3o1122bo31bo4194b$5926b4o2015bo1121bo32b2o4193b$5926b2ob2o2013bo1154bobo640b3o3550b$5928b2o2028b2o897b2o883bo2bo3549b$7959b2o896b2o883bo3552b$7958bo1137b2o638bo5bo3552b$5801bo2bo2168b2o1120bobo623bo13b3o5bobo3549b$5805bo2166bobo884b2o236bo31b2o589b3o12bob2o3556b$5801bo3bo2168bo883bo2bo268b2o587b2obo13b3o3556b$5802b4o2182bo870b2o268bo589b3o14b2o3557b$7988b2o1730b2o3573b$3544bobo4440bobo5305b$3544b2o5579b3o4167b$3545bo4456b3o1122bo31bo4135b$5019b2o2983bo1121bo32b2o4134b$5018bobo2982bo1154bobo4134b$5019bo2997b2o5276b$8018b2o5275b$4985b2o3030bo1137b2o4138b$4984bobo3045b2o1120bobo4138b$3636bo1348bo3045bobo1122bo31b2o4105b$3635bo4397bo1155b2o4104b$3614bo20b3o1160bo3248bo1140bo4106b$3613bo1184bobo3246b2o5246b$3613b3o1182b2o1161b4o2081bobo1671b3o3572b$4819bo1140bo3bo3219b3o533bo2bo3571b$4639bo179bobo1142bo2096b3o1122bo31bo501bo3574b$4638bo180b2o1139bo2bo2099bo1121bo32b2o500bo3574b$4638b3o3421bo1154bobo501bobo20b3o3548b$5837b2o2237b2o1666bo2bo3547b$5836b4o2237b2o1665bo3550b$5836b2ob2o2235bo1137b2o528bo3550b$5838b2o2251b2o1120bobo529bobo3547b$4116bo381bo211bo3379bobo1122bo31b2o4046b$3528bo585bobo382b2o208bo3382bo1155b2o4045b$3527b3o585b2o381b2o209b3o3394bo1140bo504b3o3540b$3526bo2b2o4575b2o1643bo2bo3540b$3526bo3bo1483b2o3089bobo1646bo3540b$3528bobo1482bobo4227b3o500bo7bo3540b$5014bo3105b3o1122bo31bo453bo13b3o3bobo3541b$3525b2ob2o4592bo1121bo32b2o451b3o11b2obo3547b$3527bo1197bo254b2o3139bo1154bobo317b2o132bob2o10b3o3548b$4725bobo251bobo3153b2o1457b2ob2o132b3o11b2o3548b$4725b2o253bo3155b2o1456b4o133b2o3562b$8135bo1137b2o320b2o3698b$3527b4o4619b2o1120bobo4020b$3527bobobo4617bobo1122bo31b2o3987b$3530bo2466b2o2152bo1155b2o3986b$5995b2ob2o2165bo1140bo3988b$5995b4o2166b2o680b2o4446b$5996b2o2166bobo680b2o4446b$3530bo5771b3o3990b$3531b2o4646b3o1122bo31bo3958b$3530b2o2339b4o2306bo667b2o452bo32b2o3957b$5870bo3bo2305bo667bo2bo483bobo3957b$5874bo2319b2o653b2o4444b$5870bo2bo2321b2o5098b$8194bo1137b2o396b3o3562b$8209b2o1120bobo395bo2bo3562b$8208bobo1122bo31b2o365bo3562b$5009b2o3199bo1155b2o364bo3562b$5008bobo3213bo1140bo363bobo22b3o3538b$5009bo3214b2o1527bo2bo3538b$3513bo98bo4610bobo1530bo3538b$3513bobo94b2o1363b2o4384b3o392bo3538b$3513b2o75bo20b2o1160bobo198bobo3261b3o1122bo31bo357bobo3539b$3588b2o1183b2o200bo3264bo1121bo32b2o3898b$3589b2o1183bo3464bo1154bobo3898b$4794bobo3456b2o1507b3o3530b$4615bo178b2o1233bo2bo2221b2o1506bo2bo3529b$4613b2o180bo1237bo2219bo1137b2o369bo3532b$4614b2o1413bo3bo2234b2o1120bobo363bo5bo3532b$6030b4o2233bobo1122bo31b2o315bo13b3o5bobo3529b$8269bo1155b2o313b3o12bob2o3536b$8283bo1140bo314b2obo13b3o3536b$8283b2o1454b3o14b2o3537b$4129bobo382bo171bo1220b2o2373bobo1455b2o3553b$4130b2o380bobo169b2o1219b2ob2o3510b3o3872b$4130bo382b2o170b2o1218b4o2388b3o1122bo31bo3840b$5906b2o2391bo1121bo32b2o3839b$8298bo1154bobo3839b$8312b2o4981b$8313b2o4980b$5004b2o3306bo1137b2o3843b$4700bobo300bobo3321b2o1120bobo3843b$4700b2o302bo3321bobo1122bo31b2o3810b$4701bo3626bo1155b2o178b2o3629b$4970b2o3370bo1140bo179b4o3628b$4969bobo3370b2o1319b2ob2o3627b$4970bo3370bobo1321b2o3628b$9479b3o258b3o3552b$8356b3o1122bo31bo226bo2bo3551b$6065b2o2291bo1121bo32b2o225bo3554b$6064b4o2289bo1154bobo225bo3554b$3546bo2517b2ob2o2302b2o1368bobo20b3o3528b$3544bobo2519b2o2304b2o463b2o925bo2bo3527b$3545b2o4824bo465b2o670b2o253bo3530b$8386b2o1120bobo253bo3530b$5939bo2bo2442bobo1122bo31b2o221bobo3527b$5943bo2443bo451b2o702b2o3750b$5939bo3bo2457bo436bo2bo700bo3752b$5940b4o2457b2o436b2o931b3o3520b$8400bobo1368bo2bo3520b$9538b3o233bo3520b$8415b3o1122bo31bo193bo7bo3520b$8417bo1121bo32b2o177bo13b3o3bobo3521b$3488bobo95bo1412b2o3415bo1154bobo176b3o11b2obo3527b$3488b2o96bobo1160bo248bobo3429b2o1318bob2o10b3o3528b$3489bo72bo23b2o1160bo250bo3431b2o1318b3o11b2o3528b$3561bob2o1183b3o3679bo1137b2o181b2o3542b$3563b2o1205bo194b2o3478b2o1120bobo3725b$3562b3o1204bo194bobo3477bobo1122bo31b2o3692b$4589bo179b3o193bo3480bo1155b2o3691b$3566b2o1021bobo3868bo1140bo3693b$3565b3o1021b2o3869b2o4833b$8459bobo4833b$6099b4o3494b3o3695b$3558bo2539bo3bo2371b3o1122bo31bo3663b$3557bo587bo1956bo2373bo1121bo32b2o3662b$3557b3o586bo380bobo130bo1437bo2bo2373bo1154bobo3662b$4144b3o381b2o130bobo3826b2o4804b$3474b3o1051bo131b2o1313b2o2513b2o4803b$5974b4o2511bo1137b2o3666b$3474bobo95bo2401b2ob2o2525b2o1120bobo121b3o3542b$3477bo92b2ob2o2401b2o2525bobo1122bo31b2o87bo2bo3542b$3473bo3bo92b2ob2o4930bo1155b2o89bo3542b$3571bob3o1100bo3842bo1140bo91bo3542b$3473bo2b2o92b3o1102bo3843b2o1228bobo22b3o3518b$4675b3o3840bobo1252bo2bo3518b$4994b2o4660b3o117bo3518b$3474bo1518bobo3537b3o1122bo31bo85bo3518b$3474bo82bo13b2o1421bo3540bo1121bo32b2o81bobo3519b$3473bo82bobo12b2o4961bo1154bobo3603b$3474bob2o78bobo1401b2o3586b2o1184b2o3559b$3478bo78bo12bo1388bobo3587b2o1181b2ob2o45b3o3510b$3471bo4bo92bob2ob2o1384bo3587bo1137b2o44b4o46bo2bo3509b$3568b2o4b2o4987b2o1120bobo45b2o47bo3512b$3472bobo93b2ob2o4989bobo1122bo31b2o55bo5bo3512b$3472b3o95bo4993bo1155b2o39bo13b3o5bobo3509b$6135b2o2441bo1140bo40b3o12bob2o3516b$3465bo2667b2ob2o2440b2o1179b2obo13b3o3516b$3464b3o2666b4o2440bobo247b2o930b3o14b2o3517b$3463b2o2bo2666b2o2691b2o886b3o42b2o3533b$3463bo3bo5124b3o1122bo31bo3545b$3463bob2o5127bo1121bo32b2o3544b$3463b2o2544b4o2580bo235b2o917bobo3544b$3480bo2527bo3bo2594b2o219bo2bo4463b$3481b2o2529bo2595b2o219b2o4464b$3480b2o2526bo2bo2595bo1137b2o3548b$8622b2o1120bobo3548b$3464b2o2bo1256bo3895bobo1122bo3548b$3464bobobo1254b2o3898bo4671b$3467bo1256b2o263b2o3646bo4657b$4746bo241bobo3646b2o4656b$3552bo1191b2o243bo3646bobo4656b$3551bobo1010bobo178b2o8548b$3466bobo82bobo1010b2o389b2o3694b3o4641b$3467b2o83bo1012bo388bobo3696bo4641b$3467bo88bo1398bo3696bo4642b$3554b2o5110b2o4627b$3534bo20b2o5110b2o1115b3o3508b$3532b2o625bo383bo1623bo2bo2495bo1117bo2bo3507b$3533b2o625b2o382bo90bobo1533bo2509b2o1101bo3510b$4159b2o381b3o90b2o1530bo3bo2508bobo1101bo3510b$4636bo1531b4o2510bo1102bobo3507b$8696bo4598b$8696b2o4597b$3451bo5243bobo1094b3o3500b$3450bo2594b2o3744bo2bo3500b$3450b3o1199bo1390b2ob2o2662b3o1081bo3500b$4650b2o1391b4o2665bo1073bo7bo3500b$4651b2o1391b2o2665bo1059bo13b3o3bobo3501b$8725b2o1043b3o11b2obo3507b$8726b2o1042bob2o10b3o3508b$8725bo1045b3o11b2o3508b$4984b2o3754b2o1029b2o3522b$4983bobo3753bobo4553b$3547bo1436bo3756bo4553b$3546bobo5206bo4539b$3546bobo1401b2o3803b2o4538b$3547bo1401bobo3802bobo4538b$4950bo8344b$8769b3o4523b$8771bo4523b$6203b2o2565bo974b2o3548b$6202b4o2578b2o959b2o3548b$6202b2ob2o2578b2o4508b$6204b2o2578bo32b2o4476b$8799b2o16b2o4476b$3496bo5301bobo4494b$3494bobo2580bo2bo2719bo4494b$3495b2o2584bo2732bo4b2o4474b$6077bo3bo2732b2o2bo2bo4473b$4699bo1378b4o2731bobo3b2o973b3o3498b$4699bobo5091bo2bo3498b$4699b2o4127b3o965bo3498b$4720bo4109bo965bo3498b$4540bo179bobo4106bo963bobo3499b$3482bo1056bo180b2o257b2o8314b$3483bo1055b3o436bobo8314b$3481b3o26b2o30bo1436bo4822b3o3490b$3510bob2o16bo10bobo5314b2o942bo2bo3489b$3512b2o16bobo8bobo1401b2o3910bobo942bo3492b$3512b2o16b2o10bo1401bobo3912bo936bo5bo3492b$3509b2o664bo381bo53bo333bo4835bo13b3o5bobo3489b$4173bobo382b2o50bo5169b3o12bob2o3496b$3512b2o660b2o381b2o51b3o5166b2obo13b3o3496b$9779b3o14b2o3497b$6237b4o2646b3o890b2o3513b$6236bo3bo2648bo4405b$3427bo2812bo2647bo4406b$3425b2o91b3o2715bo2bo7055b$3426b2o74bo18bo1104bo8668b$3501bo16bo2bo1104bobo1484b2o7180b$3501b3o15b2o1105b2o1484b4o2801b2o4376b$3519b2o2591b2ob2o2799bobo4376b$3518bo2bo2592b2o2802bo4376b$3518bo9776b$3520b2o9773b$13295b$13295b$4974b2o3970b3o4346b$4973bobo3972bo4346b$3504bo1469bo3972bo4347b$3503bobo9789b$3503bobo1434b2o8353b$3504bo29b2o1403bobo4862b3o3488b$3534bobo1403bo4035b2o826bo2bo3487b$3536bo5438bobo826bo3490b$3534bobo5440bo826bo3490b$3534b2o6199b2o68bobo3487b$3535b2o2736b2o3460b2o3558b$3536b2o2733b2ob2o7019b$3536b2o2733b4o2532b2o1003b3o3480b$6272b2o2533b2o196b3o803bo2bo3480b$9007bo806bo3480b$4674bobo4329bo799bo7bo3480b$4674b2o1471b4o3640bo13b3o3bobo3481b$3526bo1148bo1470bo3bo3639b3o11b2obo3487b$3526bobo1166bobo1452bo3639bob2o10b3o3488b$3526b2o988bo178b2o1449bo2bo2885b2o754b3o11b2o3488b$3496bo1017b2o180bo4337bobo754b2o3502b$3497b2o1016b2o4519bo4258b$3496b2o9797b$4969b2o8324b$4968bobo8324b$3499bo1469bo8325b$3498bobo687bobo382bo13bo4476b3o4228b$3498bobo688b2o380bobo11b2o348b2o4129bo4228b$3499bo689bo382b2o12b2o346bobo4128bo4229b$4582b3o350bo8359b$4582bo2bo8709b$4581bo3bo8709b$3401bo98bo1080b3o2bo1718bo2bo2785b2o4199b$3401bobo94b2o1082b4o1723bo2783bobo4199b$3401b2o75bo20b2o1100bobo1701bo3bo2785bo4199b$3476b2o1123b2o1703b4o6985b$3477b2o1100bobo20bo8692b$4579b2o8714b$4580bo5233b3o3478b$6183b2o2938b3o687bo2bo3478b$6181b2ob2o2939bo690bo3478b$6181b4o2939bo691bo3478b$3467bobo2712b2o3629bobo3479b$3465bo4bo9824b$3465bo4bo9824b$3469b2o5682b2o667b3o3470b$4964b2o4186bobo667bo2bo3469b$3465b2o2b2o1492bobo4188bo667bo3472b$3465b2o2b2o76bo1416bo4851bo5bo3472b$3466bob3o74bobo6253bo13b3o5bobo3469b$3469bo22b2o52b2o1382b2o4868b3o12bob2o3476b$3468bo23b2o1435bobo4867b2obo13b3o3476b$4930bo4251b3o614b3o14b2o3477b$9184bo615b2o3493b$9183bo4111b$6341b2o3382b2o3568b$6340b4o3381b2o3568b$4650bo1689b2ob2o6950b$4649bo1692b2o2453b2o413b2o4081b$4649b3o4145b2o412bobo4081b$3501bobo1167bo4541bo4081b$3501b2o1167bo1544bo2bo7076b$3502bo987bo179b3o1546bo7075b$3480bo1009bobo1722bo3bo7075b$3479b3o1008b2o1724b4o7075b$3478b2o2bo5758b3o4051b$3478bo5764bo4051b$3478b3o5761bo4052b$3478b2obo722bo9090b$3479bob2o722bo753b2o8334b$3479b2o722b3o752bobo8334b$3480bob2o1475bo4311b2o551b3o3468b$3479b2ob2o5786bobo551bo2bo3467b$3479b2ob2o3b2o1436b2o4345bo551bo3470b$3481bo5b2o1435bobo4897bo3470b$3376bobo96bobo1447bo4899bobo3467b$3376b2o98b2o1099bo8717b$3377bo98bo1099bo8718b$4555bo20b3o4721b3o529b3o3460b$4554bo1820b4o2923bo528bo2bo3460b$4554b3o1817bo3bo2922bo532bo3460b$6378bo3447bo7bo3460b$6374bo2bo3433bo13b3o3bobo3461b$3365bobo6442b3o11b2obo3467b$3365bo2bo99bo2782b2o3077b2o478bob2o10b3o3468b$3364bo3b2o97bo2782b4o3075bobo479b3o11b2o3468b$3364bo81bo20b3o2780b2ob2o3076bo479b2o3482b$3445bo2806b2o7041b$3364bo2b3o75b3o9847b$3364b2o9929b$3366b3o9926b$3366b3o191bobo5796b3o3933b$3561b2o1391b2o4405bo3933b$3561bo1391bobo4404bo3934b$4954bo8340b$13295b$4920b2o8373b$4919bobo4467b2o3904b$4920bo4467bobo3904b$9390bo3904b$4626bo8668b$4624b2o5089b2o3578b$4625b2o1784b2o3302b2o3578b$4647bo1761b2ob2o6881b$4645b2o1762b4o2374b2o629b3o413b3o3458b$4465bobo178b2o1762b2o2375b2o631bo412bo2bo3458b$4465b2o4952bo416bo3458b$4466bo5369bo3458b$6285b4o3544bobo3459b$6284bo3bo7006b$6288bo3159b2o3845b$4218bo2065bo2bo3159bobo392b3o3450b$4219b2o5228bo392bo2bo3449b$4218b2o5622bo3452b$9836bo5bo3452b$3374bo1574b2o4870bo13b3o5bobo3449b$3375b2o1571bobo4869b3o12bob2o3456b$3374b2o1573bo4527b3o339b2obo13b3o3456b$9479bo339b3o14b2o3457b$4553bo361b2o4561bo341b2o3473b$4551b2o361bobo8378b$4531bo20b2o361bo8379b$4529b2o8764b$4530b2o4975b2o3786b$6443bo2bo3059bobo3786b$6447bo3060bo3786b$6443bo3bo6847b$3345bo98bo2999b4o6847b$3345bobo94b2o9851b$3345b2o75bo20b2o9850b$3420b2o6114b3o3756b$3421b2o2898b2o3215bo3756b$6319b2ob2o3213bo3757b$3576bo2742b4o6972b$3577bo2742b2o6973b$3575b3o9717b$9566b2o3727b$9565bobo276b3o3448b$4944b2o4621bo276bo2bo3447b$4943bobo4898bo3450b$4944bo4899bo3450b$9845bobo3447b$4910b2o8383b$4600bo308bobo4683b3o3697b$4600bobo307bo4686bo254b3o3440b$4600b2o4994bo254bo2bo3440b$4621bo5232bo3440b$4441bo179bobo1855b2o3224b2o139bo7bo3440b$4440bo180b2o1855b4o3223b2o124bo13b3o3bobo3441b$4440b3o2035b2ob2o3142b2o203b3o11b2obo3447b$6480b2o2295b2o845bobo203bob2o10b3o3448b$8777b2o847bo204b3o11b2o3448b$9831b2o3462b$6353bo2bo6938b$4234bo2122bo6937b$4232bobo2118bo3bo6937b$4233b2o2119b4o3296b3o3638b$9656bo3638b$3390bo6264bo3639b$3388bobo9904b$3389b2o11bo9892b$3401b3o1535b2o8354b$3400b2o2bo1122bo410bobo4743b2o3609b$3400bo1126bobo409bo4743bobo3609b$3400b3o1102bo21b2o5156bo3609b$3400b2obo1101bobo397b2o8388b$3401bob2o1100b2o397bobo8388b$3401b2o1502bo8389b$3402bob2o9889b$3401b2ob2o9889b$3320bobo78b2ob2o12bo6435b3o3438b$3320b2o81bo14bobo3092b4o3336bo2bo3438b$3321bo96b2o3092bo3bo3339bo3438b$6516bo3339bo3438b$3316b3o3193bo2bo3337bobo3439b$3315bo2bo9976b$3315b2o2bo93b2o175bo2798b2o6904b$3318b2o93bob2o174b2o2795b4o3470b3o3430b$3415b2o173b2o2796b2ob2o3469bo2bo3429b$3315bo97b2o2975b2o3470bo3432b$3313b2o96b2o6443bo5bo3432b$3314b2o74bo6450bo13b3o5bobo3429b$3389bo21bobo6426b3o12bob2o3436b$3389b3o20bo6426b2obo13b3o3436b$4934b2o4903b3o14b2o3437b$4933bobo4904b2o3453b$4575bobo356bo8360b$4575b2o8718b$3303bo1272bo323b2o8393b$3303b2o90bo1200bobo300bobo8393b$3302bo2bo88bobo1020bo178b2o302bo8394b$3303bobo88bobo1018b2o180bo8697b$3302bo2bo89bo1020b2o8877b$3302bo2bo9989b$3302bobo3244b2o3142b2o3600b$3303b3o3241b2ob2o3141b2o3600b$6547b4o2216b2o4526b$4247bobo2298b2o2217b2o4526b$4248b2o9045b$4248bo9046b$6423b4o6868b$6422bo3bo6868b$6426bo6868b$6422bo2bo3438b3o3428b$9864bo2bo3427b$4502bobo5359bo3430b$4502b2o5360bo3430b$4480bobo20bo425b2o4934bobo3427b$4480b2o446bobo8364b$4481bo447bo8365b$3324bo6547b3o3420b$3325b2o1568b2o4974bo2bo3420b$3324b2o64bo1503bobo4977bo3420b$3389bobo1503bo4970bo7bo3420b$3389bobo6459bo13b3o3bobo3421b$3390bo6459b3o11b2obo3427b$6581bo2bo3265bob2o10b3o3428b$6585bo3265b3o11b2o3428b$6581bo3bo3265b2o3442b$3606bo2975b4o6709b$3310bobo291bobo9688b$3311b2o292b2o9688b$3311bo76bo9906b$3386b2o3071b2o6834b$3366bo20b2o3068b2ob2o6833b$3364b2o3091b4o6834b$3365b2o3091b2o6835b$13295b$4551bo8743b$4550bo8744b$4550b3o371b2o8369b$3283bo1288bo350bobo8369b$3282bo1288bo352bo8370b$3282b3o1106bo179b3o8721b$4391bobo496b2o8403b$3385bo1005b2o496bobo8403b$3384bobo1503bo4983b3o3418b$3384bobo6486bo2bo3418b$3385bo6490bo3418b$4263bo2353b2o3257bo3418b$3272b2o990bo2351b4o3063b2o188bobo3419b$3271b3o988b3o2351b2ob2o3062b2o3610b$3271bo2bo3343b2o2137b2o4536b$3271b2ob2o5481b2o1123b3o3410b$3271b2ob2o6606bo2bo3409b$3270b2ob2o3216bo2bo3387bo3412b$3271bo77bo3145bo3380bo5bo3412b$3272b3o73b3o1127bo2012bo3bo3365bo13b3o5bobo3409b$3273bo73b2o2bo1125bo2014b4o3364b3o12bob2o3416b$3347b2ob2o1104bo20b3o5379b2obo13b3o3416b$3350b3o1102bo5403b3o14b2o3417b$3348bob2o1103b3o5402b2o3433b$3347bo2bo9944b$3340bo9bo1568b2o8374b$3338bobo6bobo1568bobo8374b$3339b2o7bo1570bo8375b$13295b$3349b3o1533b2o8408b$3348bob2o28bo1503bobo8408b$3349b2obo26bobo1503bo8409b$3379bobo9913b$3380bo9914b$3326bo292bobo9673b$3327bo292b2o3029b4o6640b$3325b3o48b3o241bo3029bo3bo6640b$3351bobo6bo15bo2bo3274bo6640b$3352b2o5bob2o13bo2bo3270bo2bo6641b$3352bo8b2o12b4o9916b$3360b3o12b2o3150b2o6766b$3374bo3151b4o3354b3o3408b$3364b2o9bo3150b2ob2o3353bo2bo3407b$3363b3o9bo1151bo2000b2o3354bo3410b$3281bo1243b2o5357bo3410b$3279bobo1244b2o5357bobo3407b$3280b2o74bo1191bo8746b$3355bo1190b2o8747b$3334bo20b3o1008bobo178b2o365b2o4976b3o3400b$3333bo1032b2o545bobo4975bo2bo3400b$3333b3o1031bo546bo4979bo3400b$9886bo7bo3400b$4880b2o4989bo13b3o3bobo3401b$3342bo1536bobo4988b3o11b2obo3407b$3341bobo933bo602bo4989bob2o10b3o3408b$3251b2o88bobo934b2o5591b3o11b2o3408b$3250bo2bo88bo934b2o5592b2o3422b$3250bo2bo10041b$3250bo3436b2o2984b2o3620b$3253bo3431b2ob2o2983b2o3620b$3251b3o3431b4o2058b2o4546b$3253b2o3431b2o2059b2o4546b$3254bo1199bo8840b$4452b2o8841b$4432bo20b2o2106b4o6730b$3246bo1183b2o2128bo3bo6730b$3244b2o1185b2o2131bo6730b$3245b2o3313bo2bo6731b$13295b$13295b$13295b$3240b3o140bobo1523b2o8384b$3240bo2bo140b2o1522bobo8384b$3240bo2bo140bo1524bo8385b$3239b4o6651b3o3398b$3239b2o1634b2o5016bo2bo3398b$3238bo396bo1238bobo5019bo3398b$3239bo396bo1238bo5020bo3398b$3239bo95b2o297b3o6256bobo3399b$3335b2o9958b$6719bo2bo6572b$6723bo3178b3o3390b$3350bo3368bo3bo3178bo2bo3389b$3349bo3370b4o3178bo3392b$3349b3o6544bo5bo3392b$9881bo13b3o5bobo3389b$4501bo5378b3o12bob2o3396b$3294bobo1204bobo2093b2o3280b2obo13b3o3396b$3295b2o1204b2o2092b2ob2o3279b3o14b2o3397b$3295bo36bo1189bo2072b4o3281b2o3413b$3309b2o19b2o1010bo179bobo2071b2o6697b$3307bo23b2o1008bo180b2o8771b$3307b3o1031b3o8951b$3309b2o9984b$4904b2o8389b$4903bobo8389b$3261bo49b2o1591bo8390b$3262b2o47b2o980bo9001b$3261b2o1028bobo576b2o8423b$4292b2o575bobo8423b$4870bo8424b$3302bobo25b2o9963b$3302b2o26b2o9963b$3303bo3451b2o6538b$3317b3o3434b4o2905b2o3630b$3318bo1109bo2325b2ob2o2904b2o3630b$3247bobo68b3o1107bobo2325b2o1979b2o4556b$3248b2o1156bo21b2o4307b2o1165b3o3388b$3248bo1157bobo5495bo2bo3387b$3291bobo1112b2o2221bo2bo3271bo3390b$3291bo2bo3338bo3270bo3390b$3290bo3b2o3333bo3bo3271bobo3387b$3290bo3339b4o6661b$3399bo9895b$3290bo2b3o20bobo81bo6511b3o3380b$3290b2o24bobo79b3o6510bo2bo3380b$3292b3o6619bo3380b$3214bo77b3o24bo1579b2o5005bo7bo3380b$3213bo1684bobo4990bo13b3o3bobo3381b$3213b3o433bo1249bo4990b3o11b2obo3387b$3650b2o6238bob2o10b3o3388b$3315bobo331b2o1214b2o5024b3o11b2o3388b$3316bo1547bobo5024b2o3402b$4865bo8429b$13295b$3282b3o10010b$3283bo10011b$3283b3o3503b4o6502b$6788bo3bo6502b$3310bo1165bobo2313bo6502b$3311bo1164b2o2310bo2bo6503b$3305bo3b3o1165bo8817b$3304b3o1190bobo2165b2o6628b$3200bo102bo2b2o1010bo178b2o2165b4o6627b$3199b3o101b4o1009b2o180bo2165b2ob2o6626b$3199b3o79bobo22bobo1008b2o2347b2o6627b$3281bobo22bo2bo9985b$3199b4o103b3o9986b$3198b5o81bo20bobo9987b$3198b2obo76bo26bobo9987b$3275bo2b2o25b3o998bobo585b2o5018b3o3378b$3276bo2bo20bo1006b2o584bobo5017bo2bo3378b$3199b2o79bobo18b2o1004bo586bo5021bo3378b$3198bo82bo18b2o6614bo3378b$4860b2o5051bobo3379b$3197bobo2bo1656bobo8433b$3197bob3obo1656bo8434b$3196b3ob2obo6718b3o3370b$3197bobo63bo31b2o1106bobo5516bo2bo3369b$3197b3o64bo30bob2o1104b2o5517bo3372b$3198bo63b3o32b2o1082bobo20bo2420b2o2826b2o261bo5bo3372b$3288bobo6b2o1082b2o2440b2ob2o2825b2o246bo13b3o5bobo3369b$3289b2o3b2o1086bo2440b4o1900b2o1171b3o12bob2o3376b$3289bo3534b2o1901b2o1170b2obo13b3o3376b$3297b2o6600b3o14b2o3377b$9900b2o3393b$3413bo3285b4o6592b$3414b2o3282bo3bo6592b$3206bo206b2o3287bo6592b$3204bobo3491bo2bo6593b$3205b2o80bo10007b$3286bo10008b$3186b3o76bo20b3o376bo9629b$3186bo2bo74bo398bobo1223b2o8404b$3186bo2bo74b3o9bo387b2o1222bobo8404b$3275bobo1611bo8405b$3189b2o84bobo10017b$3188bo2bo84bo1578b2o8438b$3188bo2bo1662bobo8438b$3188bo1666bo8439b$13295b$4452bo8842b$3324bo1126bo2405bo2bo6434b$3325b2o1124b3o2407bo3062b3o3368b$3324b2o1147bo2383bo3bo3062bo2bo3367b$4472bo2385b4o3062bo3370b$4292bo179b3o5449bo3370b$4292bobo5630bobo3367b$4292b2o9001b$3177bo3557b2o6558b$3175b2o3556b2ob2o3194b3o3360b$3176b2o3555b4o3194bo2bo3360b$4322bo2411b2o3198bo3360b$4323bo5602bo7bo3360b$4321b3o5587bo13b3o3bobo3361b$3171b3o6736b3o11b2obo3367b$3171bo2bo1709b2o5024bob2o10b3o3368b$3171bo2bo1708bobo5025b3o11b2o3368b$3170b4o1710bo5026b2o3382b$3170b2o97b2o10024b$3169bo99b2o1108bo470b2o8443b$3170bo1207bo470bobo8443b$3170bo1186bo20b3o469bo8444b$4356bo8938b$4356b3o8936b$6893b2o6400b$6892b4o2747b2o3650b$6892b2ob2o2746b2o3650b$6894b2o1821b2o4576b$3243b3o183bo5287b2o4576b$3242bo2bo181bobo9865b$3219bobo20bo4bo180b2o3337bo2bo6524b$3220b2o25bo3523bo6523b$3220bo26b2o14bo3503bo3bo6523b$3244bob2o13b2o3505b4o6523b$3245bo16b2o414bobo9614b$3679b2o6253b3o3358b$3679bo6253bo2bo3358b$9936bo3358b$4879b2o5055bo3358b$3200bo1677bobo5052bobo3359b$3201b2o49bobo1624bo8415b$3200b2o48bo4bo8b2o10029b$3250bo4bo8b2o1579b2o5095b3o3350b$3254b2o1172bo415bobo5095bo2bo3349b$3233bobo104bo1085b2o417bo5096bo3352b$3233b2o15b2o2b2o82bobo1086b2o5507bo5bo3352b$3234bo15b2o2b2o83b2o1108bo5471bo13b3o5bobo3349b$3251bob3o1191b2o5471b3o12bob2o3356b$3254bo1012bobo178b2o2477b4o2988b2obo13b3o3356b$3178bobo72bo1013b2o2657bo3bo2988b3o14b2o3357b$3179b2o1087bo2661bo2989b2o3373b$3179bo3746bo2bo6365b$13295b$6803b2o6490b$4336bo2465b4o6489b$4337b2o2463b2ob2o6488b$4336b2o2466b2o6489b$13295b$3146b2o10147b$3146bobo10146b$3148bo10146b$3146bobo70bo1654b2o8419b$3146b2o70bobo1134bo517bobo8419b$3147b2o68b2ob2o1131b2o519bo8420b$3148b2o68bo2bo37b2o1072bo20b2o8939b$3148b2o68bo3bo36b2o1070b2o507b2o8453b$3218bo1113b2o505bobo8453b$4840bo8454b$9944b3o3348b$3218b2o6724bo2bo3347b$3138bo80bo6724bo3350b$3138bobo301bobo3518b2o2668b2o309bo3350b$3138b2o76bo18bo207b2o3516b2ob2o2667b2o310bobo3347b$3216bob2ob2o13bo206bo3517b4o1742b2o4586b$3215b2ob2ob2o11b3o3725b2o1743b2o4586b$3216bobo6733b3o3340b$3217bo476bo6256bo2bo3340b$3695bo3141b4o3113bo3340b$3693b3o3140bo3bo3105bo7bo3340b$6840bo3090bo13b3o3bobo3341b$6836bo2bo3090b3o11b2obo3347b$9930bob2o10b3o3348b$3216bo6714b3o11b2o3348b$3214bobo6714b2o3362b$3215b2o6bo5bo2bo1636b2o8424b$3224b2o3bob2o1635bobo8424b$3223b2o6b2o1169bo466bo8425b$3254b2o97bobo1046bobo8890b$3254b2o98b2o1046b2o431b2o8458b$3233b2o119bo1068bo410bobo8458b$3206bo26b2o1008bo179bobo409bo8459b$3194bo10b3o1034bo180b2o8870b$3195bo8b2o2bo1033b3o9050b$3193b3o9b5o3785bo2bo6296b$3205b2o2bo14bo3774bo6295b$3206bo2bo14bobo3768bo3bo6295b$3206bobo15b2o3770b4o6295b$4352bo8942b$4350bobo8942b$4351b2o8942b$6873b2o6420b$3159bo3711b2ob2o3078b3o3338b$3157bobo54bo3656b4o3078bo2bo3338b$3158b2o52b6o3654b2o3082bo3338b$3212b2o2b2o6738bo3338b$3196bo1132bo5623bobo3339b$3195bo20bo1112bobo8963b$3195b3o14b2o2bo1090bo21b2o533b2o8429b$3212b2o3bo1089bobo553bobo5096b3o3330b$3216bo30b2o978b3o77b2o555bo5097bo2bo3329b$3214bobo30b2o978bobo5732bo3332b$3215bo1011bo2bo599b2o5124bo5bo3332b$3190b2o1036b3o598bobo5109bo13b3o5bobo3329b$3113bobo74bobo265bo769b3o599bo5109b3o12bob2o3336b$3113b2o77bo266bo766bo2bo5709b2obo13b3o3336b$3114bo75bobo264b3o769bo5709b3o14b2o3337b$3189bo1036bo2804b2o2907b2o3353b$3189bobo1035b2o2801b4o2589b2o3670b$3189bo1036b3o2801b2ob2o2588b2o3670b$3108b2o78bo519bo517b2o2804b2o1663b2o4596b$3108bobo598b2o514bobo2b2o4465b2o4596b$3110b2o596b2o515bobo2b2o9063b$3109bo1115b3o2677bo2bo6386b$3107bobo3799bo6385b$3106b2o3797bo3bo6385b$3106b3o68b3o49bobo3674b4o6385b$3180bo49b2o10063b$3177bo2bo49bo10064b$3178b2o10115b$3178b2o189bo1007bobo8915b$3177bo2bo189bo1006b2o480b2o8434b$3177bo21b3o166b3o862bo144bo479bobo8434b$3179b2o17bo2bo40b2o987bobo164bobo458bo8435b$3198b2obo40b2o988b2o164b2o8895b$3208bo1190bo425b2o5137b3o3328b$3209b2o1613bobo5137bo2bo3327b$3208b2o1615bo5138bo3330b$3198b2o6764bo3330b$3198b4o6763bobo3327b$3199bo2bo10092b$3200bobo1162bobo2697b4o6226b$3200bobo1163b2o2696bo3bo2903b3o3320b$4366bo2701bo2902bo2bo3320b$4211bobo2850bo2bo2906bo3320b$3176bo25bo1008b2o5753bo7bo3320b$3175bobo21bo2bo1009bo2728b2o3008bo13b3o3bobo3321b$3175bobo20b5o3737b4o3006b3o11b2obo3327b$3176bo19bo2bo3740b2ob2o3005bob2o10b3o3328b$3190b3o4b2o1105bobo2635b2o3007b3o11b2o3328b$3190bo2bo1110b2o5645b2o3342b$3190bo2bo1088bobo20bo8989b$4282b2o9011b$3193b2o1088bo9011b$3115bo76bo2bo1658b2o8439b$3116b2o74bo2bo39b2o1616bobo8439b$3115b2o69bo5bo42b2o1617bo8440b$3187bo284bo9822b$3185b3o285b2o1345b2o8473b$3472b2o1345bobo8473b$4820bo8474b$13295b$13295b$3724bo9570b$3722bobo3376b2o2510b2o3680b$3723b2o3374b2ob2o2509b2o3680b$3082bo98bo3917b4o1584b2o4606b$3082bobo94b2o3919b2o1585b2o4606b$3082b2o75bo11bo8b2o6792b3o3318b$3157b2o11bobo6800bo2bo3318b$3158b2o10bobo3802b4o2997bo3318b$3171bo3802bo3bo2997bo3318b$4353bo2624bo2994bobo3319b$3383bo968bo2621bo2bo6317b$3384b2o966b3o8940b$3383b2o861bobo125bo5607b3o3310b$4247b2o124bo5608bo2bo3309b$4247bo125b3o473b2o5131bo3312b$3224bo5b2o1616bobo5125bo5bo3312b$3222bobo5b2o1617bo5111bo13b3o5bobo3309b$3223b2o6735b3o12bob2o3316b$4815b2o5142b2obo13b3o3316b$4814bobo5142b3o14b2o3317b$4381bo433bo5144b2o3333b$4340b3o39bo8912b$4339bo3bo36b3o8912b$4187bo156bo2788bo2bo6158b$4186bo2950bo6157b$4186b3o150b2o3bo2788bo3bo6157b$4341b3o2790b4o6157b$13295b$3166bo1113bo9014b$3165bobo1111bo9015b$3141bo23bobo1090bo20b3o2729b2o6282b$3140b3o23bo1090bo2751b2ob2o6281b$3139b2o2bo1113b3o2749b4o6282b$3139bo3bo3866b2o6283b$3131bo7bob2o10152b$3129bobo7b2o10154b$3130b2o10163b$3488bo1355b2o8449b$3225b2o259bobo1354bobo5138b3o3308b$3225b2o260b2o1355bo5139bo2bo3307b$3140b2o2bo6839bo3310b$3140bobobo1665b2o5172bo3310b$3143bo1665bobo5173bobo3307b$3737bobo1070bo8484b$3738b2o9555b$3738bo6253b3o3300b$3057bobo82bobo11bo4012b2o2820bo2bo3300b$3057b2o84b2o12b2o4009b4o2431b2o389bo3300b$3058bo84bo7b2o4015b2ob2o2430b2o381bo7bo3300b$3151bo4018b2o1505b2o1292bo13b3o3bobo3301b$3153b3o1193bo4327b2o1291b3o11b2obo3307b$3150bo5bo4bo1185bobo5620bob2o10b3o3308b$3151bo4bo3bobo1078b3o104b2o2693bo2bo2924b3o11b2o3308b$3152bo2bo4bobo236bo840bo2bo2803bo2923b2o3322b$3154bo6bo235bobo844bo17bo2780bo3bo6247b$3149bo248b2o840b2o21bo86bo2693b4o6247b$3148bo1091b2o3bo15b3o84b2o8945b$3127bo20b3o1094bo103b2o8944b$3126bo110bobo1003bo9051b$3126b3o109b2o1001b3o9051b$3238bo1002b2o596b2o8454b$3043b3o174b2o1019bo596bobo8454b$3220b2o1020b2o77bobo515bo8455b$3043bobo88bo1107bobo76b2o72bo8899b$3046bo86bobo1105bo3bo76bo73b2o407b2o8488b$3042bo3bo86bobo1106b2o151b2o407bobo8488b$3134bo1028bo641bo8489b$3042bo2b2o1114b2o9132b$4162b2o9131b$4232b3o9060b$3043bo1188bo2bo2967b4o6088b$3043bo1186bo4bo10bo6b2o2947bo3bo2787b3o3298b$3042bo1201bobo8bo2950bo2786bo2bo3298b$3043bob2o1183bo14b2o9bo2945bo2bo2790bo3298b$3047bo108bo1074bo21bobo5740bo3298b$3040bo4bo109bobo1074b2obo18bo2824b2o2912bobo3299b$3155bobo1075bo2bo19bobo2819b4o6213b$3041bobo112bo1076b2o21bobo2819b2ob2o6212b$3041b3o1190bo2bo19bo2822b2o2920b3o3290b$4237bo5764bo2bo3289b$3501bobo729bo5768bo3292b$3502b2o732bo11bobo5745bo5bo3292b$3502bo730b3o12b2o5731bo13b3o5bobo3289b$4249bo584b2o5144b3o12bob2o3296b$3215b2o1616bobo5143b2obo13b3o3296b$3215b2o536bo490b3o587bo5144b3o14b2o3297b$3049bo79bo624bo488bo2bo5733b2o3313b$3050b2o76bobo621b3o488b2o2bo552b2o8493b$3049b2o77bobo1115b2o551bobo8493b$3031bo97bo1670bo8494b$3030b3o1210bo9051b$3029b2o2bo1207b2o9052b$4221bo20b2o9051b$3033b2o1184b2o141bobo2874b2o2352b2o3700b$3033b2o1185b2o141b2o2872b2ob2o2351b2o3700b$3032bo2bo1327bo2873b4o1426b2o4626b$3031b3o378bobo3823b2o1427b2o4626b$3151bo261b2o861bo9018b$3103b2o20bo24bobo260bo863b2o45bo8970b$3103b2o18b2o25bobo1123b2o46bobo2786b4o6178b$3105bo18b2o25bo101bo1070b2o2786bo3bo6178b$3103b2o149bo3861bo6178b$3103b2o147b3o3857bo2bo6179b$13295b$3105b2o1190bo5706b3o3288b$3105b2o1189bo5707bo2bo3287b$4296b3o112bo417b2o5173bo3290b$3020bo189b2o1197bobo416bobo5173bo3290b$3019bo190b2o1198b2o417bo5175bobo3287b$3019b3o102bo1012bo9157b$3093bo18bo10bobo1011bobo655b2o8498b$3092bobo16b3o9bobo1011b2o655bobo5215b3o3280b$3092bob2o14b5o9bo1670bo5215bo2bo3280b$3094bo15b2ob3o6898bo3280b$3111b2ob2o6890bo7bo3280b$3095bob2o14bo4157bo2bo2716bo13b3o3bobo3281b$3009b2o85b2o4177bo2714b3o11b2obo3287b$3008b3o4260bo3bo2714bob2o10b3o3288b$3008bo2bo4260b4o2715b3o11b2o3288b$3008b2ob2o77bo6900b2o3302b$3008b2ob2o75b2o56bo10148b$3007b2ob2o77b2o54bobo10147b$3008bo136bobo369bo3631b2o6144b$3009b3o134bo371bo3628b2ob2o6143b$3010bo505b3o3628b4o6144b$3084b3o16bo4044b2o6145b$3084bo2bo14bobo10190b$3084bo2bo13b2ob2o10189b$3083b4o15bo2bo661bo9527b$3065bo17b2o17bo3bo661b2o1054b2o8469b$3063bobo16bo19bo102b2o560b2o1054bobo8469b$3064b2o17bo121b2o1617bo8470b$3083bo35bo10175b$3102b2o14bobo1096bo572b2o8503b$3103bo14bobo1096bobo569bobo8503b$3119bo1075bo21b2o159bo411bo8504b$3100bo1094bobo181bo8915b$3100bob2ob2o1088b2o180b3o5634b3o3278b$3045bo53b2ob2ob2o321bo3878b2o2704bo2bo3278b$3046bo53bobo326bo3876b4o2273b2o431bo3278b$3044b3o54bo325b3o862bo6b2o3005b2ob2o2272b2o431bo3278b$4290bobo5bo2bo3006b2o1347b2o1354bobo3279b$4291b2o5bo2bo4355b2o4636b$3141bo125bo1030bo8996b$3140bobo125b2o1031bo2879bo2bo2837b3o3270b$3140bobo124b2o1030b3o2883bo2836bo2bo3269b$3141bo1159b2o2878bo3bo2836bo3272b$4270b2o30bo2879b4o2830bo5bo3272b$3018bo1253bo5728bo13b3o5bobo3269b$3016bobo1254bo150bobo5573b3o12bob2o3276b$3017b2o1251bobo21bo130b2o5572b2obo13b3o3276b$4271bo20b2o131bo5573b3o14b2o3277b$4112bobo158bobo17b2o524b2o5179b2o3293b$3200b2o910b2o159bobo542bobo8474b$3072bo127b2o911bo160bo544bo8475b$3071bo11b2o29bo10180b$3073bo4bo4bobo27bobo1669b2o8508b$3070bo8bo3bo2bo26bobo1149bobo516bobo8508b$3070bo2bo2bobo5b3o2bo24bo1150b2o518bo8509b$3069bo2bo2b2o7bo5bo1175bo9028b$2988bobo79b2o4b2o7bo3b2o10204b$2988b2o95bo3bo10205b$2989bo4351b4o5950b$7340bo3bo5950b$7344bo5950b$3531bo3808bo2bo5951b$3136bo395b2o9761b$3135bobo393b2o3684b2o6076b$3135bobo1152b2o2924b4o6075b$3136bo1152bobo2924b2ob2o6074b$4290bo2927b2o2804b3o3268b$3783bo6240bo2bo3267b$3781bobo6240bo3270b$3782b2o6240bo3270b$10025bobo3267b$4814b2o8479b$3195b2o995bobo618bobo8479b$3195b2o995b2o620bo5217b3o3260b$3109bo1060bobo20bo198bo5638bo2bo3260b$3108bobo1059b2o221b2o385b2o5252bo3260b$3108bobo1060bo220b2o385bobo5244bo7bo3260b$3059bo49bo332bo1337bo5230bo13b3o3bobo3261b$3060b2o381b2o6565b3o11b2obo3267b$3059b2o381b2o6566bob2o10b3o3268b$10011b3o11b2o3268b$7377b2o2194b2o436b2o3282b$3283bo4091b2ob2o2193b2o3720b$3281bobo4091b4o1268b2o4646b$3282b2o996bobo3093b2o1269b2o4646b$3131bo1149b2o9012b$3130bobo1148bo9013b$3031bobo96bobo1152b2o153bo2810b4o6040b$3032b2o97bo1152bobo154bo2808bo3bo6040b$3032bo1235bo16bo153b3o2812bo6040b$4088bo179bobo2979bo2bo6041b$4087bo180b2o9025b$4087b3o9205b$13295b$4809b2o8484b$3190b2o1049bo566bobo8484b$3190b2o1048bo568bo8485b$3104bo1135b3o9052b$2964bo138bobo1669b2o8518b$2963bo139bobo1668bobo5257b3o3258b$2963b3o138bo1670bo5257bo2bo3258b$10036bo3258b$10036bo3258b$7409bo2bo2620bobo3259b$3547bo3865bo5881b$3545bobo3861bo3bo5881b$3546b2o526bo3335b4o2628b3o3250b$4073b3o5966bo2bo3249b$3126bo946b3o5966bo3252b$3125bobo6908bo5bo3252b$3125bobo668bobo274b4o3210b2o2732bo13b3o5bobo3249b$3126bo670b2o273b5o3208b2ob2o2730b3o12bob2o3256b$3797bo274b2obo3209b4o2730b2obo13b3o3256b$7286b2o2731b3o14b2o3257b$4168bo5851b2o3273b$4073b2o92bo9127b$4072bo73bo20b3o9125b$4145bo262bo395b2o8489b$3185b2o884bobo2bo68b3o258bobo394bobo8489b$3185b2o884bob3obo329b2o395bo8490b$3075bo23bo358bo611b3ob2obo9217b$3073bobo22bobo355bobo612bobo696b2o8523b$3074b2o22bobo356b2o612b3o695bobo8523b$3099bo972bo697bo8524b$13295b$3296bobo9996b$3297b2o4146b2o5848b$3297bo4146b4o2115b2o3730b$7444b2ob2o2114b2o3730b$3047bo4398b2o1189b2o4656b$3048bo1405bo4182b2o4656b$3046b3o72bo958bo374b2o8838b$3120bobo955bobo162bobo208b2o2863bo2bo2721b3o3248b$3120bobo956b2o162b2o3078bo2720bo2bo3247b$3121bo1122bo3074bo3bo2720bo3250b$7320b4o2720bo3250b$10045bobo3247b$13295b$4217bo9077b$4215b2o5835b3o3240b$4216b2o581b2o5250bo2bo3240b$2940bo239b2o1616bobo5253bo3240b$2938b2o240b2o1617bo5246bo7bo3240b$2939b2o153bo961bobo5972bo13b3o3bobo3241b$3093bobo960b2o707b2o5263b3o11b2obo3247b$3093bobo961bo706bobo5263bob2o10b3o3248b$3094bo1670bo5265b3o11b2o3248b$3560bobo6468b2o3262b$3561b2o9732b$3561bo9733b$7479b4o5812b$7478bo3bo5812b$3812bo3669bo5812b$3813bo3664bo2bo5813b$3116bo694b3o9481b$3115bobo4237b2o5938b$3115bobo4236b4o5937b$3116bo1027bo3209b2ob2o5936b$4121b2o19b2o3212b2o5937b$4119bo23b2o9150b$4119b3o299bobo8871b$4121b2o299b2o8871b$4422bo8872b$3471bobo1320b2o8499b$3175b2o295b2o649b2o668bobo8499b$3175b2o295bo650b2o669bo5259b3o3238b$3090b2o6961bo2bo3238b$3090b2o220bo1447b2o5294bo3238b$3088bobo222bo1445bobo5294bo3238b$3089bo221b3o800bobo14bo628bo5292bobo3239b$4114b2o14b3o9162b$4115bo13b5o9161b$3061bo1067b2ob3o5927b3o3230b$3062b2o1066b2ob2o335bo3044b2o2036b2o507bo2bo3229b$3061b2o1030bobo36bo86bo248bobo3042b2ob2o2035b2o507bo3232b$4094b2o122bo250b2o3042b4o1110b2o1427bo5bo3232b$4094bo123b3o3293b2o1111b2o1412bo13b3o5bobo3229b$3111bo6928b3o12bob2o3236b$3110bobo6926b2obo13b3o3236b$3110bobo4276b4o2646b3o14b2o3237b$3111bo4276bo3bo2647b2o3253b$4191bo3200bo5902b$4191bobo3194bo2bo5903b$4191b2o9102b$2914bo10380b$2914bobo1115bo9262b$2914b2o1115bo757b2o8504b$3170b2o859b3o754bobo8504b$3170b2o1617bo8505b$3576bo9718b$3577bo1177b2o8538b$3575b3o1176bobo8538b$4755bo8539b$13295b$13295b$3826bo3720bo2bo5744b$3827b2o3722bo5743b$3826b2o3719bo3bo5743b$4137bobo3408b4o2512b3o3228b$4138b2o5924bo2bo3227b$3106bo1024bobo4bo5925bo3230b$3105bobo1024b2o5930bo3230b$3105bobo1024bo304bo2987b2o2638bobo3227b$3106bo1331bo2984b2ob2o5867b$4436b3o2984b4o5868b$3487bo3936b2o2646b3o3220b$3488bo6582bo2bo3220b$3486b3o6585bo3220b$10066bo7bo3220b$4112bo671b2o5265bo13b3o3bobo3221b$3165b2o159bo784bo671bobo5264b3o11b2obo3227b$3165b2o160b2o761bo20b3o670bo5265bob2o10b3o3228b$3326b2o761bo5961b3o11b2o3228b$4089b3o658b2o5299b2o3242b$4749bobo8543b$3077bo1672bo8544b$3075bobo1031bo373bobo8809b$3076b2o1032bo84bo288b2o8809b$4108b3o82b2o289bo3098b2o5710b$4194b2o3386b4o1957b2o3750b$7582b2ob2o1956b2o3750b$7584b2o1031b2o4676b$8617b2o4676b$3101bo10193b$3100bobo1063bobo3288bo2bo5834b$3100bobo1063b2o3293bo5833b$3101bo1065bo3289bo3bo5833b$2889bobo4566b4o5833b$2889b2o1117bo9286b$2890bo1115b2o9287b$4007b2o9286b$10074b3o3218b$3590bo1188b2o5292bo2bo3218b$3160b2o429b2o1185bobo5295bo3218b$3160b2o428b2o1187bo5296bo3218b$10073bobo3219b$4745b2o8548b$4744bobo8548b$3842bo902bo5336b3o3210b$3840bobo6239bo2bo3209b$3841b2o310bo5928bo3212b$4154bo5921bo5bo3212b$4147bo4b3o3462b4o2440bo13b3o5bobo3209b$4148bo3467bo3bo2439b3o12bob2o3216b$4146b3o3471bo2438b2obo13b3o3216b$3992b3o456bo3164bo2bo2439b3o14b2o3217b$3991bo3bo456b2o5606b2o3233b$4451b2o3040b2o5800b$3094bo406bo494bo3495b4o5799b$3093b3o406b2o487b5o3496b2ob2o5798b$3093bob2o404b2o489bo3501b2o5799b$3094bo2bo10197b$3095b2o988b2o9208b$3086bo8bo246bo649b2o93bo9207b$3085b2o253bobo649b2o69b2o23bo9206b$3085bobo253b2o649bo72bo19bobo686b2o8519b$3155b2o834b2o73bo19bo686bobo8519b$3060b3o92b2o832b2obob3o66bobo22bobo683bo8520b$3060bo934b2o67bo23bobo408bo8795b$3061bo927bo2bo73bobo20bo33bo376bo239b2o8553b$3036b2o952b3o73bobo55b2o43bo328b3o238bobo8553b$3035b2o1030bo55b2o44bobo568bo8554b$3037bo1042bobo86b2o9124b$3011b2o1067b2o9213b$3011bobo1044bobo20bo6002b3o3208b$3011bo1046b2o3593b2o1878b2o549bo2bo3207b$2987bo1071bo82bo3508b2ob2o1877b2o549bo3210b$2986b2o1153bo3509b4o952b2o1475bo3210b$2986bobo1152b3o3508b2o953b2o1476bobo3207b$2865bo1131bobo9295b$2864bo96b3o1034b2o9295b$2864b3o94bo1036bo3528b4o2561b3o3200b$2962bo4563bo3bo2560bo2bo3200b$2937b2o4591bo2563bo3200b$2936b2o4588bo2bo2556bo7bo3200b$2938bo667bo6464bo13b3o3bobo3201b$2912b2o690bobo6463b3o11b2obo3207b$2912bobo690b2o6463bob2o10b3o3208b$2912bo1856b2o5300b3o11b2o3208b$2888bo261b2o1616bobo5300b2o3222b$2887b2o261b2o824bo792bo8525b$2887bobo965bobo117bo9319b$3856b2o117b3o757b2o8558b$2862b3o991bo310bo566bobo8558b$2862bo1305b2o565bo8559b$2863bo1297bo5b2o9126b$4162b2o9131b$4161b2o3522bo2bo5606b$4467bo3221bo5605b$4465bobo3217bo3bo5605b$4466b2o3218b4o5605b$3517bo9777b$3515bobo445b3o9329b$3107bo408b2o444bo3bo128bobo9197b$3105bobo859bo128b2o3465b2o5730b$3106b2o965bobo20bo3464b2ob2o5729b$3355bobo604b2o3bo106b2o3485b4o5730b$3356b2o606b3o107bo3487b2o2530b3o3198b$3356bo6736bo2bo3198b$10096bo3198b$10096bo3198b$4513bo250b2o5327bobo3199b$3145b2o992bo4b3o367b2o247bobo8529b$3145b2o990bobo7bo365b2o249bo8530b$4056bo81b2o4b3o5955b3o3190b$4055bo674b2o5370bo2bo3189b$4034bo20b3o671bobo5370bo3192b$4033bo84b2o27b2o581bo5365bo5bo3192b$4033b3o82b2o27b2o5932bo13b3o5bobo3189b$4120bo5959b3o12bob2o3196b$4118b2o3601b2o2356b2obo13b3o3196b$4013bo104b2o3600b4o1799b2o554b3o14b2o3197b$4014bo124bo3580b2ob2o1798b2o555b2o3213b$4012b3o105b2o15b2o3583b2o873b2o4696b$4120b2o16b2o4457b2o4696b$13295b$7595bo2bo5696b$7599bo5695b$3619bobo3973bo3bo5695b$3620b2o488bobo3483b4o5695b$3620bo489b2o9183b$3972bo138bo9183b$3970bobo9322b$3871bo99b2o9322b$3872bo886b2o8534b$3140b2o728b3o885bobo8534b$3140b2o1041bo575bo8535b$4181bobo9111b$4177bo4b2o541b2o8568b$4136b2o37bobo546bobo8568b$4135bobo38b2o547bo5378b3o3188b$4136bo343bobo5621bo2bo3187b$4481b2o5621bo3190b$3944bobo534bo5622bo3190b$3530bobo411b2o3809b4o2346bobo3187b$3531b2o412bo165bo3642bo3bo5536b$3120bobo408bo580bo3645bo5536b$3121b2o966bo20b3o3641bo2bo2354b3o3180b$3121bo249bo718bo6020bo2bo3180b$3372bo715b3o3540b2o2481bo3180b$3370b3o4257b4o2472bo7bo3180b$3937b3o3690b2ob2o2456bo13b3o3bobo3181b$3939bo3692b2o2456b3o11b2obo3187b$3937b3o6150bob2o10b3o3188b$4529bo5561b3o11b2o3188b$3938bo588bobo5561b2o3202b$3936b3o589b2o8765b$3934b3o95bo721b2o8539b$3135b2o798b2o93b2o721bobo8539b$3135b2o874bo19b2o721bo8540b$4011bo116b2o9165b$4005b2o120b2o591b2o8573b$4005bob2o119bobob2o585bobo8573b$4008b2o119b2o2bo586bo8574b$4008bobo16bo102b3o9162b$4005bo3b2o17b2o83bo23b3o9155b$4009bo17b2o84bobo23bo9155b$4113b2o23bo3652b2o1720b2o3780b$4152b2o3635b2ob2o1719b2o3780b$4002bobo148b2o3634b4o794b2o4706b$3635bo366b2o148bo3637b2o795b2o4706b$3636bo366bo82bo80b2o9126b$3634b3o448bo80bobo9126b$4085b3o80bo3496b4o2445b3o3178b$3985bobo194bo3481bo3bo2444bo2bo3178b$3986b2o194b2o3484bo2447bo3178b$3885bo100bo29bo164bobo3480bo2bo2448bo3178b$3886b2o127b3o6095bobo3179b$3885b2o128bo2bo174bob3o9097b$4017b2o172bo2bo9100b$4017bo173bo4b2o551b2o5371b3o3170b$4014b2o174bo3b2o552bobo5371bo2bo3169b$4014b4o173bob4o552bo5372bo3172b$3944bo70bo2bo172bo5bo298bo5619bo5bo3172b$3945b2o69bo176bo3bo299bo217b2o5384bo13b3o5bobo3169b$3944b2o69bo180bo298b3o216bobo5383b3o12bob2o3176b$3546bo467b2o699bo5383b2obo13b3o3176b$3547bo465bo5bo6079b3o14b2o3177b$3545b3o465b2o3b2o105bo5974b2o3193b$4014b2o110b2o3695bo2bo5468b$4103bo21b2o3700bo5467b$3385bo718b2o3717bo3bo5467b$3386b2o715b2o3719b4o5467b$3385b2o9908b$13295b$3913bo9381b$3913bobo3785b2o5592b$3913b2o627bobo3154b2ob2o5591b$4543b2o3154b4o5592b$4543bo3156b2o5593b$13295b$13295b$13295b$4744b2o8549b$4743bobo8549b$4744bo8550b$10124b3o3168b$4043bo666b2o5412bo2bo3167b$4041bobo44bobo104b2o512bobo5412bo3170b$4000bo41b2o44b2o105b2o513bo5413bo3170b$3999bo89bo6035bobo3167b$3978bo20b3o9293b$3977bo3881b2o5434b$3649bo327b3o3878b4o1641b2o627b3o3160b$3650b2o410bo3795b2ob2o1640b2o626bo2bo3160b$3649b2o409b2o3798b2o715b2o1555bo3160b$4001bo59b2o4514b2o1547bo7bo3160b$4002bo6108bo13b3o3bobo3161b$4000b3o3730bo2bo2373b3o11b2obo3167b$3901bo3835bo2372bob2o10b3o3168b$3899bobo3831bo3bo2373b3o11b2o3168b$3900b2o3832b4o2373b2o3182b$13295b$13295b$13295b$13295b$3960bo549bo228b2o8554b$3958bobo550b2o225bobo8554b$3959b2o549b2o227bo8555b$3560bo9734b$3561b2o1142b2o8588b$3560b2o579bo48b2o512bobo8588b$4139bobo48b2o513bo8589b$4119bo20b2o9153b$3401bo715bobo9175b$3399bobo716b2o9175b$3400b2o4491b4o5398b$7892bo3bo5398b$3888bobo4005bo5398b$3888b2o668bo3333bo2bo2238b3o3158b$3889bo669bo5573bo2bo3158b$4557b3o3209b2o2365bo3158b$7768b4o2364bo3158b$7768b2ob2o2360bobo3159b$7770b2o5523b$13295b$10142b3o3150b$10142bo2bo3149b$10142bo3152b$4734b2o5400bo5bo3152b$4056bobo3bo2bo667bobo5385bo13b3o5bobo3149b$4057b2o3bob2o668bo5385b3o12bob2o3156b$3976bo80bo6b2o6053b2obo13b3o3156b$3974b2o724b2o5417b3o14b2o3157b$3954bo20b2o208b2o512bobo5418b2o3173b$3952b2o83bo28b2o117b2o513bo8594b$3665bo287b2o82b2o27b2o9227b$3663bobo373bo9255b$3664b2o371b2o9256b$4015bo21bo3891b2o1562b2o3800b$4016b2o39bo3869b2ob2o1561b2o3800b$4015b2o22b2o16bobo3867b4o636b2o4726b$3914bobo122b2o16b2o3869b2o637b2o4726b$3915b2o9378b$3915bo9379b$7803b4o5488b$4030bo3771bo3bo5488b$4029bo3776bo5488b$4029b3o3770bo2bo5489b$3973bobo550bo8768b$3974b2o548bobo8768b$3974bo550b2o8768b$3576bo1152b2o5413b3o3148b$3574bobo1151bobo5413bo2bo3147b$3575b2o577bobo572bo5414bo3150b$4155b2o5987bo3150b$4132bobo20bo539b2o5448bobo3147b$3414bobo638b2o76b2o45b2o512bobo8598b$3415b2o637bobo76bo46b2o513bo8599b$3415bo639bo6096b3o3140b$3864bo6286bo2bo3140b$3863bo4097bo2bo2189bo3140b$3863b3o706bo3392bo2180bo7bo3140b$4573b2o3386bo3bo2165bo13b3o3bobo3141b$4572b2o3388b4o2164b3o11b2obo3147b$10130bob2o10b3o3148b$10131b3o11b2o3148b$10131b2o3162b$7839b2o5454b$7837b2ob2o5453b$7837b4o5454b$7838b2o5455b$13295b$13295b$13295b$3950bo773b2o8569b$3950bobo770bobo8569b$3928bo21b2o772bo8570b$3928bobo104b3o9b2o9246b$3678bobo247b2o105bo2bo8bo642b2o8603b$3679b2o354bo2bo8bobob2o122b2o512bobo8603b$3679bo356bo2bo8b2ob2o122b2o513bo8604b$4031bo4b3o11bo9244b$4008b3o18bobo5b2o17b2o9237b$3930bo76bo2bo19b2o25b2o3938b2o5296b$3931bo75bo4bo43bo3939b4o1483b2o669b3o3138b$3929b3o80bo58b2o3923b2ob2o1482b2o668bo2bo3138b$4012b2o56bobo3925b2o557b2o1597bo3138b$4009bob2o59bo4484b2o1597bo3138b$3916bo93bo75bo6066bobo3139b$3915bobo168b2o3783bo2bo5420b$3914bo3bo70bo95bobo3787bo5419b$3915bo2bo71bo36bo511bobo3329bo3bo2286b3o3130b$3915bo2bo69b3o34b2o73b3o437b2o3330b4o2286bo2bo3129b$3916bobo107b2o74bo437bo5621bo3132b$3589bobo509bo6054bo5bo3132b$3590b2o523b2o53bo5970bo13b3o5bobo3129b$3590bo525b2o53bo5968b3o12bob2o3136b$4115bo32bo20b3o547b2o5418b2obo13b3o3136b$3430bo567bobo129b2o17bo568bobo5418b3o14b2o3137b$3431bo566b2o129bobo15b3o569bo5420b2o3153b$3429b3o567bo131bo9163b$4145bo539b2o8608b$3840bo304b2o23b2o512bobo8608b$3838b2o304bobo23b2o513bo8609b$3839b2o747bo8706b$4586bobo8706b$4026b2o559b2o8706b$4025bobo4003b4o5260b$4026bo4003bo3bo5260b$8034bo5260b$8030bo2bo5261b$13295b$7907b2o5386b$7906b4o5385b$7906b2ob2o5384b$7908b2o5385b$3923b3o9369b$3927bo6236b3o3128b$3922b2ob2o217bo6019bo2bo3127b$3923b4o217bo6019bo3130b$3694bo449bo569b2o5448bo3130b$3695bo1017bobo5449bobo3127b$3693b3o311bo132b3o3b3o565bo8580b$4006b3o155b2o9129b$4005b2o2bo134bo19b2o514b2o5490b3o3120b$4005bo138bo534bobo5489bo2bo3120b$3944bo60b3o136bo535bo5493bo3120b$3945b2o58b2obo6b4o6147bo7bo3120b$3898bo45b2o60bob2o4b2ob3o6131bo13b3o3bobo3121b$3896b2o108b2o6b2o6134b3o11b2obo3127b$3821bo75b2o80bo27bob2o5b4o9b3o4035b2o1404b2o675bob2o10b3o3128b$3820b3o155b3o25b2ob2o6b2o12bo4033b2ob2o1403b2o676b3o11b2o3128b$3819b2o2bo153bo2b2o24b2ob2o19bo4034b4o478b2o1602b2o3142b$3922bo54b4o22bo4bo35b2o509bo3510b2o479b2o4746b$3920bo2bo56bobo21b2o39b2o509bo8738b$3918b3ob2o56bo2bo19b2o39bo509b3o8738b$3605bo213b2o101b3o55b3o76b2o3880b4o5350b$3606bo213b3o99b3o54bobo76bobo3879bo3bo5350b$3604b3o216bo97b2o56bobo78bo3883bo5350b$3821b3o97bo57b3o92bo3865bo2bo5351b$3821b2o251b2o9219b$3444bo628bobo9219b$3445b2o691b3o9154b$3444b2o375bobo171bo92b3o618b2o8584b$3822b2o170bo95bo45bo5bo565bobo8584b$3822bo171b3o92bo46bo5bo566bo8585b$4103b2o31bo5bo16b2o9134b$4104b2o53b2o440bobo71b2o8618b$4103bo34b3o461b2o70bobo8618b$4118b2o482bo72bo8619b$3967bo149bobo6054b3o3118b$3967bobo149bo6053bo2bo3118b$3967b2o164bo3965bo2bo2073bo3118b$4133b2o3968bo2072bo3118b$3808bo323bobo3964bo3bo2069bobo3119b$3807bo4292b4o5191b$3807b3o187b2o9296b$3996bobo6183b3o3110b$3997bo6184bo2bo3109b$7977b2o2203bo3112b$7975b2ob2o2196bo5bo3112b$7975b4o2182bo13b3o5bobo3109b$7976b2o2182b3o12bob2o3116b$3708bo6450b2obo13b3o3116b$3709b2o6448b3o14b2o3117b$3708b2o6450b2o3133b$4704b2o8589b$4703bobo8589b$4135bo568bo8590b$3960bo173bobo17b2o9139b$3958bobo173bobo17b2o514b2o8623b$3872bo86b2o174bo533bobo8623b$3872bobo795bo8624b$3872b2o9421b$13295b$8135b2o5158b$4569bo3564b4o1325b2o3830b$4570b2o3562b2ob2o1324b2o3830b$4569b2o3565b2o399b2o4756b$3619bo4917b2o4756b$3620b2o9673b$3619b2o4388bo2bo5282b$3789b3o4221bo5281b$3788bo2bo4217bo3bo2170b3o3108b$3460bo327b2obo4218b4o2170bo2bo3107b$3458bobo376bo6346bo3110b$3459b2o377bo132bo6212bo3110b$3836b3o130b2o6214bobo3107b$3788b2o180b2o9323b$3788b4o825bo81b2o8594b$3789bo2bo825bo79bobo5491b3o3100b$3790bobo337bo485b3o80bo5491bo2bo3100b$3790bobo336bobo17b2o6043bo3100b$3942bobo184bobo17b2o514b2o5519bo7bo3100b$3942b2o186bo533bobo5504bo13b3o3bobo3101b$3792bo150bo721bo5504b3o11b2obo3107b$3790bobo6377bob2o10b3o3108b$3791b2o6378b3o11b2o3108b$10171b2o3122b$8169b4o5122b$8168bo3bo5122b$8172bo5122b$8168bo2bo5123b$13295b$8045b2o5248b$8044b4o5247b$3724bo4319b2ob2o5246b$3722bobo51bobo4267b2o5247b$3723b2o51b2o9517b$3777bo9517b$13295b$13295b$3973bobo718b2o8599b$3974b2o717bobo8599b$3847bobo124bo150bo568bo8600b$3847b2o275bobo17b2o9149b$3848bo275bobo17b2o514b2o5532b3o3098b$4125bo533bobo5531bo2bo3098b$4660bo5535bo3098b$4585bo5610bo3098b$4583bobo5607bobo3099b$4584b2o8709b$3635bo4569b2o1246b2o3840b$3633bobo4567b2ob2o1245b2o747b3o3090b$3634b2o4567b4o320b2o1673bo2bo3089b$8204b2o321b2o1673bo3092b$10196bo5bo3092b$3473bobo285bo6419bo13b3o5bobo3089b$3474b2o284b3o88bo4227b4o2097b3o12bob2o3096b$3474bo285bob2o88b2o91bo4132bo3bo2096b2obo13b3o3096b$3759b2o90b2o92bobo4134bo2096b3o14b2o3097b$3759b2o184b2o4131bo2bo2098b2o3113b$3759b2o870bo8663b$3763bo868b2o8661b$3762b2o867b2o8662b$3760bobo155bo770b2o8604b$3759bo2bo154bo770bobo8604b$3760bobo154b3o200bo568bo8605b$3760b3o42bobo311bobo17b2o9154b$3760b2obo42b2o311bobo17b2o514b2o8638b$3760bo2bo42bo313bo533bobo8638b$3761bo893bo8639b$13295b$13295b$8237bo2bo5054b$8241bo5053b$8237bo3bo5053b$3764bo4473b4o5053b$3765b2o9528b$3737bobo24b2o6438b3o3088b$3738b2o6464bo2bo3087b$3738bo4376b2o2087bo3090b$8113b2ob2o2086bo3090b$8113b4o2088bobo3087b$3989bo4124b2o5179b$3990bo9304b$3823bo164b3o6221b3o3080b$3822bo6388bo2bo3080b$3822b3o859b2o5528bo3080b$3745bo937bobo5520bo7bo3080b$3745bobo367bo568bo5506bo13b3o3bobo3081b$3745b2o367bobo17b2o6054b3o11b2obo3087b$4114bobo17b2o462bobo49b2o5538bob2o10b3o3088b$4115bo483b2o48bobo5539b3o11b2o3088b$4599bo50bo5540b2o3102b$3648bobo9644b$3649b2o9644b$3649bo4623b2o5020b$8272b4o1167b2o3850b$3489bo4782b2ob2o1166b2o3850b$3490bo4783b2o241b2o4776b$3488b3o376bo4649b2o4776b$3865bobo52bobo9372b$3866b2o52b2o4225bo2bo5144b$3921bo4229bo5143b$4647bo3499bo3bo5143b$4645bobo3500b4o5143b$4646b2o8647b$3894bo9400b$3892b2o9401b$3821bo71b2o9400b$3822bo856b2o8614b$3820b3o855bobo5533b3o3078b$4110bo568bo5533bo2bo3078b$4109bobo17b2o6085bo3078b$4109bobo17b2o514b2o5569bo3078b$4110bo533bobo5566bobo3079b$4645bo8649b$4107bo9187b$4106b3o6113b3o3070b$3780bo324b2o2bo6112bo2bo3069b$3753bo24bobo328bo4197b4o1911bo3072b$3754bo24b2o327bo4197bo3bo1905bo5bo3072b$3752b3o349bo4205bo1890bo13b3o5bobo3069b$4104bobo4199bo2bo1890b3o12bob2o3076b$4104b2o6093b2obo13b3o3076b$8183b2o2014b3o14b2o3077b$4003bo4178b4o2014b2o3093b$4004b2o4176b2ob2o5108b$3799bo203b2o4179b2o5109b$3797b2o9496b$3720b3o75b2o9495b$3723bo9571b$3720b3o9572b$4614bo59b2o8619b$4615bo57bobo8619b$3723b2o888b3o58bo8620b$3664bo58b2o399b2o9169b$3665bo458b2o514b2o8653b$3663b3o973bobo8653b$4640bo8654b$3715bo9579b$3503bo209b2o9580b$3504b2o208b2o9579b$3503b2o375bobo13bo4446b2o1088b2o3860b$3881b2o12bo4445b2ob2o1087b2o789b3o3068b$3881bo13b3o4443b4o162b2o1715bo2bo3067b$8342b2o163b2o1715bo3070b$4660bobo5561bo3070b$3892bo768b2o5562bobo3067b$3891b3o767bo3555b4o5074b$3868bo21b2o2bo4321bo3bo5074b$3868bobo23bo4325bo2011b3o3060b$3835bo32b2o23bo4322bo2bo2011bo2bo3060b$3836b2o27bo23bo225bo6118bo3060b$3835b2o27b3o22bobo221bobo6110bo7bo3060b$3863bo2b2o21b2o223b2o6095bo13b3o3bobo3061b$3863b3obo801b2o5539b3o11b2obo3067b$3866b2o800bobo5539bob2o10b3o3068b$4669bo5541b3o11b2o3068b$3862bo256b2o6090b2o3082b$3861bo257b2o514b2o8658b$3861b3o770bobo8658b$3793bobo839bo8659b$3767bo26b2o9499b$3768b2o24bo9500b$3767b2o310bobo4293bo2bo4916b$4079b2o587b3o3708bo4915b$4080bo589bo3704bo3bo4915b$4669bo3706b4o4915b$4019bo663b2o8610b$4017bobo664b2o8609b$3732bo40bo244b2o663bo8611b$3733b2o38bobo922b2o3553b2o5040b$3732b2o39b2o922bobo3551b2ob2o5039b$3883b2o814bo3551b4o5040b$3882bobo828bo3538b2o5041b$3883bo744bo84b2o8580b$4629b2o81bobo5519b3o3058b$4628b2o5603bo2bo3058b$3678bo1048b3o5506bo3058b$3679b2o1048bo5506bo3058b$3678b2o1048bo5504bobo3059b$4742b2o8551b$3689bo940b2o111b2o8550b$3519bo169bobo937bobo110bo5499b3o3050b$3517bobo169b2o939bo126b2o5483bo2bo3049b$3518b2o1236bobo5483bo3052b$4758bo5477bo5bo3052b$4772bo3638b2o1808bo13b3o5bobo3049b$4772b2o3636b4o1009b2o795b3o12bob2o3056b$3873bo897bobo3636b2ob2o1008b2o794b2obo13b3o3056b$3874bo4537b2o83b2o1720b3o14b2o3057b$3872b3o911b3o3708b2o1721b2o3073b$4788bo8506b$4787bo3497bo2bo5006b$3851bo949b2o3486bo5005b$3849bobo12bobo935b2o3481bo3bo5005b$3755b3o92b2o12b2o12b2o921bo3484b4o5005b$3755bo2bo106bo11bobo936b2o8477b$3754bo3bo119bo936bobo8477b$3754b4o102b3o954bo8477b$3755bo103bo2bo968bo8463b$3838bo20b2o2bo967b2o8462b$3836b2o24b2o966bobo8462b$3809bo27b2o41b2o9413b$3810bo48bo21b2o962b3o8447b$3755b2ob2o23bo24b3o46b2o21bo966bo8447b$3755bob3o21bobo74b2o35b2o158bo790bo8448b$3782b2o48b3o59bobo157bo805b2o8433b$3832bo2bo60bo157b3o804b2o8432b$3832bo2bo74bo949bo5383b3o3048b$3758bo72b4o75b2o963b2o5367bo2bo3047b$3759bo71b2o76bobo120bobo839bobo3568b4o1795bo3050b$3757b3o70bo202b2o841bo3567bo3bo1795bo3050b$3748bo82bo92b3o106bo856bo3557bo1796bobo3047b$3746bobo82bo94bo963b2o3552bo2bo4847b$3747b2o176bo963bobo8403b$3939b2o4380b2o1929b3o3040b$3940b2o962b3o3413b4o1927bo2bo3040b$3939bo966bo3413b2ob2o1929bo3040b$3954b2o949bo3416b2o1922bo7bo3040b$3953bobo963b2o5310bo13b3o3bobo3041b$3955bo964b2o5308b3o11b2obo3047b$3743bo225bo949bo5310bob2o10b3o3048b$3741b2o226b2o963b2o5295b3o11b2o3048b$3742b2o224bobo962bobo5295b2o3062b$3852b2o1081bo8359b$3532bobo316bobo129b3o963bo8345b$3533b2o317bo132bo963b2o8344b$3533bo450bo963bobo8344b$3998b2o9295b$3999b2o962b3o8329b$3998bo966bo8329b$4013b2o949bo8330b$4012bobo963b2o8315b$4014bo31b2o931b2o3500b2o930b2o3880b$4028bo18b2o929bo3500b2ob2o929b2o3880b$4028b2o16bo946b2o3484b4o4b2o4806b$4027bobo31b2o929bobo3485b2o5b2o4806b$4060bobo931bo8300b$4042b3o17bo945bo8286b$4044bo31bo931b2o3345b4o4936b$4043bo32b2o929bobo3344bo3bo4936b$3839bobo215b2o16bobo4280bo1895b3o3038b$3840b2o216b2o962b3o3329bo2bo1895bo2bo3038b$3840bo216bo32b3o931bo5231bo3038b$4072b2o18bo930bo5232bo3038b$3823bo247bobo17bo945b2o5214bobo3039b$3824b2o5bo241bo31b2o931b2o8255b$3796bobo24b2o5bob2o13b2o238bo18b2o929bo8257b$3797b2o33b2o12bobo238b2o16bo946b2o5208b3o3030b$3797bo33b3o13bo238bobo31b2o929bobo5208bo2bo3029b$4119bobo931bo5208bo3032b$3835b2o264b3o17bo945bo5188bo5bo3032b$3772bo33bo27b3o266bo31bo931b2o5172bo13b3o5bobo3029b$3773b2o30bo296bo32b2o929bobo5171b3o12bob2o3036b$3772b2o31b3o308b2o16bobo6102b2obo13b3o3036b$3761bobo63bo289b2o962b3o3429bo2bo1722b3o14b2o3037b$3762b2o62bo289bo32b3o931bo3433bo1722b2o3053b$3762bo63b3o302b2o18bo930bo3430bo3bo4777b$4130bobo17bo945b2o3416b4o4777b$4132bo31b2o931b2o8196b$4146bo18b2o929bo8198b$4146b2o16bo946b2o8182b$4145bobo31b2o929bobo3278b2o4902b$4178bobo931bo3276b2ob2o4901b$3717bo442b3o17bo945bo3262b4o4902b$3717bobo442bo31bo931b2o3262b2o4903b$3717b2o442bo32b2o929bobo8167b$3548bo626b2o16bobo9099b$3549bo626b2o962b3o8152b$3547b3o625bo32b3o931bo8152b$4190b2o18bo930bo8153b$4189bobo17bo945b2o8138b$4191bo31b2o931b2o8137b$4205bo18b2o929bo8139b$3823b2o380b2o16bo946b2o5092b3o3028b$3822bobo379bobo31b2o929bobo5092bo2bo3027b$3823bo413bobo931bo5092bo3030b$4219b3o17bo945bo5078bo3030b$4221bo31bo931b2o5078bobo3027b$4220bo32b2o929bobo4216b2o3890b$4234b2o16bobo5148b2o3890b$4235b2o962b3o5070b3o3020b$4234bo32b3o931bo5069bo2bo3020b$4249b2o18bo930bo5073bo3020b$4248bobo17bo945b2o3207bo2bo1839bo7bo3020b$4250bo31b2o931b2o3210bo1823bo13b3o3bobo3021b$4264bo18b2o929bo3208bo3bo1822b3o11b2obo3027b$4264b2o16bo946b2o3193b4o1822bob2o10b3o3028b$4263bobo31b2o929bobo5020b3o11b2o3028b$3812bo483bobo931bo5020b2o3042b$3778b2o33bo464b3o17bo945bo8050b$3777b2obo30b3o466bo31bo931b2o8049b$3778bo2bo497bo32b2o929bobo8049b$3778b2obo511b2o16bobo8981b$3779bobo3bo508b2o962b3o8034b$3779b2o3b2o507bo32b3o931bo8034b$3784b2o522b2o18bo930bo8035b$3777bo40b2o487bobo17bo945b2o8020b$3778bo24bo13bobo489bo31b2o931b2o8019b$3776b3o22b2o15bo504bo18b2o929bo8021b$3802b2o519b2o16bo946b2o8005b$4322bobo31b2o929bobo8005b$4355bobo931bo3293b4o4708b$4337b3o17bo945bo3278bo3bo4708b$4339bo31bo931b2o3281bo4708b$3819b2o517bo32b2o929bobo3277bo2bo4709b$3820b2o530b2o16bobo8922b$3692bobo124bo533b2o962b3o3139b2o1813b3o3018b$3692b2o140b2o516bo32b3o931bo3138b4o1811bo2bo3018b$3693bo139bobo531b2o18bo930bo3139b2ob2o1813bo3018b$3562bo272bo530bobo17bo945b2o3126b2o1814bo3018b$3563b2o284bo518bo31b2o931b2o4938bobo3019b$3562b2o285b2o531bo18b2o929bo7962b$3848bobo531b2o16bo946b2o7946b$4381bobo31b2o929bobo4933b3o3010b$3863b3o548bobo931bo4933bo2bo3009b$3865bo530b3o17bo945bo4919bo3012b$3864bo533bo31bo931b2o4912bo5bo3012b$3878b2o517bo32b2o929bobo4897bo13b3o5bobo3009b$3879b2o530b2o16bobo5828b3o12bob2o3016b$3878bo533b2o962b3o4880b2obo13b3o3016b$3893b2o516bo32b3o931bo4880b3o14b2o3017b$3892bobo531b2o18bo930bo4882b2o3033b$3894bo530bobo17bo945b2o7902b$3908bo518bo31b2o931b2o7901b$3908b2o531bo18b2o929bo4001b2o3900b$3907bobo531b2o16bo946b2o3985b2o3900b$4440bobo31b2o929bobo7887b$3922b3o548bobo931bo7887b$3924bo530b3o17bo945bo7873b$3923bo533bo31bo931b2o7872b$3937b2o517bo32b2o929bobo3070b4o4798b$3938b2o530b2o16bobo4001bo3bo4798b$3937bo533b2o962b3o3058bo4798b$3952b2o516bo32b3o931bo3054bo2bo4799b$3951bobo531b2o18bo930bo7858b$3953bo530bobo17bo945b2o7843b$3967bo518bo31b2o931b2o7842b$3967b2o531bo18b2o929bo7844b$3966bobo531b2o16bo946b2o7828b$4499bobo31b2o929bobo4817b3o3008b$3981b3o548bobo931bo4817bo2bo3007b$3983bo530b3o17bo945bo4803bo3010b$3982bo533bo31bo931b2o4802bo3010b$3996b2o517bo32b2o929bobo4803bobo3007b$3997b2o530b2o16bobo8745b$3996bo533b2o962b3o7798b$4011b2o516bo32b3o931bo3154bo2bo1637b3o3000b$4010bobo531b2o18bo930bo3159bo1635bo2bo3000b$3668bo343bo530bobo17bo945b2o3140bo3bo1638bo3000b$3667bo358bo518bo31b2o931b2o3140b4o1630bo7bo3000b$3667b3o356b2o531bo18b2o929bo4761bo13b3o3bobo3001b$4025bobo531b2o16bo946b2o4744b3o11b2obo3007b$3578bo979bobo31b2o929bobo4744bob2o10b3o3008b$3576bobo461b3o548bobo931bo3003b2o1740b3o11b2o3008b$3577b2o463bo530b3o17bo945bo2987b2ob2o1739b2o3022b$4041bo533bo31bo931b2o2986b4o4764b$4055b2o517bo32b2o929bobo2987b2o4765b$4056b2o530b2o16bobo8686b$4055bo533b2o962b3o7739b$4070b2o516bo32b3o931bo7739b$4069bobo531b2o18bo930bo7740b$4071bo530bobo17bo945b2o7725b$4085bo518bo31b2o931b2o7724b$4085b2o531bo18b2o929bo7726b$4084bobo531b2o16bo946b2o7710b$4617bobo31b2o929bobo7710b$4099b3o548bobo931bo7710b$4101bo530b3o17bo945bo7696b$4100bo533bo31bo931b2o7695b$4114b2o517bo32b2o929bobo7695b$4115b2o530b2o16bobo4715b2o3910b$4114bo533b2o962b3o3768b2o3910b$4129b2o516bo32b3o931bo4679b3o2998b$4128bobo531b2o18bo930bo4679bo2bo2998b$4130bo530bobo17bo945b2o4667bo2998b$4144bo518bo31b2o931b2o2931bo2bo1731bo2998b$4144b2o531bo18b2o929bo2937bo1727bobo2999b$4143bobo531b2o16bo946b2o2917bo3bo4729b$4676bobo31b2o929bobo2918b4o4729b$4158b3o548bobo931bo4658b3o2990b$4160bo530b3o17bo945bo4644bo2bo2989b$4159bo533bo31bo931b2o4643bo2992b$4173b2o517bo32b2o929bobo4637bo5bo2992b$4174b2o530b2o16bobo5554bo13b3o5bobo2989b$4173bo533b2o962b3o4606b3o12bob2o2996b$4188b2o516bo32b3o931bo4605b2obo13b3o2996b$4187bobo531b2o18bo930bo4606b3o14b2o2997b$4189bo530bobo17bo945b2o4592b2o3013b$4203bo518bo31b2o931b2o7606b$4203b2o531bo18b2o929bo7608b$4202bobo531b2o16bo946b2o7592b$3644bo1090bobo31b2o929bobo7592b$3642b2o573b3o548bobo931bo7592b$3643b2o574bo530b3o17bo945bo3004b4o4570b$4218bo533bo31bo931b2o3002bo3bo4570b$3591bobo638b2o517bo32b2o929bobo3006bo4570b$3592b2o639b2o530b2o16bobo3934bo2bo4571b$3592bo639bo533b2o962b3o7562b$4247b2o516bo32b3o931bo2864b2o4696b$4246bobo531b2o18bo930bo2864b4o4695b$4248bo530bobo17bo945b2o2849b2ob2o4694b$4262bo518bo31b2o931b2o2850b2o4695b$4262b2o531bo18b2o929bo7549b$4261bobo531b2o16bo946b2o7533b$4794bobo31b2o929bobo7533b$4276b3o548bobo931bo4542b3o2988b$4278bo530b3o17bo945bo4528bo2bo2987b$4277bo533bo31bo931b2o4527bo2990b$4291b2o517bo32b2o929bobo4527bo2990b$4292b2o530b2o16bobo5460bobo2987b$4291bo533b2o962b3o7503b$4306b2o516bo32b3o931bo7503b$4305bobo531b2o18bo930bo4521b3o2980b$4307bo530bobo17bo945b2o4505bo2bo2980b$4321bo518bo31b2o931b2o4507bo2980b$4321b2o531bo18b2o929bo4501bo7bo2980b$4320bobo531b2o16bo946b2o3552b2o916bo13b3o3bobo2981b$4853bobo31b2o929bobo3552b2o915b3o11b2obo2987b$4335b3o548bobo931bo4469bob2o10b3o2988b$4337bo530b3o17bo945bo4456b3o11b2o2988b$4336bo533bo31bo931b2o4455b2o3002b$4350b2o517bo32b2o929bobo7459b$4351b2o530b2o16bobo3727b4o4660b$4350bo533b2o962b3o2779bo3bo4660b$4365b2o516bo32b3o931bo2783bo4660b$4364bobo531b2o18bo930bo2780bo2bo4661b$4366bo530bobo17bo945b2o7430b$4380bo518bo31b2o931b2o7429b$4380b2o531bo18b2o929bo7431b$4379bobo531b2o16bo946b2o7415b$4912bobo31b2o929bobo7415b$4394b3o548bobo931bo7415b$4396bo530b3o17bo945bo7401b$4395bo533bo31bo931b2o7400b$3618bo790b2o517bo32b2o929bobo7400b$3618bobo789b2o530b2o16bobo8332b$3618b2o789bo533b2o962b3o7385b$3607bo816b2o516bo32b3o931bo7385b$3608bo814bobo531b2o18bo930bo2880bo2bo1521b3o2978b$3606b3o816bo530bobo17bo945b2o2869bo1519bo2bo2978b$4439bo518bo31b2o931b2o2864bo3bo1522bo2978b$4439b2o531bo18b2o929bo2867b4o1522bo2978b$4438bobo531b2o16bo946b2o4374bobo2979b$4971bobo31b2o929bobo7356b$4453b3o548bobo931bo7356b$4455bo530b3o17bo945bo2714b2o1653b3o2970b$4454bo533bo31bo931b2o2711b2ob2o1652bo2bo2969b$4468b2o517bo32b2o929bobo2711b4o1653bo2972b$4469b2o530b2o16bobo3644b2o1648bo5bo2972b$4468bo533b2o962b3o4332bo13b3o5bobo2969b$4483b2o516bo32b3o931bo4331b3o12bob2o2976b$4482bobo531b2o18bo930bo4331b2obo13b3o2976b$4484bo530bobo17bo945b2o4316b3o14b2o2977b$4498bo518bo31b2o931b2o4316b2o2993b$4498b2o531bo18b2o929bo7313b$4497bobo531b2o16bo946b2o7297b$5030bobo31b2o929bobo7297b$4512b3o548bobo931bo7297b$4514bo530b3o17bo945bo7283b$4513bo533bo31bo931b2o7282b$4527b2o517bo32b2o929bobo7282b$4528b2o530b2o16bobo8214b$4527bo533b2o962b3o3335b2o3930b$4542b2o516bo32b3o931bo3335b2o3930b$4541bobo531b2o18bo930bo7268b$4543bo530bobo17bo945b2o7253b$4557bo518bo31b2o931b2o7252b$4557b2o531bo18b2o929bo2658bo2bo4592b$4556bobo531b2o16bo946b2o2646bo4591b$5089bobo31b2o929bobo2642bo3bo4591b$4571b3o548bobo931bo2643b4o4591b$4573bo530b3o17bo945bo4253b3o2968b$4572bo533bo31bo931b2o4252bo2bo2967b$4586b2o517bo32b2o929bobo4252bo2970b$4587b2o530b2o16bobo5184bo2970b$4586bo533b2o962b3o4238bobo2967b$4601b2o516bo32b3o931bo7208b$4600bobo531b2o18bo930bo7209b$4602bo530bobo17bo945b2o4231b3o2960b$4616bo518bo31b2o931b2o4229bo2bo2960b$4616b2o531bo18b2o929bo4234bo2960b$4615bobo531b2o16bo946b2o4210bo7bo2960b$5148bobo31b2o929bobo4195bo13b3o3bobo2961b$4630b3o548bobo931bo4194b3o11b2obo2967b$4632bo530b3o17bo945bo4180bob2o10b3o2968b$4631bo533bo31bo931b2o2728b4o1448b3o11b2o2968b$4645b2o517bo32b2o929bobo2727bo3bo1448b2o2982b$4646b2o530b2o16bobo3663bo4432b$4645bo533b2o962b3o2712bo2bo4433b$4660b2o516bo32b3o931bo7149b$4659bobo531b2o18bo930bo2590b2o4558b$4661bo530bobo17bo945b2o2574b4o4557b$4675bo518bo31b2o931b2o2573b2ob2o4556b$4675b2o531bo18b2o929bo2577b2o4557b$4674bobo531b2o16bo946b2o7120b$5207bobo31b2o929bobo7120b$4689b3o548bobo931bo7120b$4691bo530b3o17bo945bo7106b$4690bo533bo31bo931b2o7105b$4704b2o517bo32b2o929bobo7105b$4705b2o530b2o16bobo8037b$4704bo533b2o962b3o7090b$4719b2o516bo32b3o931bo7090b$4718bobo531b2o18bo930bo7091b$4720bo530bobo17bo945b2o4115b3o2958b$4734bo518bo31b2o931b2o4113bo2bo2958b$4734b2o531bo18b2o929bo4118bo2958b$4733bobo531b2o16bo946b2o4102bo2958b$5266bobo31b2o929bobo3119b2o978bobo2959b$4748b3o548bobo931bo3119b2o3940b$4750bo530b3o17bo945bo7047b$4749bo533bo31bo931b2o4093b3o2950b$4763b2o517bo32b2o929bobo4093bo2bo2949b$4764b2o530b2o16bobo5025bo2952b$4763bo533b2o962b3o2505b4o1563bo5bo2952b$4778b2o516bo32b3o931bo2504bo3bo1548bo13b3o5bobo2949b$4777bobo531b2o18bo930bo2509bo1547b3o12bob2o2956b$4779bo530bobo17bo945b2o2490bo2bo1547b2obo13b3o2956b$4793bo518bo31b2o931b2o4040b3o14b2o2957b$4793b2o531bo18b2o929bo4043b2o2973b$4792bobo531b2o16bo946b2o7002b$5325bobo31b2o929bobo7002b$4807b3o548bobo931bo7002b$4809bo530b3o17bo945bo6988b$4808bo533bo31bo931b2o6987b$4822b2o517bo32b2o929bobo6987b$4823b2o530b2o16bobo7919b$4822bo533b2o962b3o6972b$4837b2o516bo32b3o931bo6972b$4836bobo531b2o18bo930bo6973b$4838bo530bobo17bo945b2o2590bo2bo4364b$4852bo518bo31b2o931b2o2593bo4363b$4852b2o531bo18b2o929bo2591bo3bo4363b$4851bobo531b2o16bo946b2o2576b4o4363b$5384bobo31b2o929bobo6943b$4866b3o548bobo931bo6943b$4868bo530b3o17bo945bo6929b$4867bo533bo31bo931b2o2438b2o1537b3o2948b$4881b2o517bo32b2o929bobo2436b2ob2o1536bo2bo2947b$4882b2o530b2o16bobo3368b4o1537bo2950b$4881bo533b2o962b3o2422b2o1538bo2950b$4896b2o516bo32b3o931bo3963bobo2947b$4895bobo531b2o18bo930bo6914b$4897bo530bobo17bo945b2o6899b$4911bo518bo31b2o931b2o3955b3o2940b$4911b2o531bo18b2o929bo3956bo2bo2940b$4910bobo531b2o16bo946b2o3943bo2940b$5443bobo31b2o929bobo3935bo7bo2940b$4925b3o548bobo931bo3920bo13b3o3bobo2941b$4927bo530b3o17bo945bo3905b3o11b2obo2947b$4926bo533bo31bo931b2o3904bob2o10b3o2948b$4940b2o517bo32b2o929bobo3905b3o11b2o2948b$4941b2o530b2o16bobo4837b2o2962b$4940bo533b2o962b3o6854b$4955b2o516bo32b3o931bo2902b2o3950b$4954bobo531b2o18bo930bo2903b2o3950b$4956bo530bobo17bo945b2o6840b$4970bo518bo31b2o931b2o6839b$4970b2o531bo18b2o929bo6841b$4969bobo531b2o16bo946b2o2367bo2bo4454b$5502bobo31b2o929bobo2371bo4453b$4984b3o548bobo931bo2367bo3bo4453b$4986bo530b3o17bo945bo2354b4o4453b$4985bo533bo31bo931b2o6810b$4999b2o517bo32b2o929bobo6810b$5000b2o530b2o16bobo7742b$4999bo533b2o962b3o6795b$5014b2o516bo32b3o931bo6795b$5013bobo531b2o18bo930bo6796b$5015bo530bobo17bo945b2o6781b$5029bo518bo31b2o931b2o3839b3o2938b$5029b2o531bo18b2o929bo3840bo2bo2938b$5028bobo531b2o16bo946b2o3827bo2938b$5561bobo31b2o929bobo3827bo2938b$5043b3o548bobo931bo3824bobo2939b$5045bo530b3o17bo945bo6752b$5044bo533bo31bo931b2o6751b$5058b2o517bo32b2o929bobo2453b4o1361b3o2930b$5059b2o530b2o16bobo3384bo3bo1361bo2bo2929b$5058bo533b2o962b3o2441bo1361bo2932b$5073b2o516bo32b3o931bo2437bo2bo1356bo5bo2932b$5072bobo531b2o18bo930bo3783bo13b3o5bobo2929b$5074bo530bobo17bo945b2o2300b2o1465b3o12bob2o2936b$5088bo518bo31b2o931b2o2298b4o1463b2obo13b3o2936b$5088b2o531bo18b2o929bo2300b2ob2o1462b3o14b2o2937b$5087bobo531b2o16bo946b2o2286b2o1464b2o2953b$5620bobo31b2o929bobo6707b$5102b3o548bobo931bo6707b$5104bo530b3o17bo945bo6693b$5103bo533bo31bo931b2o6692b$5117b2o517bo32b2o929bobo6692b$5118b2o530b2o16bobo7624b$5117bo533b2o962b3o6677b$5132b2o516bo32b3o931bo6677b$5131bobo531b2o18bo930bo6678b$5133bo530bobo17bo945b2o6663b$5147bo518bo31b2o931b2o6662b$5147b2o531bo18b2o929bo6664b$5146bobo531b2o16bo946b2o6648b$5679bobo31b2o929bobo6648b$5161b3o548bobo931bo2686b2o3960b$5163bo530b3o17bo945bo2672b2o3960b$5162bo533bo31bo931b2o6633b$5176b2o517bo32b2o929bobo3702b3o2928b$5177b2o530b2o16bobo4634bo2bo2927b$5176bo533b2o962b3o3687bo2930b$5191b2o516bo32b3o931bo2230b4o1453bo2930b$5190bobo531b2o18bo930bo2230bo3bo1454bobo2927b$5192bo530bobo17bo945b2o2219bo4384b$5206bo518bo31b2o931b2o2214bo2bo4385b$5206b2o531bo18b2o929bo3682b3o2920b$5205bobo531b2o16bo946b2o3665bo2bo2920b$5738bobo31b2o929bobo3668bo2920b$5220b3o548bobo931bo3660bo7bo2920b$5222bo530b3o17bo945bo3631bo13b3o3bobo2921b$5221bo533bo31bo931b2o3629b3o11b2obo2927b$5235b2o517bo32b2o929bobo3629bob2o10b3o2928b$5236b2o530b2o16bobo4562b3o11b2o2928b$5235bo533b2o962b3o3615b2o2942b$5250b2o516bo32b3o931bo6559b$5249bobo531b2o18bo930bo6560b$5251bo530bobo17bo945b2o6545b$5265bo518bo31b2o931b2o2314bo2bo4226b$5265b2o531bo18b2o929bo2320bo4225b$5264bobo531b2o16bo946b2o2300bo3bo4225b$5797bobo31b2o929bobo2301b4o4225b$5279b3o548bobo931bo6530b$5281bo530b3o17bo945bo6516b$5280bo533bo31bo931b2o6515b$5294b2o517bo32b2o929bobo2163b2o4350b$5295b2o530b2o16bobo3093b2ob2o4349b$5294bo533b2o962b3o2146b4o4350b$5309b2o516bo32b3o931bo2147b2o4351b$5308bobo531b2o18bo930bo6501b$5310bo530bobo17bo945b2o6486b$5324bo518bo31b2o931b2o6485b$5324b2o531bo18b2o929bo3566b3o2918b$5323bobo531b2o16bo946b2o3549bo2bo2918b$5856bobo31b2o929bobo3552bo2918b$5338b3o548bobo931bo3552bo2918b$5340bo530b3o17bo945bo3535bobo2919b$5339bo533bo31bo931b2o6456b$5353b2o517bo32b2o929bobo6456b$5354b2o530b2o16bobo4475b3o2910b$5353bo533b2o962b3o3528bo2bo2909b$5368b2o516bo32b3o931bo3528bo2912b$5367bobo531b2o18bo930bo2470b2o1051bo5bo2912b$5369bo530bobo17bo945b2o2455b2o1036bo13b3o5bobo2909b$5383bo518bo31b2o931b2o3491b3o12bob2o2916b$5383b2o531bo18b2o929bo3492b2obo13b3o2916b$5382bobo531b2o16bo946b2o3476b3o14b2o2917b$5915bobo31b2o929bobo2092bo2bo1381b2o2933b$5397b3o548bobo931bo2096bo4315b$5399bo530b3o17bo945bo2078bo3bo4315b$5398bo533bo31bo931b2o2078b4o4315b$5412b2o517bo32b2o929bobo6397b$5413b2o530b2o16bobo7329b$5412bo533b2o962b3o6382b$5427b2o516bo32b3o931bo6382b$5426bobo531b2o18bo930bo6383b$5428bo530bobo17bo945b2o6368b$5442bo518bo31b2o931b2o6367b$5442b2o531bo18b2o929bo6369b$5441bobo531b2o16bo946b2o6353b$5974bobo31b2o929bobo6353b$5456b3o548bobo931bo6353b$5458bo530b3o17bo945bo6339b$5457bo533bo31bo931b2o6338b$5471b2o517bo32b2o929bobo6338b$5472b2o530b2o16bobo3110b4o1245b3o2908b$5471bo533b2o962b3o2162bo3bo1245bo2bo2907b$5486b2o516bo32b3o931bo2166bo1245bo2910b$5485bobo531b2o18bo930bo2163bo2bo1246bo2910b$5487bo530bobo17bo945b2o3399bobo2907b$5501bo518bo31b2o931b2o2024b2o4282b$5501b2o531bo18b2o929bo2025b4o4281b$5500bobo531b2o16bo946b2o2009b2ob2o1377b3o2900b$6033bobo31b2o929bobo2011b2o1377bo2bo2900b$5515b3o548bobo931bo3393bo2900b$5517bo530b3o17bo945bo3371bo7bo2900b$5516bo533bo31bo931b2o3355bo13b3o3bobo2901b$5530b2o517bo32b2o929bobo3354b3o11b2obo2907b$5531b2o530b2o16bobo4286bob2o10b3o2908b$5530bo533b2o962b3o3340b3o11b2o2908b$5545b2o516bo32b3o931bo3340b2o2922b$5544bobo531b2o18bo930bo6265b$5546bo530bobo17bo945b2o6250b$5560bo518bo31b2o931b2o6249b$5560b2o531bo18b2o929bo6251b$5559bobo531b2o16bo946b2o6235b$6092bobo31b2o929bobo6235b$5574b3o548bobo931bo6235b$5576bo530b3o17bo945bo2239b2o3980b$5575bo533bo31bo931b2o2238b2o3980b$5589b2o517bo32b2o929bobo6220b$5590b2o530b2o16bobo7152b$5589bo533b2o962b3o6205b$5604b2o516bo32b3o931bo6205b$5603bobo531b2o18bo930bo1956b4o4246b$5605bo530bobo17bo945b2o1940bo3bo4246b$5619bo518bo31b2o931b2o1943bo4246b$5619b2o531bo18b2o929bo1941bo2bo4247b$5618bobo531b2o16bo946b2o3275b3o2898b$6151bobo31b2o929bobo3274bo2bo2898b$5633b3o548bobo931bo3277bo2898b$5635bo530b3o17bo945bo3263bo2898b$5634bo533bo31bo931b2o3259bobo2899b$5648b2o517bo32b2o929bobo6161b$5649b2o530b2o16bobo7093b$5648bo533b2o962b3o3253b3o2890b$5663b2o516bo32b3o931bo3253bo2bo2889b$5662bobo531b2o18bo930bo3254bo2892b$5664bo530bobo17bo945b2o3233bo5bo2892b$5678bo518bo31b2o931b2o3217bo13b3o5bobo2889b$5678b2o531bo18b2o929bo2041bo2bo1173b3o12bob2o2896b$5677bobo531b2o16bo946b2o2029bo1171b2obo13b3o2896b$6210bobo31b2o929bobo2025bo3bo1171b3o14b2o2897b$5692b3o548bobo931bo2026b4o1172b2o2913b$5694bo530b3o17bo945bo6103b$5693bo533bo31bo931b2o6102b$5707b2o517bo32b2o929bobo6102b$5708b2o530b2o16bobo2820b2o4212b$5707bo533b2o962b3o1871b2ob2o4211b$5722b2o516bo32b3o931bo1871b4o4212b$5721bobo531b2o18bo930bo1873b2o4213b$5723bo530bobo17bo945b2o6073b$5737bo518bo31b2o931b2o6072b$5737b2o531bo18b2o929bo6074b$5736bobo531b2o16bo946b2o6058b$6269bobo31b2o929bobo6058b$5751b3o548bobo931bo6058b$5753bo530b3o17bo945bo6044b$5752bo533bo31bo931b2o6043b$5766b2o517bo32b2o929bobo6043b$5767b2o530b2o16bobo6975b$5766bo533b2o962b3o3137b3o2888b$5781b2o516bo32b3o931bo3137bo2bo2887b$5780bobo531b2o18bo930bo3138bo2890b$5782bo530bobo17bo945b2o2022b2o1099bo2890b$5796bo518bo31b2o931b2o2021b2o1100bobo2887b$5796b2o531bo18b2o929bo6015b$5795bobo531b2o16bo946b2o5999b$6328bobo31b2o929bobo3116b3o2880b$5810b3o548bobo931bo1817bo2bo1294bo2bo2880b$5812bo530b3o17bo945bo1807bo1296bo2880b$5811bo533bo31bo931b2o1802bo3bo1288bo7bo2880b$5825b2o517bo32b2o929bobo1803b4o1273bo13b3o3bobo2881b$5826b2o530b2o16bobo4011b3o11b2obo2887b$5825bo533b2o962b3o3064bob2o10b3o2888b$5840b2o516bo32b3o931bo3065b3o11b2o2888b$5839bobo531b2o18bo930bo3066b2o2902b$5841bo530bobo17bo945b2o5955b$5855bo518bo31b2o931b2o5954b$5855b2o531bo18b2o929bo5956b$5854bobo531b2o16bo946b2o5940b$6387bobo31b2o929bobo5940b$5869b3o548bobo931bo5940b$5871bo530b3o17bo945bo5926b$5870bo533bo31bo931b2o5925b$5884b2o517bo32b2o929bobo5925b$5885b2o530b2o16bobo6857b$5884bo533b2o962b3o1888b4o4018b$5899b2o516bo32b3o931bo1887bo3bo4018b$5898bobo531b2o18bo930bo1892bo4018b$5900bo530bobo17bo945b2o1873bo2bo4019b$5914bo518bo31b2o931b2o5895b$5914b2o531bo18b2o929bo1751b2o4144b$5913bobo531b2o16bo946b2o1734b4o4143b$6446bobo31b2o929bobo1734b2ob2o1261b3o2878b$5928b3o548bobo931bo1736b2o1261bo2bo2878b$5930bo530b3o17bo945bo2988bo2878b$5929bo533bo31bo931b2o2987bo2878b$5943b2o517bo32b2o929bobo2984bobo2879b$5944b2o530b2o16bobo6798b$5943bo533b2o962b3o5851b$5958b2o516bo32b3o931bo2978b3o2870b$5957bobo531b2o18bo930bo2979bo2bo2869b$5959bo530bobo17bo945b2o2964bo2872b$5973bo518bo31b2o931b2o2957bo5bo2872b$5973b2o531bo18b2o929bo2944bo13b3o5bobo2869b$5972bobo531b2o16bo946b2o2927b3o12bob2o2876b$6505bobo31b2o929bobo2926b2obo13b3o2876b$5987b3o548bobo931bo2926b3o14b2o2877b$5989bo530b3o17bo945bo2913b2o2893b$5988bo533bo31bo931b2o1805b2o4000b$6002b2o517bo32b2o929bobo1805b2o4000b$6003b2o530b2o16bobo6739b$6002bo533b2o962b3o5792b$6017b2o516bo32b3o931bo5792b$6016bobo531b2o18bo930bo5793b$6018bo530bobo17bo945b2o1666b4o4108b$6032bo518bo31b2o931b2o1664bo3bo4108b$6032b2o531bo18b2o929bo1670bo4108b$6031bobo531b2o16bo946b2o1650bo2bo4109b$6564bobo31b2o929bobo5763b$6046b3o548bobo931bo5763b$6048bo530b3o17bo945bo5749b$6047bo533bo31bo931b2o5748b$6061b2o517bo32b2o929bobo5748b$6062b2o530b2o16bobo6680b$6061bo533b2o962b3o5733b$6076b2o516bo32b3o931bo2862b3o2868b$6075bobo531b2o18bo930bo2863bo2bo2867b$6077bo530bobo17bo945b2o2848bo2870b$6091bo518bo31b2o931b2o2847bo2870b$6091b2o531bo18b2o929bo2850bobo2867b$6090bobo531b2o16bo946b2o1750bo2bo3950b$6623bobo31b2o929bobo1754bo3949b$6105b3o548bobo931bo1750bo3bo1086b3o2860b$6107bo530b3o17bo945bo1737b4o1085bo2bo2860b$6106bo533bo31bo931b2o2828bo2860b$6120b2o517bo32b2o929bobo2820bo7bo2860b$6121b2o530b2o16bobo3737bo13b3o3bobo2861b$6120bo533b2o962b3o1598b2o1189b3o11b2obo2867b$6135b2o516bo32b3o931bo1596b2ob2o1188bob2o10b3o2868b$6134bobo531b2o18bo930bo1597b4o1190b3o11b2o2868b$6136bo530bobo17bo945b2o1583b2o1191b2o2882b$6150bo518bo31b2o931b2o5659b$6150b2o531bo18b2o929bo5661b$6149bobo531b2o16bo946b2o5645b$6682bobo31b2o929bobo5645b$6164b3o548bobo931bo5645b$6166bo530b3o17bo945bo5631b$6165bo533bo31bo931b2o5630b$6179b2o517bo32b2o929bobo5630b$6180b2o530b2o16bobo6562b$6179bo533b2o962b3o5615b$6194b2o516bo32b3o931bo5615b$6193bobo531b2o18bo930bo5616b$6195bo530bobo17bo945b2o5601b$6209bo518bo31b2o931b2o1588b2o4010b$6209b2o531bo18b2o929bo1590b2o4010b$6208bobo531b2o16bo946b2o5586b$6741bobo31b2o929bobo5586b$6223b3o548bobo931bo2725b3o2858b$6225bo530b3o17bo945bo1528bo2bo1178bo2bo2858b$6224bo533bo31bo931b2o1531bo1180bo2858b$6238b2o517bo32b2o929bobo1527bo3bo1180bo2858b$6239b2o530b2o16bobo2460b4o1177bobo2859b$6238bo533b2o962b3o5556b$6253b2o516bo32b3o931bo5556b$6252bobo531b2o18bo930bo2704b3o2850b$6254bo530bobo17bo945b2o2689bo2bo2849b$6268bo518bo31b2o931b2o2688bo2852b$6268b2o531bo18b2o929bo2684bo5bo2852b$6267bobo531b2o16bo946b2o2653bo13b3o5bobo2849b$6800bobo31b2o929bobo2652b3o12bob2o2856b$6282b3o548bobo931bo2651b2obo13b3o2856b$6284bo530b3o17bo945bo2637b3o14b2o2857b$6283bo533bo31bo931b2o2637b2o2873b$6297b2o517bo32b2o929bobo5512b$6298b2o530b2o16bobo6444b$6297bo533b2o962b3o5497b$6312b2o516bo32b3o931bo1613b4o3880b$6311bobo531b2o18bo930bo1613bo3bo3880b$6313bo530bobo17bo945b2o1602bo3880b$6327bo518bo31b2o931b2o1597bo2bo3881b$6327b2o531bo18b2o929bo5484b$6326bobo531b2o16bo946b2o1460b2o4006b$6859bobo31b2o929bobo1459b4o4005b$6341b3o548bobo931bo1459b2ob2o4004b$6343bo530b3o17bo945bo1447b2o4005b$6342bo533bo31bo931b2o5453b$6356b2o517bo32b2o929bobo5453b$6357b2o530b2o16bobo6385b$6356bo533b2o962b3o5438b$6371b2o516bo32b3o931bo5438b$6370bobo531b2o18bo930bo2588b3o2848b$6372bo530bobo17bo945b2o2573bo2bo2847b$6386bo518bo31b2o931b2o2572bo2850b$6386b2o531bo18b2o929bo2574bo2850b$6385bobo531b2o16bo946b2o2559bobo2847b$6918bobo31b2o929bobo5409b$6400b3o548bobo931bo5409b$6402bo530b3o17bo945bo2552b3o2840b$6401bo533bo31bo931b2o2550bo2bo2840b$6415b2o517bo32b2o929bobo1372b2o1179bo2840b$6416b2o530b2o16bobo2304b2o1171bo7bo2840b$6415bo533b2o962b3o2515bo13b3o3bobo2841b$6430b2o516bo32b3o931bo2514b3o11b2obo2847b$6429bobo531b2o18bo930bo2515bob2o10b3o2848b$6431bo530bobo17bo945b2o2501b3o11b2o2848b$6445bo518bo31b2o931b2o1390b4o1106b2o2862b$6445b2o531bo18b2o929bo1391bo3bo3970b$6444bobo531b2o16bo946b2o1379bo3970b$6977bobo31b2o929bobo1375bo2bo3971b$6459b3o548bobo931bo5350b$6461bo530b3o17bo945bo5336b$6460bo533bo31bo931b2o5335b$6474b2o517bo32b2o929bobo5335b$6475b2o530b2o16bobo6267b$6474bo533b2o962b3o5320b$6489b2o516bo32b3o931bo5320b$6488bobo531b2o18bo930bo5321b$6490bo530bobo17bo945b2o5306b$6504bo518bo31b2o931b2o5305b$6504b2o531bo18b2o929bo5307b$6503bobo531b2o16bo946b2o5291b$7036bobo31b2o929bobo1475bo2bo3812b$6518b3o548bobo931bo1479bo3811b$6520bo530b3o17bo945bo1461bo3bo970b3o2838b$6519bo533bo31bo931b2o1461b4o969bo2bo2838b$6533b2o517bo32b2o929bobo2437bo2838b$6534b2o530b2o16bobo3369bo2838b$6533bo533b2o962b3o2419bobo2839b$6548b2o516bo32b3o931bo1323b2o3936b$6547bobo531b2o18bo930bo1322b2ob2o3935b$6549bo530bobo17bo945b2o1307b4o1103b3o2830b$6563bo518bo31b2o931b2o1307b2o1104bo2bo2829b$6563b2o531bo18b2o929bo2415bo2832b$6562bobo531b2o16bo946b2o2393bo5bo2832b$7095bobo31b2o929bobo2378bo13b3o5bobo2829b$6577b3o548bobo931bo2377b3o12bob2o2836b$6579bo530b3o17bo945bo2362b2obo13b3o2836b$6578bo533bo31bo931b2o2361b3o14b2o2837b$6592b2o517bo32b2o929bobo2362b2o2853b$6593b2o530b2o16bobo6149b$6592bo533b2o962b3o5202b$6607b2o516bo32b3o931bo5202b$6606bobo531b2o18bo930bo5203b$6608bo530bobo17bo945b2o5188b$6622bo518bo31b2o931b2o5187b$6622b2o531bo18b2o929bo1157b2o4030b$6621bobo531b2o16bo946b2o1141b2o4030b$7154bobo31b2o929bobo5173b$6636b3o548bobo931bo5173b$6638bo530b3o17bo945bo5159b$6637bo533bo31bo931b2o1252bo2bo3902b$6651b2o517bo32b2o929bobo1256bo3901b$6652b2o530b2o16bobo2184bo3bo3901b$6651bo533b2o962b3o1238b4o3901b$6666b2o516bo32b3o931bo5143b$6665bobo531b2o18bo930bo5144b$6667bo530bobo17bo945b2o2298b3o2828b$6681bo518bo31b2o931b2o2297bo2bo2827b$6681b2o531bo18b2o929bo2299bo2830b$6680bobo531b2o16bo946b2o2283bo2830b$7213bobo31b2o929bobo2284bobo2827b$6695b3o548bobo931bo5114b$6697bo530b3o17bo945bo5100b$6696bo533bo31bo931b2o2276b3o2820b$6710b2o517bo32b2o929bobo2275bo2bo2820b$6711b2o530b2o16bobo3210bo2820b$6710bo533b2o962b3o2255bo7bo2820b$6725b2o516bo32b3o931bo2240bo13b3o3bobo2821b$6724bobo531b2o18bo930bo1339b4o897b3o11b2obo2827b$6726bo530bobo17bo945b2o1323bo3bo897bob2o10b3o2828b$6740bo518bo31b2o931b2o1326bo898b3o11b2o2828b$6740b2o531bo18b2o929bo1324bo2bo899b2o2842b$6739bobo531b2o16bo946b2o5055b$7272bobo31b2o929bobo1185b2o3868b$6754b3o548bobo931bo1184b4o3867b$6756bo530b3o17bo945bo1170b2ob2o3866b$6755bo533bo31bo931b2o1171b2o3867b$6769b2o517bo32b2o929bobo5040b$6770b2o530b2o16bobo5972b$6769bo533b2o962b3o5025b$6784b2o516bo32b3o931bo5025b$6783bobo531b2o18bo930bo5026b$6785bo530bobo17bo945b2o5011b$6799bo518bo31b2o931b2o5010b$6799b2o531bo18b2o929bo5012b$6798bobo531b2o16bo946b2o4996b$7331bobo31b2o929bobo4996b$6813b3o548bobo931bo4996b$6815bo530b3o17bo945bo4982b$6814bo533bo31bo931b2o2160b3o2818b$6828b2o517bo32b2o929bobo2159bo2bo2818b$6829b2o530b2o16bobo1871b2o1221bo2818b$6828bo533b2o962b3o924b2o1221bo2818b$6843b2o516bo32b3o931bo2144bobo2819b$6842bobo531b2o18bo930bo4967b$6844bo530bobo17bo945b2o4952b$6858bo518bo31b2o931b2o2138b3o2810b$6858b2o531bo18b2o929bo1117b4o1019bo2bo2809b$6857bobo531b2o16bo946b2o1100bo3bo1019bo2812b$7390bobo31b2o929bobo1104bo1013bo5bo2812b$6872b3o548bobo931bo1100bo2bo999bo13b3o5bobo2809b$6874bo530b3o17bo945bo2088b3o12bob2o2816b$6873bo533bo31bo931b2o2086b2obo13b3o2816b$6887b2o517bo32b2o929bobo2086b3o14b2o2817b$6888b2o530b2o16bobo3019b2o2833b$6887bo533b2o962b3o4907b$6902b2o516bo32b3o931bo4907b$6901bobo531b2o18bo930bo4908b$6903bo530bobo17bo945b2o4893b$6917bo518bo31b2o931b2o4892b$6917b2o531bo18b2o929bo4894b$6916bobo531b2o16bo946b2o4878b$7449bobo31b2o929bobo4878b$6931b3o548bobo931bo1200bo2bo3674b$6933bo530b3o17bo945bo1190bo3673b$6932bo533bo31bo931b2o1185bo3bo3673b$6946b2o517bo32b2o929bobo1186b4o3673b$6947b2o530b2o16bobo5795b$6946bo533b2o962b3o4848b$6961b2o516bo32b3o931bo4848b$6960bobo531b2o18bo930bo1049b2o3798b$6962bo530bobo17bo945b2o1032b2ob2o3797b$6976bo518bo31b2o931b2o1031b4o987b3o2808b$6976b2o531bo18b2o929bo1034b2o988bo2bo2807b$6975bobo531b2o16bo946b2o2008bo2810b$7508bobo31b2o929bobo2008bo2810b$6990b3o548bobo931bo2009bobo2807b$6992bo530b3o17bo945bo4805b$6991bo533bo31bo931b2o4804b$7005b2o517bo32b2o929bobo2001b3o2800b$7006b2o530b2o16bobo2932bo2bo2800b$7005bo533b2o962b3o1988bo2800b$7020b2o516bo32b3o931bo1980bo7bo2800b$7019bobo531b2o18bo930bo1966bo13b3o3bobo2801b$7021bo530bobo17bo945b2o1950b3o11b2obo2807b$7035bo518bo31b2o931b2o1949bob2o10b3o2808b$7035b2o531bo18b2o929bo1952b3o11b2o2808b$7034bobo531b2o16bo946b2o708b2o1226b2o2822b$7567bobo31b2o929bobo708b2o4050b$7049b3o548bobo931bo4760b$7051bo530b3o17bo945bo4746b$7050bo533bo31bo931b2o4745b$7064b2o517bo32b2o929bobo977bo2bo3764b$7065b2o530b2o16bobo1913bo3763b$7064bo533b2o962b3o962bo3bo3763b$7079b2o516bo32b3o931bo963b4o3763b$7078bobo531b2o18bo930bo4731b$7080bo530bobo17bo945b2o4716b$7094bo518bo31b2o931b2o4715b$7094b2o531bo18b2o929bo4717b$7093bobo531b2o16bo946b2o4701b$7626bobo31b2o929bobo4701b$7108b3o548bobo931bo4701b$7110bo530b3o17bo945bo4687b$7109bo533bo31bo931b2o4686b$7123b2o517bo32b2o929bobo1885b3o2798b$7124b2o530b2o16bobo2816bo2bo2798b$7123bo533b2o962b3o1872bo2798b$7138b2o516bo32b3o931bo1872bo2798b$7137bobo531b2o18bo930bo1870bobo2799b$7139bo530bobo17bo945b2o1049b4o3604b$7153bo518bo31b2o931b2o1047bo3bo3604b$7153b2o531bo18b2o929bo1053bo811b3o2790b$7152bobo531b2o16bo946b2o1033bo2bo812bo2bo2789b$7685bobo31b2o929bobo1849bo2792b$7167b3o548bobo931bo910b2o931bo5bo2792b$7169bo530b3o17bo945bo895b4o915bo13b3o5bobo2789b$7168bo533bo31bo931b2o894b2ob2o913b3o12bob2o2796b$7182b2o517bo32b2o929bobo896b2o913b2obo13b3o2796b$7183b2o530b2o16bobo2743b3o14b2o2797b$7182bo533b2o962b3o1797b2o2813b$7197b2o516bo32b3o931bo4612b$7196bobo531b2o18bo930bo4613b$7198bo530bobo17bo945b2o4598b$7212bo518bo31b2o931b2o4597b$7212b2o531bo18b2o929bo4599b$7211bobo531b2o16bo946b2o4583b$7744bobo31b2o929bobo4583b$7226b3o548bobo931bo4583b$7228bo530b3o17bo945bo4569b$7227bo533bo31bo931b2o4568b$7241b2o517bo32b2o929bobo4568b$7242b2o530b2o16bobo5500b$7241bo533b2o962b3o491b2o4060b$7256b2o516bo32b3o931bo491b2o4060b$7255bobo531b2o18bo930bo4554b$7257bo530bobo17bo945b2o4539b$7271bo518bo31b2o931b2o4538b$7271b2o531bo18b2o929bo1749b3o2788b$7270bobo531b2o16bo946b2o826b4o903bo2bo2787b$7803bobo31b2o929bobo825bo3bo903bo2790b$7285b3o548bobo931bo829bo903bo2790b$7287bo530b3o17bo945bo811bo2bo905bobo2787b$7286bo533bo31bo931b2o4509b$7300b2o517bo32b2o929bobo4509b$7301b2o530b2o16bobo2658b3o2780b$7300bo533b2o962b3o1710bo2bo2780b$7315b2o516bo32b3o931bo1713bo2780b$7314bobo531b2o18bo930bo1706bo7bo2780b$7316bo530bobo17bo945b2o1676bo13b3o3bobo2781b$7330bo518bo31b2o931b2o1674b3o11b2obo2787b$7330b2o531bo18b2o929bo1676bob2o10b3o2788b$7329bobo531b2o16bo946b2o1661b3o11b2o2788b$7862bobo31b2o929bobo1661b2o2802b$7344b3o548bobo931bo4465b$7346bo530b3o17bo945bo911bo2bo3536b$7345bo533bo31bo931b2o914bo3535b$7359b2o517bo32b2o929bobo910bo3bo3535b$7360b2o530b2o16bobo1843b4o3535b$7359bo533b2o962b3o4435b$7374b2o516bo32b3o931bo4435b$7373bobo531b2o18bo930bo4436b$7375bo530bobo17bo945b2o759b2o3660b$7389bo518bo31b2o931b2o756b2ob2o3659b$7389b2o531bo18b2o929bo758b4o3660b$7388bobo531b2o16bo946b2o743b2o3661b$7921bobo31b2o929bobo4406b$7403b3o548bobo931bo4406b$7405bo530b3o17bo945bo4392b$7404bo533bo31bo931b2o4391b$7418b2o517bo32b2o929bobo4391b$7419b2o530b2o16bobo2542b3o2778b$7418bo533b2o962b3o1594bo2bo2778b$7433b2o516bo32b3o931bo1597bo2778b$7432bobo531b2o18bo930bo1598bo2778b$7434bo530bobo17bo945b2o1580bobo2779b$7448bo518bo31b2o931b2o4361b$7448b2o531bo18b2o929bo4363b$7447bobo531b2o16bo946b2o1574b3o2770b$7980bobo31b2o929bobo275b2o1297bo2bo2769b$7462b3o548bobo931bo275b2o1297bo2772b$7464bo530b3o17bo945bo1554bo5bo2772b$7463bo533bo31bo931b2o1538bo13b3o5bobo2769b$7477b2o517bo32b2o929bobo1537b3o12bob2o2776b$7478b2o530b2o16bobo1634bo2bo830b2obo13b3o2776b$7477bo533b2o962b3o691bo829b3o14b2o2777b$7492b2o516bo32b3o931bo687bo3bo830b2o2793b$7491bobo531b2o18bo930bo689b4o3625b$7493bo530bobo17bo945b2o4303b$7507bo518bo31b2o931b2o4302b$7507b2o531bo18b2o929bo4304b$7506bobo531b2o16bo946b2o4288b$8039bobo31b2o929bobo4288b$7521b3o548bobo931bo4288b$7523bo530b3o17bo945bo4274b$7522bo533bo31bo931b2o4273b$7536b2o517bo32b2o929bobo4273b$7537b2o530b2o16bobo5205b$7536bo533b2o962b3o4258b$7551b2o516bo32b3o931bo4258b$7550bobo531b2o18bo930bo4259b$7552bo530bobo17bo945b2o4244b$7566bo518bo31b2o931b2o773b4o3466b$7566b2o531bo18b2o929bo774bo3bo3466b$7565bobo531b2o16bo946b2o762bo695b3o2768b$8098bobo31b2o929bobo758bo2bo696bo2bo2767b$7580b3o548bobo931bo1458bo2770b$7582bo530b3o17bo945bo621b2o821bo2770b$7581bo533bo31bo931b2o619b4o821bobo2767b$7595b2o517bo32b2o929bobo619b2ob2o3590b$7596b2o530b2o16bobo1553b2o3591b$7595bo533b2o962b3o1436b3o2760b$7610b2o516bo32b3o931bo1435bo2bo2760b$7609bobo531b2o18bo930bo1439bo2760b$7611bo530bobo17bo945b2o1416bo7bo2760b$7625bo518bo31b2o931b2o1400bo13b3o3bobo2761b$7625b2o531bo18b2o929bo1401b3o11b2obo2767b$7624bobo531b2o16bo946b2o1385bob2o10b3o2768b$8157bobo31b2o929bobo1386b3o11b2o2768b$7639b3o548bobo931bo1386b2o2782b$7641bo530b3o17bo945bo4156b$7640bo533bo31bo931b2o4155b$7654b2o517bo32b2o929bobo4155b$7655b2o530b2o16bobo5087b$7654bo533b2o962b3o4140b$7669b2o516bo32b3o931bo58b2o4080b$7668bobo531b2o18bo930bo59b2o4080b$7670bo530bobo17bo945b2o4126b$7684bo518bo31b2o931b2o4125b$7684b2o531bo18b2o929bo4127b$7683bobo531b2o16bo946b2o4111b$8216bobo31b2o929bobo551b4o3556b$7698b3o548bobo931bo550bo3bo3556b$7700bo530b3o17bo945bo540bo3556b$7699bo533bo31bo931b2o535bo2bo3557b$7713b2o517bo32b2o929bobo4096b$7714b2o530b2o16bobo5028b$7713bo533b2o962b3o1320b3o2758b$7728b2o516bo32b3o931bo1319bo2bo2758b$7727bobo531b2o18bo930bo1323bo2758b$7729bo530bobo17bo945b2o1308bo2758b$7743bo518bo31b2o931b2o1304bobo2759b$7743b2o531bo18b2o929bo4068b$7742bobo531b2o16bo946b2o4052b$8275bobo31b2o929bobo1299b3o2750b$7757b3o548bobo931bo1299bo2bo2749b$7759bo530b3o17bo945bo1285bo2752b$7758bo533bo31bo931b2o635bo2bo639bo5bo2752b$7772b2o517bo32b2o929bobo639bo623bo13b3o5bobo2749b$7773b2o530b2o16bobo1567bo3bo622b3o12bob2o2756b$7772bo533b2o962b3o621b4o621b2obo13b3o2756b$7787b2o516bo32b3o931bo1246b3o14b2o2757b$7786bobo531b2o18bo930bo1248b2o2773b$7788bo530bobo17bo945b2o4008b$7802bo518bo31b2o931b2o483b2o3522b$7802b2o531bo18b2o929bo483b2ob2o3521b$7801bobo531b2o16bo946b2o467b4o3522b$8334bobo31b2o929bobo468b2o3523b$7816b3o548bobo931bo3993b$7818bo530b3o17bo945bo3979b$7817bo533bo31bo931b2o3978b$7831b2o517bo32b2o929bobo3978b$7832b2o530b2o16bobo4910b$7831bo533b2o962b3o3963b$7846b2o516bo32b3o931bo3963b$7845bobo531b2o18bo930bo3964b$7847bo530bobo17bo945b2o3949b$7861bo518bo31b2o931b2o3948b$7861b2o531bo18b2o929bo3950b$7860bobo531b2o16bo946b2o3934b$8393bobo31b2o929bobo1183b3o2748b$7875b3o548bobo774b2o155bo1183bo2bo2747b$7877bo530b3o17bo774b2o169bo1169bo2750b$7876bo533bo31bo931b2o1168bo2750b$7890b2o517bo32b2o929bobo1169bobo2747b$7891b2o530b2o16bobo4851b$7890bo533b2o962b3o412bo2bo3488b$7905b2o516bo32b3o931bo416bo744b3o2740b$7904bobo531b2o18bo930bo413bo3bo743bo2bo2740b$7906bo530bobo17bo945b2o399b4o746bo2740b$7920bo518bo31b2o931b2o1140bo7bo2740b$7920b2o531bo18b2o929bo1127bo13b3o3bobo2741b$7919bobo531b2o16bo946b2o1110b3o11b2obo2747b$8452bobo31b2o929bobo1110bob2o10b3o2748b$7934b3o548bobo931bo1111b3o11b2o2748b$7936bo530b3o17bo945bo1097b2o2762b$7935bo533bo31bo931b2o3860b$7949b2o517bo32b2o929bobo3860b$7950b2o530b2o16bobo4792b$7949bo533b2o962b3o3845b$7964b2o516bo32b3o931bo3845b$7963bobo531b2o18bo930bo3846b$7965bo530bobo17bo945b2o3831b$7979bo518bo31b2o931b2o3830b$7979b2o531bo18b2o929bo500b4o3328b$7978bobo531b2o16bo946b2o483bo3bo3328b$8511bobo31b2o929bobo487bo3328b$7993b3o548bobo931bo483bo2bo3329b$7995bo530b3o17bo945bo3802b$7994bo533bo31bo931b2o345b2o3454b$8008b2o517bo32b2o929bobo344b4o3453b$8009b2o530b2o16bobo1276b2ob2o3452b$8008bo533b2o962b3o331b2o3453b$8023b2o516bo32b3o931bo1045b3o2738b$8022bobo531b2o18bo930bo1045bo2bo2738b$8024bo530bobo17bo945b2o1033bo2738b$8038bo518bo31b2o931b2o1032bo2738b$8038b2o531bo18b2o929bo1031bobo2739b$8037bobo531b2o16bo946b2o3757b$8570bobo31b2o929bobo3757b$8052b3o548bobo931bo1024b3o2730b$8054bo530b3o17bo945bo1010bo2bo2729b$8053bo533bo31bo931b2o1009bo2732b$8067b2o517bo32b2o929bobo1003bo5bo2732b$8068b2o530b2o16bobo1920bo13b3o5bobo2729b$8067bo533b2o962b3o972b3o12bob2o2736b$8082b2o516bo32b3o931bo971b2obo13b3o2736b$8081bobo531b2o18bo557b2o371bo972b3o14b2o2737b$8083bo530bobo17bo558b2o385b2o958b2o2753b$8097bo518bo31b2o931b2o3712b$8097b2o531bo18b2o929bo3714b$8096bobo531b2o16bo946b2o3698b$8629bobo31b2o929bobo3698b$8111b3o548bobo931bo276b4o3418b$8113bo530b3o17bo945bo261bo3bo3418b$8112bo533bo31bo931b2o264bo3418b$8126b2o517bo32b2o929bobo260bo2bo3419b$8127b2o530b2o16bobo4615b$8126bo533b2o962b3o3668b$8141b2o516bo32b3o931bo3668b$8140bobo531b2o18bo930bo3669b$8142bo530bobo17bo945b2o3654b$8156bo518bo31b2o931b2o3653b$8156b2o531bo18b2o929bo3655b$8155bobo531b2o16bo946b2o3639b$8688bobo31b2o929bobo3639b$8170b3o548bobo931bo908b3o2728b$8172bo530b3o17bo945bo894bo2bo2727b$8171bo533bo31bo931b2o893bo2730b$8185b2o517bo32b2o929bobo360bo2bo529bo2730b$8186b2o530b2o16bobo1296bo529bobo2727b$8185bo533b2o962b3o345bo3bo3259b$8200b2o516bo32b3o931bo346b4o3259b$8199bobo531b2o18bo930bo887b3o2720b$8201bo530bobo17bo945b2o871bo2bo2720b$8215bo518bo31b2o931b2o873bo2720b$8215b2o531bo18b2o929bo210b2o655bo7bo2720b$8214bobo531b2o16bo946b2o192b2ob2o639bo13b3o3bobo2721b$8747bobo31b2o929bobo192b4o639b3o11b2obo2727b$8229b3o548bobo931bo193b2o640bob2o10b3o2728b$8231bo530b3o17bo945bo822b3o11b2o2728b$8230bo533bo31bo931b2o821b2o2742b$8244b2o517bo32b2o929bobo3565b$8245b2o530b2o16bobo4497b$8244bo533b2o962b3o3550b$8259b2o516bo32b3o931bo3550b$8258bobo531b2o18bo930bo3551b$8260bo530bobo17bo945b2o3536b$8274bo518bo31b2o931b2o3535b$8274b2o531bo18b2o929bo3537b$8273bobo531b2o16bo946b2o3521b$8806bobo31b2o929bobo3521b$8288b3o548bobo931bo3521b$8290bo530b3o17bo341b2o602bo3507b$8289bo533bo31bo327b2o602b2o3506b$8303b2o517bo32b2o929bobo3506b$8304b2o530b2o16bobo4438b$8303bo533b2o962b3o3491b$8318b2o516bo32b3o931bo137bo2bo3350b$8317bobo531b2o18bo930bo142bo628b3o2718b$8319bo530bobo17bo945b2o123bo3bo627bo2bo2718b$8333bo518bo31b2o931b2o123b4o630bo2718b$8333b2o531bo18b2o929bo759bo2718b$8332bobo531b2o16bo946b2o740bobo2719b$8865bobo31b2o929bobo3462b$8347b3o548bobo931bo3462b$8349bo530b3o17bo945bo735b3o2710b$8348bo533bo31bo931b2o734bo2bo2709b$8362b2o517bo32b2o929bobo734bo2712b$8363b2o530b2o16bobo1660bo5bo2712b$8362bo533b2o962b3o698bo13b3o5bobo2709b$8377b2o516bo32b3o931bo697b3o12bob2o2716b$8376bobo531b2o18bo930bo697b2obo13b3o2716b$8378bo530bobo17bo945b2o682b3o14b2o2717b$8392bo518bo31b2o931b2o682b2o2733b$8392b2o531bo18b2o929bo3419b$8391bobo531b2o16bo946b2o209b4o3190b$8924bobo31b2o929bobo208bo3bo3190b$8406b3o548bobo931bo212bo3190b$8408bo530b3o17bo945bo194bo2bo3191b$8407bo533bo31bo931b2o3388b$8421b2o517bo32b2o929bobo70b2o3316b$8422b2o530b2o16bobo1001b4o3315b$8421bo533b2o962b3o54b2ob2o3314b$8436b2o516bo32b3o931bo56b2o3315b$8435bobo531b2o18bo930bo3374b$8437bo530bobo17bo945b2o3359b$8451bo518bo31b2o931b2o3358b$8451b2o531bo18b2o929bo3360b$8450bobo531b2o16bo946b2o3344b$8983bobo31b2o929bobo3344b$8465b3o548bobo931bo3344b$8467bo530b3o17bo945bo619b3o2708b$8466bo533bo31bo931b2o618bo2bo2707b$8480b2o517bo32b2o929bobo618bo2710b$8481b2o530b2o16bobo1550bo2710b$8480bo533b2o962b3o604bobo2707b$8495b2o516bo32b3o931bo3314b$8494bobo531b2o18bo930bo3315b$8496bo530bobo17bo125b2o818b2o597b3o2700b$8510bo518bo31b2o110b2o819b2o595bo2bo2700b$8510b2o531bo18b2o929bo600bo2700b$8509bobo531b2o16bo1524bo7bo2700b$9042bobo31b2o1493bo13b3o3bobo2701b$8524b3o548bobo1492b3o11b2obo2707b$8526bo530b3o17bo1492bob2o10b3o2708b$8525bo533bo31bo1479b3o11b2o2708b$8539b2o517bo32b2o1478b2o2722b$8540b2o530b2o16bobo909bo3292b$8539bo533b2o926bobo3291b$8554b2o516bo32b3o893bobo3291b$8553bobo531b2o18bo894bo3292b$8555bo530bobo17bo4188b$8569bo518bo31b2o4173b$8569b2o531bo18b2o4172b$8568bobo531b2o16bo4174b$9101bobo31b2o4158b$8583b3o548bobo4158b$8585bo530b3o17bo4158b$8584bo533bo31bo4144b$8598b2o517bo32b2o4143b$8599b2o530b2o16bobo1017bo2bo3122b$8598bo533b2o1039bo3121b$8613b2o516bo32b3o1002bo3bo3121b$8612bobo531b2o18bo1003b4o3121b$8614bo530bobo17bo1428b3o2698b$8628bo518bo1445bo2bo2698b$8628b2o531bo832b3o599bo2698b$8627bobo531b2o831bo2bo598bo2698b$9160bobo31b2o796bo4bo595bobo2699b$8642b3o548bobo4099b$8644bo550bo796bo3302b$8643bo1349bo608b3o2690b$8657b2o1335b2obo604bo2bo2689b$8658b2o530b2o803bo2bo603bo2692b$8657bo533b2o802b2o599bo5bo2692b$8672b2o516bo32b3o770bo2bo581bo13b3o5bobo2689b$8671bobo551bo773bo580b3o12bob2o2696b$8673bo550bo770bo583b2obo13b3o2696b$8687bo1310bo580b3o14b2o2697b$8687b2o531bo774b3o582b2o2713b$8686bobo531b2o4073b$9219bobo31b2o4040b$8701b3o548bobo4040b$8703bo550bo4040b$8702bo456b2o4134b$8716b2o441b2o4134b$8717b2o530b2o4044b$8716bo533b2o4043b$8731b2o516bo32b3o4010b$8730bobo551bo698bo3311b$8732bo550bo697b2o3312b$8746bo1235b2o3311b$8746b2o531bo4015b$8745bobo531b2o4014b$9278bobo31b2o3981b$8760b3o548bobo3981b$8762bo550bo3981b$8761bo1210bobo629b3o2688b$8775b2o1193bo4bo628bo2bo2687b$8776b2o530b2o660bo4bo628bo2690b$8775bo533b2o663b2o628bo2690b$8790b2o516bo32b3o1261bobo2687b$8789bobo551bo626b2o2b2o3319b$8791bo550bo627b2o2b2o3319b$8805bo1165bob3o636b3o2680b$8805b2o531bo635bo636bo2bo2680b$8804bobo531b2o633bo640bo2680b$9337bobo31b2o866b4o363bo7bo2680b$8819b3o548bobo865bo3bo348bo13b3o3bobo2681b$8821bo550bo869bo347b3o11b2obo2687b$8820bo1417bo2bo348bob2o10b3o2688b$8834b2o1755b3o11b2o2688b$8835b2o530b2o1222b2o2702b$8834bo533b2o3925b$8849b2o516bo32b3o558b3o3331b$8848bobo551bo3892b$8850bo550bo559bobo3331b$8864bo1099bo3330b$8864b2o531bo562bo3bo3330b$8863bobo531b2o3896b$9396bobo31b2o528bo2b2o45bo3284b$8878b3o548bobo579b2o3282b$8880bo550bo578b2o3283b$8879bo1081bo3333b$8893b2o1066bo3333b$8894b2o530b2o532bo3334b$8893bo533b2o532bob2o3330b$8908b2o516bo32b3o503bo3329b$8907bobo551bo496bo4bo3331b$8909bo550bo3834b$8923bo225b2o808bobo18bobo631b3o2678b$8923b2o224b2o305bo502b3o19b2o630bo2bo2678b$8922bobo531b2o523bo634bo2678b$9455bobo31b2o1125bo2678b$8937b3o548bobo1122bobo2679b$8939bo550bo3804b$8938bo4356b$8952b2o1668b3o2670b$8953b2o530b2o1135bo2bo2669b$8952bo533b2o479bo654bo2672b$8967b2o516bo32b3o447b2o646bo5bo2672b$8966bobo551bo446b2o632bo13b3o5bobo2669b$8968bo550bo1080b3o12bob2o2676b$8982bo1616b2obo13b3o2676b$8982b2o531bo1083b3o14b2o2677b$8981bobo531b2o1083b2o2693b$9514bobo31b2o3745b$8996b3o548bobo3745b$8998bo550bo3745b$8997bo4297b$9011b2o4282b$9012b2o530b2o398bo3350b$9011bo533b2o397bobo360bo2bo2984b$9026b2o516bo32b3o364b2o365bo2983b$9025bobo551bo727bo3bo2983b$9027bo550bo729b4o2983b$9041bo4253b$9041b2o531bo3720b$9040bobo531b2o3719b$9573bobo31b2o3686b$9055b3o548bobo3686b$9057bo550bo3686b$9056bo4238b$9070b2o954bo597b3o2668b$9071b2o530b2o419bobo597bo2bo2667b$9070bo533b2o419b2o597bo2670b$9085b2o516bo32b3o985bo2670b$9084bobo551bo986bobo2667b$9086bo550bo3657b$9100bo4194b$9100b2o531bo998b3o2660b$9099bobo531b2o996bo2bo2660b$9632bobo31b2o328bo637bo2660b$9114b3o548bobo329bo628bo7bo2660b$9116bo550bo327b3o613bo13b3o3bobo2661b$9115bo1494b3o11b2obo2667b$9129b2o8b2o1469bob2o10b3o2668b$9130b2o7b2o521b2o947b3o11b2o2668b$9129bo533b2o946b2o2682b$9144b2o516bo32b3o3597b$9143bobo551bo3597b$9145bo550bo3598b$9159bo823bo3311b$9159b2o531bo288bobo3311b$9158bobo531b2o288b2o3311b$9691bobo31b2o3568b$9173b3o548bobo196b3o3369b$9175bo550bo196bo2bo3368b$9174bo748bo2bo3368b$9188b2o4105b$9189b2o530b2o203b2o3367b$9188bo533b2o201bo2bo3366b$9203b2o516bo32b3o168bo2bo3366b$9202bobo551bo168bo3369b$9204bo550bo3539b$9218bo4076b$9218b2o531bo882b3o2658b$9217bobo531b2o880bo2bo2658b$9750bobo31b2o850bo2658b$9232b3o548bobo591b4o255bo2658b$9234bo550bo590bo3bo252bobo2659b$9233bo1146bo2914b$9247b2o1127bo2bo2915b$9248b2o530b2o132bo727b3o2650b$9247bo533b2o129b2o728bo2bo2649b$9262b2o516bo32b3o97b2o727bo2652b$9261bobo551bo223bobo594bo5bo2652b$9263bo550bo225b2o579bo13b3o5bobo2649b$9277bo762bo579b3o12bob2o2656b$9277b2o531bo808b2obo13b3o2656b$9276bobo531b2o807b3o14b2o2657b$9809bobo31b2o775b2o2673b$9291b3o548bobo3450b$9293bo550bo3450b$9292bo4002b$9306b2o702bo3284b$9307b2o530b2o170b2o3282b$9306bo533b2o168b2o3283b$9321b2o516bo32b3o3420b$9320bobo551bo3420b$9322bo550bo3421b$9336bo3958b$9129b2o205b2o531bo3425b$9129b2o204bobo531b2o3424b$9868bobo31b2o3391b$9350b3o548bobo92bobo3296b$9352bo550bo93b2o3296b$9351bo645bo3297b$9365b2o3928b$9366b2o530b2o744b3o2648b$9365bo533b2o743bo2bo2647b$9380b2o516bo32b3o710bo2650b$9379bobo551bo710bo2650b$9381bo550bo712bobo2647b$9395bo541bo3357b$9395b2o531bo9b2o3355b$9394bobo531b2o7b2o713b3o2640b$9927bobo31b2o688bo2bo2640b$9409b3o548bobo691bo2640b$9411bo550bo683bo7bo2640b$9410bo1220bo13b3o3bobo2641b$9424b2o1204b3o11b2obo2647b$9425b2o530b2o671bob2o10b3o2648b$9424bo533b2o671b3o11b2o2648b$9439b2o516bo32b3o452bo2bo182b2o2662b$9438bobo551bo456bo2845b$9440bo447bo102bo453bo3bo2845b$9454bo433bobo555b4o2845b$9454b2o432b2o97bo67bo3239b$9453bobo531b2o67bo3238b$9986bobo31b2o32b3o3238b$9468b3o548bobo3273b$9470bo550bo3273b$9469bo3825b$9483b2o3810b$9484b2o530b2o3277b$9483bo392b3o138b2o3276b$9498b2o379bo136bo32b3o3243b$9497bobo376bo2bo146bo24bo3243b$9499bo377b2o145bobo23bo3244b$9513bo363b2o146b2o3268b$9513b2o361bo2bo166bo3248b$9512bobo361bo169b2o606b3o2638b$9878b2o165bobo31b2o572bo2bo2638b$9527b3o548bobo575bo2638b$9529bo550bo575bo2638b$9528bo1124bobo2639b$9542b2o468bo3282b$9119b2o422b2o468bo61b2o3218b$9119b2o421bo468b3o62b2o584b3o2630b$9557b2o516bo32b3o551bo2bo2629b$9556bobo551bo551bo2632b$9558bo550bo546bo5bo2632b$9572bo1068bo13b3o5bobo2629b$9572b2o531bo534b3o12bob2o2636b$9571bobo531b2o532b2obo13b3o2636b$10104bobo31b2o499b3o14b2o2637b$9586b3o364bo183bobo500b2o2653b$9588bo362bobo185bo3155b$9587bo364b2o3341b$9601b2o3692b$9602b2o530b2o3159b$9601bo533b2o3158b$9616b2o516bo32b3o3125b$9615bobo551bo3125b$9617bo550bo3126b$9631bo253bo3409b$9631b2o253bo277bo3130b$9630bobo251b3o277b2o3129b$10163bobo31b2o3096b$9645b3o548bobo3096b$9647bo421bo128bo316b4o2776b$9646bo423b2o442bo3bo2776b$9660b2o407b2o447bo2776b$9661b2o530b2o319bo2bo2777b$9660bo198b3o332b2o468b3o2628b$9675b2o182bo2bo330bo32b3o435bo2bo2627b$9674bobo186bo364bo435bo2630b$9676bo183b3o364bo436bo2630b$9690bo974bobo2627b$9690b2o531bo3071b$9689bobo347bobo181b2o3070b$10040b2o180bobo31b2o414b3o2620b$9704b3o333bo214bobo413bo2bo2620b$9706bo550bo416bo2620b$9705bo960bo7bo2620b$9719b2o930bo13b3o3bobo2621b$9720b2o530b2o396b3o11b2obo2627b$9719bo130bobo400b2o395bob2o10b3o2628b$9734b2o114b2o400bo32b3o363b3o11b2o2628b$9733bobo115bo174bo260bo363b2o2642b$9735bo291b2o257bo3008b$9749bo276b2o3267b$9749b2o531bo3012b$9109b2o637bobo531b2o3011b$9109b2o1170bobo31b2o2978b$9763b3o548bobo2978b$9765bo550bo2978b$9764bo3530b$9778b2o3515b$9779b2o185bobo342b2o2982b$9778bo188b2o343b2o2981b$9793b2o172bo343bo32b3o2948b$9792bobo551bo2948b$9794bo550bo2949b$9808bo3486b$9808b2o531bo2953b$9807bobo531b2o2952b$10340bobo31b2o298b3o2618b$9822b3o74bo473bobo297bo2bo2618b$9824bo75b2o473bo300bo2618b$9823bo75b2o775bo2618b$9837b2o834bobo2619b$9838b2o530b2o2923b$9837bo247bo285b2o2922b$9852b2o229bobo284bo32b3o276b3o2610b$9851bobo230b2o319bo177bo2bo95bo2bo2609b$9853bo550bo182bo94bo2612b$9867bo715bo3bo88bo5bo2612b$9867b2o2bobo526bo183b4o73bo13b3o5bobo2609b$9866bobo3b2o526b2o258b3o12bob2o2616b$9872bo526bobo31b2o224b2obo13b3o2616b$9881b3o548bobo224b3o14b2o2617b$9883bo171bo378bo225b2o2633b$9882bo173bo3238b$9896b2o156b3o3238b$9897b2o530b2o2864b$9896bo533b2o2863b$10429bo32b3o2830b$10464bo2830b$9826bo636bo2831b$9825bo3469b$9825b3o631bo2835b$10042bo416b2o2834b$10040bobo415bobo31b2o2801b$10041b2o448bobo2801b$10493bo2801b$13295b$13295b$9902bo585b2o2805b$9099b2o800bobo585b2o2804b$9099b2o800bobo584bo32b3o160b3o2608b$9902bo79bo540bo160bo2bo2607b$9983bo538bo161bo2610b$9981b3o700bo2610b$10518bo166bobo2607b$10518b2o2775b$10517bobo31b2o2742b$10550bobo139b3o2600b$10552bo138bo2bo2600b$9895bo798bo2600b$9894bobo789bo7bo2600b$9893b2ob2o649b2o122bo13b3o3bobo2601b$9894bo2bo650b2o120b3o11b2obo2607b$9894bo3bo648bo32b3o87bob2o10b3o2608b$9894bo687bo88b3o11b2o2608b$10581bo89b2o2622b$10098bobo3194b$9894b2o203b2o476bo2717b$9895bo203bo477b2o2716b$10576bobo31b2o2683b$9806b3o78bo4bo716bobo2683b$9805bo2bo79bo3bob2ob2o712bo2683b$9805bo2bo77b3o2b2ob2ob2o754b4o2638b$9804bo2bo84bobo757bo3bo2638b$9804bo2bo85bo712b2o48bo2638b$9808b2o259bo537b2o43bo2bo2639b$9808b2o260b2o534bo32b3o2653b$9806bo3bo258b2o570bo2653b$9809b2o829bo2654b$9811bo3483b$9806bo3bo825bo2658b$9807b3o826b2o2657b$9899bo735bobo31b2o2624b$9900b2o766bobo23b3o2598b$9899b2o769bo22bo2bo2598b$10055bobo638bo2598b$10056b2o638bo2598b$10056bo608b2o26bobo2599b$10666b2o2627b$10665bo2629b$10702b3o2590b$10702bo2bo2589b$9794bobo905bo2592b$9794b2o900bo5bo2592b$9795bo82bo117bo698b3o5bobo2589b$9089b2o787bobo116b2o696bob2o2596b$9089b2o787b2o116b2o698b3o2596b$9888bo807b2o2597b$9887bobo3405b$9887bobo3405b$9888bo3406b$13295b$13295b$13295b$13295b$13295b$13295b$13295b$10114bo3180b$10115bo3179b$10113b3o3179b$13295b$13295b$13295b$13295b$13295b$10704b3o2588b$10704bo2bo2587b$10085bo618bo2590b$10083bobo618bo2590b$9883bo200b2o619bobo2587b$9882bobo3410b$9882bobo3410b$9821bobo59bo781b2o45b3o2580b$9822b2o841b2o44bo2bo2580b$9822bo92bo798bo2580b$9913bobo790bo7bo2580b$9914b2o155bo633b3o3bobo2581b$10072bo631b2obo2587b$9875b3o192b3o631b3o2588b$9875b3o827b2o2588b$9875bo2bo3416b$9876b3o3416b$9876b2o3417b$9770bo3524b$9769bo3525b$9769b3o3523b$9853bobo156bo3282b$9853b2o155bobo3282b$9854bo156b2o3282b$13295b$9079b2o4214b$9079b2o4214b$13295b$9867bo3427b$9866b3o3426b$9866bo2bo3425b$9842bo25b2o3425b$9757bo83b3o24bo3426b$9756b3o82b4o20b2o847b3o2578b$9759bo105b4o844bo2bo2578b$9757b2o107bo2bo258bo587bo2578b$9758bo82b4o22bo261b2o585bo2578b$9841b4o21bo261b2o583bobo2579b$9843bo21b2o3428b$9864bo5bo3424b$9864b2o3b2o11bo839b3o2570b$9865b2o16b2o837bo2bo2569b$9882b2o838bo2572b$10716bo5bo2572b$10715b3o5bobo2569b$10098bobo614bob2o2576b$10099b2o615b3o2576b$10099bo616b2o2577b$13295b$13295b$9755bo84bo29bobo3422b$9746b3o6bo83bobo29b2o3422b$9746bo2bo89bobo29bo56bobo3364b$9745bo3bo90bo88b2o724b2o2638b$9746bo2b2o104bo73bo155bo569b2o2638b$9748bo105b3o229b2o3207b$9746b2o105bo2b2o227b2o3208b$9745b3o109bo3437b$9745b3o109b2o3436b$9764bo94bo3435b$9762bobo91b4o3435b$9747b2o14b2o84bo6b2o3437b$9746bob2o100b2o3443b$9746bo3bo98b2o3444b$9749bo275bobo3267b$10026b2o3267b$10026bo697b3o2568b$10724bo2bo2567b$9750bo973bo2570b$9751bo972bo2570b$9749b3o973bobo2567b$9069b2o773bo3450b$9069b2o773bobo3448b$9822bo12bo8b2o886b3o2560b$9822bobo9bobo894bo2bo2560b$9822b2o10bobo897bo2560b$9835bo890bo7bo2560b$10725b3o3bobo2561b$10144bo579b2obo2567b$10142bobo579b3o2568b$9733bo409b2o580b2o2568b$9731b2o3562b$9732b2o3561b$9898bo3396b$9896bobo3396b$9897b2o3396b$13295b$10114bo3180b$10115bo3179b$10113b3o3179b$13295b$13295b$9886bo3408b$9887bo3407b$9885b3o56bo3350b$9945bo3349b$9830bo112b3o3349b$9829bobo269bo3193b$9829bobo267bobo3193b$9830bo269b2o543b2o87b3o2558b$10645b2o86bo2bo2558b$10736bo2558b$9777bobo956bo2558b$9778b2o953bobo2559b$9778bo3516b$13295b$10041bo700b3o2550b$10042bo699bo2bo2549b$9714bo325b3o699bo2552b$9713b3o1020bo5bo2552b$9712b2o2bo1018b3o5bobo2549b$9764bo970bob2o2556b$9765b2o969b3o2556b$9764b2o970b2o2557b$9712b2o105bobo3473b$9713b3o103b2o3474b$9716bo78bo24bo3474b$9059b2o653b3o77bobo3498b$9059b2o653b2o78bob2o3497b$9796bo28bo3469b$9824bobo3468b$9714bobo80bob2o23bobo330bobo3135b$9715b2o81b2o25bo332b2o3135b$9715bo442bo3136b$13295b$9792bo3502b$9790b2o119bobo3381b$9791b2o119b2o3381b$9912bo3382b$13295b$10128bo3166b$9805bo323b2o3164b$9701bo102bobo321b2o614b3o2548b$9700bo102b2ob2o936bo2bo2547b$9700b3o101bo2bo936bo2550b$9804bo3bo91bo843bo2550b$9804bo96b2o842bobo2547b$9900b2o56bo3336b$9959b2o3334b$9790bo13b2o152b2o792b3o2540b$9789bobo13bo308bobo634bo2bo2540b$9789bobo323b2o637bo2540b$9790bo11bo17bo294bo630bo7bo2540b$9802bob2ob2o10bobo923b3o3bobo2541b$9688b3o110b2ob2ob2o10bobo922b2obo2547b$9687bo3bo110bobo15bo814b2o107b3o2548b$9692bo110bo831b2o108b2o2548b$13295b$9687b2o3bo3602b$9689b3o363bo3239b$10056b2o3237b$10055b2o3238b$13295b$13295b$9780bo3514b$9778bobo3514b$9779b2o3514b$13295b$13295b$13295b$13295b$13295b$9785bo3509b$9049b2o679bo53bobo386bo3121b$9049b2o680bo52bobo387bo3120b$9729b3o53bo29bo356b3o579b3o2538b$9788bo25bobo936bo2bo2538b$9788bobo23bobo939bo2538b$9766bo21b2o25bo111bo828bo2538b$9766bobo159bo824bobo2539b$9766b2o158b3o3366b$13295b$10762b3o2530b$9697bo446bo617bo2bo2529b$9695bobo444bobo617bo2532b$9696b2o445b2o611bo5bo2532b$10755b3o5bobo2529b$10755bob2o2536b$9916bo839b3o2536b$9914bobo839b2o2537b$9915b2o57bo3320b$9972bobo3320b$9753bo219b2o155bo3164b$9753bo377bo3163b$9752bobo374b3o3163b$9669bobo3623b$9669b2o83b2o3539b$9670bo107b2o3515b$9754b2o22b2o30bo3484b$9809bobo3483b$9809bobo3483b$9810bo814b2o2668b$10071bo553b2o2668b$9751b2o316bobo3223b$9751b3o316b2o3223b$9755bo3539b$9753b2o3540b$13295b$10764b3o2528b$9750bobo1011bo2bo2527b$9750bobo1011bo2530b$9751bo1012bo2530b$9803bo961bobo2527b$9802b3o3490b$9801b2o2bo3489b$9801b2ob2o966b3o2520b$9744bo20b2o37b3o380bo583bo2bo2520b$9745b2o18bobo34bob2o382b2o584bo2520b$9744b2o13bo7b2o32bo2bo382b2o577bo7bo2520b$9039b2o719bo4bobo36bo960b3o3bobo2521b$9039b2o717b3o4bo7b2o26bobo960b2obo2527b$9765bo2bo4b2o27bo138bo822b3o2528b$9942b2o821b2o2528b$9767b2o34b3o135b2o3352b$9802bob2o3489b$9803b2obo3488b$9710bobo444bobo3135b$9711b2o24b3o418b2o3135b$9711bo25bo2bo17bo399bo3136b$9741bo14b2o3537b$9738b3o16b2o3536b$9805bobo121bobo3363b$9806b2o122b2o3363b$9806bo123bo56bobo3305b$9988b2o3305b$9988bo155bo3150b$10145b2o3148b$9645bo100bo397b2o3149b$9644bo101b2o3547b$9644b3o81b2o15bo2bo3546b$9727bo2bo15bobo3546b$9727bo2bo14bo2bo1025b3o2518b$9727bo17bo2bo39bo984bo2bo2518b$9730bo14bobo20b2o17bo988bo2518b$9728b3o15b3o19b2o17b3o986bo2518b$9730b2o352bobo686bobo2519b$9731bo353b2o3208b$10085bo529b2o2678b$10615b2o165b3o2510b$9723bo1058bo2bo2509b$9721b2o1059bo2512b$9722b2o1052bo5bo2512b$10775b3o5bobo2509b$9736b3o1036bob2o2516b$10776b3o2516b$9736bobo1037b2o2517b$9739bo3555b$9735bo3bo3555b$13295b$9735bo2b2o20bo442bo3091b$9758bobo440bobo3091b$9759b2o441b2o3091b$9722bo13bo3558b$9721bobo12bo3558b$9721bobo11bo221bo3337b$9029b2o691bo13bob2o215bobo3337b$9029b2o709bo22b2o191b2o3337b$9733bo4bo24b2o3530b$10173bo3121b$9734bobo437bo3120b$9734b3o435b3o3120b$13295b$13295b$9821bo123bo3349b$9822bo123bo837b3o2508b$9820b3o121b3o56bo780bo2bo2507b$10004bo779bo2510b$10002b3o779bo2510b$10160bo624bobo2507b$10158bobo3134b$9621bo537b2o3134b$9619b2o1171b3o2500b$9620b2o1169bo2bo2500b$10794bo2500b$10786bo7bo2500b$9717bo46bo1020b3o3bobo2501b$9716bobo43b2o1020b2obo2507b$9716bobo44b2o335bo683b3o2508b$9717bo383bo683b2o2508b$10099b3o3193b$9719bo3575b$9719bobo3573b$9697bo21b2o3574b$9697bobo905b2o2688b$9697b2o906b2o2688b$13295b$13295b$13295b$13295b$13295b$13295b$13295b$10216bobo3076b$10217b2o3076b$10217bo3077b$13295b$13295b$9970bobo821b3o2498b$9712bo258b2o820bo2bo2498b$9711bobo257bo824bo2498b$9711bobo1082bo2498b$9019b2o691bo474bo605bobo2499b$9019b2o1167b2o3105b$10187b2o3106b$9600bo1201b3o2490b$9599b3o1200bo2bo2489b$9598b2o2bo232bo123bo842bo2492b$9836b2o122b2o834bo5bo2492b$9602b2o231b2o122b2o56bo777b3o5bobo2489b$9602b2o414b2o775bob2o2496b$9601bo2bo412b2o777b3o2496b$9600b3o570bobo620b2o2497b$10174b2o3119b$10174bo3120b$13295b$13295b$13295b$13295b$9738bo3556b$9738bobo3554b$9738b2o374bo3180b$9707bo407b2o3178b$9589bo116bobo405b2o3179b$9588bo105bobo9bobo3586b$9588b3o103b2o11bo3587b$9672bobo20bo3599b$9672b2o3621b$9673bo3621b$13295b$10595b2o2698b$10595b2o207b3o2488b$10804bo2bo2487b$10804bo2490b$10804bo2490b$10232bo572bobo2487b$9661bo571bo3061b$9660b3o568b3o3061b$9660b4o1148b3o2480b$10811bo2bo2480b$9986bo827bo2480b$9660b4o323bo818bo7bo2480b$9660b4o321b3o817b3o3bobo2481b$9662bo1141b2obo2487b$10804b3o2488b$9702bo500bo601b2o2488b$9701bobo497bobo3091b$9701bobo498b2o3091b$9009b2o691bo3592b$9009b2o4284b$9851bo123bo3319b$9849bobo121bobo3319b$9850b2o122b2o57bo3261b$10031bobo3261b$9614bo417b2o155bo3105b$9615bo574bo3104b$9613b3o572b3o3104b$9568b3o3724b$9567bo2bo3724b$9567b2obo103bo3620b$9571b2o100b3o3619b$9571b2o99bo2b2o3618b$9570bo2bo102bo36bobo3579b$9569bo106b2o35b2o3580b$9569b3o106bo35bo415bo683b3o2478b$9570bo104b4o449bobo682bo2bo2478b$9668bo6b2o452b2o685bo2478b$9669b2o1145bo2478b$9668b2o27bo1115bobo2479b$9696bobo3596b$9696bobo3596b$9697bo1124b3o2470b$10822bo2bo2469b$10822bo2472b$10816bo5bo2472b$10815b3o5bobo2469b$9557bobo103bo921b2o228bob2o2476b$9557b2o104bobo919b2o229b3o2476b$9558bo82bo21b2o581bo569b2o2477b$9641bobo603b2o3046b$9641b2o603b2o3047b$13295b$13295b$10000bo3294b$10001b2o3292b$10000b2o3293b$13295b$13295b$10216bobo3076b$10217b2o3076b$10217bo3077b$9692bo3602b$9691bobo3601b$9691bobo170bobo121bobo3304b$8999b2o691bo172b2o122b2o3304b$8999b2o864bo123bo56bobo3246b$10047b2o3246b$9628bo418bo155bo620b3o2468b$9629b2o573b2o618bo2bo2467b$9628b2o573b2o619bo2470b$10824bo2470b$10825bobo2467b$13295b$13295b$9689bo1142b3o2460b$9688bo1142bo2bo2460b$9688b3o1143bo2460b$9582bobo558bobo680bo7bo2460b$9538bo44b2o559b2o679b3o3bobo2461b$9537b3o43bo560bo679b2obo2467b$9536bo2b2o1283b3o2468b$9536b4o1285b2o2468b$9539bobo3753b$9539bo2bo3752b$9539b3o145bo3607b$9538bobo145bobo3606b$9538bobo145bobo3606b$9538b3o146bo3607b$9618b2o3675b$9618bobo17bobo3654b$9620b2o16b2o3655b$9618bobo18bo622bo3032b$9618bo641bobo312b2o2718b$9618bo2bo639b2o312b2o2718b$13295b$9620b2o3673b$10016bo3278b$10014bobo3278b$9526bo488b2o3278b$9526bobo98bo3667b$9526b2o83bo14b3o603bo601b3o2458b$9609b2o15b4o603bo599bo2bo2458b$9610b2o619b3o602bo2458b$10836bo2458b$9626b4o1203bobo2459b$9626b4o250bo123bo3290b$9628bo252bo123bo3289b$9682bo196b3o121b3o56bo779b3o2450b$9681bobo379bo778bo2bo2449b$9681bobo377b3o778bo2452b$8989b2o653bo37bo536bo616bo5bo2452b$8989b2o651bobo572bobo615b3o5bobo2449b$9643b2o573b2o615bob2o2456b$10836b3o2456b$10836b2o2457b$13295b$13295b$9665bo3629b$9663b2o3630b$9598bo65b2o493bo3135b$9599bo560bo3134b$9597b3o558b3o3134b$13295b$13295b$13295b$13295b$13295b$9507b3o3785b$9507bo2bo3784b$9505bo4bo42bo3741b$9551bobo123bo3617b$9505bo46b2o122bobo3616b$9506bo169bobo3616b$9507b2obo166bo1166b3o2448b$9508bo2bo763bobo566bo2bo2447b$9508b2o766b2o566bo2450b$9509bo2bo763bo567bo2450b$9512bo1332bobo2447b$9508bo1056b2o2728b$9511bo517bobo533b2o2728b$9508b3o519b2o820b3o2440b$9586bo20bo422bo820bo2bo2440b$9586b2o19bobo1244bo2440b$9588bo18b2o637bo599bo7bo2440b$9586b2o659b2o596b3o3bobo2441b$9586bo659b2o596b2obo2447b$10844b3o2448b$9588b2o1255b2o2448b$9588b2o304bo123bo3276b$9895b2o122b2o3274b$9496bo397b2o122b2o56bo3218b$9494b2o581b2o3216b$9495b2o82bo496b2o3217b$9578bo16bo61bobo12bo559bobo3060b$9578b3o13bobo61b2o11bobo559b2o3060b$9593bo3bo60bo12bobo559bo3061b$8979b2o613bo2bo74bo3622b$8979b2o613bo2bo3697b$9595bobo71bo3625b$9639b2o27b3o3624b$9638bo2bo25b2o2bo3623b$9637b3o31bo3623b$9612bo57bo502bo3121b$9613b2o24bobo24bo507b2o3119b$9612b2o52bobo504b2o3120b$9642bo23b2o3627b$9641b2o1211b3o2438b$10853bo2bo2438b$10856bo2438b$9633bo1222bo2438b$9632bo1220bobo2439b$9632b3o3660b$9566bobo3726b$9567b2o1293b3o2430b$9567bo1294bo2bo2429b$9478bo1383bo2432b$9477b3o811bo564bo5bo2432b$9476b2o2bo811bo562b3o5bobo2429b$9476bo3bo809b3o562bob2o2436b$9476bob2o1376b3o2436b$9476b2o1378b2o2437b$9523bo521bo3249b$9524b2o520bo3248b$9523b2o519b3o3248b$9660b2o893b2o2738b$9477b2o2bo177bobo893b2o2738b$9477bobobo178bo601bo3032b$9480bo779bobo3032b$10261b2o3032b$13295b$13295b$9479bobo428bo123bo3260b$9480b2o426bobo121bobo3260b$9480bo96bo331b2o122b2o57bo3202b$9554b2o19b2o513bobo3202b$9552bo23b2o513b2o155bo3046b$9552b3o694bo3045b$9554b2o691b3o3045b$13295b$10864b3o2428b$9556b2o92bo1213bo2bo2427b$9556b2o93bo1212bo2430b$8969b2o493bo184b3o1212bo2430b$8969b2o492bo1401bobo2427b$9463b3o3829b$9547bobo78bo560bo3105b$9547b2o77bobo12bobo543bobo682b3o2420b$9548bo78b2o12b2o12b2o531b2o681bo2bo2420b$9562b3o77bo11bobo1217bo2420b$9563bo91bo1210bo7bo2420b$9563b3o71b3o1225b3o3bobo2421b$9608b2o26bo2bo1224b2obo2427b$9606bo29b2o2bo1223b3o2428b$9606b3o30b2o1224b2o2428b$9582bo25b2o47b2o3636b$9583bo52bo21b2o3635b$9581b3o50b2o21bo3637b$9610b2o23b2o35b2o3621b$9561bobo46b2o59bobo3621b$9561bobo109bo631bo2989b$9687bo618b2o2987b$9564bo122b2o616b2o2988b$9601bobo82bobo3606b$9601b2o3692b$9539bo62bo98b3o355bo3235b$9537bobo20bobo140bo356b2o3233b$9538b2o21bo140bo356b2o3234b$9716b2o3577b$9717b2o3576b$9716bo558bobo3017b$9445b3o283b2o543b2o267b2o2748b$9444bo2bo282bobo543bo268b2o2748b$9444b2obo284bo1141b3o2418b$9495bo250bo1126bo2bo2418b$9496bo249b2o175bobo121bobo826bo2418b$9494b3o248bobo176b2o122b2o826bo2418b$9444b2o183b2o293bo123bo56bobo765bobo2419b$9444b4o80bo99bobo129b3o343b2o3187b$9445bo2bo78b3o99bo132bo343bo155bo3032b$9446bobo77bo2b2o230bo501b2o617b3o2410b$9446bobo77b4o245b2o485b2o618bo2bo2409b$9529bobo244b2o1104bo2412b$9529bo2bo242bo1100bo5bo2412b$9448bo80b3o258b2o1083b3o5bobo2409b$9446bobo79bobo258bobo1083bob2o2416b$9447b2o79bobo14bo245bo1084b3o2416b$9528b3o13bo260bo1070b2o2417b$9544b3o258b2o3488b$8959b2o843bobo395bobo3090b$8959b2o1242b2o3090b$9819b3o381bo3091b$9821bo3473b$9539b2o279bo3474b$9539bobo76bobo213b2o3459b$9541bo77b2o214b2o3458b$9432bobo104bobo77bo214bo3460b$9432b2o104bo310b2o3444b$9433bo82bo21bobo55bo251bobo3444b$9516bobo19bo58b2o11bo239bo3444b$9516b2o19bo58b2o12bobo11b2o238bo3430b$9610b2o11bobo238b2o3429b$9607bo16bo238bobo3429b$9606b3o712bo2973b$9605bo2b2o268b3o438bobo2973b$9575bo2bo26b3obo270bo439b2o2973b$9575bob2o29b2o269bo1004b3o2408b$9577b2o47b3o264b2o989bo2bo2407b$9552bobo49bo23bo265b2o179bo808bo2410b$9553b2o48bo23bo265bo179bobo808bo2410b$9553bo25b2o22b3o35b2o265b2o164b2o809bobo2407b$9579b2o61b2o263bobo3385b$9641bo267bo381bo3003b$9656b2o265bo368bo599b3o2400b$9655bobo265b2o365b3o598bo2bo2400b$9570bo86bo264bobo969bo2400b$9570bobo98bo1214bo7bo2400b$9509bo60b2o99b2o390bo471b2o348b3o3bobo2401b$9510b2o158bobo391bo470b2o347b2obo2407b$9509b2o551b3o56bo762b3o2408b$9685b3o434bo762b2o2408b$9687bo432b3o3172b$9686bo591bo3016b$9700b2o574bobo3016b$9701b2o574b2o3016b$9414bo285bo3594b$9413b3o299b2o3578b$9412bo2b2o44bobo33b3o214bobo3578b$9411b5o46b2o33bo2bo215bo3578b$9411b5o46bo32bo4bo97b2o130bo3564b$9414bo182bobo130b2o3563b$9414bobo78bo102bo130bobo486bo3076b$9414b2obo78bo722bo3075b$9415bobo79b2obo243b3o470b3o3075b$9416b3o79bo2bo244bo3548b$8949b2o465bobo79b2o245bo3549b$8949b2o463b4o81bo2bo256b2o3534b$9414b3o85bo257b2o3533b$9415bo82bo260bo3535b$9501bo11bobo258b2o1118b3o2398b$9498b3o12b2o258bobo1117bo2bo2398b$9514bo260bo1120bo2398b$9789bo1106bo2398b$9509b3o277b2o1102bobo2399b$9508bo2bo276bobo3504b$9508b2o2bo3782b$9511b2o76bo213b3o528bobo565b3o2390b$9587bobo215bo529b2o565bo2bo2389b$9401bo106bo79b2o214bo530bo566bo2392b$9401bobo102b2o310b2o1076bo5bo2392b$9401b2o83bo20b2o59bo250b2o1074b3o5bobo2389b$9484b2o83bo11bo236bo269bobo804bob2o2396b$9485b2o80b3o11bo11b2o238b2o254b2o805b3o2396b$9575b2o15bobo237bobo254bo806b2o2397b$9575bob2o14bo240bo3460b$9547b2o29b2o268bo456bo2989b$9547bobo28bobo267b2o456b2o2987b$9549b2o24bo3b2o266bobo455b2o2988b$9547bobo29bo16bo3698b$9547bo48b2o264b3o3430b$9525bo21bo2bo44bobo266bo212bo3217b$9523bobo46bobo288bo214b2o3215b$9524b2o23b2o21b2o36b3o264b2o198b2o56bo3159b$9573bo38bo265b2o256b2o387b2o2768b$9611bo265bo257b2o388b2o2768b$9625b2o265b2o397bobo3001b$9626b2o263bobo398b2o3001b$9540bo84bo267bo398bo3002b$9538b2o100b2o265bo3387b$9477bo61b2o98bobo265b2o3386b$9478bo162bo264bobo3386b$9476b3o176bo3639b$9655b2o264b3o980b3o2388b$9654bobo266bo980bo2bo2387b$9922bo309bo671bo2390b$9669b3o264b2o295b2o669bo2390b$9671bo265b2o293b2o671bobo2387b$9670bo265bo3358b$9467bo216b2o265b2o3342b$9430bo35b3o216b2o263bobo959b3o2380b$9428bobo34b2o2bo98b2o114bo267bo958bo2bo2380b$8939b2o488b2o136bobo129b2o265bo947bo2380b$8939b2o627bo129bobo265b2o938bo7bo2380b$9700bo264bobo937b3o3bobo2381b$9465b2o247bo1189b2obo2387b$9466b3o245b2o264b3o921b3o2388b$9469bo243bobo266bo922b2o2388b$9467b3o511bo3313b$9467b2o259b3o264b2o353bo2944b$9730bo265b2o353bo2943b$9729bo265bo353b3o2943b$9376bobo88bobo12bo260b2o265b2o3283b$9376b2o90b2o12bobo259b2o263bobo3283b$9377bo90bo13b2o259bo267bo92bo3190b$9479bo278b2o265bo79bo3189b$9478b3o276bobo265b2o76b3o3189b$9477bo2b2o277bo264bobo3268b$9477b3obo291bo3521b$9480b2o77bo213b2o264b3o279bo2973b$9560b2o210bobo266bo277bobo2973b$9476bo82b2o479bo279b2o2973b$9475bo311b3o264b2o3239b$9454bo20b3o311bo265b2o3238b$9453bo84bobo6bo15b2o223bo265bo38bo3201b$9453b3o62bo20b2o6b2o13bobo237b2o265b2o20bobo3201b$9517b3o19bo7b3o13bo239b2o263bobo21b2o57bo762b3o2378b$9516b2o2bo26b2o253bo267bo78bobo761bo2bo2378b$9517b5o25b2o268b2o265bo65b2o155bo608bo2378b$9517b2o2bo26bo18b2o247bobo265b2o222bo607bo2378b$9518bo2bo27bobo14bobo249bo264bobo220b3o206b2o396bobo2379b$9518bobo29bo17bo263bo682b2o2778b$9582bo249b2o264b3o3194b$9491bo90b2o247bobo266bo821b3o2370b$9492b2o47bo39bobo515bo822bo2bo2369b$9491b2o48bobo302b3o264b2o807bo2372b$9541b2o53b3o249bo265b2o800bo5bo2372b$9598bo248bo265bo801b3o5bobo2369b$9597bo263b2o265b2o118bo666bob2o2376b$9611b2o249b2o263bobo116bobo667b3o2376b$9508bo103b2o247bo267bo117b2o667b2o2377b$9507bo103bo264b2o265bo3151b$9507b3o116b2o247bobo265b2o3150b$9443bobo179bobo249bo264bobo3150b$9444b2o181bo263bo3403b$9444bo196bo249b2o264b3o3135b$9641b2o247bobo266bo3135b$9640bobo515bo3136b$8929b2o974b3o264b2o3121b$8929b2o724b3o249bo265b2o3120b$9657bo248bo265bo3122b$9656bo263b2o265b2o3106b$9538b2o130b2o249b2o263bobo175bo2930b$9537bobo131b2o247bo267bo176b2o2928b$9352bo185bo131bo264b2o265bo161b2o2929b$9351bo333b2o247bobo265b2o3091b$9351b3o330bobo249bo264bobo3091b$9686bo263bo167bo3176b$9700bo249b2o167b2o95b3o3076b$9700b2o247bobo166b2o98bo705b3o2368b$9699bobo515bo706bo2bo2367b$9964b3o264b2o691bo2370b$9714b3o249bo265b2o100bobo587bo2370b$9716bo248bo265bo103b2o588bobo2367b$9452bo262bo263b2o265b2o87bo2959b$9450b2o277b2o249b2o263bobo3047b$9430bo20b2o277b2o247bo267bo684b3o2360b$9428b2o299bo264b2o110bobo822bo2bo2360b$9429b2o313b2o247bobo111b2o825bo2360b$9743bobo249bo111bo56bobo759bo7bo2360b$9745bo263bo155b2o758b3o3bobo2361b$9531bo227bo249b2o154bo155bo602b2obo2367b$9532bo226b2o247bobo311b2o600b3o2368b$9530b3o225bobo560b2o602b2o2368b$10023b3o3269b$9533b2o238b3o249bo3269b$9507bo24bobo240bo248bo480b2o2788b$9505bobo6bo18bo240bo263b2o465b2o2788b$9506b2o5bobo272b2o249b2o3254b$9513bob2o21b2o249b2o247bo3256b$9485b3o27bo23b2o247bo264b2o3240b$9485bo2bo49bo264b2o247bobo3240b$9489bo26bob2o33b2o247bobo249bo3240b$9486b3o28b2o33bobo249bo263bo3226b$9554bo263bo249b2o3225b$9459bo108bo249b2o247bobo3225b$9460bo50bo56b2o247bobo3475b$9458b3o48b2o56bobo512b3o3210b$9510b2o320b3o249bo3210b$9582b3o249bo248bo3211b$9584bo248bo263b2o3196b$9583bo263b2o249b2o3195b$9597b2o249b2o247bo836b3o2358b$9476bobo119b2o247bo264b2o819bo2bo2358b$8919b2o555b2o119bo264b2o247bobo822bo2358b$8919b2o556bo134b2o247bobo249bo266bo555bo2358b$9611bobo249bo263bo250bobo552bobo2359b$9328bo284bo263bo249b2o250b2o2914b$9326b2o299bo249b2o247bobo3166b$9327b2o298b2o247bobo1063b3o2350b$9626bobo505bo6b3o798bo2bo2349b$9891b3o238bobo8bo798bo2352b$9641b3o249bo239b2o7bo793bo5bo2352b$9643bo248bo263b2o777b3o5bobo2349b$9642bo263b2o249b2o191bo584bob2o2356b$9506b2o148b2o249b2o247bo194bo584b3o2356b$9505bobo149b2o247bo264b2o176b3o584b2o2357b$9426bo79bo149bo264b2o247bobo3122b$9426bobo242b2o247bobo249bo3122b$9404bo21b2o242bobo249bo199bo63bo3108b$9404bobo265bo263bo186bo62b2o3107b$9404b2o280bo249b2o183b3o56bo4bobo3107b$9686b2o247bobo243bo3113b$9685bobo491b3o18b3o3092b$9950b3o249bo134bo2957b$9700b3o249bo248bo133bobo2957b$9702bo248bo263b2o119b2o2957b$9701bo263b2o249b2o3077b$9715b2o249b2o247bo3079b$9716b2o247bo264b2o3063b$9715bo264b2o247bobo3063b$9730b2o247bobo249bo3063b$9729bobo249bo263bo249b2o2798b$9731bo263bo249b2o248b2o2798b$9497bobo245bo249b2o247bobo3048b$9498b2o245b2o247bobo947b3o2348b$9498bo245bobo512b3o682bo2bo2347b$10009b3o249bo682bo2350b$9473bo27b2o256b3o249bo248bo683bo2350b$9474b2o10bo13bobo258bo248bo263b2o669bobo2347b$9473b2o12b2o12bo258bo263b2o249b2o3018b$9481b2o291b2o249b2o247bo3020b$9481bo293b2o247bo264b2o661b3o2340b$9453b2o28b3o19b3o266bo264b2o247bobo660bo2bo2340b$9453bobo24bo5bo20bo281b2o247bobo249bo663bo2340b$9455bo25bo4bo19bo281bobo249bo263bo641bo7bo2340b$9453bobo26bo2bo34b2o268bo263bo249b2o639b3o3bobo2341b$9453b2o29bo36b2o281bo249b2o247bobo638b2obo2347b$9454b2o23bo40bo283b2o247bobo337bobo548b3o2348b$9455b2o21bo56b2o266bobo512b3o73b2o549b2o2348b$8909b2o391bo152b2o21b3o53bobo531b3o249bo73bo2900b$8909b2o391bobo231bo281b3o249bo248bo2975b$9302b2o246bo269bo248bo263b2o2960b$9550b2o267bo263b2o62bobo184b2o2959b$9549bobo281b2o249b2o62b2o183bo2961b$9445bo388b2o247bo64bo3146b$9445bobo116b3o266bo264b2o3195b$9445b2o119bo281b2o247bobo264bo2930b$9565bo281bobo249bo265b2o2928b$9579b2o268bo263bo250b2o2929b$9401bobo176b2o281bo249b2o3180b$9401b2o176bo283b2o247bobo3180b$9379bobo20bo191b2o266bobo271bo3158b$9379b2o212bobo531b3o7b2o3156b$9380bo214bo281b3o249bo6b2o56bo3100b$9609bo269bo248bo66b2o3098b$9609b2o267bo263b2o50b2o3099b$9608bobo281b2o249b2o3150b$9474b2o417b2o247bo811b3o2338b$9473bobo147b3o266bo264b2o794bo2bo2338b$9474bo150bo281b2o247bobo797bo2338b$9624bo281bobo249bo797bo2338b$9638b2o268bo263bo780bobo2339b$9639b2o281bo249b2o3121b$9638bo283b2o247bobo3121b$9653b2o266bobo1038b3o2330b$9652bobo531b3o773bo2bo2329b$9654bo281b3o249bo773bo2332b$9668bo269bo248bo297b2o469bo5bo2332b$9668b2o267bo263b2o282b2o468b3o5bobo2329b$9667bobo281b2o249b2o751bob2o2336b$9952b2o247bo754b3o2336b$9682b3o266bo264b2o738b2o2337b$9684bo281b2o247bobo3077b$9683bo281bobo249bo3077b$9697b2o268bo263bo3063b$9466bo231b2o281bo249b2o3062b$9464bobo230bo283b2o247bobo3062b$9465b2o245b2o266bobo3312b$9711bobo531b3o3047b$9713bo281b3o249bo161bo2885b$9455bo13b2o256bo269bo248bo163bo2884b$9453b2o13bobo256b2o267bo263b2o146b3o2884b$9277bobo174b2o13bo256bobo281b2o249b2o3032b$9277b2o732b2o247bo3034b$9278bo462b3o266bo152bo111b2o3018b$8899b2o572bo269bo281b2o137bo109bobo3018b$8899b2o572b2o267bo281bobo135b3o111bo3018b$9420bobo49bobo281b2o268bo263bo3004b$9420b2o335b2o281bo249b2o3003b$9421bo65b3o266bo283b2o247bobo88bo2914b$9489bo281b2o266bobo336bobo583b3o2328b$9377bo38b3o69bo281bobo531b3o72b2o583bo2bo2327b$9376bo38bo2bo83b2o268bo281b3o249bo657bo2330b$9355bo20b3o36b2o2bo83b2o281bo269bo248bo658bo2330b$9354bo63b2o82bo283b2o267bo96bo166b2o644bobo2327b$9354b3o160b2o266bobo281b2o79bobo167b2o2973b$9415bo100bobo551b2o79b2o57bo108bo2975b$9413b2o103bo281b3o266bo138bobo123b2o636b3o2320b$9414b2o116bo269bo281b2o123b2o122bobo635bo2bo2320b$9532b2o267bo281bobo249bo638bo2320b$9531bobo281b2o268bo263bo616bo7bo2320b$9816b2o281bo249b2o614b3o3bobo2321b$9546b3o266bo283b2o247bobo613b2obo2327b$9548bo281b2o266bobo863b3o2328b$9547bo281bobo531b3o599b2o2328b$9561b2o268bo281b3o249bo2929b$9562b2o281bo269bo248bo2930b$9561bo283b2o267bo263b2o2915b$9576b2o266bobo281b2o249b2o2914b$9575bobo551b2o247bo2916b$9577bo281b3o266bo3166b$9591bo269bo281b2o3150b$9591b2o267bo281bobo3150b$9590bobo281b2o268bo330b2o2818b$9875b2o281bo316b2o2818b$9605b3o266bo283b2o3135b$9607bo281b2o266bobo3135b$9606bo281bobo3404b$9620b2o268bo281b3o206b2o2912b$9621b2o281bo269bo205bo2bo2911b$9620bo283b2o267bo206bo2bo2911b$9635b2o266bobo281b2o192b2o2912b$9634bobo551b2o233bo2871b$9429bo206bo281b3o266bo236b2o548b3o2318b$9253bo175bobo218bo269bo281b2o219b2o548bo2bo2318b$9252bo176b2o219b2o267bo281bobo772bo2318b$9252b3o394bobo281b2o268bo772bo2318b$9424bo509b2o241bo39bo755bobo2319b$9425b2o237b3o266bo244b2o37b2o3076b$9424b2o240bo281b2o227b2o37bobo3076b$9665bo281bobo1032b3o2310b$8889b2o788b2o268bo281b3o748bo2bo2309b$8889b2o789b2o281bo269bo748bo2312b$9438bo240bo283b2o267bo743bo5bo2312b$9353bo84b2o254b2o266bobo281b2o727b3o5bobo2309b$9351b2o84bobo253bobo551b2o726bob2o2316b$9331bo20b2o341bo281b3o266bo729b3o2316b$9329b2o121b3o254bo269bo185bobo93b2o713b2o2317b$9330b2o122bo254b2o267bo187b2o92bobo3032b$9389bo63bo254bobo281b2o172bo56bobo36bo3032b$9389bobo75b2o524b2o229b2o50bo3018b$9389b2o77b2o253b3o266bo231bo51b2o98b2o2917b$9467bo257bo281b2o266bobo97bo2bo2916b$9482b2o240bo281bobo366bo2bo2916b$9481bobo254b2o268bo281b3o83b2o2917b$9483bo255b2o281bo269bo3002b$9497bo240bo283b2o267bo3003b$9497b2o254b2o266bobo281b2o2988b$9496bobo253bobo551b2o2987b$9754bo281b3o266bo2989b$9511b3o254bo269bo281b2o2973b$9513bo254b2o267bo281bobo2973b$9512bo254bobo281b2o268bo2973b$9526b2o524b2o281bo2959b$9527b2o253b3o266bo283b2o2958b$9526bo257bo281b2o266bobo2958b$9541b2o240bo281bobo916b3o2308b$9540bobo254b2o268bo281b3o632bo2bo2307b$9542bo255b2o281bo269bo632bo2310b$9556bo240bo283b2o267bo114b2o517bo2310b$9556b2o254b2o266bobo281b2o99b2o518bobo2307b$9555bobo253bobo551b2o2928b$9813bo281b3o266bo2930b$9570b3o254bo269bo894b3o2300b$9572bo254b2o267bo894bo2bo2300b$9571bo254bobo281b2o327bo554bo2300b$9585b2o524b2o265bo58bobo546bo7bo2300b$9229bo356b2o253b3o266bo266bobo58b2o545b3o3bobo2301b$9227b2o356bo257bo281b2o251bo605b2obo2307b$9228b2o370b2o240bo281bobo857b3o2308b$9599bobo254b2o268bo66bo791b2o2308b$9601bo255b2o281bo50bobo3101b$9615bo240bo283b2o50b2o3101b$9615b2o254b2o266bobo3153b$9614bobo253bobo3422b$9218bobo651bo281b3o3138b$9216bo4bo407b3o254bo269bo3138b$8879b2o335bo4bo105bo303bo254b2o267bo3139b$8879b2o339b2o105bobo300bo254bobo281b2o3124b$9305bo21b2o315b2o524b2o9bo3113b$9216b2o2b2o83bobo337b2o253b3o266bo12b2o3111b$9216b2o2b2o83b2o337bo257bo277bobob2o53bo3055b$9217bob3o142bobo292b2o240bo279b2o2bo54bo3054b$9220bo143b2o292bobo254b2o268bo52b3o3054b$9219bo145bo294bo255b2o3377b$9674bo240bo3379b$9674b2o254b2o3363b$9673bobo253bobo3363b$9931bo3363b$9688b3o254bo427bo620b3o2298b$9690bo254b2o425bobo618bo2bo2298b$9689bo254bobo426bo622bo2298b$9703b2o1291bo2298b$9704b2o253b3o1031bobo2299b$9703bo257bo3333b$9718b2o240bo3334b$9717bobo254b2o1026b3o2290b$9719bo255b2o1025bo2bo2289b$9733bo240bo1027bo2292b$9733b2o254b2o1005bo5bo2292b$9732bobo253bobo1004b3o5bobo2289b$9990bo1004bob2o2296b$9747b3o254bo991b3o2296b$9749bo254b2o990b2o2297b$9748bo254bobo447b2o2840b$9762b2o689bobo2839b$9763b2o253b3o3274b$9762bo257bo431bo2842b$9226bobo548b2o240bo3275b$9227b2o547bobo254b2o418b2o2840b$9227bo550bo255b2o3259b$9792bo240bo3261b$9792b2o254b2o318bo2926b$9791bobo253bobo156bobo158bobo2925b$10049bo157b2o159bo2926b$9806b3o254bo143bo3087b$9808bo254b2o3230b$9807bo254bobo3230b$9821b2o3472b$9197bo624b2o253b3o3215b$9196bo105bobo516bo257bo3215b$9196b3o103b2o532b2o240bo3216b$9280bobo20bo531bobo254b2o910b3o2288b$8869b2o409b2o555bo255b2o909bo2bo2287b$8869b2o410bo58bo510bo240bo160bo750bo2290b$9339bo511b2o254b2o145b2o748bo2290b$9339b3o508bobo253bobo144b2o750bobo2287b$10108bo3186b$9865b3o254bo3172b$9867bo254b2o888b3o2280b$9866bo254bobo887bo2bo2280b$9880b2o1132bo2280b$9881b2o253b3o867bo7bo2280b$9880bo257bo866b3o3bobo2281b$9895b2o240bo866b2obo2287b$9894bobo254b2o210bo640b3o2288b$9896bo255b2o208bobo640b2o2288b$9910bo240bo211bo2931b$9910b2o254b2o3127b$9909bobo253bobo3127b$10167bo3127b$9924b3o254bo3113b$9926bo254b2o3112b$9925bo254bobo3112b$9939b2o3354b$9940b2o253b3o3097b$9939bo257bo3097b$9954b2o240bo3098b$9953bobo254b2o3083b$9955bo255b2o3082b$9242bo726bo240bo145bo86b2o23bo2826b$9243bo725b2o384b3o85b2o24bo2825b$9241b3o724bobo383b2o2bo108b3o2825b$10354bo3bo2936b$9983b3o368bob2o2937b$9985bo368b2o658b3o2278b$9984bo1028bo2bo2278b$9998b2o1016bo2278b$9999b2o1015bo2278b$9998bo1014bobo2279b$10013b2o340b2o2bo2935b$10012bobo340bobobo2935b$9173bo83b2o19bo735bo343bo663b3o2270b$9171b2o84bobo17bo750bo993bo2bo2269b$9172b2o85bo17b3o748b2o992bo2272b$9257bobo767bobo986bo5bo2272b$9257b2o1098bobo655b3o5bobo2269b$9258b2o56bo725b3o224bo88b2o655bob2o2276b$9259b2o53b2o728bo222bobo88bo657b3o2276b$8859b2o305b2o91b2o54b2o726bo224b2o746b2o2277b$8859b2o305b2o889b2o3236b$9168bo889b2o3235b$9166b3o888bo3237b$9165bobo904b2o3221b$9166b2o81bo15b3o803bobo3221b$9165bo83bobo12bo3bo804bo3221b$9165bo83b2o18bo817bo3207b$9163bo923b2o253bo2952b$9264b2o3bo816bobo252bo2953b$9266b3o1072b3o2951b$10101b3o3191b$10103bo3191b$10102bo3192b$10116b2o3177b$10117b2o3176b$9251bo864bo3178b$9250bobo878b2o3162b$9250bobo877bobo3162b$9251bo880bo891b3o2268b$10146bo877bo2bo2267b$10146b2o876bo2270b$10145bobo876bo2270b$11025bobo2267b$10160b3o3132b$10162bo3132b$10161bo870b3o2260b$10175b2o256b2o596bo2bo2260b$10176b2o255b2o599bo2260b$10175bo850bo7bo2260b$10190b2o833b3o3bobo2261b$10189bobo832b2obo2267b$10191bo832b3o2268b$10205bo819b2o2268b$9172bobo1030b2o3088b$9173b2o1029bobo3088b$9173bo4121b$10219b3o3073b$10221bo3073b$9246bo973bo152bo2921b$9245bobo986b2o138bo2920b$9245bobo42bo944b2o45bobo87b3o2920b$9246bo43bobo941bo48b2o3010b$9290b2o957b2o32bo3011b$10248bobo3044b$9141bo1108bo3044b$8849b2o289bo105bobo1015bo3030b$8849b2o289b3o103b2o1016b2o3029b$9224bobo20bo1015bobo3029b$9224b2o4069b$9225bo1052b3o3014b$10280bo37bo2976b$10279bo36b2o716b3o2258b$10317b2o714bo2bo2258b$11036bo2258b$10276bo759bo2258b$10275b3o755bobo2259b$9128b3o1144b3o3017b$9127bo3bo4163b$9132bo1142b4o763b3o2250b$10274b5o763bo2bo2249b$9127b2o3bo1141b2obo764bo2252b$9129b3o109bo1794bo5bo2252b$9240bobo1792b3o5bobo2249b$9240bobo1032b2o758bob2o2256b$9241bo1032bo761b3o2256b$11036b2o2257b$10273bobo2bo219bo2796b$10273bob3obo216bobo2796b$10272b3ob2obo217b2o2796b$10273bobo3019b$10273b3o3019b$10274bo3020b$10423b2o2870b$10423b2o2870b$13295b$9188bo4106b$9189bo4105b$9187b3o4105b$13295b$10282bo3012b$10280bobo3012b$10281b2o104bo2907b$10388b2o2905b$9265bobo1119b2o2906b$9236bo28b2o1777b3o2248b$9137bo97bobo28bo1777bo2bo2247b$9114b3o18bobo97bobo1806bo2250b$9114bo2bo18b2o84bo13bo1059bo747bo2250b$9113bo3bo103bo1073b3o747bobo2247b$9113b2o85bo20b3o1070b2o2bo2996b$9114bobo82bo1095b5o2995b$8839b2o274b2o2bo79b3o1056bobo34b2o2bo752b3o2240b$8839b2o274bo2bo1139b2o36bo2bo751bo2bo2240b$9115bo1143bo36bobo755bo2240b$9114b2ob2o1927bo7bo2240b$9115bobo1927b3o3bobo2241b$9116bo1927b2obo2247b$11044b3o2248b$11045b2o2248b$13295b$13295b$9187b3o4105b$9186bo3bo1095bo3008b$9191bo1093bo3009b$10285b3o3007b$9186b2o3bo4103b$9104bo83b3o15b3o4086b$9102b2o102bobo22bo4063b$9103b2o101bo2bo20bobo4062b$9207b3o20bobo4062b$9207b3o21bo4063b$9205bo2bo4086b$9208bo1080bo3005b$9205bo1082bobo3004b$9206b2o1080bobo3004b$9205b3o1081bo3005b$9205b2o4088b$9204b3o2b2o1843b3o2238b$9202bo2b2o2b2o1202b2o638bo2bo2238b$9203bob2o1206b2o641bo2238b$9202b3o1851bo2238b$11053bobo2239b$13295b$13295b$10403bo658b3o2230b$9241bo1159bobo658bo2bo2229b$9240bo1161b2o658bo2232b$9240b3o1813bo5bo2232b$9150bobo59bo1842b3o5bobo2229b$9151b2o57bobo1842bob2o2236b$9151bo44bo14b2o13bo1829b3o2236b$9086bo107bobo28bobo1828b2o2237b$9085b3o107b2o28bobo4067b$9084b2o2bo137bo1007bo74bo2985b$9084bo3bo1144bo76bo2984b$9084bob2o1145b3o48bo23b3o2984b$9084b2o115b2o1080bobo3009b$8829b2o298bo71b2o1080bobo3009b$8829b2o299b2o1152bo3010b$9129b2o4164b$9190bobo11b2o4089b$9085b2o2bo78b2o20b2o12b2o4089b$9085bobobo77bo2bo20bo1031b2o3070b$9088bo78bo2bo1051b3o3070b$9167bo1054bo2bo3069b$9170bo1051b2ob2o35bo3032b$9168b3o1051b2ob2o33b2o3033b$9087bobo80b2o1049b2ob2o35b2o3032b$9088b2o81bo1050bo3072b$9088bo1134b3o3069b$10224bo839b3o2228b$9163bo1363bo536bo2bo2227b$9161b2o1365bo535bo2230b$9162b2o57bo1304b3o535bo2230b$9075bo144bobo1842bobo2227b$9074b3o99b3o41bobo1054bo3017b$9074bob2o143bo1054b3o3016b$9075bo2bo97bobo1096b2o2bo792b3o2220b$9076b2o101bo1095bo795bo2bo2220b$9076bo98bo3bo1095b3o796bo2220b$10275b2obo787bo7bo2220b$9175bo2b2o1096bob2o785b3o3bobo2221b$10276b2o786b2obo2227b$9199b2o1076bob2o783b3o2228b$9162bo13bo22b2o1075b2ob2o122b2o660b2o2228b$9161bobo12bo1099b2ob2o122b2o2890b$9161bobo11bo1102bo3016b$9162bo13bob2o1236bobo2876b$9065bo114bo1236b2o2876b$9065bobo105bo4bo43b3o1192bo2877b$9065b2o4228b$9174bobo4118b$9174b3o1091bo3026b$10243bo23b3o3025b$10232bo9b3o22bob2o3024b$10230bobo8b2o2bo22bo2bo3023b$9216bo1014b2o36b2o52bo2971b$9215bobo1051bo54b2o2969b$9215bobo1105b2o2970b$9216bo1024b2o3052b$9145bo1096b3o3050b$9143bobo1099bo3049b$9144b2o1097b3o3049b$8819b2o1422b2o829b3o2218b$8819b2o2252bo2bo2218b$11076bo2218b$9194b2o1006bobo38bobo12bo817bo2218b$9157bo36b2o1006b2o40b2o12bobo812bobo2219b$9156bobo1044bo40bo13b2o3035b$9103bo52bobo1096bo3039b$9104bo52bo1096b3o825b3o2210b$9102b3o113bo1034bo2b2o824bo2bo2209b$9159bo58bo1034b3obo824bo2212b$9159bobo56bo1037b2o818bo5bo2212b$9137bo21b2o1914b3o5bobo2209b$9137bobo1112bo822bob2o2216b$9137b2o1112bo824b3o2216b$10230bo20b3o822b2o2217b$10229bo3065b$9088bo122bo1017b3o3063b$9086bobo121bobo4082b$9087b2o121bobo4082b$9211bo4083b$9044b3o4248b$9044bo2bo1188bo3058b$9044bo2bo1187bobo3057b$10235bobo3057b$9047b2o1187bo55bo3002b$9046bo2bo1243bo3001b$9046bo2bo139b2o1100b3o138bo2862b$9046bo142b2o1202b2o38bo2861b$9147b2o3b2o1239b2o36b3o2861b$9146bo2bo2b2o4141b$9146bo2bo4145b$9147b2o4146b$9212b3o4080b$11084b3o2208b$9120b3o1158bo802bo2bo2207b$9120bo2bo1155bobo802bo2210b$9034b2o83bo3bo1156b2o57bo744bo2210b$9032bo87bo2b2o1212bobo745bobo2207b$9032b3o87bo1215b2o2955b$9034b2o84b2o84bo4088b$9119b3o83bobo1884b3o2200b$9119b3o83bobo1883bo2bo2200b$9036b2o168bo1887bo2200b$9036b2o2048bo7bo2200b$9121b2o1108bo853b3o3bobo2201b$9120bob2o1053bo52bobo851b2obo2207b$8809b2o309bo3bo1052b2o51bobo851b3o2208b$8809b2o216bobo93bo1053b3o51bo853b2o2208b$9027b2o1148b2o3116b$9028bo88bo66b2o991b2o3116b$9118b2o64b2o992bo3116b$9117b2o5bo17b2o3b2o1030bobo3113b$9125bo6bo8bo2bo2b2o1031bo3114b$9123b3o5bobo7bo2bo4150b$9131bob2o7b2o64bo1348bo2737b$9133bo74bo962bo56bo326bobo2737b$9208bo962bobo52b2o328b2o2737b$9109b3o22bob2o1033b2o33bo20b2o3066b$9108bo2bo23b2o1067b2o3089b$9101bobo4bo4bo1091b2o3088b$9102b2o9bo4181b$9102bo10b2o14bo1036b2o3127b$9110bob2o13b2o72bo964bob2o3125b$9111bo16b2o70bobo965b2o3125b$9200bobo963b2o3127b$9201bo962b2o3129b$11094b3o2198b$10164bobo59bo79bo786bo2bo2198b$9058bo1106bo59bobo79b2o787bo2198b$9059b2o57bobo1072bo31bobo78b2o138bo649bo2198b$9058b2o56bo4bo1070b3o31bo220b2o644bobo2199b$9116bo4bo1069b5o250b2o2847b$9120b2o57b2o1010b2ob3o3098b$9099bobo77b2o1011b2ob2o186b2o717b3o2190b$9099b2o15b2o2b2o15b2o3b2o1050bo188b2o717bo2bo2189b$9100bo15b2o2b2o14bo2bo2b2o1958bo2192b$9117bob3o14bo2bo1956bo5bo2192b$9095b3o22bo16b2o1155bobo798b3o5bobo2189b$9044bobo47bo2bo21bo82b3o1090b2o798bob2o2196b$9045b2o47b2o2bo1196bo56bobo741b3o2196b$9045bo51b2o1254b2o741b2o2197b$10353bo2941b$9094bo4200b$9092b2o4201b$9093b2o4200b$9196bo990bo3107b$9195bobo989bo3107b$9195bobo4097b$9196bo993b3o3102b$9003bo1186b3o3102b$9002bo1218bo3073b$9002b3o1215bobo3072b$8799b2o332bo1072bo13bobo3072b$8799b2o330bobo1071b3o13bo3073b$9105bo26b2o1070b2o2bo3086b$9104b3o67b2o998bo30b5o3085b$9103bo2b2o66b2o999bo29b2o2bo3085b$9079b3o21bo3bo24b2o3b2o1034b3o30bo2bo3085b$9080bo24bobo23bo2bo2b2o1060bobo4bobo3086b$9080b3o48bo2bo1065b2o902b3o2188b$9102b2ob2o25b2o64bo1001bo903bo2bo2187b$9104bo12bo80bo1905bo2190b$9118bo79bo1905bo2190b$9116b3o1986bobo2187b$13295b$9104b4o4187b$9104bobobo2003b3o2180b$9078bobo26bo1033bo54bo914bo2bo2180b$9078bobo110bo947b2o54bo918bo2180b$9190bobo947b2o32bo20b3o908bo7bo2180b$9081bo108bobo980bo12bo135bo782b3o3bobo2181b$9075bo32bo82bo981b3o9bobo132bobo781b2obo2187b$9072bo2b2o31bo1076bobo133b2o139bo641b3o2188b$9073bo2bo30bo1078bo29bo243bobo642b2o2188b$9077bobo1135bobo243b2o2832b$9078bo1051bobo82bobo3077b$10128bo4bo82bo3078b$8984b3o1141bo4bo3161b$8983bo2bo182b2o961b2o3161b$8983b2obo138bo43b2o1139bo62b2o2920b$9060bo31b2o30bobo1001b2o2b2o177bo61b2o2920b$9061bo30bob2o28bobo1001b2o2b2o175b3o56bo2926b$9059b3o32b2o29bo1003bob3o235bo2925b$8983b2o100bobo6b2o1036bo234b3o2925b$8983b4o99b2o3b2o99b3o936bo3163b$8984bo2bo98bo4208b$8985bobo106b2o4199b$8985bobo4307b$13295b$13295b$8987bo4307b$8985bobo198bo4108b$8986b2o96bo100bobo1926b3o2178b$9083bo101bobo1925bo2bo2178b$9062bo20b3o100bo1929bo2178b$9061bo1117b2o935bo2178b$9061b3o9bo1105b2o30bo901bobo2179b$9072bobo1135bobo3082b$8789b2o281bobo1135bobo3082b$8789b2o282bo1137bo374bo535b3o2170b$10587bo534bo2bo2169b$9164b2o1419b3o534bo2172b$8971bobo146bo43b2o1950bo5bo2172b$8971b2o146bobo1031b3o959b3o5bobo2169b$8972bo146bobo9bo1020bo2bo959bob2o2176b$9120bo11b2o1018b2obo960b3o2176b$9131b2o55bo967b2o958b2o2177b$9188bo967b2o3137b$9188bo949bobo14bo2bo3136b$10139b2o13bo3140b$10139bo14b3o15bo3122b$10155bo14b2o3123b$10171b2o3122b$10335bobo2957b$9181bo1154b2o2957b$9180bobo1153bo138bobo2817b$9180bobo1293b2o2817b$9181bo983b2o309bo2818b$10165b2o7b2o3119b$10107bo2bo56bo6b2o3119b$10107bob2o54b3o3127b$9066b2o1041b2o53bobo3128b$9066b2o1074bobo20b2o36b2o119bo2970b$10142b2o20bo38bobo119b2o2968b$9159b2o950b2o30bo20bo40bo118b2o56bo2912b$9115bo43b2o950b2o49bo40bobo157b2o18b2o739b3o2168b$9114bobo1086b2o158b2o17b2o740bo2bo2167b$9114bobo1087b2o918bo2170b$9041b3o71bo1021b2o66b2o917bo2170b$9040bo2bo1058bo34bobo65b2o918bobo2167b$9040b2obo138b3o917bobo34b2o3154b$9044b2o1056b2o34bo3156b$9044b2o1090bobo993b3o2160b$9000bobo40bo2bo1088b2o994bo2bo2160b$9001b2o39bo1092b3o57bo938bo2160b$9001bo40b3o15bo1134bobo928bo7bo2160b$9043bo14b2o1135b2o928b3o3bobo2161b$9059b2o115bo1947b2obo2167b$9175bobo1946b3o2168b$9175bobo1947b2o2168b$9176bo948bo3169b$10125b2o42b2o3124b$9053b2o1069bo2bo41b2o3124b$9053b2o1070bobo3167b$8779b2o166bo107bo5b2o1061bo2bo3167b$8779b2o165bo106b3o5b2o1061bo2bo3167b$8946b3o103bobo1069bobo20bo3147b$9030bobo20b2o92bo6b2o969b3o18b3o3146b$9030b2o20bo57bo34bobo6b2o989bo2b2o3145b$9031bo20bo56bobo34b2o997b3o3147b$9050bo58bobo1042bo3140b$9110bo1044bo3139b$9178bo974b3o3139b$9178bo966bo3149b$9178bo969bo3146b$9019bobo1123bo3bo201bo2943b$9019bo2bo1123b2ob2o201bo2942b$9018bo3b2o1326b3o138bo2803b$8934bo83bo1473bo641b3o2158b$8933b3o1554b3o640bo2bo2158b$8936bo81bo2b3o147bo951bo1012bo2158b$8934b2o82b2o150bobo949bobo20b2o2b2o985bo2158b$8935bo84b3o147bobo949bobo20bo2b2o983bobo2159b$9020b3o148bo951bo14bo9bo3146b$10137b3o4b2o18b2o3129b$10136b2o2bo23b2o50bo123bo801b3o2150b$10214bobo121bobo801bo2bo2149b$9056b2o1082b2o73b2o122b2o57bo743bo2152b$9056b2o1082b2o254bobo737bo5bo2152b$10139bo2bo254b2o736b3o5bobo2149b$9149b2o987b3o994bob2o2156b$9105bo43b2o1202b2o781b3o2156b$9104bobo970bobo52bobo218b2o781b2o2157b$9104bobo970b2o54b2o3160b$9105bo972bo54bo3161b$9018bo4276b$8932bo84bobo152b3o4120b$8932bo84bobo13bo1136bobo3122b$9018bo13b3o1135b2o3123b$9031bo2b2o1135bo3123b$9031b4o4260b$9034bobo1090bo3167b$9034bo2bo1088bo3168b$9034b3o129bo938bo12bo7b3o3166b$9033bobo129bobo936bo12bobo3175b$8941bo91bobo129bobo936b3o10bobo496bo2678b$8939bobo91b3o130bo951bo495bobo2678b$8940b2o86bo1586b2o2678b$9029b2o4264b$9028b2o4265b$8769b2o280b2o107bobo4132b$8769b2o280b2o108b2o1981b3o2148b$9161bo1982bo2bo2147b$9144b2o1998bo2150b$9100bo43b2o1998bo2150b$9099bobo2043bobo2147b$9099bobo4193b$8915bobo103bo78bo4194b$8915b2o96bo7bobo144bo1196bo786b3o2140b$8916bo82bo12bobo6b2o145bo1197b2o783bo2bo2140b$8999bobo10bobo153bo1196b2o138bo648bo2140b$8999b2o12bo1492b2o638bo7bo2140b$10505b2o638b3o3bobo2141b$11144b2obo2147b$11144b3o2148b$11145b2o2148b$9161bo951bo3181b$9160bobo949bobo3180b$9160bobo949bobo114bobo121bobo2939b$9161bo951bo116b2o122b2o2939b$10230bo123bo56bobo2881b$10412b2o2881b$10412bo2882b$9046b2o4247b$9046b2o1005bo3241b$10052bo3242b$9139b2o911b3o3240b$9095bo43b2o1202b2o2950b$9094bobo1246b2o2950b$9094bobo1049bo3148b$9095bo1049bo3149b$9008bo1136b3o3147b$9007bobo152b2o4131b$9007bobo152b2o4131b$9008bo1094bo1050b3o2138b$10101b2o1050bo2bo2138b$10081bo20b2o1052bo2138b$10079b2o1075bo2138b$8954bobo1123b2o1071bobo2139b$8896bo58b2o199bo951bo3186b$8895b3o57bo199bobo949bobo3185b$8894bo2b2o256bobo949bobo1052b3o2130b$8894b4o258bo951bo1053bo2bo2129b$8897bobo2262bo2132b$8897bo2bo2255bo5bo2132b$8897b3o2255b3o5bobo2129b$8759b2o135bobo142b2o2112bob2o2136b$8759b2o135bobo142b2o2113b3o2136b$8896b3o1169bo1087b2o2137b$9134b2o931b3o3225b$8996bobo91bo43b2o930b5o3224b$8996b2o91bobo974b2ob3o309bo2913b$8972bo24bo91bobo975b2ob2o307bobo2913b$8971bobo116bo978bo310b2o139bo2773b$8971bob2o28bo1515bobo2773b$8973bo28bobo152b2o1361b2o2773b$9002bobo152b2o4136b$8974bob2o25bo4291b$8975b2o4318b$8884bo4410b$8884bobo1358bo123bo2925b$8884b2o83bo1276bo123bo2924b$8967b2o182bo951bo140b3o121b3o56bo2867b$8968b2o180bobo906bo42bobo323bo2866b$9150bobo905bobo41bobo321b3o2866b$9151bo905b2ob2o41bo3191b$10058bo2bo3233b$8874bo107bo1046bo28bo3bo1101b3o2128b$8872b6o103bobo1043b2o29bo1105bo2bo2127b$8872b2o2b2o102b2ob2o51b2o990b2o1134bo2130b$8981bo2bo51b2o2126bo2130b$8876bo104bo3bo1072b2o21bo1083bobo2127b$8872b2o2bo104bo147b2o928bo20b3o39bo3172b$8872b2o3bo207bo43b2o948b2o2bo36b2o211b2o2960b$8876bo207bobo969bo23b5o36b2o210b2o837b3o2120b$8874bobo90bo13b2o101bobo969bob2ob2o17b2o2bo1086bo2bo2120b$8875bo90bobo13bo102bo969b2ob2ob2o18bo2bo1089bo2120b$8966bobo29bo1057bobo15bobo4bobo1082bo7bo2120b$8967bo11bo17bobo152b2o903bo17b2o1088b3o3bobo2121b$8979bob2ob2o11bobo152b2o862bo58bo1088b2obo2127b$8978b2ob2ob2o12bo1016b3o32bo594bo518b3o2128b$8979bobo1032b5o30b3o594bo518b2o2128b$8980bo1033b2ob3o28b2o2bo591b3o2648b$10015b2ob2o28bo3bo3242b$10017bo30bob2o3243b$9146bo901b2o48bo3196b$9145bobo915bo5bo2bo24bobo3195b$9145bobo916b2o3bob2o24bobo3195b$9146bo916b2o6b2o25bo3196b$13295b$8911bo1137b2o2bo3241b$8909bobo1137bobobo19b2o3220b$8749b2o159b2o119b2o1019bo20b2o3220b$8749b2o280b2o4262b$10394bobo2898b$9124b2o1269b2o2898b$9080bo43b2o925bobo11bo329bo138bobo2758b$9079bobo959bo10b2o12b2o467b2o2758b$8962bo116bobo958b3o9bo7b2o473bo2759b$8883bo77bobo116bo958bo2b2o16bo3234b$8884bo76bobo29bo1045b4o19b3o1109b3o2118b$8882b3o77bo29bobo152b2o893bobo14bo5bo1107bo2bo2118b$8965bo26bobo152b2o893bo2bo14bo4bo1110bo2118b$8965bobo25bo1048b3o16bo2bo194bo123bo792bo2118b$8943bo21b2o1074bobo19bo196b2o122b2o787bobo2119b$8943bobo1095bobo14bo200b2o122b2o56bo2853b$8943b2o1096b3o13bo384b2o2851b$10057b3o381b2o739b3o2110b$9141bo880bobo68bo1088bo2bo2109b$9140bobo880b2o67bobo1087bo2112b$9140bobo880bo68bobo1081bo5bo2112b$8854bo286bo951bo1081b3o5bobo2109b$8852b2o1198b2o1121bob2o2116b$8853b2o1197bobo1121b3o2116b$10054bo1121b2o2117b$9026b2o1024bobo41bo3198b$8931bo94b2o1023bo44bobo3196b$8930bobo1096bo21bobo42b2o3197b$8929bo3bo185b2o908bobo19bo3243b$8930bo2bo141bo43b2o876bo31b2o19bo272b2o2970b$8930bo2bo140bobo919bo326b2o2970b$8931bobo23bo116bobo919b3o3296b$8956bobo116bo4219b$8956bobo29bo4306b$8957bo29bobo152b2o4151b$8987bobo152b2o4151b$8988bo4306b$13295b$9986bo2b2o3304b$9990b2o25bo3277b$9989b2o25bobo3276b$9136bo878bo3bo68bo3206b$8926bo208bobo847b2o2b2o25bo2bo67bobo3205b$8924b2o209bobo853bo24bo2bo67bobo1094b3o2108b$9136bo848b4o28bobo68bo1095bo2bo2107b$8929b2o1056bo2bo1193bo2110b$8928b2o1480bo773bo2110b$10411bo773bobo2107b$8739b2o280b2o1386b3o138bo2744b$8739b2o280b2o1528bo2743b$8943b3o1603b3o640b3o2100b$8943bo2bo167b2o2075bo2bo2100b$8897bo45bo2bo123bo43b2o2078bo2100b$8898b2o44bo2bo121bobo2114bo7bo2100b$8897b2o39bo5b3o5bo116bobo2113b3o3bobo2101b$8939bo5b2o4bobo116bo936b3o1174b2obo2107b$8937b3o11bobo29bo1023bobo265bo123bo784b3o2108b$8952bo29bobo152b2o868bo2bo262bobo121bobo785b2o2108b$8982bobo152b2o869b3o263b2o122b2o57bo2837b$8983bo1024b3o444bobo2837b$10006bo2bo28bo417b2o2837b$10009bo29bo3255b$10006bo30b3o3255b$10007b2o20b3o3263b$8828bo106bo195bo874b3o20bo2bo50bo3211b$8828bobo102b2o195bobo873b2o21bo2bo49bobo3210b$8828b2o83bo20b2o194bobo872bobo2b2o18bo2bo48bobo3210b$8911b2o11bo206bo873bobo2b2o12bo5b3o50bo3211b$8912b2o9bobo1079b3o17bo5b2o38bobo3221b$8923bobo1097b3o45b2o3222b$8924bo1072bo74bo3222b$9016b2o977bobo3297b$9016b2o978b2o3297b$13295b$9109b2o4184b$9065bo43b2o1202b2o2980b$9064bobo953b2o291b2o360bo518b3o2098b$9064bobo946bo4bo654bobo517bo2bo2098b$9065bo945bobo4b3o653b2o520bo2098b$8978bo1033b2o6b2o1174bo2098b$8944b2o31bobo152b2o2059bobo2099b$8942bo34bobo152b2o4161b$8942b3o33bo986bobo54b2o3271b$8944b2o1019b2o55b2o1178b3o2090b$9966bo1235bo2bo2089b$11202bo2092b$8946b2o2248bo5bo2092b$8946b2o178bo886bobo62bo1116b3o5bobo2089b$9125bobo885b2o62bobo1115bob2o2096b$9125bobo861bo24bo62bobo344bo771b3o2096b$8919bo206bo861bobo87bo346b2o769b2o2097b$8918bobo16bobo1048bob2o432b2o138bo2730b$8918bobo16b2o1051bo574b2o2728b$8919bo18bo1625b2o2729b$8729b2o280b2o978bob2o3300b$8729b2o182bo97b2o979b2o3301b$8808b3o100bobo4381b$8808bo2bo100b2o190b2o4189b$8807bo3bo248bo43b2o880bo3308b$8807b2o250bobo922b2o302bobo121bobo2880b$8808bobo248bobo923b2o302b2o122b2o2880b$8809b2o2bo246bo1228bo123bo56bobo2822b$8809bo2bo160bo1497b2o2822b$8809bo162bobo152b2o923bo418bo2823b$8808b2ob2o159bobo152b2o851b3o16bo53b2o3240b$8809bobo161bo1006bo2bo14bobo51b2o3241b$8810bo1169bo2bo13b2ob2o3293b$8909bo1069b4o15bo2bo3293b$8909bobo1067b2o17bo3bo3292b$8887bo21b2o1067bo19bo1205b3o2088b$8887bobo231bo857bo67bo25bo1130bo2bo2087b$8887b2o231bobo856bo66bo25bobo1129bo2090b$9120bobo875b2o46b3o23bobo1129bo2090b$8914bo206bo877bo10bobo60bo1131bobo2087b$8913bobo1095b2o3282b$8913bobo1080bo14bo3283b$8798bo115bo1081bob2ob2o1209b3o2080b$8796b2o79bo128b2o987b2ob2ob2o1208bo2bo2080b$8797b2o76b6o125b2o959bo28bobo1215bo2080b$8875b2o2b2o1085b3o28bo1208bo7bo2080b$9099b2o865b4o1235b3o3bobo2081b$8879bo175bo43b2o889bo75bo236b2o899b2obo2087b$8875b2o2bo45b3o26bobo97bobo932b3o42b3o27b2ob2o234b2o899b3o2088b$8875b2o3bo46bo27b2o97bobo909b4o18b2o2bo40bo3bo26b2ob2o1136b2o2088b$8879bo46bo28bo99bo885bo24b4o18bo3bo45bo26bob3o3225b$8877bobo60b2o26bo971bo27bo19bob2o72b3o3228b$8878bo62b2o24bobo152b2o816b3o45b2o43b2o3bo3256b$8940bo26bobo152b2o911b3o3257b$8968bo4326b$10065b2o3228b$10065b2o3228b$9989b2o2bo3301b$9989bobobo70bo375bo2854b$8891b3o222bo875bo70bob2ob2o368bobo2854b$8891bo2bo220bobo839b3o102b2o4b2o369b2o139bo2714b$8890bo3bo220bobo838bo3bo101b2ob2o511bobo2714b$8890b4o15bo206bo875bo71bo514b2o2714b$8865b3o23bo16bobo1050bo26bo2bobo3301b$8865bobo40bobo1045b5o32bo3301b$8865bo2bo40bo1047bo29b2o2b2o3302b$8719b2o145b3o132b2o4292b$8719b2o145b3o132b2o977bo80b2o241bo123bo2866b$8864bo2bo23b2ob2o1061b2o20b3o78bobo242bo123bo784b3o2078b$8867bo23bob3o198b2o861b2o19bo2b2o78bo241b3o121b3o56bo726bo2bo2078b$8864bo185bo43b2o861bo24bo504bo728bo2078b$8865b2o182bobo904b2o24b2o501b3o728bo2078b$8864b3o182bobo902b2obob3o22bo1228bobo2079b$8823bo40b2o28bo155bo909b2o19b4o3310b$8824b2o37bobo2b2o25bo67bo990bo2bo16bo6b2o3312b$8823b2o38bobo2b2o16bo6b3o66bobo152b2o836b3o17b2o1245b3o2070b$8863b3o21bo64b2o8bobo152b2o830bo24b2o1246bo2bo2069b$8885b3o64b2o9bo984b3o92bo1178bo2072b$9947bo2b2o89bobo1172bo5bo2072b$9947bo3bo90b2o1171b3o5bobo2069b$9949bobo1263bob2o2076b$10026bo1189b3o2076b$9111bo834b2ob2o19bo56bo22bo1165b2o2077b$9110bobo835bo21b2o53b3o20b2o3245b$8878b2o230bobo849bobo7bo76b2o3244b$8772bo98bo4bo27bo206bo851b2o5b2o3323b$8772bobo94bobo4b3o24bobo1057bo6bo3324b$8772b2o96b2o6b2o23bobo1013b3o26b4o752bo2590b$8904bo1013bo2bo26bobobo19b2o731bo2589b$8996b2o920bo4bo27bo20b2o41bobo685b3o2589b$8880b2o114b2o925bo91b2o39b2o3237b$8880b2o1041b2o91bo38bobo3237b$9089b2o829bob2o132bo3238b$9045bo43b2o830bo18bo10bo341b2o3000b$9044bobo892b3o10b2o83bo255b2o3000b$8871bobo170bobo891b2o2bo8b2o6b3o48b2o24b3o3256b$8871b2o172bo892bo20bob3o46bobo22b5o3255b$8849bobo20bo85bo979b3o71b2o21b2ob3o3254b$8849b2o106bobo152b2o824b2obo20bobo46bo24b2ob2o3254b$8850bo106bobo152b2o825bob2o19bobo44bobo26bo3256b$8958bo980b2o22b2o43b2o3285b$9940bob2o64b3o442bobo768b3o2068b$9939b2ob2o510b2o768bo2bo2067b$9909bobo27b2ob2o12bo497bo138bobo628bo2070b$9909b2o30bo14bobo635b2o628bo2070b$9106bo803bo45b2o636bo630bobo2067b$9105bobo4187b$9105bobo4187b$9106bo2125b3o2060b$9951b2o1278bo2bo2060b$9951bob2o363bo123bo791bo2060b$9953b2o364b2o122b2o781bo7bo2060b$8709b2o280b2o958b2o365b2o122b2o56bo724b3o3bobo2061b$8709b2o280b2o956b2o550b2o721b2obo2067b$9928bo571b2o722b3o2068b$9084b2o841bo21bobo1273b2o2068b$8839bo200bo43b2o841b3o20bo3344b$8837bobo199bobo990b2o3261b$8838b2o199bobo989bobo3261b$9040bo991bo3262b$8953bo4341b$8952bobo152b2o4186b$8942b2o8bobo152b2o4186b$8942b2o9bo4341b$13295b$13295b$13295b$8747b3o4545b$8750bo350bo4193b$8747b3o350bobo914bo3277b$9100bobo915b2o3275b$9101bo915b2o3276b$8750b2o4543b$8750b2o1160b3o3380b$9912bobo17bobo83bo1215b3o2058b$9890bo21bo2bo17b2o82bo1215bo2bo2058b$9889b3o21b3o17bo83b3o1216bo2058b$8742bo104bo1040bo2b2o20b3o1320bo2058b$8740b2o104bo232b2o807b4o19bo2bo1318bobo2059b$8741b2o82bo20b3o186bo43b2o810bobo20bo368b2o3010b$8737b3o84bo209bobo854bo2bo16bo115b2o254b2o3010b$8737bo2bo83b3o207bobo854b3o18b2o70bo41bobo1213b3o2050b$8736bo3bo294bo854bobo18b3o70bobo40bo1214bo2bo2049b$8736b3o2bo206bo941bobo18b2o71b2o483bo772bo2052b$8737b4o206bobo152b2o786b3o17bobo2b2o553bo765bo5bo2052b$8947bobo81b2o69b2o806bobo2b2o551b3o138bo625b3o5bobo2049b$8948bo82bob2o875b3o697bo624bob2o2056b$8734bobo296b2o1573b3o625b3o2056b$8734b2o295b2o2203b2o2057b$8735bo293b2o4264b$9903b3o3389b$9029bobo64bo806bo2bo118b2o3268b$9030bo64bobo804bo3bo117bobo3268b$9095bobo804b4o120bo307bo123bo2836b$9096bo806bo21b2o113bo291bobo121bobo2836b$9878bo39bo4bo116b2o291b2o122b2o57bo2778b$9878bobo35bobo4b3o113bobo472bobo2778b$9878b2o37b2o6b2o588b2o2778b$8699b2o280b2o1071b3o3238b$8699b2o151bobo126b2o920b2ob2o148bo3238b$8853b2o1048bob3o19b2o126bo3239b$8853bo220b2o851b2o140b2o3224b$9074b2o994b2o3223b$10069bo3225b$9906bo177b2o3209b$9907bo9b2obo162bobo3209b$8943bo961b3o7bo4bo164bo3209b$8942bobo152b2o815bo5bo178bo1144b3o2048b$8759bo172b2o8bobo152b2o815bo184b2o1143bo2bo2047b$8760b2o170b2o9bo969b2ob2obo178bobo1143bo2050b$8759b2o1152b2obo2bo1324bo2050b$9915b4o194b3o1129bobo2047b$9916b3o196bo3179b$10114bo619bo2560b$9091bo821bo214b2o602bobo517b3o2040b$9090bobo769b3o46b2o216b2o602b2o516bo2bo2040b$9090bobo769bo2bo25bo20b2o34bo179bo1125bo2040b$9091bo772b2o23b2o58bo44bo148b2o1101bo7bo2040b$8745bobo1142b2o55b3o42b2o148bobo1100b3o3bobo2041b$8746b2o291bo820bo2bo129b2o149bo1099b2obo2047b$8746bo76bo216bo820b2o295bo1085b3o2048b$8821b2o215b3o823b2o292b2o1085b2o2048b$8801bo20b2o1039b3o19b3o269bobo3135b$8799b2o1063bo20bo2bo3406b$8800b2o267b2o790b2ob2o19bo2bo70bobo210b3o3120b$9069b2o790b2ob2o18b4o71b2o213bo98b2o3020b$9861bo3bo18b2o19bo54bo212bo99b2o208bo2811b$9861bo3bo17bo19bobo281b2o295b2o2809b$9862bo21bo19b2o282b2o293b2o138bo2671b$8710bo227bo945bo302bo436b2o2669b$8709bo227bobo152b2o1108b2o419b2o2670b$8709b3o227bo66bo85b2o1107bobo3091b$8934bo69b2o1197bo3091b$8933bo71b2o1210bo3077b$8933bo1283b2o3076b$8932b2ob2obo928bo348bobo3076b$8932b2obo2bo929bo478bobo121bobo2821b$8934b4o148bo779b3o362b3o114b2o122b2o2821b$8699b2o234b3o147bobo1145bo114bo123bo56bobo2763b$8698b3o384bobo807bo336bo297b2o2763b$8698bo2bo230bo153bo807b3o349b2o282bo723b3o2038b$8698b2ob2o165bo61b2o961b2o2bo349b2o1004bo2bo2038b$8698b2ob2o166bo61b2o960bo3bo348bo1009bo2038b$8697b2ob2o165b3o1023bob2o364b2o993bo2038b$8689b2o7bo85bo186b2o920b2o365bobo990bobo2039b$8689b2o8b3o81b3o185b2o1289bo3032b$8700bo81b2o2bo1489bo3018b$8782b2ob2o277b2o782bo427b2o984b3o2030b$8785b3o276b2o780b2o427bobo984bo2bo2029b$8783bob2o1060b2o45b2o2bo1363bo2032b$8782bo2bo1108bobobo391b3o963bo5bo2032b$8775bo9bo1111bo394bo962b3o5bobo2029b$8773bobo6bobo1506bo963bob2o2036b$8774b2o7bo303b2o1216b2o949b3o2036b$8922b2o163b2o808bo408b2o948b2o2037b$8784b3o135b2o969bo2bobo406bo2989b$8783bob2o1049bo61bo41bo379b2o2973b$8784b2obo1048b2o54b2o2b2o41b3o377bobo2973b$9835bo2bo99bo2b2o26bo351bo2973b$9836bobo99b4o20bo6b2o364bo2959b$8761bo319bo753bo2bo102bobo19b2o6bo363b2o2958b$8762bo317bobo752bo2bo102bo2bo17b2o5b2o363bobo2958b$8760b3o290bo26bobo752bobo103b3o25bo3325b$8786bobo6bo258b2o25bo754b3o101bobo406b3o2943b$8787b2o5bob2o255b2o885bobo28b2o378bo2943b$8787bo8b2o1142b3o28b2o377bo2944b$8795b3o1062b2o19bo3413b$9860bobo17bo3414b$8799b2o1061bo17b3o3412b$8798b3o1059bobo55bobo41bo536bo2795b$8708bo350b2o799b2o57b2o40bo535bobo2795b$8706bobo234bo115b2o800b2o56bo41b3o299b2o233b2o139bo2655b$8707b2o82bo152b2o916b2o399b2o372bobo2655b$8790bo152b2o917b2o774b2o624b3o2028b$8769bo20b3o187bo2283bo2bo2027b$8768bo211bobo2281bo2030b$8768b3o209b2o100b2o844bo1335bo2030b$9082b2o844bobo1334bobo2027b$9852bo15b3o10bo46b2o557bo2807b$8777bo1074bobo12bo3bo10b2o604bo2806b$8776bobo1073b2o18bo8b2o603b3o56bo726b3o2020b$8776bobo1767bo724bo2bo2020b$8678bobo96bo1089b2o3bo671b3o727bo2020b$8678b2o226bo169bo792b3o1394bo7bo2020b$8679bo202bo23bobo166bobo2187b3o3bobo2021b$8883b2o21b2o167bobo2186b2obo2027b$8882b2o192bo883b2o1302b3o2028b$9959bobo1303b2o2028b$9843bobo114bo3334b$9844b2o3449b$8679b2o280b2o881bo3450b$8679b2o231bo48b2o4332b$8911bobo4381b$8911bobo4381b$8912bo4382b$13295b$8907b2o7b2o4377b$8906bo2bo5bo2bo4376b$8907b2o7b2o1845bo2531b$9077b2o737bo947bo2530b$8912bo164b2o736bo946b3o2530b$8911bobo899b2ob2o17b3o3457b$8911bobo898b5o18bo2bo3456b$8912bo898b2o2bo18bo3bo3456b$8770b2o1039bob4o18bo2b2o3455b$8770b2o1039bo4bo20bo3457b$9071bo739bo2b2o19b2o1437b3o2018b$9070bobo740b2o19b3o114b3o1319bo2bo2018b$9070bobo761b3o71b3o40bo1324bo2018b$9071bo737bo98bo2bo27b3o9b2ob4o1318bo2018b$9809bobo95bo3bo27bo2bo14bo1315bobo2019b$9809b2o25b2o69b2o25bo8bo9b4o5bo3332b$9835bob2o69bobo24bo4b3o12bo6b2o548bobo2780b$8721bobo1111bo3bo69b2o2bo19b3o25bobo549b2o767b3o2010b$8722b2o1114bo70bo2bo600bo138bobo627bo2bo2009b$8722bo22b2o20bo1141bo66b3o674b2o627bo2012b$8745b2o18b2o1141b2ob2o65bo674bo622bo5bo2012b$8747bo18b2o1141bobo65bo275b2o1020b3o5bobo2009b$8745b2o1092bo70bo80b2o260b2o1020bob2o2016b$8745b2o1093bo6bo144b2o1282b3o2016b$9838b3o5bobo142bo1284b2o2017b$8747b2o1097bob2o47bo108b2o493bo2793b$8747b2o323b2o774bo46bobo32bobo72bobo494b2o2791b$9072b2o822b2o32b2o75bo493b2o56bo2735b$8654bo1194bob2o78bo89bo538b2o2733b$8653bo1196b2o169b2o536b2o2734b$8653b3o1364bobo3272b$8737bobo14bo10b2o131bo4396b$8737b2o14b3o9b2o129bobo945bo53bo136b3o3257b$8738bo13b5o140b2o167bo775b2o52b2o139bo3257b$8752b2ob3o307bobo754bo20b2o14bo37b2o137bo3258b$8753b2ob2o307bobo752b2o38bo189b2o3243b$8755bo310bo754b2o35b3o190b2o3242b$10050bo3244b$10065b2o3228b$9000b2o1062bobo3228b$8669b2o328b4o1063bo3228b$8669b2o231bo96b2ob2o926b2o148bo3214b$8901bobo97b2o926bobo148b2o3213b$8901bobo1026bo148bobo1202b3o2008b$8902bo919bo1461bo2bo2007b$9820bobo271b3o1187bo2010b$8897b2o7b2o913b2o273bo1187bo2010b$8896bo2bo5bo2bo1186bo1189bobo2007b$8897b2o7b2o1201b2o3184b$9067b2o738b3o300b2o3183b$8902bo164b2o739bo300bo1182b3o2000b$8722bo178bobo904b3o71bo241b2o1165bo2bo2000b$8721b3o177bobo977b3o29bo209bobo1168bo2000b$8721bob2o177bo883b2o93bo2bo27b3o210bo1160bo7bo2000b$8720b2o38b2o1024bobo94b2o26bo2b2o223bo1145b3o3bobo2001b$8720b2o38b2o1026b2o93bo27b3o225b2o1143b2obo2007b$8720b2o339bo724bobo91b2o256bobo1143b3o2008b$8724bo335bobo723bo93b4o1401b2o2008b$8723b2o335bobo723bo2bo91bo2bo268b3o372bo2766b$8721bobo13bo323bo744bobo73bo28bo243bo373bo2765b$8720bo2bo14bo1049b2o16bobo72bo32bo239bo372b3o138bo2626b$8721bobo12b3o1141b2o29bo3bo252b2o499bo2625b$8721b3o1085bo69bo5bo26b2ob2o252b2o496b3o2625b$8721b2obo1154b2o3b2o282bo3126b$8721bo2bo1155b2o301b2o3110b$8722bo1056bo132b2o268bobo3110b$9777b2o26bobo103b3o270bo3110b$9778b2o26bo102bo2b2o284bo44b2o3050b$9909b2o287b2o43b2o272bo2777b$9909bo287bobo315bobo2777b$10516b2o57bo2719b$8630bo94bo8bo1477b3o358bobo2719b$8628b2o96b2o6b2o326b2o756b2o392bo359b2o2719b$8629b2o94b2o7b3o325b2o756bob2o61bobo325bo3081b$8734b2o1086b2o62b2o339b2o3066b$8734b2o1077bobo6b2o62bo341b2o3065b$8735bo1078b2o3b2o406bo1066b3o1998b$8736bobo16b2o1057bo58bo368b2o1049bo2bo1998b$8737bo17b2o1065b2o50b2o23bo341bobo1052bo1998b$9056bo816b2o24bobo341bo1052bo1998b$9055bobo841b2o356bo1035bobo1999b$8728bo326bobo1199b2o3036b$8728bobo325bo1199bobo3036b$8706bo21b2o2572b3o1990b$8706bobo177b2o924bo53bo404b3o1028bo2bo1989b$8706b2o178b2o923bo53bo407bo1028bo1992b$8659b2o409b2o718bo20b3o51b3o404bo1023bo5bo1992b$8659b2o407b2ob2o716bo45bobo448b2o1007b3o5bobo1989b$9068b4o717b3o44b2o449b2o504bo501bob2o1996b$9069b2o765bo66b2o381bo504bobo502b3o1996b$9902bobo396b2o489b2o502b2o1997b$9903bo396bobo2992b$9886bo415bo2992b$9855b2o29bo429bo2978b$9854b3o28bobo428b2o2977b$9057b2o720b2o73bo2bo457bobo2977b$9057b2o719b3o17bo55b2ob2o28b2o3406b$9778bo2bo17b2o53b2ob2o471b3o2962b$9778b2ob2o15b2o53b2ob2o29b2o443bo2962b$9758bo19b2ob2o71bo476bo2963b$9757b3o17b2ob2o73b3o487b2o2948b$9756b2o2bo17bo77bo489b2o194bo2752b$9051bo727b3o563bo197b2o2750b$9050bobo707b2o18bo103b2o474b2o180b2o138bo2612b$8884b2o164bobo707b2o122b3o472bobo321b2o2610b$8884b2o165bo707bo2bo125bo472bo320b2o2611b$9758b3o125b2o487bo2919b$10375b2o2918b$10374bobo2918b$9883bobo1418b3o1988b$9883bobo503b3o912bo2bo1987b$9884bo506bo138bobo771bo1990b$10390bo140b2o771bo1990b$10233b2o169b2o125bo56bobo714bobo1987b$8604bo1276b2o350b2o170b2o182b2o2704b$8604bobo1273bobo521bo184bo2705b$8604b2o1275bo537b2o891b3o1980b$9747bo670bobo890bo2bo1980b$9052b2o692bo44b3o626bo893bo1980b$9052b2o692b3o41bo2bo640bo871bo7bo1980b$9790b2obo640b2o869b3o3bobo1981b$9794b2o637bobo868b2obo1987b$9794b2o1508b3o1988b$9793bo2bo651b3o854b2o1988b$8703bobo1086bo657bo2844b$8703b2o341bo745b3o69bo584bo2845b$8681bobo20bo340bobo745bo68bobo598b2o2830b$8681b2o362bobo740bo74b2o599b2o2829b$8682bo363bo739bobo674bo2831b$9787b2o62bo626b2o2815b$8876b2o974bo16bo607bobo2815b$8876b2o260b2o710b3o14b2o610bo2815b$8649b2o486b4o727b2o623bo2801b$8649b2o486b2ob2o1351b2o2800b$9139b2o1351bobo2800b$13295b$10507b3o2785b$9780bobo50b2obo25b2o12b2o631bo2785b$9758b2o20b2o49bo4bo25b2o11bobo630bo2786b$9757bo2bo20bo32bo15bo5bo27bo11bo645b2o2771b$9757bo2bo51bobo15bo31b3o658b2o2770b$9047b2o708bo55b2o14b2ob2obo25bobo658bo2772b$9047b2o711bo68b2obo2bo26b2o673b2o775b3o1978b$9758b3o70b4o26bo674bobo774bo2bo1978b$9760b2o70b3o26bo676bo19bo757bo1978b$9761bo97bo692bo3bobo757bo1978b$9829bo722b2o3b2o139bo614bobo1979b$9827b2o722bobo142bobo2596b$9041bo711bo18bo55b2o867b2o2596b$9040bobo708b2o20bo792b3o753b3o1970b$8874b2o164bobo709b2o17b3o794bo753bo2bo1969b$8874b2o165bo706b3o816bo754bo1972b$9748bo2bo14b3o812b2o733bo5bo1972b$9747bo3bo794bo35b2o731b3o5bobo1969b$9747b3o2bo13bobo778bo33bo733bob2o1976b$9748b4o17bo775b3o48b2o6bo711b3o1976b$9765bo3bo825bobo7bo710b2o1977b$8579bobo451b3o1561bo5b3o2689b$8579b2o452b3o709bobo17bo2b2o841bo2683b$8580bo452bo2bo708b2o476b2o386b2o2682b$9034b3o686bo22bo476b2o385bobo2682b$9034b2o685b2o43bo3528b$9722b2o42bo87b2o769b3o2667b$9718b3o44bo87bobo771bo2667b$9042b2o674bo2bo44bob2o84bo771bo2668b$9042b2o673bo3bo48bo869b2o2653b$8679bo1037b3o2bo15b3o22bo4bo872b2o2652b$8678bo1039b4o18bo899bo2654b$8657bo20b3o1057b3o17bo5bobo888b2o2638b$8656bo1100b3o4b3o887bobo2638b$8656b3o1056bobo21bo16b2o2bo895bo2638b$9715b2o20b3o16b2ob2o909bo2624b$9716bo18b3o21b3o908b2o2623b$9736b2o19bob2o908bobo150bo2472b$9756bo2bo1063bo2471b$9759bo924b3o134b3o500b3o1968b$8866b2o888bobo927bo637bo2bo1967b$8866b2o889bo82bo844bo638bo1970b$8639b2o567b2o631b2o856b2o623bo1970b$8639b2o565b2ob2o547b3o79b2o858b2o623bobo1967b$9206b4o547bob2o938bo2595b$9207b2o549b2obo3533b$9827bobo6bo1495b3o1960b$9807bo20b2o6b2o864bobo626bo2bo1960b$9039bo766b3o19bo7b3o861b2o10b2o620bo1960b$9036b2o3bo707bo55b2o2bo26b2o11b2o848bo12bobo611bo7bo1960b$9036bo4bo706b3o55b5o25b2o10bobo848bobo10bo2bo609b3o3bobo1961b$9037bo709bo2b2o54b2o2bo26bo11bo721bobo125bo2bo10bobo608b2obo1967b$9746b5o56bo2bo27bobo731b2o126bobo12bo608b3o1968b$9746b5o56bobo29bo732bo128b2o10b2o610b2o1968b$9749bo960bobo2582b$9749bobo34bo3508b$9749b2obo34b2o41bo3464b$9750bobo33b2o42bobo3462b$9751b3o76b2o3463b$8558bo1192bobo3541b$8557b3o304b2o149bo733b4o807bo2734b$8557bob2o303b2o149bobo731b3o809b2o2732b$8558bo2bo453b2o728bo4bo46bo762b2o56bo2676b$8559b2o1185b2o48bo822b2o2674b$8559bo1185b2o49b3o819b2o2675b$9726bobo3566b$9727b2o3566b$9727bo3567b$13295b$10213b2o476b2o2602b$10213b2o476b2o2602b$13295b$9031b2o703bo1597b3o1958b$8548bo106bo375b2o681b2o20bobo953b2o17b2o620bo2bo1958b$8548bobo102b2o1058bo2bo19b2o89b2o863b2o17b2o623bo1958b$8548b2o83bo20b2o1056b3o111bobo1507bo1958b$8631b2o1057bo136bo1505bobo1959b$8632b2o1056b2o22bobo995b2o2581b$9690b3o1019b2o2581b$9690b2o25bo1624b3o1950b$9690b2o24b2o1624bo2bo1949b$9691bo1650bo1952b$9692bobo1641bo5bo1952b$9693bo14bo1626b3o5bobo1949b$9707bo1627bob2o1956b$9707b3o1626b3o1956b$8856b2o826bo38bo1612b2o1957b$8856b2o418b2o406bobo36bo3571b$8629b2o644b4o405b2o36bobo3570b$8629b2o644b2ob2o4015b$9277b2o445b2o3569b$13295b$9724b2o960b2o2607b$9820bo766bo98b2o2607b$9821bo766bo2706b$9026b2o791b3o764b3o2706b$9026b2o748b3o28b2o878b2o17b2o2587b$9721b2o52bo2bo28bobo12b2o863b2o17b2o2587b$9721b3o51b2obo23bo6b2o10bobo3471b$9725bo53b2o19bobo4bobo12bo3472b$9723b2o54b2o20b2o4bo899b2o2586b$9778bo2bo25bo2bo16b2o878b2o2586b$9777bo50b2o3465b$8990bobo727bobo54b3o29b2o16bo748bo2718b$8571bo418b2o728bobo55bo63b2o730bobo2718b$8569bobo419bo729bo119bobo731b2o57bo709b3o1948b$8570b2o282b2o987bo788bobo709bo2bo1947b$8854b2o886bo114bo775b2o709bo1950b$9743bo56bo56b2o1485bo1950b$9741b3o54b2o56bobo1486bobo1947b$9799b2o3494b$9871b3o3421b$9873bo1478b3o1940b$9872bo1478bo2bo1940b$9886b2o1466bo1940b$9765bobo119b2o314b2o476b2o663bo7bo1940b$8523bobo103bo1135b2o119bo316b2o476b2o662b3o3bobo1941b$8523b2o104bobo1069bo64bo134b2o1441b2obo1947b$8524bo82bo21b2o390b2o676bobo198bobo1441b3o1948b$8607bobo411b2o677b2o200bo779b2o17b2o642b2o1948b$8519b3o85b2o1077b3o227bo765b2o17b2o2592b$8518bo2bo1141b3o19bo2bo227b2o3377b$8518b2o2bo1140bo2bo18bo4bo224bobo3377b$8521b2o1140bo2bo23bo1011b2o148bo2442b$9690b2o14bo91b2o130b3o769b2o146bobo2442b$8518bo1147b2o19bob2o13b2o91bobo132bo918b2o2442b$8516b2o1147bo2bo19bo16b2o91bo132bo3363b$8517b2o1146bo2bo276b2o3348b$9665bo280b2o3347b$9945bo3349b$9960b2o3333b$9959bobo3333b$8846b2o847bobo263bo3333b$8846b2o845bo4bo276bo3319b$8506bo112b2o725b2o345bo4bo276b2o3318b$8506b2o85bo25b2o723b2ob2o348b2o275bobo3318b$8505bo2bo82b2ob2o748b4o328bobo922bo2693b$8506bobo82b2ob2o749b2o329b2o15b2o2b2o290b3o610b2o2691b$8505bo2bo83bob3o1057bo22bo15b2o2b2o292bo609b2o73b2o676b3o1938b$8505bo2bo82b3o1058b2o40bob3o291bo685b2o675bo2bo1938b$8505bobo1145b2o42bo306b2o1350bo1938b$8506b3o507b2o678bo308b2o1349bo1938b$9016b2o986bo672b2o17b2o655bobo1939b$8592b2o1425b2o656b2o17b2o2597b$8592b2o1424bobo3274b$8966bo1053bo1341b3o1930b$8591bo373bo1068bo554bobo105b2o663bo2bo1929b$8584bobo3bob2ob2o368b3o1066b2o554b2o105b2o663bo1932b$8585b2o2b2o4b2o1436bobo554bo56bobo706bo5bo1932b$8585bo3b2ob2o2054b2o705b3o5bobo1929b$8591bo1164bo291b3o597bo706bob2o1936b$9757b2o15bo275bo1305b3o1936b$8844b2o910b2o16bobo272bo1306b2o1937b$8844b2o928b2o287b2o3230b$10064b2o3229b$10063bo3231b$8527bo1550b2o3215b$8528b2o1547bobo3215b$8527b2o69bo5b3o1161bo310bo3215b$8599bo7bo345bo706bo76b3o28b2o323bo3201b$8597b3o4b3o345b3o704b3o52bobo20bob3o28bo322b2o3200b$8955bo702bo2b2o52b2o51b2o322bobo98b2o476b2o2622b$8953b2o703bo3bo52bo24bobo24bobo423b2o476b2o2622b$8607b2o345bo705bobo77bobo25bo338b3o3185b$8607b2o402b2o728b2o23bobo340bo3185b$9011b2o644b2ob2o102bo343bo563b2o17b2o2602b$8513bobo1119bo23bo104bobo355b2o548b2o17b2o2602b$8514b2o1118b3o97bo388b2o3170b$8514bo84bo1033b2o2bo96bobo385bo3172b$8597b2o1078bo56b2o401b2o553b2o2601b$8577bo20b2o1059b4o15b2o456bobo553b2o2601b$8575b2o1082bobobo13b2o459bo1225b3o1928b$8576b2o1055b2o27bo489bo1211bo2bo1927b$8586bo1047b3o515b2o1210bo1930b$8585bobo1049bo513bobo1210bo1930b$8585bobo1047b3o1727bobo1927b$8586bo1048b2o25bo503b3o3126b$8486bo464bo711b2o503bo3126b$8485bo350b2o113bo710b2o6b3o494bo1204b3o1920b$8485b3o348b2o576b2o219bobo32bob3o506b2o434bo753bo2bo1920b$8609b2o802b4o219b2o544b2o431bobo756bo1920b$8609b2o802b2ob2o218bo36bobo505bo434b2o748bo7bo1920b$9415b2o256bobo520b2o1167b3o3bobo1921b$9674b2o84b2o433bobo1166b2obo1927b$9759bobo435bo468b2o696b3o1928b$9760bo450bo454b2o697b2o1928b$8960bo706bo543b2o3082b$8958bobo45b2o659bobo540bobo3082b$8959b2o45b2o637bo21b2o936bo61b2o17b2o2607b$9645bobo577b3o378bo60b2o17b2o2607b$9622bo22b2o580bo376b3o56bo2631b$9621bo604bo437bo2630b$9621b3o616b2o420b3o22b2o2606b$10241b2o444b2o2606b$10240bo3054b$10255b2o3038b$8581bo1672bobo3038b$8580bobo1673bo3038b$8580bobo251b2o97b2obo812bo520bo3024b$8543bo37bo252b2o95bo4bo810bobo520b2o3023b$8541bobo386bo5bo811b2o519bobo3023b$8542b2o386bo4364b$8929b2ob2obo794bo553b3o3008b$8929b2obo2bo795bo12bo541bo3008b$8556bo374b4o794b3o10b2o541bo1088b3o1918b$8555b3o374b3o808b2o554b2o1072bo2bo1918b$8554b2o2bo1180b3o13b2o543b2o1074bo1918b$8929bo809bo2bo11bobo426b2o114bo361b2o713bo1918b$8529bo28b2o367b2o809bo3bo12bo427b2o129b2o345b2o218bo491bobo1919b$8530bo27b2o368b2o779b2o27b3o2bo569bobo566bo2412b$8528b3o26bo2bo440b2o705bo2bo27b4o572bo564b3o2412b$8556b3o14bo427b2o705bo2bo617bo332b2o17b2o699b3o1910b$8573bobo1117bo14bo620b2o331b2o17b2o699bo2bo1909b$8573b2o1116bobo17bo24bobo589bobo1051bo1912b$9692b2o15b3o24b2o18bo1619bo5bo1912b$9711b2o24bo18b2o585b3o336b2o691b3o5bobo1909b$8917bo794bo42bobo587bo336b2o691bob2o1916b$8917b2o1425bo1031b3o1916b$8567bo348bo2bo850b3o585b2o1016b2o1917b$8567b2o7bo340bobo784bo67bo586b2o2934b$8462bo106bo5bobo338bo2bo782b2o67bo586bo2936b$8460b2o105b2o6bobo338bo2bo731bo51b2o80b2o586b2o2920b$8461b2o82bo20bobo7bo339bobo733bo133b2o584bobo255bobo2662b$8544bo22bo349b3o730b3o132bo588bo256b2o2662b$8544b3o18bobo258b2o972b2o586bo242bo2663b$8563bo262b2o971bobo586b2o2905b$8563bobo33b2o883b2o315bo585bobo2905b$8599b2o881b2ob2o328bo3479b$9482b4o329b2o585b3o2890b$8973bobo507b2o157bobo169bobo587bo2890b$8974b2o666b2o759bo252b2o2637b$8549bo424bo645bobo20bo185b3o585b2o200bo36b2o2637b$8548bobo1069b2o209bo586b2o200b2o2673b$8548bobo445b2o600bo22bo109b2o97bo586bo201b2o2674b$8549bo446b2o598b2o132bobo111b2o586b2o223b2o2636b$9597b2o132bo113b2o584bobo223b2o2636b$9844bo588bo2861b$9859b2o586bo936b3o1908b$8940bo917bobo586b2o228b2o705bo2bo1907b$8941b2o917bo585bobo228b2o705bo1910b$8940b2o932bo1509bo1910b$9874b2o585b3o921bobo1907b$8571bo1301bobo587bo2831b$8570bobo1889bo2832b$8570bobo251b2o1062b3o585b2o914b3o1900b$8444bo126bo252b2o1064bo586b2o912bo2bo1900b$8443b3o1443bo586bo917bo1900b$8442b2o2bo1456b2o586b2o893bo7bo1900b$8442bo3bo477bobo977b2o584bobo892b3o3bobo1901b$8442bob2o479b2o976bo588bo891b2obo1907b$8442b2o481bo758bo34bo198b2o586bo877b3o1908b$8543bo1139b3o34b2o195bobo586b2o877b2o1908b$8544b2o1136b2o2bo32b2o198bo585bobo2787b$8544b2o1136bo30b2o218bo239b2o476b2o2642b$8542bo1139b3o28bobo217b2o238b2o345b3o128b2o2642b$8443b2o2bo93bo3b2o1135b2obo20bobo6bo216bobo587bo2772b$8443bobobo94bo2b2o444b2o690bob2o20b2o4bobo10b2o793bo2773b$8446bo96b2o446b2o690b2o22bo5b2o10bobo219b3o585b2o115b2o2641b$9684bob2o26b2o10bo222bo586b2o114b2o2641b$8897bo785b2ob2o27b2o231bo586bo2759b$8896bo786b2ob2o27b2o245b2o586b2o2743b$8445bobo448b3o786bo277b2o584bobo120b2o2621b$8446b2o1514bo588bo120b2o2621b$8446bo96bo1433b2o586bo2729b$8541b2o1122bo310bobo586b2o79bo2648b$8434bo86bo20b2o22bo1099b2o37bo272bo585bobo80bo2647b$8433b3o83b2o44bobo1097b2o38bobo284bo652b3o2647b$8432bo2b2o83b2o43bobo1137b2o285b2o585b3o2713b$8436bo129bo1424bobo587bo2713b$8436b2o2142bo2714b$8438bo377b2o1188b3o585b2o798b3o1898b$8435b4o76b3o298b2o171bo562b2o64bo53bo335bo586b2o796bo2bo1898b$8435b2o78bo2bo70b2o399bo560b4o62bo53bo335bo586bo801bo1898b$8515bo2bo70b2o397b3o560b2ob2o40bo20b3o51b3o347b2o586b2o785bo1898b$8514b4o1035b2o40bo426b2o584bobo24bo757bobo1899b$8514b2o1079b3o423bo588bo22bobo2659b$8513bo1058bo463b2o586bo9b2o10b2o2647b$8514bo1057bobo460bobo586b2o20b2o754b3o1890b$8514bo1057b2o463bo585bobo776bo2bo1889b$8537b2o447b2o1063bo1350bo1892b$8537b2o447b2o1063b2o585b3o6b2o747bo5bo1892b$8956bo747b2o344bobo587bo6b2o746b3o5bobo1889b$8423bo530bobo746bobo933bo755bob2o1896b$8423bobo529b2o747bo360b3o1328b3o1896b$8423b2o1642bo599b2o727b2o1897b$10066bo600b2o2626b$10080b2o3213b$10081b2o3212b$8525bo35bo1518bo3214b$8524b3o33bobo1532b2o3198b$8523b2o2bo32bobo251b2o124bo1153bobo3198b$8523bo3bo33bo252b2o125bo1154bo3198b$8523bob2o412b3o1168bo3184b$8523b2o1585b2o3183b$10109bobo799bo2383b$10909bobo2383b$10124b3o783b2o2383b$10126bo3168b$8524b2o2bo1596bo3169b$8524bobobo1124b3o483b2o22b2o3130b$8527bo1124bo2bo28b3o453b2o21b2o468b2o2660b$9652b2obo28bo2bo7b2o442bo493b2o2660b$8532b2o339bo107b2o571b3o127bo2bo7b3obo454b2o3139b$8461bo65bo4b2o337b2o108b2o571bo2bo136bo2b2o2bo451bobo1248b3o1888b$8462bo60bo2bobo343b2o679bo3bo18b3o108b2o6b4o2bo453bo504bo743bo2bo1887b$8460b3o65bo1024b4o18bo2bo73b2o32bo2bo5b4o2bo467bo489b4o741bo1890b$8522b2o2b2o1026bo20bo2bo73b4o30bo2bo8bo2bo4b2o461b2o487bo4bo740bo1890b$9574bo2bo75bo2bo24bo4bo11bobo6b2o459bobo488bobobo741bobo1887b$9574bo2bo76bobo22bobo24bo954b2o2632b$9578b2o74bobo23b2o39b2o3572b$9578b2o140bobo1689b3o1880b$8556bo997b2ob2o17bo3bo141bo1688bo2bo1880b$8555bobo996bob3o20b2o75bo79bo461b2o1214bo1880b$8448bo106bobo1023bo72bobo79b2o461b2o1205bo7bo1880b$8446bobo107bo446bo572bo3bo13bo60b2o78bobo460bo1206b3o3bobo1881b$8447b2o62bo492b2o571b3o12b2o1810b2obo1887b$8510bo295b2o195b2o552bo35b2o155b3o1651b3o1888b$8489bo20b3o293b2o750bo116bo76bo1652b2o1888b$8488bo90b2o975b3o63b2o49b2o76bo476bo3066b$8488b3o88b2o1039b2ob2o49b2o89b2o461b2o3065b$9588b3o29b4o142b2o459bobo3065b$9588bo2bo29b2o142bo3529b$9588bo2bo188b2o3513b$9587b4o188bobo846b2o2665b$8969bobo615b2o51bobo138bo846b2o2665b$8398bobo126b2o441b2o4b2o608bo53b2o153bo461b2o3036b$8398b2o78bo2b2o44b2o441bo5b2o586bobo20bo53bo153b2o461b2o3035b$8399bo82b2o1080b2o21bo206bobo460bo3037b$8481b2o1059bo22bo3729b$9540b2o267b3o3483b$8477b2o2b2o1058b2o268bo3483b$8393b2o88bo1191b2o133bo476bo3007b$8393bobo81b4o1193bobo147b2o461b2o3006b$8395b2o82bo2bo471bo720bo149b2o459bobo3006b$8394bo156bo403b2o867bo3470b$8392bobo155bobo401b2o883b2o3454b$8391b2o157bobo251b2o1032bobo1573b3o1878b$8391b3o157bo252b2o1034bo1572bo2bo1878b$9854bo461b2o1098bo1878b$9854b2o461b2o1097bo1878b$9853bobo460bo1096bobo1879b$13295b$9868b3o3424b$9870bo1551b3o1870b$9869bo476bo1075bo2bo1869b$8477bo369bo1035b2o461b2o1074bo1872b$8476bobo12b3o353bobo1034b2o265b2o192bobo275b2o791bo5bo1872b$8476bobo11bo2bo353b2o120b2o555bo356bo267b2o470b2o790b3o5bobo1869b$8477bo12bo2bo28b2o445b2o554b3o370b2o1515bob2o1876b$8489bo2bo29b2o1001bo2bo368bobo1516b3o1876b$8489bo2bo1034b2o370bo1516b2o1877b$8493b2o1032bo385bo461b2o2918b$8493b2o1029b2o387b2o461b2o2917b$8491bo3bo1028b4o384bobo460bo2919b$8494b2o1029bo2bo3766b$8496bo1029bo400b3o3365b$8461bobo27bo3bo1029bo403bo3365b$8462b2o28b3o51bo472bo504b2o402bo476bo2889b$8462bo26bo55bobo469bobo503bo5bo412b2o461b2o2888b$8487bobo55bobo470b2o503b2o3b2o41bo371b2o459bobo2888b$8488b2o56bo977b2o46b2o75bo292bo3352b$9544bo26b2o76bobo305b2o3336b$8796b2o745b3o103b2o305bobo3336b$8796b2o744bo2b2o143b2o266bo3336b$8569b2o975bo142b4o279bo461b2o2859b$8400bo168b2o975b2o141b2ob2o278b2o461b2o2858b$8401b2o1145bo13bo53bo74b2o278bobo460bo2860b$8400b2o1143b4o12bo53bo3679b$8472bo6bobo1063b2o14b3o51b3o368b3o3306b$8471bobo5b2o1048bobo456bo629b2o804b3o1868b$8457bobo11bobo6bo1049b2o455bo476bo153b2o804bo2bo1867b$8457b2o13bo44b2o1011bo470b2o461b2o958bo1870b$8458bo58b2o1483b2o459bobo958bo1870b$10001bo1423bobo1867b$10016b2o3277b$9551bo2b2o459bobo3277b$9555b2o460bo1414b3o1860b$8367bo1186b2o475bo461b2o936bo2bo1860b$8367bobo1163bo497b2o461b2o938bo1860b$8367b2o1164bobo14b2o2b2o474bobo460bo446bo485bo7bo1860b$8541bo968bo22b2o21bo1384bo483b3o3bobo1861b$8540bobo966bo40b4o491b3o891b3o482b2obo1867b$8540bobo251b2o713b3o40bo2bo491bo1376b3o1868b$8541bo252b2o1250bo476bo901b2o1868b$10060b2o461b2o2770b$10061b2o459bobo2770b$10060bo3234b$10075b2o3218b$8822bobo1249bobo3218b$8822b2o1252bo3218b$8823bo1266bo461b2o2741b$10090b2o461b2o2740b$9520bo568bobo49b2o409bo60b2o2680b$8441bo23b2o1053bo620b2o470b2o2680b$8440b3o22b2o45b2o1005bobo582b3o3188b$8439bo2b2o68b2o1592bo3188b$8439bo3bo1077b2o582bo476bo2712b$8441bobo1675b2o461b2o2711b$9521b2o597b2o459bobo2711b$8438b2ob2o1676bo3175b$8440bo591bobo1099b2o3159b$9033b2o1098bobo3159b$9033bo553bo547bo1298b3o1858b$8536bo981b2o65bobo36bobo522bo461b2o820bo2bo1858b$8440b4o91bobo980b3o65b2o36b2o523b2o461b2o822bo1858b$8440bobobo90bobo984bo102bo522bobo460bo824bo1858b$8348b3o92bo92bo983b2o1911bobo1859b$8348bo2bo4943b$8346bo4bo64bo369b2o4507b$8414bobo369b2o722b3o4bobo72bo1048bo800b3o1850b$8346bo68b2o26bo115b2o948bo2bo4bobo70b2o168b2o416b2o461b2o799bo2bo1849b$8347bo96b2o113b2o952bo4bo26bo45b2o165b2ob2o416b2o459bobo799bo1852b$8348b2obo91b2o6b3o1055b2o35bo211b4o416bo1257bo5bo1852b$8349bo2bo98bob3o1053b2o3bo29b3o212b2o1674b3o5bobo1849b$8349b2o1163bo1920bob2o1856b$8350bo2bo100bobo1055bo1095b2o826b3o1856b$8353bo76bo23bobo3b2o1048b3o19b2o674bo399b2o60b2o764b2o1857b$8349bo79b3o23b2o3b2o45b2o1001b2o20bobo673b2o461b2o2622b$8352bo75b2o2bo74b2o1001bo15bo7b2o671bobo460bo2624b$8349b3o77b5o1077b2o14bo4bobo3760b$8429b2o2bo14bo1062bobo11b3o4bo3762b$8430bo2bo14bobo1059bo3bo17bo2bo3759b$8430bobo15b2o1061b2o1187bo2594b$9486bo47b2o701b2o461b2o2593b$9484b2o752b2o459bobo2593b$9485b2o750bo3057b$8531bo969b3o3791b$8530bobo968bo2bo3790b$8438bo91bobo251b2o713bo4bo10bo6b2o3771b$8338bo97b6o89bo252b2o727bobo8bo742bo461b2o2564b$8338bo97b2o2b2o356bo700bo14b2o9bo741b2o461b2o2563b$8332b2o86bo376bo702bo21bobo741bobo460bo2565b$8332bob2o83bo20bo356b3o701b2obo18bo3771b$8335b2o82b3o14b2o2bo1061bo2bo19bobo3767b$8335bobo98b2o3bo1060b2o21bobo46bo3720b$8332bo3b2o102bo1062bo2bo19bo46b3o29bo1153bo684b3o1848b$8336bo101bobo1065bo65b2o2bo27b3o689b2o461b2o683bo2bo1847b$8439bo1062bo69bo3bo26bo2b2o689b2o459bobo683bo1850b$9505bo11bobo52bob2o27b4o689bo306b2o839bo1850b$8329bobo123b2o1045b3o12b2o53b2o32bobo994b2o840bobo1847b$8329b2o124b2o45b2o1014bo87bo2bo3685b$8330bo92bo78b2o1102b3o3686b$8422bobo623bo464b3o89bobo718bo461b2o662b3o1840b$8422bobo624bo462bo2bo89bobo718b2o461b2o660bo2bo1840b$8423bo623b3o462b2o2bo56b2o2bo27b3o717bobo460bo665bo1840b$9515b2o56bobobo22bobo1843bo7bo1840b$9576bo24b2o1842b3o3bobo1841b$9512bo88bo1842b2obo1847b$9510b2o1306bo625b3o1848b$8526bo963bo20b2o842b2o461b2o625b2o1848b$8525bobo960b2o85bobo778b2o459bobo2475b$8525bobo961b2o85b2o777bo2939b$8526bo1049bo3718b$13295b$8776b2o781bo3735b$8776b2o782b2o31bo234b2o555bo461b2o2446b$8549b2o1008b2o32bobo231b4o554b2o461b2o2445b$8549b2o1042b2o232b2ob2o552bobo460bo2447b$9829b2o3464b$13295b$8364bo4930b$8365b2o1193bo1037b2o277bo2417b$8364b2o84b2o1107bo854b2o182b2o277b2o2416b$8450b2o45b2o1060b3o853b2o459bobo2416b$8418bo78b2o1915bo2880b$8417bobo2550bo2324b$8417bobo1040bo1507bobo2324b$8418bo1041bobo1506b2o2324b$9460b2o133b2o847bo461b2o546b3o1838b$9594bobo847b2o461b2o544bo2bo1838b$8342bobo1250bo847bobo460bo549bo1838b$8343b2o3111bo1838b$8343bo74bo102bo2931bobo1839b$8416b2o102bobo4772b$8396bo20b2o101bobo2413bo2358b$8394b2o125bo1951b2o461b2o524b3o1830b$8395b2o2077b2o459bobo524bo2bo1829b$10473bo988bo1832b$11456bo5bo1832b$11455b3o5bobo1829b$9544b3o1908bob2o1836b$8303bo2bo1237bobo28b3o925bo461b2o489b3o1836b$8303bob2o1237bo2bo27bo2bo924b2o461b2o488b2o1837b$8305b2o77bo1160b3o26bo3bo923bobo460bo2329b$8384b2o1159b3o26b4o1015b2o2700b$8383bo2bo58b2o615bo480bo2bo28bo1017b2o2700b$8307b2o75bobo58b2o45b2o569b2o481bo3748b$8307b2o74bo2bo26bo78b2o568b2o479bo3751b$8383bo2bo25bobo1129b2o986b2o2761b$8383bobo26bobo1128b3o987b2o2760b$8384b3o26bo1072bo56b2o30b2ob2o952bo2762b$8298bo1187bobo53bobo2b2o26bob3o3715b$8298bobo1163bo21b2o54bobo2b2o3746b$8298b2o1164bobo75b3o3750b$9464b2o108bobo985bo2732b$9574bo2bo984b2o2731b$9572bo3bo984bobo2731b$9571b3o3721b$8292bo220b2o1057b2o3721b$8292b2o218bo2bo4779b$8294bo217bo2bo4779b$8292b2o218bo2951b3o1828b$8291bobo221bo23b2o1009bo347b2o1564bo2bo1827b$8292bo89bo130b3o23b2o1007bobo345b2ob2o1563bo1830b$8290bobo88bobo131b2o1032b2o345b4o1564bo1830b$8288bo92bobo132bo1380b2o1566bobo1827b$8288bobo91bo14bo4897b$8396b3o1164bo3731b$8395b2o2bo40b2o66bo1052b2o1909b3o1820b$8440b2o45b2o17b2o927bobo124b2o1907bo2bo1820b$8399b2o7bo78b2o18b2o926b2o2037bo1820b$8399b2o6bobo1026bo2029bo7bo1820b$8358bo39bo2bo5bobo3055b3o3bobo1821b$8359bo37b3o8bo3055b2obo1827b$8357b3o1168bobo1933b3o1828b$8391bobo1134b2o1935b2o1828b$8392b2o1135bo3765b$8392bo4902b$9566b2o3727b$9565bobo3727b$9566bo3728b$13295b$8317bo4977b$8315bobo4977b$8316b2o68bo4908b$8385bo4909b$8364bo12bo7b3o4907b$8363bo12bobo4916b$8363b3o10bobo699bo4216b$8377bo698bobo4216b$9077b2o1504b2o2710b$8299bo135b2o2146b2o2710b$8300bo134b2o45b2o4811b$8298b3o102bo78b2o977bobo3831b$8402bobo1056b2o2011b3o1818b$8402bobo1034bobo20bo2010bo2bo1818b$8403bo1035b2o2035bo1818b$9440bo2035bo1818b$11473bobo1819b$8523bo4771b$8524b2o4769b$8523b2o2957b3o1810b$8267b2o3213bo2bo1809b$8265bo3216bo1812b$8265b3o3208bo5bo1812b$8267b2o3206b3o5bobo1809b$11475bob2o1816b$9966b2o1508b3o1816b$8269b2o258b2o1434b4o1507b2o1817b$8269b2o258b2o1434b2ob2o3325b$8367b2o3b2o1163bo429b2o3326b$8366bo2bo2b2o108bo928bo125bobo3755b$8366bo2bo112bobo925bo126b2o3756b$8260bobo104b2o113b2o926b3o3882b$8260b2o168b2o4863b$8261bo168b2o45b2o4816b$8398bo78b2o1025bo3790b$8256b3o138bobo1103bo3791b$8255bo2bo138bobo1103b3o3789b$8255b2o2bo138bo4896b$8258b2o5035b$13295b$8255bo5039b$8253b2o5040b$8254b2o5039b$8330bobo4962b$8331b2o4962b$8331bo8b2o20bo3121b3o1808b$8340b2o18b2o3122bo2bo1807b$8342bo18b2o3121bo1810b$8340b2o3142bo1810b$8340b2o749bobo2391bobo1807b$9092b2o4201b$8342b2o18b2o3b2o723bo4202b$8313bo28b2o17bo2bo2b2o3123b3o1800b$8314b2o45bo2bo1072bo2053bo2bo1800b$8313b2o47b2o1072bo1136b2o919bo1800b$8425b2o988bo20b3o1134b2o911bo7bo1800b$8425b2o987bo2070b3o3bobo1801b$8332bobo14bo43bo1020b3o2067b2obo1807b$8332b2o14b3o41bobo3089b3o1808b$8333bo13b5o40bobo3090b2o1808b$8347b2ob3o40bo145bo4755b$8348b2ob2o184bobo4755b$8277bobo70bo187b2o4755b$8278b2o47b2o4966b$8278bo48bobo1074b2o3889b$8329b2o1072b3o3889b$8328bo1074bo2bo3888b$8326bobo1074b2ob2o3887b$8325b2o1076b2ob2o3887b$8325b3o1074b2ob2o3888b$9403bo3891b$8264bo1139b3o105bobo3780b$8265b2o1120bo17bo106b2o522b2o3257b$8264b2o1119b2o126bo520b2ob2o3256b$8357b2o3b2o1022b2o646b4o3257b$8356bo2bo2b2o1671b2o3258b$8356bo2bo4935b$8357b2o1121bo3814b$8420b2o959b3o94b2o2014b3o1798b$8420b2o959bo2bo94b2o2012bo2bo1798b$8388bo992bo2bo2111bo1798b$8337bo49bobo990b4o2112bo1798b$8336b3o48bobo990b2o2111bobo1799b$8229bo81b3o21bo2b2o48bo990bo3915b$8229bobo78bo3bo20b3o1042bo36b3o3875b$8229b2o115bo1033bo35bo2bo2082b3o1790b$8315bo31bo1068bo2bo2082bo2bo1789b$8310b5o30b3o1067bo2bo2083bo1792b$8311bo23bo1079bo2bo2077bo5bo1792b$8338bo1080b2o2074b3o5bobo1789b$8335bo3bo1079b2o2074bob2o1796b$8311b2o23b2ob2o766bo309bo3bo2074b3o1796b$8311b2o795bo311b2o2074b2o1797b$8311bo794b3o313bo3872b$8310b2o1105bo3bo3873b$8308b2obob3o13bo1088b3o3874b$8314b2o11bobo5b2o2b2o1072bo3881b$8308bo2bo16b2o5bo2b2o12b2o3b2o1052bobo3881b$8309b3o26bo12bo2bo2b2o1053b2o3881b$8303bo30b2o15bo2bo4940b$8302b3o47b2o2209b2o2730b$8301bo2b2o109b2o2146b2o2730b$8301bo3bo109b2o4878b$8303bobo77bo4911b$8293bo88bobo4910b$8294bo5b2ob2o19bo57bobo4910b$8292b3o7bo21b2o57bo1021bobo3887b$8316bobo7bo1078b2o3888b$8317b2o5b2o1057bobo20bo3888b$8317bo6bo1058b2o3910b$8302b4o1078bo3910b$8302bobobo19b2o3176b3o1788b$8305bo20b2o3176bo2bo1787b$9388bobo97bo2015bo1790b$8280bo1108b2o96bo2016bo1790b$8278bobo1108bo97b3o2015bobo1787b$8279b2o24bo4989b$8306b2o1796b2o3189b$8305b2o6b3o1787b4o1405b3o1780b$8313bob3o27bo1757b2ob2o1403bo2bo1780b$8344bobo1107bo650b2o1407bo1780b$8207b3o106bobo25bobo1107bobo2049bo7bo1780b$8207bo2bo105bobo26bo1108b2o2049b3o3bobo1781b$8207bo2bo106b2o3185b2obo1787b$8208bo2bo198b2o943bo2148b3o1788b$8208b3o199b2o942bo2150b2o1788b$8209b2o99bo67bo975b3o3938b$8310bobo64bobo4915b$8288bo21b2o65bobo4915b$8288bobo87bo4916b$8288b2o5005b$13295b$13295b$8296bo4998b$8295bobo823bo4173b$8199bo95bobo824b2o4171b$8197b2o97bo824b2o4172b$8198b2o1232bobo3860b$8342bobo1088b2o3860b$8343b2o1081bobo4bo3861b$8343bo1083b2o3866b$9427bo3867b$8340bo4954b$8339bobo4953b$8339bobo3172b3o1778b$8340bo227bo2944bo2bo1778b$8569bo1983b2o961bo1778b$8405b2o160b3o1983b2o961bo1778b$8405b2o974bo2131bobo1779b$8373bo1006bo3914b$8372bobo984bo20b3o3912b$8372bobo983bo2163b3o1770b$8373bo984b3o2161bo2bo1769b$11522bo1772b$11516bo5bo1772b$9404bo2110b3o5bobo1769b$9405bo58bo2050bob2o1776b$9403b3o56b2o2052b3o1776b$8289b2o1172b2o2051b2o1777b$8289b2o5004b$9368b3o3924b$9367bo3bo3923b$9346b3o23bo3922b$9345bo3bo79bobo3863b$9350bo16b2o3bo56b2o743b2o3119b$8335bo1033b3o58bo741b2ob2o3118b$8220bo113bobo1008b2o3bo821b4o3119b$8221b2o111bobo994bo15b3o823b2o3120b$8220b2o113bo993b2o3964b$8285bobo1042b2o3963b$8263b3o19b2o113b2o4893b$8266bo19bo113b2o4893b$8263b3o102bo4926b$8367bobo4925b$8367bobo4925b$8266b2o100bo4926b$8266b2o5027b$9137bo2386b3o1768b$8173bo961bobo2386bo2bo1767b$8173bobo960b2o310bo2075bo1770b$8173b2o83bo99bo1090bo2074bo1770b$8170bo85b2o26b2o73bo1082bo4b3o2075bobo1767b$8169b3o85b2o13b3o9b2o71b3o1083bo3851b$8168bo2b2o99b3o1166b3o3851b$8168b3obo99bo2bo3256b3o1760b$8171b2o100b3o3255bo2bo1760b$8273b2o3259bo1760b$8167bo3358bo7bo1760b$8166bo163bo3194b3o3bobo1761b$8166b3o160bobo1045bo2146b2obo1767b$8329bobo1043bobo2146b3o1768b$8330bo1024bo20b2o2147b2o1768b$9353bobo1187b2o2750b$8395b2o957b2o1187b2o2750b$8395b2o4898b$8363bo4931b$8156b2o204bobo4930b$8155b3o84b3o117bobo4930b$8155bo2bo82bo3bo117bo1054bo3876b$8155b2ob2o1259b2o17bo3856b$8155b2ob2o86bo1171b2o18bobo3854b$8154b2ob2o82b5o1103bobo86b2o3855b$8155bo86bo1106b2o3944b$8156b3o1168bobo20bo3944b$8157bo121b2o1046b2o3966b$8242b2o35b2o1047bo76bo3889b$8242b2o1160bo3890b$8242bo1159b2ob2o21bo3866b$8241b2o1158b5o20b6o3863b$8236bo2b2obob3o1153b2o2bo21b2o2b2o810b2o3051b$8234bobo8b2o1058bo94bob4o835b4o1289b3o1758b$8235b2o2bo2bo82bo979bobo92bo4bo24bo810b2ob2o1287bo2bo1758b$8240b3o81bobo978b2o93bo2b2o21b2o2bo812b2o1291bo1758b$8324bobo1075b2o22b2o3bo2104bo1758b$8325bo1104bo2102bobo1759b$9398bo29bobo3864b$8390b2o908b2o96bobo28bo3865b$8390b2o908bob2o94b2o2142b3o1750b$8178bo179bo943b2o2238bo2bo1749b$8179bo75bo101bobo940b2o2240bo1752b$8177b3o75b2o100bobo790bobo145b2o2236bo5bo1752b$8247bobo7bo100bo792b2o2382b3o5bobo1749b$8248b2o5b2o894bo146bobo161bo2072bob2o1756b$8248bo6bo116bo926bo163b2o2071b3o1756b$8373b2o1081bo5b2o2072b2o1757b$8257b2o113b2o1083b2o3836b$8257b2o1197b2o3837b$8274b2o5019b$8165bo108b2o5019b$8163bobo5129b$8164b2o82bo5046b$8247bo350bo4696b$8226bo20b3o346bobo791bobo30b2o3870b$8225bo371b2o792b2o29bobo3870b$8225b3o92bo1047bobo20bo31bo3871b$8236bo82bobo1047b2o3924b$8235bobo81bobo1047bo3925b$8235bobo82bo4974b$8236bo2296b2o2760b$8385b2o2146b2o2760b$8135bobo247b2o4908b$8135b2o216bo4941b$8136bo215bobo4940b$8352bobo970bo2218b3o1748b$8353bo970bo2219bo2bo1747b$9303bo20b3o2217bo1750b$9302bo108bo2132bo1750b$9302b3o104bobo2133bobo1747b$9410b2o3883b$13295b$8269b2o1037bo2243b3o1740b$8269b2o1038bo98bo2142bo2bo1740b$9307b3o96b2o2146bo1740b$9407b2o2137bo7bo1740b$11545b3o3bobo1741b$9418b2o2124b2obo1747b$9417bobo892b2o1230b3o1748b$8315bo1102bo891b2ob2o1230b2o1748b$8231bo82bobo1056bobo934b4o2981b$8230bobo81bobo973bo82b2o936b2o2982b$8230bobo82bo973b3o82bo3920b$8192bo38bo1060bo4002b$8193b2o971bo109bo13b2o4003b$8192b2o973bo108bo14bo4003b$8348bo816b3o102b2o146bo3876b$8347bobo920bob2o144b2o58bo3816b$8205b3o139bobo923b2o142bobo56bobo3816b$8204bo2bo140bo924bobo196bo4b2o3816b$8204b2obo1062bo3b2o156b3o35bobo3822b$8208b2o1064bo159bo36b2o3822b$8208b2o1223bo3861b$8178bobo26bo2bo1236b2o3846b$8179b2o25bo1060bobo178b2o3845b$8179bo26b3o15bo39b2o1001b2o178bo3847b$8207bo14b2o40b2o1002bo137bo55b2o3831b$8223b2o1182bo53bobo3831b$9384bo20b3o55bo2090b3o1738b$9288bo96bo91bo2075bo2bo1738b$9288bo94b3o91b2o2077bo1738b$9476bobo2077bo1738b$8217b2o91bo3242bobo1739b$8217b2o7bo82bobo4983b$8111bo107bo5bobo81bobo4983b$8110bo106b3o5bobo82bo991b3o2257b3o1730b$8110b3o103bobo7bo1075bo2bo1217b2o1037bo2bo1729b$8194bobo20b2o1087bo1216b2o1037bo1732b$8194b2o20bo89b2o989bo5b3o2250bo5bo1732b$8195bo20bo89bobo34bo951bobo2257b3o5bobo1729b$8214bo93bo33bobo951b2o2257bob2o1736b$8306bobo33bobo3211b3o1736b$8305bo37bo3212b2o1737b$8305bobo4987b$8305bo4989b$8199bo104bo1017bo3972b$8198bobo1122b2o57bo3912b$8198bobo1121b2o58bobo3910b$8199bo59b2o1032bobo86b2o3911b$8259b2o1032b2o4000b$9271bobo20bo4000b$9271b2o4022b$9272bo76bo3945b$9348bo133b2o896b2o2913b$9348b3o131b2o895b4o2912b$9280bobo1096b2ob2o2911b$8221bo1059b2o1098b2o2912b$8220bobo957bo100bo4013b$8220bobo958b2o4112b$8221bo958b2o4113b$13295b$11564b3o1728b$8338bo3225bo2bo1727b$8337bobo3224bo1730b$8337bobo3224bo1730b$8194bo143bo3226bobo1727b$8193bobo1045bo2bo4050b$8193b3o1045bob2o4050b$8194bobo430bo615b2o2327b3o1720b$8191b2o2b2o431bo791bo2150bo2bo1720b$8192b2o2bo429b3o792b2o2151bo1720b$8193b3o58b2o989b2o151bo21b2o2144bo7bo1720b$8254b2o58bo930b2o152b2o2164b3o3bobo1721b$8312bobo1083b2o2164b2obo1727b$8313b2o3249b3o1728b$11565b2o1728b$9236bo240b2o3816b$8087bo104bo1043bobo238b2o3816b$8085b2o104bo1044b2o4057b$8086b2o82bo20b3o5101b$8169bo5125b$8169b3o5123b$8213b2o2298b2o2780b$8211bo2301b2o2780b$8166bo44b3o66bobo5012b$8165b3o45b2o65b2o51bo4961b$8164b2o2bo112bo50bobo4960b$8168bo163bobo4960b$8167bo47b2o116bo1004bo3956b$8163bo51b2o1119bobo18bobo3935b$8163bobo1103bo67b2o18b2o3936b$8163b2o1103bo89bo3936b$9247bo20b3o4024b$8187b2o17bobo1037bo4048b$8187b2o17b2o41b2o995b3o2325b3o1718b$8207bo41b2o1074bo2247bo2bo1718b$9323b2o2251bo1718b$9296bo27b2o20bobo2227bo1718b$9297bo22b3o23bo2bo2223bobo1719b$9295b3o22bo2bo21bo3b2o121b2o3821b$9196bo122bo3bo21bo126b2o976b2o2843b$9194bobo122b3o2bo1123b2ob2o1129b3o1710b$8174b3o1018b2o123b4o21bo2b3o1097b4o1130bo2bo1709b$8173bo2bo1168b2o1102b2o1131bo1712b$8173bo3bo1169b3o2226bo5bo1712b$8172b2obobo1139bobo27b3o2225b3o5bobo1709b$8172b2ob2o1140b2o2256bob2o1716b$8173b3o1079bo62bo2257b3o1716b$9253bobo2320b2o1717b$9254b2o4039b$13295b$13295b$8174b2obo1258bo3858b$8174bobobo1255bobo3858b$8177bo1236bo20b2o3858b$9412bobo3880b$8182b2o1229b2o3880b$8177bo4b2o60b2o5049b$8178bo65b2o5049b$8172b2o2bobo1032bobo4081b$8061bo115bo1033b2o4082b$8061bobo1148bo4082b$8061b2o1279b2o123b2o3826b$9341bobo123b2o3826b$8223bobo1116bo3952b$8224b2o5069b$8224bo31bo5038b$8255bo3328b3o1708b$8255b3o2245b2o1079bo2bo1707b$10503b2o1079bo1710b$8160bobo3421bo1710b$8160b2o3423bobo1707b$8138bobo20bo5133b$8138b2o1105bo4049b$8139bo1103b2o2347b3o1700b$8182bo1040bo20b2o2345bo2bo1700b$8181bo1039b2o105bobo2263bo1700b$8181b3o1038b2o105b2o2255bo7bo1700b$9329bo2255b3o3bobo1701b$8177b2o3405b2obo1707b$8177b2o60b2o1069bo2273b3o1708b$8239b2o1070b2o13bo2258b2o1708b$9310b2o14bobo3966b$9209bobo114b2o3967b$9210b2o4083b$9210bo126b2o123b2o1054b2o2775b$9336bobo123b2o1053b4o2774b$9292bo28b2o14bo1179b2ob2o2773b$9292b2o27bob2o1194b2o2774b$9292b3o28b2o3970b$9268bobo21b2o27b2o3972b$9269b2o21b2o25b2o3974b$9269bo23bo4001b$9294bobo22bobo3973b$8657bo637bo24bo3974b$8655bobo678b3o110bobo3843b$8656b2o680bo111b2o3843b$9286bo50bo89bobo20bo3844b$9286bobo62b2o75b2o3865b$9286b2o64b2o74bo3866b$9351bo2242b3o1698b$9187bo178b2o2225bo2bo1698b$9186bo178bobo2228bo1698b$8036bobo209b4o934b3o178bo2228bo1698b$8036b2o209bo3bo1129bo2211bobo1699b$8037bo213bo1129b2o3912b$8247bo2bo1129bobo3912b$11602b3o1690b$9395b3o59b2o2143bo2bo1689b$9397bo59b2o2143bo1692b$9396bo2199bo5bo1692b$9410b2o2183b3o5bobo1689b$8136bo1176b2o96b2o2182bob2o1696b$8135bo1176bobo95bo2185b3o1696b$8114bo20b3o1175bo111b2o1066b2o1101b2o1697b$8113bo1310bobo1066b2o2800b$8113b3o1103bo206bo3868b$9219bobo4073b$9197bo21b2o4074b$9197bobo4095b$9197b2o4096b$13295b$13295b$13295b$13295b$9225bo204b3o3862b$8284b2o940bo4068b$8282b2ob2o937b3o201bo5bo3860b$8282b4o1017bo124bo5bo3860b$8283b2o1016bobo124bo5bo16b2o3842b$9302b2o147b2o3842b$9430b3o3862b$9284bo1303b2o2705b$9285bo11bo1288b2ob2o1013b3o1688b$9283b3o11bo1288b4o1014bo2bo1687b$9291b2o15b2o1277b2o1015bo1690b$9291bob2o12bobo2294bo1690b$9294b2o12bo2296bobo1687b$9294bobo3998b$9261b3o27bo3b2o3998b$9264bo30bo2316b3o1680b$9261b3o2347bo2bo1680b$9310bo2303bo1680b$9288bobo19b2o2294bo7bo1680b$9163bo100b2o22b2o19bobo2293b3o3bobo1681b$8012bo1148b2o101b2o23bo2314b2obo1687b$8011bo1150b2o160b3o2277b3o1688b$8011b3o1312bo99bo2178b2o1688b$8316bo2bo1005bo100bo3868b$8320bo935bo82b2o85bo3868b$8316bo3bo933b2o84b2o3953b$8317b4o934b2o82bo82b3o3b3o3864b$9354b2o90b2o3847b$9353bobo70bo19b2o3847b$9355bo70bo3868b$8112bo1256bo56bo3868b$8110b2o1257b2o3924b$8090bo20b2o1255bobo3924b$8088b2o5205b$8089b2o1103bobo186b3o3909b$9194b2o189bo1097b2o2810b$9172bobo20bo188bo1098b2o2810b$9172b2o110b2o112b2o3895b$9173bo109bobo113b2o3894b$9284bo113bo3896b$9413b2o3880b$9412bobo2199b3o1678b$9414bo2198bo2bo1678b$9239bo2376bo1678b$9240b2o2374bo1678b$9239b2o2372bobo1679b$8352b2o4941b$8351b4o4940b$8351b2ob2o3266b3o1670b$8353b2o1067bo2199bo2bo1669b$9421bobo17b2o2179bo1672b$9421bobo17b2o2173bo5bo1672b$9422bo1233b2o957b3o5bobo1669b$10655b4o956bob2o1676b$8686bo1968b2ob2o956b3o1676b$8687bo585bo1383b2o957b2o1677b$8685b3o586b2o4019b$9273b2o4020b$13295b$13295b$9264bo14b2o4014b$9263bo14bobo4014b$9137bo125b3o13bo4015b$7988bo1148bobo4155b$7986b2o1149b2o4156b$7987b2o5306b$13295b$9230bo4064b$9230bobo4062b$9230b2o4063b$8386b4o4905b$8385bo3bo4905b$8389bo1027bo3877b$8086bo298bo2bo1027bobo17b2o3857b$8086bobo1036bo25bo264bobo17b2o2186b3o1668b$8064bo21b2o1036bobo23b3o264bo2206bo2bo1667b$8064bobo1056bo3bo22bob2o16bo2453bo1670b$8064b2o1058bo2bo23bo2bo14bo2454bo1670b$9124bo2bo24b2o15b3o2453bobo1667b$9125bobo24bo4142b$13295b$10473b2o1157b3o1660b$10473b2o1156bo2bo1660b$11634bo1660b$11626bo7bo1660b$9159b2o2464b3o3bobo1661b$9158b3o94bo2368b2obo1667b$9158bo2bo91bobo2368b3o1668b$9141bo16b2ob2o91b2o2369b2o1668b$9141bobo14b2ob2o4132b$9141b2o14b2ob2o4133b$9158bo4136b$9159b3o4133b$8422b2o736bo4134b$8420b2ob2o4870b$8420b4o988bo3882b$8421b2o988bobo17b2o3862b$9411bobo17b2o3862b$9412bo3882b$10726b2o2567b$10724b2ob2o2566b$10724b4o2567b$9132bo1592b2o2568b$9133bo106bo4054b$9131b3o104b2o4055b$9239b2o4054b$7962bo5332b$7962bobo3669b3o1658b$7962b2o3669bo2bo1658b$11636bo1658b$9205bobo2428bo1658b$9205b2o2426bobo1659b$9206bo4088b$13295b$9107bo2534b3o1650b$8454bo2bo647b2o2535bo2bo1649b$8061bobo394bo647b2o2534bo1652b$8061b2o391bo3bo3177bo5bo1652b$8039bobo20bo392b4o948bo2227b3o5bobo1649b$8039b2o1365bobo17b2o2207bob2o1656b$8040bo1080b3o282bobo17b2o2208b3o1656b$9121bo2bo282bo2228b2o1657b$9096bobo21bo3bo4170b$9094bo4bo20b2o4173b$9094bo4bo21bobo4171b$9098b2o22b2o2bo4168b$9122bo2bo4169b$9094b2o2b2o22bo1340b2o2830b$9094b2o2b2o21b2ob2o1337b2o2830b$9095bob3o22bobo13bobo127bobo4024b$9098bo24bo14b2o129b2o4024b$9097bo41bo129bo4025b$13295b$13295b$13295b$9133b2o4160b$9133bobo4159b$9135b2o4158b$8490b2o642bo4160b$8489b4o639bobo4160b$8489b2ob2o222bo394bo19b2o2511b3o1648b$8491b2o221bobo392b2o20b3o268bo2241bo2bo1647b$8715b2o393b2o289bobo17b2o2221bo1650b$9401bobo17b2o2221bo1650b$9402bo1391b2o849bobo1647b$9146bo1646b4o2498b$9147b2o65bo1578b2ob2o2497b$9146b2o66bobo1578b2o855b3o1640b$9214b2o2435bo2bo1640b$7937bobo3714bo1640b$7937b2o3707bo7bo1640b$7938bo3706b3o3bobo1641b$9181bo2462b2obo1647b$9180bo2463b3o1648b$9180b3o2462b2o1648b$9104bobo4188b$9105b2o4188b$9105bo4189b$8037bo5257b$8036bo1058bo4199b$8015bo20b3o1055b3o4198b$8014bo1079bo2bo4197b$8014b3o507b4o568b2o4197b$8523bo3bo568bo4198b$8527bo565b2o302bo3897b$8523bo2bo566b4o299bobo17b2o3877b$9094bo2bo298bobo17b2o3877b$9095bo301bo3897b$9071b3o20bo4200b$9071bob3o17b2o4200b$9092bo5bo4196b$9074bobo15b2o3b2o185bo4010b$9074bobo16b2o190bo4009b$9075b2o206b3o1167b2o1199b3o1638b$10453b2o1198bo2bo1638b$9390bo2265bo1638b$9068bo320bobo2264bo1638b$9068bobo317b2ob2o2260bobo1639b$9068b2o319bo2bo3902b$9389bo3bo3901b$9107b2o280bo2272b3o1630b$9098bobo5bo2bo2552bo2bo1629b$9099b2o4b3o2554bo1632b$9099bo289b2o2265bo5bo1632b$9107bobo280bo2264b3o5bobo1629b$8560b2o3093bob2o1636b$8558b2ob2o547bo276bo2268b3o1636b$8558b4o547b2o276bob2ob2o2262b2o1637b$8559b2o601bo223b2ob2ob2o17b2o3882b$9160bobo26bobo195bobo21b2o3882b$9101bo59b2o26b2o197bo3906b$7913bo1186bo89bo1673b2o2429b$7912bo1166bo20b3o1759b2ob2o2428b$7912b3o1163bo1783b4o2429b$9078b3o1782b2o2430b$9157bo4137b$9155b2o4138b$9120bo35b2o4137b$9121bo272bo3900b$9119b3o273b2o3898b$9394b2o3899b$8013bo1054b2o4225b$8011b2o1054b3o4225b$7991bo20b2o1053bo2bo4224b$7989b2o1076b2ob2o73bo4149b$7990b2o1075b2ob2o73b2o4148b$9066b2ob2o73bo2bo27bo2488b3o1628b$8592bo2bo471bo15bo61bobo26bobo2487bo2bo1627b$8596bo471b3o10bobo60bo2bo25b2ob2o2486bo1630b$8592bo3bo472bo12b2o60bo2bo26bo2bo2486bo1630b$8593b4o547bobo27bo3bo194bo2291bobo1627b$9145b3o26bo198bobo30b2o3887b$9373b2o31b2o3887b$11672b3o1620b$9046b3o125b2o122bo2372bo2bo1620b$9046bo2bo125bo123b2o2373bo1620b$7895b3o1148bo2bo248b2o2366bo7bo1620b$7894bo2bo1149bo2bo121bo2492b3o3bobo1621b$7894bo3bo1148b3o122bob2ob2o2485b2obo1627b$7893b2obobo1149b2o121b2ob2ob2o1264b2o1219b3o1628b$7893b2ob2o1274bobo1268b2o1220b2o1628b$7894b3o1276bo4121b$13295b$13295b$9080b3o4212b$8745bo333bo2bo4212b$7895b2obo847bo332b2obo87b2o4123b$7895bobobo844b3o336b2o84bobo4123b$7898bo1139bo44b2o85bo4124b$9036b2o44bo2bo4209b$8628b2o407b2o42bo4213b$8627b4o450b3o4211b$7899bo727b2ob2o450bo4212b$7897bobo729b2o446bo4217b$7898b2o1175bobo4217b$9076b2o4217b$9152bobo1777b2o2361b$9153b2o1776b4o2360b$9153bo1777b2ob2o2359b$10933b2o739b3o1618b$9134bo2538bo2bo1618b$9135b2o21bo2517bo1618b$9134b2o22bobo2515bo1618b$9069bobo86b2o2513bobo1619b$7881bobo103bo1081b2o4224b$7881b2o104bobo1056b2obo20bo4224b$7882bo82bo21b2o1055bo4bo2632b3o1610b$7965bobo1075bo5bo75bo2556bo2bo1609b$7965b2o1076bo80bo2557bo1612b$9042b2ob2obo75b3o38b2o2509bo5bo1612b$9042b2obo2bo47bobo65bobo2508b3o5bobo1609b$9044b4o49b2o66bo2509bob2o1616b$9045b3o49bo2578b3o1616b$9020bo125bo201bobo2325b2o1617b$8662b4o353b3o20bo102bobo200b2o3945b$8661bo3bo352b2o2bo17b2o102bo3bo200bo3945b$8665bo352bo3bo18b2o71bo2b2o26bo2bo4146b$8661bo2bo353bob2o96b2o25bo2bo165bo3980b$9018b2o97b2o27bobo163bobo3980b$9059bo253b2o3980b$9060b2o51b2o2b2o4176b$9059b2o58bo4175b$9113b4o4178b$9019b2o2bo30bo60bo2bo41b3o4132b$9019bobobo29b3o106bo4132b$9022bo30bob2o104bo1271b2o2860b$9052b2o121b2o1256b2o2860b$9052b2o122b2o4117b$9052b2o121bo4119b$9021bobo32bo133b2o4103b$9022b2o31b2o132bobo4103b$9022bo30bobo135bo4103b$9052bo2bo149bo2478b3o1608b$9053bobo149b2o2477bo2bo1607b$9053b3o148bobo2477bo1610b$7912bobo1138b2obo2627bo1610b$7913b2o1138bo2bo84b2o76b3o2463bobo1607b$7913bo784b2o354bo85bobo78bo4073b$8696b2ob2o440bo78bo4074b$8696b4o534b2o2456b3o1600b$8697b2o307bo228b2o2454bo2bo1600b$9005bo228bo2459bo1600b$9005b3o241b2o2435bo7bo1600b$9248bobo1751b2o681b3o3bobo1601b$9250bo1749b2ob2o679b2obo1607b$9264bo1735b4o680b3o1608b$7857bo1406b2o1735b2o682b2o1608b$7856bo105bobo1298bobo4029b$7856b3o103b2o1161bo4169b$7940bobo20bo1159bobo152b3o4014b$7940b2o1182b2o154bo4014b$7941bo1337bo4015b$9112bo180b2o4000b$9113bo14bo165b2o3999b$8993bo117b3o12b2o165bo32b3o3966b$8992b3o43bo88b2o179b2o18bo3966b$8995bo42bobo266bobo17bo3967b$7933b3o1057b2o21bo21b2o269bo31b2o3952b$7935bo1058bo21bobo304bo18b2o3951b$7933b3o794bo2bo282b2o104b3o11b2o185b2o16bo3953b$8734bo356bo30bo2bo9bobo184bobo31b2o3937b$7934bo795bo3bo355bobo29bo2bo10bo218bobo3937b$7843bo88b3o796b4o340bo14bob2o27b4o212b3o17bo3937b$7842b3o85b3o1140bobo16bo28b2o216bo31bo3923b$7842b3o86b2o1141b2o44bo217bo32b2o3922b$9093bob2o24bo230b2o16bobo2321b3o1598b$7842b4o1248b2o25bo231b2o2338bo2bo1598b$7841b5o1506bo32b3o2308bo1598b$7841b2obo1522b2o18bo2308bo1598b$9088bo277bobo17bo2306bobo1599b$9086b2o280bo31b2o3893b$7842b2o931bo261bo49b2o293bo18b2o1020b2o2870b$7841bo931bobo215bo46bo343b2o16bo1022b2o1277b3o1590b$8774b2o215bo44b3o342bobo31b2o2285bo2bo1589b$7840bobo2bo1568bobo2285bo1592b$7840bob3obo1549b3o17bo2279bo5bo1592b$7839b3ob2obo82bo14bo1453bo31bo2264b3o5bobo1589b$7840bobo85bobo12b3o1451bo32b2o2263bob2o1596b$7840b3o85bobo11bo2b2o1464b2o16bobo2264b3o1596b$7841bo87bo11b5o1466b2o2282b2o1597b$7941b5o1465bo32b3o3848b$7944bo1055bo425b2o18bo3848b$7944bobo819b2o230bobo424bobo17bo3849b$7944b2obo817b4o230b2o426bo31b2o3834b$7945bobo817b2ob2o344b2o325bo18b2o3833b$7946b3o818b2o344bobo325b2o16bo3835b$7946bobo1165bo325bobo31b2o3819b$7849bo94b4o1525bobo3819b$7847bobo94b3o1508b3o17bo1594b2o2223b$7848b2o90bo4bo1511bo31bo1579b4o2222b$7941b2o1513bo32b2o1578b2ob2o2221b$7940b2o1528b2o16bobo1580b2o2222b$9471b2o3822b$8974bobo493bo32b3o3789b$7828b3o1143b2o509b2o18bo3789b$7828bo2bo1143bo508bobo17bo3790b$7828bo2bo1654bo31b2o3775b$7829bo2bo1667bo18b2o3774b$7829b3o1181bobo484b2o16bo2185b3o1588b$7830b2o92bo6bo1081b2o484bobo31b2o2169bo2bo1587b$7923bobo5bobo1057bobo20bo86bo430bobo2169bo1590b$7909bo13bobo5b2o1058b2o109b2o410b3o17bo2169bo1590b$7909bobo12bo1067bo108b2o413bo31bo2156bobo1587b$7909b2o1604bo32b2o3745b$9529b2o16bobo3745b$9088bobo3bo2bo432b2o2180b3o1580b$8800b4o262bo22b2o3bob2o431bo32b3o2146bo2bo1580b$8799bo3bo261b3o21bo6b2o11b2o433b2o18bo2149bo1580b$7820bo982bo260b2o2bo39bobo432bobo17bo2142bo7bo1580b$7818b2o979bo2bo262b5o39bo435bo31b2o2126b3o3bobo1581b$7819b2o1244b2o2bo28b2o459bo18b2o2124b2obo1587b$9066bo2bo28b2o459b2o16bo2126b3o1588b$9066bobo489bobo31b2o2111b2o1588b$9591bobo3701b$9051bo521b3o17bo3701b$9052b2o35bo485bo31bo3687b$9051b2o36bobo482bo32b2o3686b$9089b2o497b2o16bobo804b2o2880b$9589b2o822b2o2880b$9588bo32b3o3671b$9603b2o18bo3671b$9056bo545bobo17bo3672b$7919bo1135bo548bo31b2o3657b$7918bobo1134b3o560bo18b2o3656b$7918bobo1092bobo602b2o16bo3658b$7919bo1094b2o601bobo31b2o3642b$9014bo635bobo3642b$9632b3o17bo3642b$9634bo31bo3628b$9633bo32b2o3627b$7862bobo1782b2o16bobo3627b$7863b2o1783b2o2064b3o1578b$7863bo1223b2o558bo32b3o2030bo2bo1578b$9086bobo573b2o18bo2033bo1578b$9087bo573bobo17bo2034bo1578b$8950bo712bo31b2o1443b2o571bobo1579b$8949bo727bo18b2o1440b2ob2o2152b$8949b3o725b2o16bo1442b4o2153b$9676bobo31b2o1427b2o581b3o1570b$7841bo1867bobo2010bo2bo1569b$7842b2o1145bo701b3o17bo2010bo1572b$7841b2o1145bo704bo31bo1990bo5bo1572b$7799bo106bobo1058bo20b3o701bo32b2o1988b3o5bobo1569b$7798b3o105b2o1058bo739b2o16bobo1988bob2o1576b$7797b2o2bo81b2obo20bo1058b3o738b2o2007b3o1576b$7881bo4bo27bo1791bo32b3o1974b2o1577b$7801b2o77bo5bo26bobo1122b3o680b2o18bo3553b$7801b2o77bo32bobo1121bo2bo28b3o648bobo17bo3554b$7800bo2bo75b2ob2obo28bo1122bo3bo27bo2bo649bo31b2o3539b$7799b3o77b2obo2bo1150b2obobo26bo3bo663bo18b2o3538b$7881b4o1151b2ob2o27b2o666b2o16bo3540b$7882b3o983bo2bo165b3o29bobo663bobo31b2o3524b$8872bo197b2o2bo4bo688bobo3524b$7879bo988bo3bo197bo2bo6bo669b3o17bo3524b$7877b2o990b4o197bo7b3o671bo31bo3510b$7878b2o1189b2ob2o8b2o667bo32b2o3509b$9038b2obo28bobo8bobo681b2o16bobo3509b$9038bobobo24bo3bo10bo683b2o3527b$9041bo23bobo697bo32b3o3494b$9066b2o712b2o18bo3494b$7788bo1990bobo17bo3495b$7787bo1993bo31b2o3480b$7787b3o101bo1150bo752bo18b2o3479b$7890b3o1147bobo752b2o16bo589b2o2890b$7890bob2o1147b2o751bobo31b2o573b2o1319b3o1568b$7889b2o1936bobo1894bo2bo1567b$7889b2o1138bo779b3o17bo1894bo1570b$7889b2o1139bo28bo751bo31bo1880bo1570b$7876bo16bo15bo1118b3o26b2o751bo32b2o1880bobo1567b$7875bobo14b2o14bobo1147b2o764b2o16bobo3450b$7875bobo12bobo15bobo1914b2o3468b$7876bo12bo2bo16bo1914bo32b3o1872b3o1560b$7890bobo1946b2o18bo1871bo2bo1560b$7890b3o1945bobo17bo1875bo1560b$7890b2obo1130bobo813bo31b2o1852bo7bo1560b$7890bo2bo1130b2o828bo18b2o1850b3o3bobo1561b$7891bo1133bo828b2o16bo1851b2obo1567b$9853bobo31b2o1835b3o1568b$8926bo959bobo1836b2o1568b$8924b2o942b3o17bo3406b$8925b2o133b2o808bo31bo1305b2o2085b$9059bobo807bo32b2o1303b4o2084b$7857bo1202bo822b2o16bobo1303b2ob2o2083b$7855bobo1107bo918b2o1323b2o2084b$7856b2o1105b2o48bo869bo32b3o3376b$8943bo20b2o46b3o883b2o18bo3376b$8941b2o69b4o27bo853bobo17bo3377b$8942b2o98b3o854bo31b2o3362b$9042bo2bo867bo18b2o3361b$9012b4o28b2o867b2o16bo3363b$9012b4o28bo867bobo31b2o3347b$7813bo57bo32bo1109bo26b2o902bobo3347b$7814bo55bobo30bobo1135b4o882b3o17bo3347b$7812b3o55bobo30bobo1136bo2bo883bo31bo3333b$7871bo3bo28bo1138bo884bo32b2o3332b$7875bobo1164bo899b2o16bobo3332b$7853bo21b2o1164b2o900b2o3350b$7853bobo44b2o1138bo5bo895bo32b3o1756b3o1558b$7853b2o45b2o1036b4o98b2o3b2o910b2o18bo1755bo2bo1558b$7902bo1034bo3bo99b2o913bobo17bo1759bo1558b$7900b3o1038bo1016bo31b2o1744bo1558b$7899bobo1035bo2bo1031bo18b2o1740bobo1559b$7900b2o2070b2o16bo3304b$7764bo134bo2071bobo31b2o3288b$7762b2o135bo2104bobo1735b3o1550b$7763b2o132bo1140b2o946b3o17bo1735bo2bo1549b$9037bobo948bo31bo1721bo1552b$9038bo948bo32b2o1714bo5bo1552b$10001b2o16bobo1713b3o5bobo1549b$10002b2o389b2o1340bob2o1556b$10001bo32b3o356b2o1341b3o1556b$10016b2o18bo1699b2o1557b$10015bobo17bo3259b$10017bo31b2o3244b$9020bo1010bo18b2o3243b$7861b2o3b2o1153b2o1008b2o16bo3245b$7860bo2bo2b2o1152b2o1008bobo31b2o3229b$7860bo2bo2199bobo3229b$7861b2o2182b3o17bo3229b$9027bo1019bo31bo3215b$9026bo1019bo32b2o3214b$8900bo125b3o1031b2o16bobo3214b$8900bobo1158b2o3232b$8900b2o1158bo32b3o3199b$10075b2o18bo3199b$7834b3o2237bobo17bo3200b$7834bo2bo1101bo53bo1082bo31b2o3185b$7832bo4bo1101bobo51bobo1094bo18b2o1167b2o2015b$8917bo21b2o52b2o38b2o1055b2o16bo1167b2ob2o2014b$7832bo1084bobo112bobo1054bobo31b2o1151b4o2015b$7833bo1083b2o114bo1088bobo1152b2o465b3o1548b$7834b2obo68bobo2195b3o17bo1619bo2bo1547b$7835bo2bo68b2o2197bo31bo1605bo1550b$7835b2o70bo2197bo32b2o1604bo1550b$7827bo8bo2bo2279b2o16bobo1605bobo1547b$7828b2o9bo2280b2o3173b$7827b2o6bo2283bo32b3o3140b$7838bo11bobo2281b2o18bo1597b3o1540b$7835b3o12b2o4b2o3b2o2270bobo17bo1597bo2bo1540b$7851bo3bo2bo2b2o2272bo31b2o1585bo1540b$7855bo2bo2290bo18b2o1576bo7bo1540b$7846b3o7b2o2291b2o16bo1577b3o3bobo1541b$7845bo2bo26bo1152b2o1118bobo31b2o1560b2obo1547b$7845b2o2bo24bo1131bo2bo17bobo1151bobo1560b3o1548b$7848b2o24b3o1133bo18bo1133b3o17bo1561b2o1548b$9006bo3bo32bo1121bo31bo3097b$7738bo106bo1161b4o32b2o1119bo32b2o3096b$7738bobo102b2o1197bobo1133b2o16bobo3096b$7738b2o83bo20b2o2333b2o3114b$7821b2o1234b3o1118bo32b3o3081b$7822b2o1235bo1133b2o18bo3081b$9058bo1133bobo17bo3082b$9072b2o1120bo31b2o3067b$9073b2o1133bo18b2o3066b$9072bo1135b2o16bo3068b$9087b2o1118bobo31b2o140b2o2910b$9086bobo1151bobo140b2o2910b$9088bo1133b3o17bo3052b$9102bo1121bo31bo3038b$9102b2o1119bo32b2o3037b$9101bobo1133b2o16bobo3037b$7851b2o3b2o2380b2o3055b$7850bo2bo2b2o1145bo112b3o1118bo32b3o3022b$7850bo2bo1147b2o115bo1133b2o18bo1481b3o1538b$7851b2o1022bobo124b2o113bo1133bobo17bo1481bo2bo1538b$8875b2o254b2o1120bo31b2o1469bo1538b$8876bo255b2o1133bo18b2o1468bo1538b$9131bo1135b2o16bo1467bobo1539b$9146b2o1118bobo31b2o2993b$8914bobo51bobo174bobo1151bobo2993b$8914b2o52b2o177bo1133b3o17bo1460b3o1530b$8891b2obo20bo53bo191bo1121bo31bo1446bo2bo1529b$8889bo4bo266b2o1119bo32b2o1029b2o414bo1532b$7922bo965bo5bo265bobo1133b2o16bobo1028b4o407bo5bo1532b$7826bo96bo964bo1408b2o1046b2ob2o405b3o5bobo1529b$7825b3o93b3o963b2ob2obo281b3o1118bo32b3o1015b2o406bob2o1536b$7824b2o2bo1058b2obo2bo283bo1133b2o18bo1424b3o1536b$7843bo1045b4o283bo1133bobo17bo1425b2o1537b$7841bobo1046b3o297b2o1120bo31b2o2949b$7842b2o1347b2o1133bo18b2o2948b$7824b2o1061bo302bo1135b2o16bo2950b$7825b3o1057b2o318b2o1118bobo31b2o2934b$7828bo1057b2o316bobo1151bobo2934b$7826b3o1377bo1133b3o17bo2934b$7826b2o18b2o1372bo1121bo31bo2920b$7845bo2bo1371b2o1119bo32b2o2919b$7845bo2bo1370bobo1133b2o16bobo2919b$7826bobo17b2o2508b2o2937b$7827b2o1405b3o1118bo2939b$7713bobo82bo28bo1071bo336bo1133b2o2923b$7713b2o83b2o1098b3o175b4o155bo1133bobo2923b$7714bo85bo1097bob2o173bo3bo169b2o1120bo31b2o2890b$7798b2o1097b2o180bo170b2o1152b2o2889b$7798bo1098b2o176bo2bo170bo1153bo2891b$8897b2o365b2o4029b$7800b2o1099bo361bobo4029b$7800b2o1098b2o363bo1133b3o1362b3o1528b$8898bobo378bo1121bo31bo1330bo2bo1527b$7813bo1083bo2bo378b2o1119bo32b2o1329bo1530b$7812bo1085bobo377bobo1151bobo1329bo1530b$7791bo20b3o1083b3o2864bobo1527b$7790bo1107b2obo391b3o3999b$7790b3o1105bo2bo393bo1133b2o2864b$8899bo394bo1133bobo1341b3o1520b$9308b2o1120bo31b2o1307bo2bo1520b$8977bo331b2o1152b2o1309bo1520b$8851bo125bobo328bo1153bo1303bo7bo1520b$8850bo126b2o344b2o2440b3o3bobo1521b$7842b2o1006b3o469bobo1047b2o1390b2obo1527b$7842b2o1480bo1047b2o84b3o1303b3o1528b$9338bo1121bo31bo1272b2o1528b$8944bo393b2o1119bo32b2o2801b$8943bo393bobo1151bobo2801b$8943b3o4349b$9352b3o3940b$9354bo1133b2o2805b$7936bo1416bo1133bobo2805b$7937b2o926bo501b2o1120bo31b2o2772b$7936b2o900b3o23b3o501b2o1152b2o2771b$8837bo3bo21b2o2bo499bo1153bo894b2o1877b$8842bo21b5o513b2o2030b2ob2o1876b$8864b2o2bo14bo497bobo2030b4o1877b$8837b2o3bo22bo2bo14bobo497bo1133b3o895b2o1878b$8839b3o23bobo15b2o512bo1121bo31bo2743b$9397b2o1119bo32b2o2742b$9396bobo1151bobo2742b$13295b$9411b3o3881b$9413bo1133b2o2746b$7836b2o1035bo538bo1133bobo1225b3o1518b$7836b2o1033b6o549b2o1120bo31b2o1191bo2bo1518b$7689bo120bo1060b2o2b2o550b2o1152b2o1193bo1518b$7688bo122bo1043bo570bo1153bo1195bo1518b$7688b3o118b3o1042bo20bo565b2o2330bobo1519b$8854b3o14b2o2bo564bobo3852b$8871b2o3bo267bo2bo294bo1133b3o2716b$8875bo272bo307bo1121bo31bo1171b3o1510b$8873bobo268bo3bo307b2o1119bo32b2o1170bo2bo1509b$8874bo270b4o306bobo1151bobo1170bo1512b$11776bo5bo1512b$9470b3o2302b3o5bobo1509b$7789bo1682bo1133b2o1167bob2o1516b$7787b2o1682bo1133bobo1168b3o1516b$7767bo20b2o1695b2o1120bo31b2o1135b2o1517b$7765b2o1719b2o1152b2o2653b$7766b2o1717bo1153bo2655b$9500b2o3793b$8847bo651bobo3793b$8845bobo104bobo546bo1133b3o2657b$8846b2o104b2o561bo1121bo31bo2625b$8953bo561b2o1119bo32b2o2624b$9514bobo1151bobo2624b$7831b2o5462b$7831b2o1696b3o3763b$8920bo610bo830b2o301b2o2628b$8918b2o610bo831b2o300bobo2628b$8919b2o623b2o1120bo31b2o2595b$9545b2o1152b2o2594b$9544bo1153bo2596b$7952bo866bobo737b2o3734b$7950bobo866b2o737bobo3734b$7951b2o867bo739bo1133b3o2598b$9574bo1121bo31bo1055b3o1508b$8835b3o736b2o1119bo32b2o1054bo2bo1507b$8834bo2bo735bobo1151bobo754b2o298bo1510b$8834bo2bo2645b4o297bo1510b$8833bo2bo751b3o1892b2ob2o297bobo1507b$8812b3o18bo2bo753bo1133b2o759b2o1808b$8814bo22b2o750bo1133bobo2569b$8812b3o22b2o764b2o1120bo31b2o1033b3o1500b$8835bo3bo764b2o1152b2o1031bo2bo1500b$8813bo24b2o763bo1153bo1036bo1500b$8811b3o26bo777b2o2166bo7bo1500b$8809b3o23bo3bo13bo763bobo2165b3o3bobo1501b$7665bo1144b2o24b3o12b2o766bo1133b3o1028b2obo1507b$7663b2o1187b2o779bo1121bo31bo996b3o1508b$7664b2o1967b2o1119bo32b2o996b2o1508b$9632bobo1151bobo2506b$13295b$8847b3o797b3o3645b$8847bo2bo798bo1133b2o2510b$8847bo2bo797bo1133bobo2510b$8846b4o364b4o444b2o1120bo31b2o2477b$8846b2o365bo3bo445b2o1152b2o2476b$7763bo1081bo371bo444bo1153bo2478b$7763bobo1057bobo20bo366bo2bo460b2o3616b$7741bo21b2o1058b2o21bo829bobo3616b$7741bobo1080bo853bo1133b3o2480b$7741b2o1949bo1121bo31bo2448b$9692b2o1119bo32b2o2447b$8860bobo65bo762bobo1151bobo2447b$8861b2o64bo4367b$8861bo65b3o776b3o3586b$9708bo1133b2o2451b$9707bo1133bobo2451b$9721b2o1120bo31b2o917b3o1498b$9722b2o1152b2o915bo2bo1498b$8894bo826bo1153bo920bo1498b$8894bobo839b2o2058bo1498b$8819bo74b2o839bobo2055bobo1499b$8820b2o915bo614b2o517b3o2421b$8819b2o930bo600b2o519bo31bo2389b$7965bobo841bo941b2o1119bo32b2o895b3o1490b$7966b2o840bobo939bobo1151bobo895bo2bo1489b$7966bo840b2ob2o2990bo1492b$8808bo2bo953b3o2028bo5bo1492b$8808bo3bo954bo1133b2o892b3o5bobo1489b$8808bo957bo1133bobo892bob2o1496b$9780b2o1120bo31b2o860b3o1496b$9781b2o1152b2o859b2o1497b$8808b2o970bo1153bo2360b$8786bo22bo985b2o1757b2o1739b$8785bob2o1005bobo1755b2ob2o1738b$8787b2o17bo989bo1133b3o619b4o1739b$8786b3o17bob2ob2o997bo1121bo31bo588b2o1740b$8805b2ob2ob2o997b2o1119bo32b2o2329b$8790b2o14bobo1000bobo1151bobo2329b$7639bo1149b3o15bo4487b$7639bobo2182b3o3468b$7639b2o2185bo1133b2o2333b$8782bo1042bo1133bobo2333b$8781bo1057b2o1120bo31b2o2300b$8781b3o1056b2o1152b2o2299b$9839bo1153bo2301b$9854b2o3439b$8813bo5bo2bo1030bobo3439b$8814b2o3bob2o1032bo1133b3o2303b$7738bobo1072b2o6b2o459bo2bo583bo1121bo31bo2271b$7738b2o1546bo582b2o1119bo32b2o779b3o1488b$7716bobo20bo1542bo3bo581bobo1151bobo779bo2bo1487b$7716b2o1105b2o458b4o2517bo1490b$7717bo1105b2o1058b3o1918bo1490b$8876bo1008bo1133b2o784bobo1487b$8877bo26bo979bo1133bobo2274b$8875b3o24b2o994b2o1120bo31b2o2241b$8814bo88b2o994b2o1152b2o757b3o1480b$8814bobo1081bo1153bo758bo2bo1480b$8792bo21b2o1097b2o1899bo1480b$8792bobo1117bobo1891bo7bo1480b$8792b2o1120bo1133b3o754b3o3bobo1481b$8869bobo1056bo1121bo31bo721b2obo1487b$8869b2o1057b2o1119bo32b2o720b3o1488b$8835bo34bo1056bobo1151bobo721b2o1488b$8833bobo4459b$7981bo852b2o1106b3o3350b$7982bo799bo1161bo1133b2o2215b$7980b3o797b6o1157bo398b2o733bobo2215b$8780b2o2b2o1171b2o383b2o735bo31b2o2182b$9958b2o1152b2o2181b$8784bo1172bo1153bo2183b$8780b2o2bo73bo29b3o1081b2o3321b$8780b2o3bo11bo59b3o27bo3bo1079bobo3321b$8784bo13bo58b4o1112bo1133b3o2185b$8782bobo11b3o93bo1094bo1121bo31bo2153b$8783bo103b5o1095b2o1119bo32b2o2152b$8857b4o27bo1097bobo1151bobo2152b$8857b4o2761b2o1671b$8760b3o96bo1141b3o1617b4o1670b$8759bo2bo125b2o1113bo1133b2o482b2ob2o1669b$8759bo4bo123b2o1112bo1133bobo484b2o1670b$7614bobo1147bo123bo1127b2o1120bo31b2o2123b$7614b2o1148b2o121b2o1128b2o1152b2o641b3o1478b$7615bo1145bob2o120b2obob3o1123bo1153bo642bo2bo1478b$8762bo128b2o1138b2o1783bo1478b$8885bo2bo1141bobo1783bo1478b$8886b3o1143bo1133b3o644bobo1479b$10046bo1121bo31bo2094b$8794b3o1249b2o1119bo32b2o2093b$8794bo2bo1247bobo1151bobo620b3o1470b$7714bo1078bo3bo3024bo2bo1469b$7713bo1079b2o89b2o1174b3o1759bo1472b$7692bo20b3o1078bobo86bobo1176bo1133b2o618bo5bo1472b$7691bo1103b2o2bo84bo1176bo1133bobo617b3o5bobo1469b$7691b3o1056bobo42bo2bo1276b2o1120bo31b2o584bob2o1476b$8750b2o43bo556b4o720b2o1152b2o584b3o1476b$8751bo42b2ob2o552bo3bo719bo1153bo586b2o1477b$8795bobo557bo734b2o3203b$8791bo4bo554bo2bo734bobo3203b$8792bo1298bo1133b3o2067b$8790b3o1312bo1121bo31bo2035b$8865bo1239b2o1119bo32b2o2034b$8866b2o1236bobo1151bobo2034b$8865b2o4428b$10119b3o3173b$10121bo1133b2o2038b$8848bobo21bo1247bo1133bobo2038b$8849b2o20bo1262b2o1120bo31b2o2005b$7995bo788bo64bo21b3o1261b2o1152b2o2004b$7996b2o784b2o1350bo1153bo2006b$7995b2o766bo19b2o1364b2o3144b$8763bo1384bobo3144b$8757b2o1391bo1133b3o2008b$8757bob2o77bo1325bo167b2o952bo31bo1976b$8760b2o76bobo38b2o1283b2o166b2o951bo32b2o1975b$8760bobo48bo26b2o38bobo1282bobo1151bobo504b3o1468b$8757bo3b2o49b2o65bo2944bo2bo1467b$8734bo26bo49b2o1365b3o1643bo1470b$8733b3o123b3o1318bo1133b2o508bo1470b$8732bo2b2o121bo3bo1316bo1133bobo509bobo1467b$8732bo3bo17bobo75bo30bo1329b2o1120bo31b2o1946b$8734bobo17b2o76b2o1360b2o1152b2o1945b$8755bo78bo23b2o3bo1329bo1153bo484b3o1460b$7590bo1140b2ob2o96b2o26b3o1345b2o1621bo2bo1460b$7589bo1143bo97bobo1373bobo1482b2o140bo1460b$7589b3o1181bobo56bo1376bo1133b3o344b2ob2o131bo7bo1460b$8774b2o54bobo1390bo1121bo31bo312b4o131b3o3bobo1461b$8768bo5bo53bo1394b2o1119bo32b2o312b2o131b2obo1467b$8733b4o30b3o58bobo1391bobo1151bobo445b3o1468b$8733bobobo29bo2bo3054b2o1468b$8736bo32b2o1466b3o3055b$8769bo1469bo1133b2o1920b$8766b2o1470bo1133bobo1920b$7690bo1075b4o1482b2o1120bo31b2o1887b$7688b2o1046bo30bo2bo1482b2o1152b2o1886b$7668bo20b2o1046b2o29bo1483bo1153bo1888b$7666b2o1068b2o29bo1499b2o3026b$7667b2o1097b2o1498bobo3026b$8765bo5bo1496bo1133b3o1890b$8765b2o3b2o1510bo1121bo31bo1858b$8766b2o652bo2bo858b2o1119bo32b2o1857b$8855b2o567bo856bobo1151bobo1857b$8854bobo563bo3bo3870b$8855bo565b4o871b3o2996b$10298bo1133b2o1861b$10297bo1133bobo1861b$8719bo1591b2o1120bo31b2o1828b$8719bobo1590b2o1152b2o1827b$8719b2o1590bo1153bo368b3o1458b$11833bo2bo1458b$11836bo1458b$8011bo3449b3o372bo1458b$8009bobo2329bo1121bo31bo337bobo1459b$8010b2o827bo1501b2o1119bo32b2o1798b$8840bo1499bobo1151bobo1798b$8838b3o3001b3o1450b$11842bo2bo1449b$11491b2o349bo1452b$8707bo25bo93bo2662bobo343bo5bo1452b$8706bobo23b3o90bobo12bobo1527b2o1120bo31b2o309b3o5bobo1449b$8705bo3bo22bob2o16bo73b2o12b2o1478b2o49b2o1152b2o308bob2o1456b$8706bo2bo23bo2bo14bo89bo1478b2o48bo1153bo311b3o1456b$8706bo2bo24b2o15b3o3082b2o1457b$8707bobo24bo101b3o4456b$8835bo2bo11b2o2668b3o1772b$8805b2o28b2o2bo9bobo1548bo1121bo31bo1740b$7566bo1240bo30b2o10bo1549b2o1119bo32b2o1739b$7564b2o1223bo18bo1590bobo1151bobo1739b$7565b2o1223bo14bobo27bo4459b$8741b2o45b3o15bo26b2o2925b2o1533b$8740b3o65bobo23b2o2714b2o207b4o1532b$8740bo2bo64bobo2738bobo207b2ob2o1531b$8723bo16b2ob2o64bo1619b2o1120bo31b2o176b2o1532b$8723bobo14b2ob2o1685b2o1152b2o1709b$8723b2o14b2ob2o1685bo1153bo1711b$8740bo59bobo4492b$7664bo1076b3o56b2o4493b$7664bobo1075bo9bo48bo2777b3o1713b$7642bo21b2o1084bobo1706bo1121bo31bo1681b$7642bobo1106b2o1706b2o1119bo32b2o1680b$7642b2o2814bobo1151bobo1680b$11844b3o1448b$11844bo2bo1447b$11609b2o233bo1450b$11608bobo233bo1450b$10488b2o1120bo31b2o201bobo1447b$8714bo1774b2o1152b2o1650b$8715bo774b4o994bo1153bo1652b$8713b3o773bo3bo2358b3o1440b$8828b2o663bo2357bo2bo1440b$8827bobo659bo2bo2145b3o213bo1440b$8828bo1689bo1121bo31bo173bo7bo1440b$10518b2o1119bo32b2o171b3o3bobo1441b$10517bobo1151bobo170b2obo1447b$8024bobo3817b3o1448b$8025b2o3818b2o1448b$8025bo3642b2o1625b$11667bobo1625b$8689bo15b3o1839b2o1120bo31b2o1592b$8687b2o16bo2bo1839b2o1152b2o1591b$8688b2o14bo3bo1838bo1153bo1593b$8704b4o4587b$8705bo4589b$11697b3o1595b$8683b3o1891bo1121bo31bo1563b$8683bo2bo1890b2o1119bo32b2o1562b$8683bo2bo128bobo1492b2o264bobo1151bobo1562b$8682b4o19b2ob2o106b2o1492b2o2983b$8682b2o21bob3o106bo4478b$7540bo1140bo128bo2916b2o1566b$7540bobo1139bo97bo22bo6b2o2914bobo1566b$7540b2o1140bo96b3o22b2o6bo1793b2o1120bo31b2o1533b$8708bo69bo2b2o20b2o5b2o11b2o1782b2o1152b2o1532b$8709bo9b2obo59bo27bo11bobo1781bo1153bo1534b$8707b3o7bo4bo59b2o39bo3030b3o1438b$8716bo5bo61bo27b2o3039bo2bo1438b$8716bo64b4o27b2o2942b3o71b2o24bo1438b$8715b2ob2obo59b2o1853bo1121bo31bo37b2ob2o23bo1438b$8715b2obo2bo1914b2o1119bo32b2o36b4o21bobo1439b$7639bobo1075b4o1914bobo1151bobo37b2o1464b$7639b2o1077b3o44bobo35bo4491b$7617bobo20bo1125b2o34bo3059b3o1430b$7617b2o1096bo50bo35b3o2981b2o74bo2bo1429b$7618bo1094b2o3070bobo74bo1432b$8693bo20b2o1949b2o1120bo31b2o35bo5bo1432b$8691b2o1973b2o1152b2o33b3o5bobo1429b$8692b2o1971bo1153bo35bob2o1436b$8769bo3086b3o1436b$8769bobo3084b2o1437b$8728bo40b2o3044b3o1477b$8729b2o1964bo1121bo31bo1445b$8728b2o1965b2o1119bo32b2o1444b$9558bo2bo1132bobo1151bobo1444b$9562bo3732b$9558bo3bo3732b$9559b4o2282b2o1448b$8040bo3803bobo1448b$8041bo759b2o1921b2o1120bo1448b$8039b3o758bobo1922b2o2568b$8690bobo108bo1922bo2570b$8691b2o4602b$8691bo4603b$13295b$10754bo2540b$10754b2o2539b$10753bobo2539b$13295b$13295b$13295b$13295b$8655bo2bo93b3o2028b2o2510b$8655bob2o93bo2bo27b3o1998b2o2509b$7515bobo1139b2o92bo3bo26bo2bo1514b2o481bo2511b$7515b2o1235bo2b2o25bo2bo1514b2o2993b$7516bo1237bo26bo2bo3087b3o1420b$8659b2o91b2o27bo2bo3086bo2bo1420b$8659b2o90b3o31b2o2026bo1060bo1420b$8751b3o31b2o2026b2o1051bo7bo1420b$8783bo3bo6b2o2016bobo1050b3o3bobo1421b$8786b2o4bo3071b2obo1427b$8650bo102b2o33bo4bo3bo3066b3o1428b$7615bo1034bobo99bob2o27bo3bo9bo3067b2o1428b$7614bo1035b2o100bo3bo24b6o9bo4498b$7593bo20b3o1138bo26bo2059b2o2451b$7592bo1187b3o2060b2o2450b$7592b3o1094bo2152bo2452b$8689bobo4603b$8667bo21b2o65bo3092b2o1444b$8667bobo87bo3091b2o1444b$8667b2o86b3o2114bo2422b$10872b2o2421b$10871bobo2421b$8744bo4550b$8742bobo26bobo4521b$8743b2o26b2o4522b$8772bo4522b$10901b2o2392b$10902b2o2391b$10901bo2393b$8054bo684bo888b4o3663b$8055b2o680b2o888bo3bo3663b$7497bo556b2o650bo31b2o891bo3663b$7496b3o1208bo919bo2bo1300bo2363b$7495bo2b2o1205b3o2223b2o2362b$7494b5o3431bobo2362b$7494b5o1275b2o4519b$7497bo1275bobo4519b$7497bobo1274bo3107b3o1410b$7497b2obo4381bo2bo1409b$7498bobo3459b2o920bo1412b$7499b3o1255bo2203b2o913bo5bo1412b$7499bobo1167bo56bo29bobo2201bo914b3o5bobo1409b$7497b4o1166bobo55b3o27b2ob2o3115bob2o1416b$7497b3o1168b2o54b5o27bo2bo3116b3o1416b$7498bo1225b2ob3o26bo3bo3115b2o1417b$8725b2ob2o26bo2233bo2304b$8727bo2262b2o2303b$10989bobo2303b$8756b2o1532b2o3003b$8757bo1532b2o3003b$13295b$7486b2o1266bo4540b$7486bob2o1264bob2ob2o2258b2o2274b$7488b2o1135bobo125b2ob2ob2o2259b2o2273b$7488b2o101bo1033b2o127bobo2262bo2275b$7485b2o102b2o1035bo128bo4539b$7569bo20b2o5703b$7488b2o77b2o5726b$7568b2o1094bobo2382bo2245b$8664b2o2383b2o2244b$8642bobo20bo86b2o2294bobo2244b$8642b2o107bobo4541b$8643bo108bo4542b$7478bo4360b2o1454b$7477bo4361b2o1454b$7477b3o3598b2o2215b$11079b2o2214b$11078bo2216b$13295b$13295b$8732bobo3157b3o1400b$8733b2o2373bo782bo2bo1400b$8070bo662bo2374b2o784bo1400b$8068bobo3036bobo776bo7bo1400b$8069b2o649bo975bo2bo2185b3o3bobo1401b$8721b2o17bo959bo2183b2obo1407b$8720b2o18bobo953bo3bo2183b3o1408b$8740b2o955b4o2184b2o1408b$11137b2o2156b$11138b2o2155b$11137bo2157b$8707bo4587b$8706bo4588b$8706b3o21bo16b2o4546b$8682bobo43b6o12bobo2418bo2127b$7513bo1169b2o43b2o2b2o13bo2419b2o2126b$7511bobo1169bo19bo2462bobo2126b$7512b2o1188b3o27bo4562b$8701b2o2bo22b2o2bo4562b$8705bo22b2o3bo4561b$8704bo27bo4562b$8700bo29bobo2463b2o2097b$8700bobo28bo2465b2o2096b$8700b2o2494bo2098b$7499bo2780b2o3013b$7500bo1100bo1678b2o3013b$7498b3o1099bo4694b$7565bo1034b3o2623bo2068b$7565bobo3658b2o2067b$7543bo21b2o3658bobo2067b$7543bobo1094bo4654b$7543b2o1094bo4655b$8618bo20b3o4653b$8617bo3284b3o1390b$8617b3o2635b2o645bo2bo1389b$11256b2o644bo1392b$7454bo3800bo640bo5bo1392b$7452b2o4441b3o5bobo1389b$7453b2o1270b2o3168bob2o1396b$7531b3o1190bobo3102b2o65b3o1396b$7534bo1190bo2559bo543b2o65b2o1397b$7531bo2bo3750b2o2008b$7532b2o3750bobo2008b$7532b2o5761b$7443bobo85bo2bo5760b$7441bo4bo84bo551bobo5209b$7441bo4bo86b2o549b2o5209b$7445b2o637bo3229b2o1979b$11315b2o1978b$7441b2o2b2o3867bo1980b$7441b2o2b2o5848b$7442bob3o2319b4o3525b$7445bo1265bo1053bo3bo3525b$7444bo1264bobo1057bo1574bo1950b$8710b2o1053bo2bo1575b2o1949b$11343bobo1949b$8698bo4596b$8699bo11bo4583b$7530bo1166b3o11bo4583b$7529bobo1173b2o4588b$7529bobo1173bob2o2664b2o1920b$7530bo1177b2o10b2o2652b2o1919b$7544b3o1161bobo8bobo2651bo1921b$7544bo2bo1127b3o27bo3b2o9bo4574b$7544bo2bo1130bo30bo4585b$8675b3o4617b$7547b2o3854bo508b3o1380b$7513bo32bo2bo1152bobo2698b2o506bo2bo1380b$7514b2o30bo2bo1027bo100b2o22b2o2698bobo509bo1380b$7513b2o25bo5bo1028b2o101b2o23bo3202bo7bo1380b$7541bo1034b2o1692b2o1633b3o3bobo1381b$7539b3o2728b2o1632b2obo1387b$11904b3o1388b$8616bo53bo2761b2o471b2o1388b$8614b2o52b2o2763b2o1860b$8594bo20b2o52b2o2761bo1862b$8592b2o4701b$7451bobo1139b2o4700b$7452b2o5841b$7452bo82bo3926bo1832b$7533b2o3927b2o1831b$7513bo11bo8b2o3925bobo1831b$7511b2o11bobo5768b$7512b2o10bobo5768b$7525bo5769b$11819b2o1474b$8698b2o2791b2o326b2o1474b$8099bo597bobo2792b2o1801b$7422bo677bo597bo2792bo1803b$7421bo676b3o5194b$7421b3o5871b$13295b$11521bo1773b$11521b2o1772b$11520bobo1772b$13295b$9834bo2bo3457b$9838bo3456b$9834bo3bo3456b$9835b4o1711b2o370b3o1370b$11551b2o369bo2bo1369b$11550bo371bo1372b$11916bo5bo1372b$11915b3o5bobo1369b$8687bo3227bob2o1376b$8688b2o2890bo335b3o1376b$7518b2o1167b2o2891b2o334b2o1377b$7518b2o4059bobo1713b$13295b$7494bo1183bo14b2o4600b$7493b3o1181bo14bobo4600b$7492b2o2bo1054bo125b3o13bo4601b$8551bobo3055b2o1684b$8551b2o3057b2o1683b$11609bo1685b$7492b2o5801b$7493b3o1094bo53bo1615b2o3033b$7496bo1093bobo51bobo1613b2o3033b$7494b3o1071bo21b2o52b2o2993bo1655b$7467bo26b2o1072bobo3068b2o1654b$7468bo1099b2o3068bobo1654b$7466b3o5826b$7401b3o90bobo12bo5785b$7400bo2bo91b2o12bobo5783b$7400b2obo91bo13b2o5784b$7404b2o100bo4161b2o1625b$7404b2o99b3o4161b2o1624b$7403bo2bo97bo2b2o4159bo1626b$7402bo101b3obo5786b$7402b3o102b2o4b2o5780b$7403bo109b2o598bo5181b$7482b2o19bo610b2o3582bo110b2o1484b$7482bobo17bo610b2o3583b2o109b2o121b3o1360b$7484bo17b3o4192bobo231bo2bo1360b$7482bobo4449bo1360b$7482b2o4442bo7bo1360b$7483b2o4440b3o3bobo1361b$7484b2o4438b2obo1367b$7484b2o4241b2o195b3o1368b$11728b2o195b2o1368b$11727bo1567b$7390bobo5902b$7390b2o5903b$7391bo82bo15b3o2411b4o3387b$7474bobo12bo3bo2409bo3bo1849bo1537b$7386b3o85b2o18bo2412bo1849b2o1536b$7385bo2bo2514bo2bo1849bobo1536b$7385b2o2bo99b2o3bo5800b$7388b2o101b3o5801b$13295b$7385bo5909b$7383b2o4401b2o1507b$7384b2o122b2o1144bo3132b2o1506b$7508b2o1142b2o3132bo1508b$7476bo1049bobo124b2o4640b$7475bobo1048b2o4767b$7475bobo1049bo4767b$7476bo5818b$13295b$8565bobo51bobo4673b$8565b2o52b2o4674b$8542b2obo20bo53bo4674b$8540bo4bo1704b2o3043b$8539bo5bo1704b2o3043b$8539bo4755b$8538b2ob2obo3397b3o1350b$8538b2obo2bo3397bo2bo1349b$8540b4o3398bo1352b$8541b3o3392bo5bo1352b$11935b3o5bobo1349b$8538bo3396bob2o1356b$8536b2o3398b3o1356b$7415bobo1119b2o3397b2o1357b$7416b2o711bo5165b$7416bo710bobo5165b$7503b2o623b2o5165b$7503b2o5790b$7471bo5823b$7470bobo5822b$7470bobo1077bo4744b$7471bo1077b3o4743b$7394bo1154bob2o4742b$7395b2o1151b2o4745b$7394b2o1152b2o4745b$7471bobo1074b2o4745b$7471b2o1079bo4742b$7449bobo20bo1078b2o4742b$7449b2o1098bobo4743b$7450bo1097bo2bo1420bo2bo3319b$8549bobo1424bo3318b$8549b3o1420bo3bo3318b$8549b2obo1420b4o3318b$8549bo2bo4742b$7357bo1192bo4744b$7356bob2o5935b$7358b2o1268bo4666b$7357b3o1142bo125bobo4664b$8501bo126b2o4665b$7361b2o135b2o1001b3o3448b3o1340b$7360b3o73b3o59b2o4451bo2bo1340b$7436b3o27bo4487bo1340b$7436bo2bo25bobo1127bo3350bo7bo1340b$7353bo83b3o25bobo1126bo3350b3o3bobo1341b$7352bo84b2o27bo1127b3o3347b2obo1347b$7352b3o4589b3o1348b$11945b2o1348b$13295b$8516bo4778b$8515b3o1722b2o3053b$8514b2o2bo1721b2o3053b$8515b5o4775b$7342b2o1171b2o2bo14bo4760b$7341b3o1172bo2bo14bobo4758b$7341bo2bo1171bobo15b2o4759b$7341b2ob2o85bobo5861b$7341b2ob2o85bo5863b$7340b2ob2o86bo3bo706bobo5150b$7341bo93bo707b2o5150b$7342b3o89b2o707bo5151b$7343bo1180bo4770b$8522b6o4767b$7493b2o1027b2o2b2o4767b$7450bo42b2o1011bo4788b$7449b3o9bo1043bo20bo4768b$7410bo38bob2o7bobo1042b3o14b2o2bo4768b$7408bobo39bo2bo6bobo1059b2o3bo4767b$7409b2o32bo7b2o8bo1064bo4768b$7444b2o5bo1072bobo4768b$7443b2o1080bo4769b$13295b$13295b$11962b3o1330b$11962bo2bo1329b$7368bo4593bo1332b$7369bo4586bo5bo1332b$7367b3o2672b4o1909b3o5bobo1329b$7440bo2600bo3bo1909bob2o1336b$7440bobo2602bo1910b3o1336b$7418bo21b2o1161bobo1435bo2bo1911b2o1337b$7418bobo9bo1047bo124b2o4690b$7418b2o9bobo1044b2o126bo4690b$7429bobo1045b2o4816b$7430bo5864b$7351bo5943b$7349bobo136b2o1081bo4723b$7350b2o136b2o1079b2o4724b$7456bo1113b2o4723b$7455bobo5837b$7455bobo5837b$7456bo5838b$13295b$13295b$13295b$13295b$10230b2o3063b$7319bo2910b2o3063b$7318bobo5974b$7318bob2o5973b$7320bo837bo5136b$8159bo5135b$7321bob2o832b3o5135b$7322b2o5971b$13295b$7420b2o3b2o1077bo4790b$7316bo102bo2bo2b2o1075b2o3468b3o1320b$7314b2o103bo2bo1059bo20b2o3466bo2bo1320b$7315b2o103b2o1058b2o3492bo1320b$7483b2o996b2o3483bo7bo1320b$7483b2o4480b3o3bobo1321b$7451bo4512b2obo1327b$7450bobo4511b3o1328b$7309b2o139bobo4512b2o1328b$7309b2o140bo5843b$7311bo5983b$7309b3o1158bo4824b$7308bobo1159b2o4823b$7309b2o71bo1086bo2bo4822b$7308bo74b2o1085bobo4822b$7308bo73b2o1085bo2bo4822b$7306bo108bobo1051bo2bo4822b$7393b2o20b2o1052bobo107bo1530bo2bo3181b$7392bo2bo20bo1053b3o105bo1535bo3180b$7392bo2bo1056bo125b3o1529bo3bo3180b$7392bo1059bobo1656b4o3180b$7395bo1056b2o4841b$7393b3o5899b$7364bobo28b2o18b2o3b2o5873b$7365b2o29bo17bo2bo2b2o1123bo4749b$7365bo48bo2bo1029b2o96bobo4747b$7415b2o1030bob2o94b2o4748b$7388bo89b2o969b2o4844b$7386b2o90b2o967b2o4846b$7387b2o57bo998b2o4848b$7445bobo5847b$7401b3o41bobo997bobo36bo4810b$7329bo116bo999bo36b3o4809b$7330b2o69bobo1078b2o2bo4808b$7329b2o73bo1077bo3499b3o1310b$7377bobo20bo3bo1077b3o3497bo2bo1309b$7375bo4bo1101b2obo3496bo1312b$7375bo4bo19bo2b2o1078bob2o1733b2o1754bo5bo1312b$7379b2o791bo310b2o1735b2o1753b3o5bobo1309b$8173b2o309bob2o3487bob2o1316b$7375b2o2b2o20bo770b2o309b2ob2o3488b3o1316b$7375b2o2b2o20bo1081b2ob2o3488b2o1317b$7315bobo58bob3o19bo1084bo4809b$7316b2o61bo21bob2o1072bobo4815b$7316bo61bo26bo1072b2o4815b$7398bo4bo1074bo4816b$7410b2o3b2o5878b$7399bobo7bo2bo2b2o5878b$7399b3o7bo2bo5882b$7410b2o5883b$7473b2o5820b$7473b2o5820b$7441bo1030bo4822b$7284bo155bobo1028bo4823b$7283bo156bobo1007bo20b3o4821b$7283b3o155bo1007bo4845b$7390bo7bo1050b3o4843b$7365bo23b3o4bobo5896b$7364b3o21b2o2bo4b2o5896b$7364bob2o20bo1066bo4839b$7363b2o23b3o1065bo98bo4739b$7363b2o23b2obo1062b3o96b2o4740b$7363b2o24bob2o1161b2o4739b$7367bo21b2o5904b$7366b2o22bob2o2786b4o3111b$7364bobo13bo8b2ob2o2785bo3bo3111b$7363bo2bo14bo7b2ob2o2789bo3111b$7364bobo12b3o9bo1128bobo1656bo2bo1809b3o1300b$7364b3o18bobo1132b2o3469bo2bo1300b$7364b2obo18b2o17b2o3b2o1109bo3472bo1300b$7364bo2bo18bo17bo2bo2b2o4574bo7bo1300b$7365bo38bo2bo1014bo3562b3o3bobo1301b$7405b2o1013b2o3562b2obo1307b$7468b2o951b2o3561b3o1308b$7356bo111b2o4515b2o1308b$7345bo9b3o78bo5858b$7343bobo8b2o2bo76bobo5857b$7344b2o22bo8bo57bobo5857b$7369b2o6b2o57bo5858b$7368b2o7b3o5915b$7354b2o21b2o5916b$7355b3o19b2o809bo5106b$7358bo19bo807bobo5106b$7356b3o20bobo805b2o310bo1710b2o3083b$7331bo24b2o22bo1119bo1709b2o3083b$7332bo1160bo4b3o4794b$7330b3o1161bo4800b$7356bobo12bo1120b3o4800b$7357b2o12bobo5921b$7357bo13b2o5922b$7368bo5926b$7367b3o28bo5896b$7366bo2b2o26bobo5895b$7366b3obo26bobo5895b$7260b2o107b2o27bo5896b$7260b2o1186bo4846b$7262bo102bo97b2o981b2o4847b$7260b2o102bo98b2o961bo20b2o4846b$7260b2o81bo20b3o64bo992b2o4869b$7342bo87bobo992b2o4868b$7262b2o78b3o85bobo4569b3o1290b$7262b2o167bo4570bo2bo1289b$8469bo3532bo1292b$8470b2o57bo3466bo5bo1292b$8469b2o58bobo3463b3o5bobo1289b$7349bo1179b2o3464bob2o1296b$7252bobo93bobo4645b3o1296b$7252b2o94bobo1084bo3560b2o1297b$7253bo95bo44bo1039b3o4858b$7395b2o1016bo19b5o58bo1751bo2bo3043b$7394b2o1016b3o18b2ob3o56bo1756bo3042b$8411b5o18b2ob2o56b3o1750bo3bo3042b$8411b2ob3o19bo1812b4o3042b$8412b2ob2o4878b$7393bo1002bo17bo4880b$7392bobo1001bobo4896b$7392bobo1001b2o4897b$7393bo5901b$13295b$7458b2o5835b$7458b2o5835b$7426bo5868b$7425bobo5867b$7425bobo5867b$7426bo774bobo5091b$8202b2o5091b$8202bo310bo4781b$8514b2o4779b$8507bo5b2o4780b$8508b2o1690b2o3093b$7342b2o1163b2o1691b2o3093b$7342b2o5951b$13295b$12012b3o1280b$12011bo2bo1280b$12014bo1280b$8441bobo3562bo7bo1280b$7271bobo114bo1053b2o3561b3o3bobo1281b$7272b2o113bobo1029bobo20bo3561b2obo1287b$7272bo68bo45bobo1030b2o3582b3o1288b$7339b2o47bo1031bo3584b2o1288b$7316b2o22b2o5953b$7318bo134b2o5840b$7319bo133b2o5840b$7316bobo102bo5873b$7317bo102bobo1062bo4809b$7319bobo98bobo1060bobo18bobo4788b$7319bobo99bo994bo67b2o18b2o4789b$7228bo91bo1094bo89bo4789b$7227bo1166bo20b3o4877b$7227b3o1163bo4901b$7311bobo96bo982b3o4899b$7311b2o95bobo1061bo4822b$7312bo24b2o70b2o1059b2o4823b$7337b2o1132b2o20bobo4799b$7222b2o1243b3o23bo2bo4798b$7222bobo100b3o1139bo2bo21bo3b2o1820b4o2973b$7224bo99bo3bo1042bobo92bo3bo21bo1824bo3bo2973b$7222bobo1146b2o93b3o2bo1849bo2973b$7221bo107bo1042bo94b4o21bo2b3o1819bo2bo2974b$7221bobo100b5o54bo1108b2o4801b$7221bo103bo56bobo1109b3o4798b$7220bo161bobo1079bobo27b3o4798b$7383bo982b2o96b2o4829b$7325b2o1039bobo96bo4829b$7325b2o121b2o918b2o4925b$7325bo122b2o767bo149bo3654b3o1270b$7324b2o90bo801bo146bobo3654bo2bo1269b$7322b2obob3o85bobo798b3o145b2o3656bo1272b$7328b2o85bobo946b3o162bo3486bo5bo1272b$7209bo112bo2bo90bo1110bobo3485b3o5bobo1269b$7208bobo85bo26b3o1197bo4b2o3485bob2o1276b$7207bo3bo83b3o1223bobo3492b3o1276b$7208bo2bo83bob2o1223b2o3492b2o1277b$7208bo2bo82b2o5999b$7209bobo82b2o2894b2o3103b$7294b2o36b2o2856b2o3103b$7298bo33b2o5961b$7297b2o1158bo4837b$7287bo7bobo1160bo30b2o4804b$7288bo5bo2bo1137bo20b3o29bobo4804b$7286b3o6bobo1138bo52bo4805b$7295b3o1136b3o4858b$7295b2obo79bo5916b$7295bo2bo78bobo5915b$7296bo80bobo5915b$7378bo5916b$13295b$7443b2o5850b$7230bo212b2o5850b$7228bobo180bo980bo4902b$7229b2o68bo8bo101bobo977b2o4903b$7300b2o6b2o100bobo957bo20b2o4902b$7299b2o7b3o100bo956b2o105bobo4817b$7308b2o113bobo943b2o105b2o4817b$7308b2o114b2o1050bo4818b$7309bo114bo5870b$7310bobo1060bo4921b$7216bo94bo1062b2o97bo4821b$7217bo109b2o1044b2o98bobo3556b3o1260b$7215b3o109b2o1144b2o3556bo2bo1260b$7302bo3083bo2bo1644bo1260b$7302bobo1179b2o1904bo1635bo7bo1260b$7280bo21b2o1179bobo1900bo3bo1634b3o3bobo1261b$7280bobo1157bo43bo1902b4o1633b2obo1267b$7280b2o1157bo3584b3o1268b$7373bo1065b3o3583b2o1268b$7289bo82bobo980b3o4937b$7288bobo81bobo981bo4938b$7288bobo82bo857bo109bo14b3o4936b$7191bo97bo942b2o108b2o4951b$7189b2o247b2o791b2o103b2o4957b$7190b2o246b2o896bo146b3o56bobo4750b$7406bo931b3o144bo57b2o4750b$7405bobo927bo5bo142bo51bobo4bo4751b$7405bobo928bo4bo156b2o37b2o4756b$7406bo930bo2bo158b2o36bo4757b$8339bo14bobo141bo4796b$8334bo19bobo156b2o4780b$8333bo178bobo4780b$8333b3o21bo156bo4780b$8471bo56bo1651b2o3113b$7322b2o1148b2o54b2o1650b2o3113b$7322b2o1125bo21b2o54bobo4765b$8353bobo94b2o4843b$8354bo94b2o91b3o4750b$8544bo4750b$7431b2o1110bo4751b$13295b$7368bo5926b$7284bo82bobo998b2o4925b$7283bobo81bobo998bob2o4923b$7243bobo37bobo82bo1001b2o3670b3o1250b$7244b2o38bo1076bobo6b2o3670bo2bo1249b$7244bo1117b2o3b2o3673bo1252b$8362bo3673bo5bo1252b$7401bo968b2o3663b3o5bobo1249b$7400bobo4632bob2o1256b$7400bobo4633b3o1256b$7401bo4634b2o1257b$8389bo4905b$7230bo27b3o1126bobo58bobo4844b$7231b2o25bo2bo1098bo27b2o58b2o4845b$7230b2o26bo2bo1097bo89bo4845b$7259bo2bo14bobo1058bo20b3o4933b$7259b3o15b2o38b2o1018bo4957b$7260b2o16bo38b2o1018b3o4955b$8416bo4878b$8414b2o132b2o1906b4o2835b$8347bo67b2o131b2o1905bo3bo2835b$8348bo2110bo2835b$8346b3o2106bo2bo2836b$7266bobo978bo5047b$7165bo100bo2bo9bo965bobo5047b$7165bobo97bo3b2o7bobo965b2o5047b$7165b2o83bo14bo12bobo79b2o5933b$7248b2o29bo80b2o5933b$7249b2o14bo2b3o91bo5932b$7265b2o93b2o5933b$7267b3o90b2o34bo5898b$7267b3o125bobo911b2o4984b$7362b2o31bobo909bo4987b$7362b2o32bo910b3o4985b$8309b2o4984b$8487bo4807b$7252bo1232bobo3564b3o1240b$7251bobo1057b2o152bo20b2o3563bo2bo1240b$7251bobo98bobo956b2o150bobo1704b2o1882bo1240b$7252bo59b2o38b2o1110b2o1704b2o1874bo7bo1240b$7312b2o39bo4691b3o3bobo1241b$12044b2obo1247b$8302bobo238b2o3499b3o1248b$8302b2o239b2o3500b2o1248b$8303bo4991b$13295b$13295b$7274bo6020b$7273bobo6019b$7273bobo6019b$7274bo6020b$13295b$13295b$7391bo5903b$7390bobo1009bobo19bo4870b$7246bo143bobo1010b2o18bo4871b$7244bobo144bo944bo66bo19b3o4869b$7245b2o1087b2o4959b$8314bo20b2o4958b$7247bo1064b2o4981b$7246bobo1064b2o4980b$7246bobo1141bo4904b$7247bo59b2o1081bobo4902b$7307b2o1052bo28b2o21b2o4880b$8362b2o23bo24b3o2109bo2bo2767b$7267bo1093b2o23b3o23bo2bo122b2o1988bo2766b$7266b3o991bobo122bo2b2o22b2ob2o121b2o1984bo3bo2766b$7140bobo103bo18b2o2bo991b2o122b3obo22b2ob2o2108b4o2766b$7140b2o104bobo1012bo126b2o21b2ob2o4879b$7141bo82bo21b2o123bobo1038bo3649b3o1230b$7224bobo145b2o1010bo28b3o3646bo2bo1229b$7224b2o39b2o105bo1010bo30bo3647bo1232b$7266b3o1114b3o3670bo5bo1232b$7269bo1049bobo3733b3o5bobo1229b$7267b3o1050b2o3733bob2o1236b$7267b2o1051bo3735b3o1236b$7218bo167bo4669b2o1237b$7218b2o165bobo5907b$7220bo46bobo115bobo1112bobo4792b$7218b2o48b2o116bo1114b2o4792b$7217bobo48bo59bo1149bobo20bo4793b$7218bo108bo1151b2o4814b$7216bobo108b3o1149bo4815b$7214bo6080b$7214bobo23b2o1036bo1881b2o3133b$7240b2o60b2o973bo1882b2o3133b$7302b2o973b3o5015b$13295b$8408b2o123b2o4760b$7254bo1152bobo123b2o4760b$7253bo1154bo4886b$7253b3o6039b$13295b$13295b$13295b$13295b$7227b3o6065b$7227bo2bo6064b$7225bo4bo6064b$8310bo4984b$7225bo1084bobo4982b$7226bo1061bo21b2o83bo4899b$7227b2obo1057bobo105bo3675b3o1220b$7228bo2bo1056b2o104b3o3674bo2bo1220b$7228b2o4844bo1220b$7229bo2bo4833bo7bo1220b$7232bo1144bo3687b3o3bobo1221b$7228bo6b2o1138bobo14bobo3669b2obo1227b$7231bo3b2o60b2o977bo99b2o14b2o3670b3o1228b$7116bo108bo2b3o66b2o978bo115bo3671b2o1228b$7115bo110bo1048b3o5017b$7115b3o106b3o1176b2o123b2o2064b4o2697b$8402bobo123b2o2063bo3bo2697b$8357b2o28b2o14bo2193bo2697b$8359bo27bobo2203bo2bo2698b$8335bo24bo28b2o4904b$8336bo20bobo28bo4906b$8334b3o21bo27bobo4906b$8360bobo22b2o4908b$7216bo1143bobo22b3o4907b$7214b2o67bo1077bo154bo4778b$7194bo20b2o67bo1117b2o113bo4777b$7192b2o88b3o1118b2o89bo20b3o4777b$7193b2o109bo1047bobo47bo92bo4799b$7302b2o1048b2o63b2o74b3o4799b$7303b2o1048bo62bobo4876b$8418bo4876b$8254bo177bo4862b$8252b2o178b2o4861b$8253b2o176bobo4861b$10150b2o3143b$7292b2o1152b3o1701b2o3143b$7292b2o1154bo4846b$8447bo4847b$8461b2o60b2o4770b$8462b2o59b2o3557b3o1210b$8461bo3620bo2bo1209b$8476b2o3604bo1212b$8379b2o94bobo3598bo5bo1212b$8378bobo96bo3597b3o5bobo1209b$8379bo111bo3583bob2o1216b$8491b2o3583b3o1216b$8285bobo202bobo3583b2o1217b$8285b2o5008b$8263bobo20bo5008b$8263b2o5030b$8264bo5030b$13295b$13295b$13295b$8497bo4797b$8290bo206bo4797b$7092bo1198b2o204bo4797b$7090b2o1198b2o5003b$7091b2o221b2o1051bobo123b3o3b3o4793b$7312b2ob2o1051b2o147b2o4776b$7312b4o1052bo128bo19b2o2143bo2bo2629b$7313b2o1182bo2168bo2628b$8349bo147bo2164bo3bo2628b$8350b2o10bo2300b4o2628b$8349b2o12b2o4930b$8357b2o15b2o4919b$7190bo1166bo15bobo4919b$7190bobo1166b3o12bo4920b$7168bo21b2o1164bo5bo4932b$7168bobo1155bo2bo27bo4bo4932b$7168b2o1156bob2o28bo2bo4933b$8328b2o30bo4934b$8355bo3736b3o1200b$8354bo20b3o3713bo2bo1200b$8228bo101b2o22b3o20bo3716bo1200b$8228bobo99b2o44bo3709bo7bo1200b$8228b2o160b2o3693b3o3bobo1201b$8391b2o3691b2obo1207b$8390bo100b3o3590b3o1208b$8321bo83b2o3678b2o1208b$7346bo2bo971bobo80bobo82bo5bo1644b2o3153b$7350bo970b2o83bo82bo5bo1644b2o3153b$7346bo3bo1069bo68bo5bo16b2o4781b$7347b4o1069b2o90b2o4781b$8419bobo69b3o4801b$13295b$8434b3o4858b$8436bo4858b$8261bo173bo4859b$8260bo188b2o4844b$8239bo20b3o187b2o4843b$8238bo210bo4845b$8238b3o109b2o112b2o4829b$8349bobo111bobo4829b$8350bo114bo4829b$8479bo4815b$8479b2o4814b$8478bobo4814b$8306bo4988b$7066bo1237bobo4988b$7066bobo1236b2o4988b$7066b2o6227b$13295b$7382b2o5911b$7381b4o1103bo4806b$7381b2ob2o1101bobo17b2o3593b3o1190b$7383b2o1102bobo17b2o3593bo2bo1189b$8488bo2243b4o1366bo1192b$10731bo3bo1360bo5bo1192b$7165bobo3567bo1359b3o5bobo1189b$7165b2o1173bo2390bo2bo1360bob2o1196b$7143bobo20bo1171bobo3755b3o1196b$7143b2o1194b2o3755b2o1197b$7144bo6150b$13295b$8331bo13b2o4948b$8329b2o13bobo4948b$8203bobo124b2o13bo4949b$8203b2o5090b$8204bo5090b$13295b$13295b$8296bobo4996b$8296b2o4997b$8297bo4997b$13295b$10130b2o3163b$7416b4o1063bo1646b2o3163b$7415bo3bo1062bobo17b2o4791b$7419bo1062bobo17b2o4791b$7415bo2bo771b3o23b3o264bo4811b$8190b3o23bo2bo17bo5057b$8190bo2bo26bo14b2o5058b$8191b3o23b3o16b2o5057b$8191b2o5102b$13295b$13295b$13295b$12112b3o1180b$12111bo2bo1180b$8225bo3888bo1180b$8225b2o92bobo3784bo7bo1180b$7041bobo1180bo2bo92b2o3783b3o3bobo1181b$7041b2o1164bobo15bobo92bo3783b2obo1187b$7042bo1164b2o15bo2bo3876b3o1188b$8208bo15bo2bo3877b2o1188b$8224bobo5068b$8225b3o5067b$13295b$13295b$7452b2o1024bo4816b$7141bo308b2ob2o1022bobo17b2o4796b$7140bo309b4o1023bobo17b2o2301bo2bo2491b$7119bo20b3o308b2o1025bo2325bo2490b$7118bo3681bo3bo2490b$7118b3o3680b4o2490b$13295b$8197bo5097b$8198b2o105bo4989b$8197b2o106bobo4987b$8305b2o4988b$13295b$13295b$13295b$8272bo5022b$8271bo5023b$8271b3o5021b$13295b$13295b$8172bo5122b$8172bobo5120b$8172b2o3948b3o1170b$7484bo2bo2632b2o2000bo2bo1169b$7488bo984bo1646b2o2000bo1172b$7484bo3bo983bobo17b2o3622bo5bo1172b$7485b4o983bobo17b2o3621b3o5bobo1169b$8473bo3641bob2o1176b$12116b3o1176b$12116b2o1177b$13295b$13295b$13295b$13295b$8205bo129bo4959b$7017bo1186bo131bo4958b$7016bo1166bo20b3o127b3o4958b$7016b3o1163bo5112b$8182b3o5110b$13295b$13295b$13295b$13295b$13295b$13295b$7117bo6177b$7115b2o403b2o5773b$7095bo20b2o401b4o945bo4826b$7093b2o424b2ob2o943bobo17b2o4806b$7094b2o425b2o944bobo17b2o4806b$8468bo2401b4o2421b$8213bo2655bo3bo2421b$8211bobo66bobo2590bo2421b$8212b2o66b2o2587bo2bo2422b$8281bo5013b$12132b3o1160b$12131bo2bo1160b$12134bo1160b$8248bo3877bo7bo1160b$8246b2o3877b3o3bobo1161b$8247b2o3875b2obo1167b$12124b3o1168b$12125b2o1168b$8147bobo5145b$8147b2o5146b$8148bo5146b$13295b$13295b$13295b$10110b2o3183b$7554b4o905bo1646b2o3183b$7553bo3bo904bobo17b2o4811b$7557bo904bobo17b2o4811b$7553bo2bo906bo4831b$13295b$13295b$8160b3o5132b$8160bo2bo17bo167bo4945b$6993bo1170bo14b2o169b2o4943b$6991b2o1168b3o16b2o167b2o4944b$6992b2o6301b$13295b$8455b3o4837b$8455bobo4837b$8455bo2bo4836b$8456b3o4836b$8169bo286b3o4836b$8169b2o283bo2bo4837b$7091bo1076bo2bo285bo3684b3o1150b$7091bobo1057bobo15bobo282bo3687bo2bo1149b$7069bo21b2o1058b2o15bo2bo283b2o3685bo1152b$7069bobo1080bo15bo2bo282b3o3679bo5bo1152b$7069b2o1097bobo283b2o3679b3o5bobo1149b$7590b2o577b3o281bobo2b2o3675bob2o1156b$7588b2ob2o633bobo27bo196bobo2b2o17b2o3657b3o1156b$7588b4o635b2o26bo197b3o21b2o2459bo2bo1194b2o1157b$7589b2o636bo27b3o2684bo2352b$10938bo3bo2352b$10939b4o2352b$13295b$13295b$8222bo5072b$8222bobo5070b$8222b2o5071b$8461bo4833b$8123bo335bobo4833b$8122bo337b2o4833b$8122b3o5170b$13295b$13295b$13295b$8210b3o5082b$8213bo5081b$8210bo2bo26b3o5052b$8211b2o27bobo5052b$7622bo2bo585b2o27bo2bo1856b2o3193b$7626bo583bo2bo27b3o195bobo1658b2o3193b$7622bo3bo583bo30b3o195b2o31b2o4821b$7623b4o585b2o25bo2bo197bo31b2o4821b$8242bo5052b$8239bo125bo4929b$6967bo1272b2o121bobo3786b3o1140b$6967bobo1269b3o122b2o3785bo2bo1140b$6967b2o1270b2o3913bo1140b$8238bobo2b2o3901bo7bo1140b$8238bobo2b2o3900b3o3bobo1141b$8238b3o3903b2obo1147b$12144b3o1148b$12145b2o1148b$8149bo5145b$8148bo5146b$7066bobo1058bo20b3o5144b$7066b2o1058bo109b2o5057b$7044bobo20bo1058b3o106bobo5057b$7044b2o1190bo5058b$7045bo6249b$13295b$13295b$7658b2o5635b$7657b4o5634b$7657b2ob2o5633b$7659b2o558bo5075b$8220bo2787b4o2283b$8218b3o2786bo3bo2283b$11011bo2283b$11007bo2bo2284b$13295b$8224bobo5068b$8099bo124b2o5069b$8097b2o126bo5069b$8098b2o5195b$13295b$13295b$8192bo5102b$8190b2o3970b3o1130b$8191b2o38b2o3929bo2bo1129b$8230bobo3929bo1132b$8231bo3924bo5bo1132b$8415bo3739b3o5bobo1129b$8414bo3740bob2o1136b$8414b3o3739b3o1136b$10090b2o2064b2o1137b$7692b4o2394b2o3203b$7691bo3bo682bobo4914b$6942bobo750bo683b2o4914b$6942b2o747bo2bo684bo4915b$6943bo6351b$13295b$13295b$8226b2o5067b$8227b2o5066b$8226bo5068b$8125bo115b2o5052b$7042bo1080b2o115bobo5052b$7041bo1061bo20b2o116bo5052b$7020bo20b3o1057b2o153bo5038b$7019bo1082b2o152b2o5037b$7019b3o1233bobo5037b$13295b$8270b3o5022b$8272bo5022b$8271bo5023b$8285b2o5008b$8286b2o5007b$8285bo5009b$7728b2o570b2o4993b$7726b2ob2o568bobo4993b$7726b4o571bo2774bo2bo1092b3o1120b$7727b2o586bo2764bo1090bo2bo1120b$8200bo114b2o2759bo3bo1093bo1120b$8199bo114bobo2760b4o1085bo7bo1120b$8073bo125b3o3963b3o3bobo1121b$8073bobo253b3o3832b2obo1127b$8073b2o256bo3832b3o1128b$8330bo3834b2o1128b$8344b2o4949b$8166bo178b2o4948b$8166bobo175bo4950b$8166b2o191b2o4934b$8358bobo4934b$8360bo31b2o4901b$8374bo18b2o4900b$8374b2o16bo4902b$8373bobo31b2o4886b$8406bobo4886b$8388b3o17bo4886b$6918bo1471bo31bo4872b$6917bo842bo2bo625bo32b2o1656b2o3213b$6917b3o844bo638b2o16bobo1656b2o3213b$7760bo3bo639b2o4889b$7761b4o638bo32b3o4856b$8418b2o18bo4856b$8417bobo17bo4857b$8419bo31b2o4842b$8433bo18b2o4841b$8099bo333b2o16bo4843b$7018bo1080bobo330bobo31b2o4827b$7016b2o1059bo21b2o364bobo4827b$6996bo20b2o1058bobo367b3o17bo4827b$6994b2o1081b2o370bo31bo4813b$6995b2o1451bo32b2o3699b3o1110b$8462b2o16bobo3699bo2bo1109b$8463b2o3717bo1112b$8462bo32b3o3678bo5bo1112b$8477b2o18bo3677b3o5bobo1109b$8476bobo17bo3678bob2o1116b$8478bo31b2o3664b3o1116b$8492bo18b2o3663b2o1117b$8492b2o16bo4784b$8491bobo31b2o4768b$7796b2o726bobo4768b$7795b4o707b3o17bo4768b$7795b2ob2o376bo331bo31bo4754b$7797b2o375b2o331bo32b2o4753b$8048bobo124b2o344b2o16bobo2604b4o2145b$8048b2o472b2o2621bo3bo2145b$8049bo471bo32b3o2592bo2145b$8536b2o18bo2588bo2bo2146b$8535bobo17bo4739b$8141bobo393bo31b2o4724b$8141b2o408bo18b2o4723b$8142bo408b2o16bo4725b$8550bobo31b2o4709b$8583bobo4709b$8565b3o17bo4709b$8567bo31bo4695b$8566bo32b2o4694b$8580b2o16bobo4694b$8581b2o4712b$6894bo1685bo32b3o4679b$6892b2o1701b2o18bo4679b$6893b2o1699bobo17bo4680b$8596bo31b2o4665b$8610bo18b2o1439b2o2120b3o1100b$7830b4o776b2o16bo1441b2o2119bo2bo1100b$7829bo3bo775bobo31b2o3549bo1100b$7833bo808bobo3541bo7bo1100b$7829bo2bo791b3o17bo3540b3o3bobo1101b$8074bobo549bo31bo3525b2obo1107b$6992bo1081b2o549bo32b2o3524b3o1108b$6992bobo1057bobo20bo563b2o16bobo3525b2o1108b$6970bo21b2o1058b2o586b2o4653b$6970bobo1080bo585bo32b3o4620b$6970b2o1682b2o18bo4620b$8653bobo17bo4621b$8655bo31b2o4606b$8669bo18b2o4605b$8669b2o16bo4607b$8668bobo31b2o4591b$8701bobo4591b$8683b3o17bo4591b$8685bo31bo4577b$8684bo32b2o4576b$8698b2o16bobo4576b$8699b2o4594b$8150bo547bo32b3o4561b$8024bo125bobo560b2o18bo4561b$7866b2o155bo126b2o560bobo17bo4562b$7864b2ob2o154b3o688bo31b2o4547b$7864b4o860bo18b2o2465bo2bo2077b$7865b2o861b2o16bo2471bo2076b$8117bo609bobo31b2o2451bo3bo2076b$8116bo643bobo2452b4o2076b$8116b3o623b3o17bo4532b$8744bo31bo4518b$8743bo32b2o4517b$8757b2o16bobo3424b3o1090b$8758b2o3442bo2bo1089b$8757bo32b3o3409bo1092b$8772b2o18bo3403bo5bo1092b$8771bobo17bo3403b3o5bobo1089b$8773bo31b2o3388bob2o1096b$6868bo1918bo18b2o3388b3o1096b$6868bobo1916b2o16bo3390b2o1097b$6868b2o1916bobo31b2o4473b$8819bobo4473b$8801b3o17bo4473b$8803bo31bo4459b$8802bo32b2o4458b$7898bo2bo914b2o16bobo1223b2o3233b$7902bo147bo766b2o1241b2o3233b$7898bo3bo146bo766bo32b3o4443b$6967bobo929b4o125bo20b3o779b2o18bo4443b$6967b2o1058bo802bobo17bo4444b$6945bobo20bo1058b3o802bo31b2o4429b$6945b2o1899bo18b2o4428b$6946bo1899b2o16bo4430b$8845bobo31b2o4414b$8878bobo4414b$8860b3o17bo4414b$8862bo31bo4400b$8861bo32b2o4399b$8875b2o16bobo4399b$8876b2o4417b$8875bo32b3o4384b$8890b2o18bo4384b$8889bobo17bo4385b$8891bo31b2o4370b$8125bobo777bo18b2o4369b$8000bo124b2o778b2o16bo3288b3o1080b$7998b2o126bo777bobo31b2o3271bo2bo1080b$7999b2o936bobo3274bo1080b$7934b2o983b3o17bo3266bo7bo1080b$7933b4o984bo31bo3251b3o3bobo1081b$7933b2ob2o155bo826bo32b2o3249b2obo1087b$7935b2o154b2o841b2o16bobo3249b3o1088b$8092b2o841b2o2347b4o917b2o1088b$8934bo32b3o2313bo3bo2007b$8949b2o18bo2317bo2007b$8948bobo17bo2314bo2bo2008b$8950bo31b2o4311b$8964bo18b2o4310b$8964b2o16bo4312b$8963bobo31b2o4296b$8996bobo4296b$6843bobo2132b3o17bo4296b$6843b2o2135bo31bo4282b$6844bo2134bo32b2o4281b$8993b2o16bobo4281b$8994b2o4299b$8993bo32b3o4266b$9008b2o18bo4266b$9007bobo17bo4267b$8026bo982bo31b2o4252b$6943bo1080b2o997bo18b2o4251b$6942bo1061bo20b2o996b2o16bo1008b2o3243b$6921bo20b3o1023b4o30b2o1018bobo31b2o992b2o3243b$6920bo1046bo3bo31b2o1050bobo4237b$6920b3o1048bo1065b3o17bo4237b$7967bo2bo1068bo31bo4223b$9038bo32b2o4222b$9052b2o16bobo4222b$9053b2o3167b3o1070b$9052bo32b3o3134bo2bo1069b$9067b2o18bo3134bo1072b$9066bobo17bo3129bo5bo1072b$9068bo31b2o3113b3o5bobo1069b$9082bo18b2o3112bob2o1076b$9082b2o16bo3115b3o1076b$9081bobo31b2o3099b2o1077b$8101bo1012bobo4178b$8100bo995b3o17bo4178b$7974bo125b3o995bo31bo4164b$7974bobo1120bo32b2o4163b$7974b2o1135b2o16bobo4163b$9112b2o4181b$9111bo32b3o4148b$8067bo1058b2o18bo4148b$8067bobo1055bobo17bo4149b$8004b2o61b2o1058bo31b2o4134b$8002b2ob2o1134bo18b2o4133b$8002b4o1135b2o16bo2192bo2bo1939b$8003b2o1135bobo31b2o2180bo1938b$9173bobo2176bo3bo1938b$9155b3o17bo2177b4o1938b$9157bo31bo4105b$9156bo32b2o4104b$6819bo2350b2o16bobo4104b$6818bo2352b2o4122b$6818b3o2349bo32b3o4089b$9185b2o18bo4089b$9184bobo17bo4090b$9186bo31b2o4075b$9200bo18b2o4074b$9200b2o16bo4076b$9199bobo31b2o2997b3o1060b$8000bo1231bobo2996bo2bo1060b$6919bo1080bobo1211b3o17bo2999bo1060b$6917b2o1059bo21b2o1214bo31bo2977bo7bo1060b$6897bo20b2o1058bobo1234bo32b2o2975b3o3bobo1061b$6895b2o1081b2o1249b2o16bobo2974b2obo1067b$6896b2o1138bo2bo1190b2o808b2o2182b3o1068b$8040bo1188bo32b3o775b2o2183b2o1068b$8036bo3bo1203b2o18bo4030b$8037b4o1202bobo17bo4031b$9245bo31b2o4016b$9259bo18b2o4015b$9259b2o16bo4017b$9258bobo31b2o4001b$9291bobo4001b$9273b3o17bo4001b$9275bo31bo3987b$9274bo32b2o3986b$8077bo1210b2o16bobo3986b$8075b2o1212b2o4004b$7949bobo124b2o1210bo32b3o3971b$7949b2o1352b2o18bo3971b$7950bo1351bobo17bo3972b$9304bo31b2o3957b$9318bo18b2o3956b$8042bobo1273b2o16bo3958b$8042b2o1273bobo31b2o3942b$8043bo1306bobo3942b$9332b3o17bo3942b$8072b2o1260bo31bo3928b$8071b4o1258bo32b2o3927b$8071b2ob2o1271b2o16bobo3927b$8073b2o1273b2o3945b$9347bo32b3o2039b4o816b3o1050b$9362b2o18bo2038bo3bo816bo2bo1049b$6795bo2565bobo17bo2043bo816bo1052b$6793b2o2568bo31b2o2024bo2bo811bo5bo1052b$6794b2o2581bo18b2o2837b3o5bobo1049b$9377b2o16bo2839bob2o1056b$9376bobo31b2o2824b3o1056b$9409bobo2824b2o1057b$9391b3o17bo3883b$9393bo31bo3869b$9392bo32b2o3868b$7975bobo1428b2o16bobo3868b$6893bo1081b2o1430b2o3886b$6893bobo1057bobo20bo1429bo32b3o3853b$6871bo21b2o1058b2o1466b2o18bo3853b$6871bobo1080bo1465bobo17bo3854b$6871b2o2549bo31b2o3839b$9436bo18b2o3838b$9436b2o16bo3840b$9435bobo31b2o559b2o3263b$8106b4o1358bobo559b2o3263b$8105bo3bo1340b3o17bo3824b$8109bo1342bo31bo3810b$8105bo2bo1342bo32b2o3809b$9465b2o16bobo3809b$9466b2o3827b$9465bo32b3o3794b$9480b2o18bo3794b$8051bo1427bobo17bo3795b$7925bo125bobo1427bo31b2o3780b$7924bo126b2o1442bo18b2o3779b$7924b3o1568b2o16bo3781b$9494bobo31b2o3765b$9527bobo2722b3o1040b$8018bo1490b3o17bo2721bo2bo1040b$8017bo1493bo31bo2710bo1040b$8017b3o1490bo32b2o2701bo7bo1040b$9524b2o16bobo2700b3o3bobo1041b$9525b2o2717b2obo1047b$9524bo32b3o2684b3o1048b$9539b2o18bo2685b2o1048b$9538bobo17bo3736b$9540bo31b2o3721b$8142b2o1410bo18b2o3720b$8140b2ob2o1409b2o16bo3722b$6769bo1370b4o1409bobo31b2o1901bo2bo1801b$6769bobo1369b2o1443bobo1905bo1800b$6769b2o2797b3o17bo1901bo3bo1800b$9570bo31bo1888b4o1800b$9569bo32b2o3691b$9583b2o16bobo3691b$9584b2o3709b$9583bo32b3o3676b$7951bo1646b2o18bo3676b$7950bo1646bobo17bo3677b$6868bobo1058bo20b3o1646bo31b2o3662b$6868b2o1058bo1684bo18b2o3661b$6846bobo20bo1058b3o1682b2o16bo3663b$6846b2o2764bobo31b2o3647b$6847bo2797bobo3647b$9627b3o17bo3647b$9629bo31bo3633b$9628bo32b2o3632b$9642b2o16bobo3632b$9643b2o3650b$8174bo2bo1464bo32b3o342b2o3273b$8178bo1478b2o18bo342b2o2240b3o1030b$8174bo3bo1477bobo17bo2585bo2bo1029b$8175b4o1479bo31b2o2570bo1032b$9672bo18b2o2563bo5bo1032b$9672b2o16bo2564b3o5bobo1029b$8026bobo1642bobo31b2o2548bob2o1036b$7901bo124b2o1676bobo2549b3o1036b$7899b2o126bo1658b3o17bo2549b2o1037b$7900b2o1786bo31bo3574b$9687bo32b2o3573b$9701b2o16bobo3573b$7994bo1707b2o3591b$7992b2o1707bo32b3o3558b$7993b2o1721b2o18bo3558b$9715bobo17bo3559b$9717bo31b2o3544b$9731bo18b2o3543b$9731b2o16bo3545b$9730bobo31b2o3529b$9763bobo3529b$9745b3o17bo3529b$9747bo31bo3515b$6744bobo1463b2o1534bo32b2o3514b$6744b2o1463b4o1547b2o16bobo3514b$6745bo1463b2ob2o1547b2o3532b$8211b2o1547bo32b3o3499b$9775b2o18bo1764b4o1731b$9774bobo17bo1764bo3bo1731b$9776bo31b2o1753bo1731b$9790bo18b2o1748bo2bo1732b$7927bo1862b2o16bo3486b$6844bo1080b2o1862bobo31b2o3470b$6843bo1061bo20b2o1894bobo3470b$6822bo20b3o1057b2o1899b3o17bo2447b3o1020b$6821bo1082b2o1900bo31bo2432bo2bo1020b$6821b3o2981bo32b2o2434bo1020b$9819b2o16bobo2426bo7bo1020b$9820b2o2443b3o3bobo1021b$9819bo32b3o2409b2obo1027b$9834b2o18bo2409b3o1028b$9833bobo17bo2411b2o1028b$9835bo31b2o3426b$9849bo18b2o3425b$9849b2o16bo3427b$9848bobo31b2o3411b$9881bobo126b2o3283b$8244b4o1615b3o17bo126b2o3283b$8002bo240bo3bo1617bo31bo3397b$8001bo245bo1616bo32b2o3396b$7875bo125b3o239bo2bo1631b2o16bobo3396b$7875bobo2001b2o3414b$7875b2o2001bo32b3o3381b$9893b2o18bo3381b$9892bobo17bo3382b$7968bo1925bo31b2o3367b$7968bobo1937bo18b2o3366b$7968b2o1938b2o16bo3368b$9907bobo31b2o3352b$9940bobo3352b$9922b3o17bo3352b$9924bo31bo3338b$9923bo32b2o3337b$9937b2o16bobo3337b$9938b2o3355b$6720bo3216bo32b3o3322b$6719bo3232b2o18bo3322b$6719b3o3229bobo17bo2310b3o1010b$9953bo31b2o2295bo2bo1009b$9967bo18b2o2294bo1012b$8280b2o1685b2o16bo2290bo5bo1012b$8278b2ob2o1683bobo31b2o2273b3o5bobo1009b$8278b4o1717bobo1626bo2bo643bob2o1016b$8279b2o1700b3o17bo1630bo643b3o1016b$7901bo2081bo1644bo3bo643b2o1017b$6820bo1080bobo2078bo1646b4o1662b$6818b2o1059bo21b2o2093b2o3297b$6798bo20b2o1058bobo2115b2o3296b$6796b2o1081b2o2115bo32b3o3263b$6797b2o3232bo3263b$10030bo3264b$13295b$10026bo3268b$10026b2o3267b$10025bobo31b2o3234b$10058bobo3234b$10060bo3234b$13295b$13295b$10055b2o3238b$10056b2o3237b$7978bo2076bo32b3o3204b$7976b2o334bo2bo1680b2o92bo3204b$7850bobo124b2o337bo1679b2o91bo3205b$7850b2o460bo3bo4978b$7851bo461b4o1768bo3209b$10085b2o3208b$10084bobo31b2o3175b$7943bobo2171bobo3175b$7943b2o2174bo3175b$7944bo4347b3o1000b$12291bo2bo1000b$10114b2o2178bo1000b$10115b2o2169bo7bo1000b$10114bo32b3o2135b3o3bobo1001b$10149bo2134b2obo1007b$10148bo2135b3o1008b$12285b2o1008b$6696bo3447bo3150b$6694b2o3448b2o3149b$6695b2o3446bobo31b2o3116b$10176bobo3116b$10178bo3116b$13295b$13295b$8348b2o1823b2o3120b$8347b4o1823b2o3119b$7876bobo468b2ob2o1821bo32b3o3086b$6794bo1081b2o471b2o1857bo3086b$6794bobo1057bobo20bo2329bo1490b4o1593b$6772bo21b2o1058b2o3841bo3bo1593b$6772bobo1080bo2347bo1497bo1593b$6772b2o3429b2o1492bo2bo1594b$10202bobo31b2o3057b$10235bobo3057b$10237bo3057b$13295b$13295b$10232b2o3061b$10233b2o3060b$10232bo32b3o3027b$10267bo3027b$10266bo3028b$12302b3o990b$7952bo2309bo2039bo2bo989b$7826bo125bobo2307b2o2038bo992b$7825bo126b2o2307bobo31b2o1999bo5bo992b$7825b3o2466bobo1998b3o5bobo989b$9986b2o308bo1998bob2o996b$8382b4o1600b2o2308b3o996b$7919bo461bo3bo3910b2o997b$7918bo466bo1905b2o3002b$7918b3o460bo2bo1907b2o3001b$10291bo32b3o2968b$10326bo2968b$10325bo2969b$13295b$7813b3o2505bo2973b$7812bo3bo2504b2o2972b$7817bo2502bobo31b2o2939b$10353bobo2939b$6670bo1141b2o3bo2537bo2939b$6670bobo1141b3o5478b$6670b2o6623b$10350b2o2943b$10351b2o2942b$10350bo32b3o2909b$10385bo2909b$10384bo2910b$7852bo5442b$7851bo2528bo2914b$6769bobo1058bo20b3o2526b2o2913b$6769b2o1058bo588b2o1959bobo31b2o2880b$6747bobo20bo1058b3o584b2ob2o1991bobo2880b$6747b2o1667b4o1994bo1351bo2bo1525b$6748bo1668b2o3351bo1524b$11766bo3bo541b3o980b$10409b2o1356b4o540bo2bo980b$10410b2o1902bo980b$10409bo32b3o1861bo7bo980b$10444bo1860b3o3bobo981b$10443bo1860b2obo987b$12304b3o988b$10439bo1865b2o988b$10439b2o2854b$10438bobo31b2o2821b$7822bo2648bobo2821b$7820bobo104bobo2543bo2821b$7821b2o104b2o5366b$7928bo5366b$10468b2o2825b$10469b2o2824b$10468bo32b3o2791b$7895bo2607bo2791b$7893b2o555bo2bo1522b2o524bo2792b$7894b2o558bo1521b2o3317b$8450bo3bo2043bo2796b$8451b4o2043b2o2795b$7794bobo2700bobo31b2o2762b$7794b2o2734bobo2762b$7795bo2736bo2762b$13295b$7810b3o5482b$7809bo2bo2714b2o2766b$6645bobo1161bo2bo2715b2o2765b$6645b2o1161bo2bo2715bo32b3o2732b$6646bo1140b3o18bo2bo2750bo2732b$7789bo22b2o2747bo2733b$7787b3o22b2o5481b$7810bo3bo2742bo1764b3o970b$7788bo24b2o2742b2o1763bo2bo969b$7786b3o26bo2740bobo31b2o1730bo972b$7784b3o23bo3bo13bo2760bobo1724bo5bo972b$6745bo1039b2o24b3o12b2o2763bo1723b3o5bobo969b$6744bo1082b2o4486bob2o976b$6723bo20b3o5569b3o976b$6722bo3863b2o1728b2o977b$6722b3o1761b2o2099b2o2706b$7822b3o660b4o2097bo32b3o2673b$7822bo2bo659b2ob2o2131bo2673b$7822bo2bo661b2o2131bo2674b$7821b4o4011b4o1455b$7821b2o2793bo1218bo3bo1455b$7820bo2795b2o1221bo1455b$7798bobo20bo2793bobo31b2o1184bo2bo1456b$7798b2o21bo2826bobo2644b$7799bo2850bo2644b$13295b$13295b$7835bobo65bo2741b2o2648b$7836b2o64bo2743b2o2647b$7836bo65b3o2740bo32b3o2614b$10680bo2614b$10679bo2615b$13295b$10675bo2619b$7869bo2805b2o2618b$7869bobo2802bobo31b2o2585b$7794bo74b2o2836bobo2585b$7795b2o2912bo2585b$7794b2o2170b2o3327b$7784bo735b4o1442b2o3327b$7783bobo733bo3bo2180b2o1626b3o960b$7782b2ob2o736bo2181b2o1624bo2bo960b$7783bo2bo732bo2bo2181bo32b3o1594bo960b$7783bo3bo2951bo1586bo7bo960b$6621bo1161bo2954bo1586b3o3bobo961b$6620bo5703b2obo967b$6620b3o4111bo1589b3o968b$7783b2o2949b2o1589b2o968b$7761bo22bo2948bobo31b2o2526b$7760bob2o3002bobo2526b$7762b2o17bo2986bo2526b$7761b3o17bob2ob2o5507b$7780b2ob2ob2o5507b$7765b2o14bobo2979b2o2530b$6721bo1042b3o15bo2981b2o2529b$6719b2o4042bo32b3o2496b$6699bo20b2o4076bo2496b$6697b2o1058bo3039bo2497b$6698b2o1056bo5538b$7756b3o3034bo2501b$10793b2o2500b$10792bobo31b2o2467b$7788bo5bo2bo758b2o2267bobo2467b$7789b2o3bob2o756b2ob2o2268bo2467b$7788b2o6b2o756b4o3346bo2bo1387b$8555b2o3351bo1386b$10822b2o1080bo3bo1386b$7798b2o3023b2o1080b4o1386b$7798b2o3022bo32b3o2437b$7851bo3005bo2437b$7852bo26bo2976bo2438b$7850b3o24b2o5416b$7789bo88b2o2972bo2442b$7789bobo3060b2o1488b3o950b$7767bo21b2o3060bobo31b2o1455bo2bo949b$7767bobo3114bobo1455bo952b$7767b2o3117bo1449bo5bo952b$7844bobo4488b3o5bobo949b$7844b2o4489bob2o956b$7810bo34bo3035b2o1453b3o956b$7808bobo3071b2o1452b2o957b$7809b2o3070bo32b3o2378b$7757bo3158bo2378b$7755b6o3154bo2379b$7755b2o2b2o827bo2bo1364b2o3337b$8592bo1363b2o953bo2383b$7759bo828bo3bo2318b2o2382b$6597bo1157b2o2bo73bo29b3o723b4o2317bobo31b2o2349b$6595b2o1158b2o3bo11bo59b3o27bo3bo3076bobo2349b$6596b2o1161bo13bo58b4o3109bo2349b$7757bobo11b3o93bo5427b$7758bo103b5o5428b$7832b4o27bo3076b2o2353b$7832b4o3105b2o2352b$7735b3o96bo3105bo32b3o2319b$7734bo2bo125b2o3110bo2319b$7734bo4bo123b2o3109bo2320b$6695bo1043bo123bo5431b$6695bobo1041b2o121b2o3106bo2324b$6673bo21b2o1039bob2o120b2obob3o3102b2o2323b$6673bobo1061bo128b2o3101bobo31b2o2290b$6673b2o1185bo2bo3138bobo2290b$7861b3o3140bo2290b$13295b$7769b3o5523b$7769bo2bo3226b2o2294b$7768bo3bo3227b2o1350b3o940b$7768b2o89b2o763b2o2373bo32b3o1316bo2bo940b$7769bobo86bobo762b4o2407bo1319bo940b$7770b2o2bo84bo763b2ob2o2405bo1312bo7bo940b$7725bobo42bo2bo851b2o3718b3o3bobo941b$7725b2o43bo3258bo944b4o366b2obo947b$7726bo42b2ob2o3255b2o942bo3bo366b3o948b$7770bobo3255bobo31b2o913bo367b2o948b$7766bo4bo3289bobo909bo2bo1318b$7767bo3295bo2231b$7765b3o5527b$7840bo5454b$7841b2o3215b2o2235b$7840b2o3217b2o2234b$11058bo32b3o2201b$11093bo2201b$7823bobo21bo3244bo2202b$7824b2o20bo5448b$7759bo64bo21b3o3239bo2206b$7757b2o3329b2o2205b$7738bo19b2o3327bobo31b2o2172b$7738bo3381bobo2172b$7732b2o3388bo2172b$7732bob2o77bo5481b$6571bo1163b2o76bobo38b2o2090b2o3347b$6571bobo1161bobo48bo26b2o38bobo802b4o1284b2o1169b2o2176b$6571b2o1159bo3b2o49b2o65bo802bo3bo2456b2o2175b$7709bo26bo49b2o873bo2455bo32b3o2142b$7708b3o123b3o820bo2bo2491bo2142b$7707bo2b2o121bo3bo3313bo2143b$7707bo3bo17bobo75bo30bo5456b$7709bobo17b2o76b2o3338bo2147b$7730bo78bo23b2o3bo3308b2o2146b$7706b2ob2o96b2o26b3o3308bobo31b2o1180b3o930b$6670bobo1035bo97bobo3370bobo1180bo2bo929b$6670b2o1076bobo56bo3373bo1180bo932b$6648bobo20bo1077b2o54bobo4548bo5bo932b$6648b2o1093bo5bo53bo4551b3o5bobo929b$6649bo1058b4o30b3o58bobo3370b2o1177bob2o936b$7708bobobo29bo2bo3431b2o1177b3o936b$7711bo32b2o3430bo32b3o1144b2o937b$7744bo3466bo2083b$7741b2o3467bo2084b$7741b4o5550b$7711bo30bo2bo3460bo2088b$7712b2o29bo3462b2o2087b$7711b2o29bo3462bobo31b2o2054b$7741b2o3495bobo2054b$7740bo5bo947b2o2544bo2054b$7740b2o3b2o945b2ob2o4598b$7741b2o949b4o3346bo2bo1249b$7830b2o861b2o2540b2o809bo1248b$7829bobo3404b2o804bo3bo1248b$7830bo3404bo32b3o772b4o1248b$11270bo2024b$11269bo2025b$7694bo5600b$7694bobo3568bo2029b$7694b2o3569b2o2028b$11264bobo31b2o1995b$11297bobo1995b$11299bo1995b$6549b3o6743b$6549bo2bo1261bo5480b$6549bo2bo1262bo3478b2o1999b$6550bo2bo1259b3o3479b2o1998b$6550b3o4741bo32b3o1042b3o920b$6551b2o4776bo1041bo2bo920b$7682bo25bo93bo3525bo1045bo920b$7681bobo23b3o90bobo12bobo4548bo7bo920b$7680bo3bo22bob2o16bo73b2o12b2o909bo2bo1206b2o1386bo1040b3o3bobo921b$7681bo2bo23bo2bo14bo89bo913bo1205b2o1386b2o1038b2obo927b$7681bo2bo24b2o15b3o997bo3bo2592bobo31b2o1005b3o928b$7682bobo24bo101b3o913b4o2625bobo1006b2o928b$7810bo2bo11b2o3531bo1936b$7780b2o28b2o2bo9bobo5468b$6541bo104bo1135bo30b2o10bo5469b$6539b2o104bo1118bo18bo3569b2o1940b$6540b2o82bo20b3o1117bo14bobo27bo3543b2o1939b$6623bo1092b2o45b3o15bo26b2o3543bo32b3o1906b$6623b3o1089b3o65bobo23b2o3577bo1906b$7715bo2bo64bobo3601bo1907b$7698bo16b2ob2o64bo5510b$7698bobo14b2ob2o3663bo1911b$7698b2o14b2ob2o3664b2o1910b$7715bo59bobo3604bobo31b2o1877b$7716b3o56b2o3638bobo1877b$7717bo9bo48bo3640bo1877b$7725bobo5567b$7726b2o5567b$11412b2o1881b$11413b2o1880b$11412bo32b3o1847b$8762b2o2683bo1847b$8761b4o2681bo1848b$8761b2ob2o4529b$7689bo1073b2o2677bo1852b$7690bo3751b2o668b4o1179b$7688b3o3750bobo31b2o634bo3bo1179b$7803b2o3669bobo638bo266b3o910b$7802bobo3671bo634bo2bo267bo2bo909b$7803bo4578bo912b$12376bo5bo912b$11471b2o902b3o5bobo909b$11472b2o901bob2o916b$11471bo32b3o869b3o916b$11506bo869b2o917b$6562bo4942bo1789b$6563b2o1099bo15b3o5612b$6562b2o1098b2o16bo2bo3817bo1793b$7663b2o14bo3bo3817b2o1792b$7679b4o3817bobo31b2o1759b$7680bo3852bobo1759b$11535bo1759b$7658b3o5634b$7658bo2bo5633b$7658bo2bo128bobo2133b2o1602b2o1763b$7657b4o19b2ob2o106b2o1003b4o1126b2o1603b2o1762b$7657b2o21bob3o106bo1003bo3bo2730bo32b3o1729b$6515bo106bo1033bo128bo1013bo2765bo1729b$6515bobo102b2o1035bo97bo22bo6b2o1008bo2bo2765bo1730b$6515b2o83bo20b2o1034bo96b3o22b2o6bo5507b$6512bo85b2o1083bo69bo2b2o20b2o5b2o11b2o3760bo1734b$6511b3o85b2o1083bo9b2obo59bo27bo11bobo3760b2o1733b$6510bo2b2o1167b3o7bo4bo59b2o39bo3760bobo31b2o1700b$6510b3obo1176bo5bo61bo27b2o3803bobo1700b$6513b2o1176bo64b4o27b2o3805bo1700b$7690b2ob2obo59b2o5537b$6509bo1180b2obo2bo5598b$6508bo1183b4o3893b2o1704b$6508b3o1182b3o44bobo35bo3811b2o1703b$7741b2o34bo3811bo32b3o1670b$7690bo50bo35b3o3844bo767b3o900b$7688b2o3933bo767bo2bo900b$7668bo20b2o4703bo900b$7666b2o3951bo766bo7bo900b$7667b2o3950b2o764b3o3bobo901b$6498b2o1244bo3873bobo31b2o730b2obo907b$6497b3o84b3o1157bobo3904bobo730b3o908b$6497bo2bo82bo3bo1115bo40b2o3907bo731b2o908b$6497b2ob2o1202b2o1126b2o4461b$6497b2ob2o86bo1114b2o1125b2ob2o4460b$6496b2ob2o82b5o2242b4o2814b2o530bo2bo1111b$6497bo86bo2246b2o2816b2o533bo1110b$6498b3o5147bo32b3o496bo3bo1110b$6499bo5183bo497b4o1110b$6584b2o5096bo1612b$6584b2o1190b2o5517b$6584bo1190bobo3900bo1616b$6583b2o1068b3o9bobo108bo3901b2o1615b$6578bo2b2obob3o1065bo11b2o4009bobo31b2o1582b$6576bobo8b2o1065b3o9bo4043bobo1582b$6577b2o2bo2bo5127bo1582b$6582b3o6710b$13295b$11707b2o1586b$11708b2o1585b$11707bo32b3o1552b$11742bo1552b$6520bo1131bobo4086bo1553b$6521bo75bo1032bo2bo18bobo72b3o5565b$6519b3o75b2o1031bob2o93bo2bo27b3o3976bo1557b$6589bobo7bo1032b2o21bo70bo3bo26bo2bo1103bo2bo1048b2o1819b2o1556b$6590b2o5b2o1128bo2b2o25bo2bo1107bo1047b2o1818bobo31b2o1523b$6590bo6bo1131bo26bo2bo1104bo3bo2900bobo1523b$7634b2o91b2o27bo2bo1105b4o2902bo630b3o890b$6599b2o1033b2o15bobo72b3o31b2o4640bo2bo889b$6599b2o1051bo73b3o31b2o4640bo892b$7758bo3bo6b2o3995b2o628bo5bo892b$6507bo1253b2o4bo3999b2o626b3o5bobo889b$6505bobo1117bo102b2o33bo4bo3bo3993bo32b3o593bob2o896b$6506b2o82bo1034bobo99bob2o27bo3bo9bo4028bo594b3o896b$6589bo1035b2o39b2o59bo3bo24b6o9bo4028bo595b2o897b$6568bo20b3o1074bob2o60bo26bo5537b$6567bo1100b2o85b3o4038bo1498b$6567b3o1089bobo6b2o4126b2o1497b$6578bo1081b2o3b2o4128bobo31b2o1464b$6577bobo1080bo70bo4096bobo1464b$6577bobo1088b2o62bo4097bo1464b$6578bo1151b3o5562b$13295b$6477bobo5345b2o1468b$6477b2o1240bo4106b2o1467b$6478bo1238bobo26bobo4076bo32b3o1434b$7658bo59b2o26b2o4112bo1434b$7657bo89bo1152b2o2957bo1435b$7636bo20b3o1239b4o4392b$7635bo1263b2ob2o2951bo1439b$7635b3o1263b2o2952b2o1438b$7714bo4139bobo31b2o360b4o1041b$7712b2o4173bobo359bo3bo1041b$7681bo31b2o4174bo363bo1041b$7682bo4566bo2bo1042b$7680b3o5612b$11884b2o1409b$7749b2o4134b2o1408b$7748bobo4133bo32b3o1375b$7749bo4169bo1375b$11918bo493b3o880b$6573bo5837bo2bo880b$6572bobo1157bo4181bo499bo880b$6572bobo1069bo56bo29bobo4180b2o490bo7bo880b$6534bo38bo1031b3o34bobo55b3o27b2ob2o4178bobo31b2o456b3o3bobo881b$6535b2o1068bo2bo34b2o54b5o27bo2bo4211bobo455b2obo887b$6534b2o1068bo3bo90b2ob3o26bo3bo4212bo455b3o888b$7604b2o94b2ob2o26bo4673b2o888b$7605bobo94bo5592b$6547b3o1056b2o2bo4332b2o1350b$6546bo2bo1056bo2bo121b2o2173b2o2036b2o1349b$6546b2obo1056bo125bo1201b4o968b2o2035bo32b3o1316b$6550b2o1053b2ob2o1323bo3bo3040bo1316b$6550b2o1054bobo120bo1207bo3039bo1317b$6520bobo26bo2bo1054bo121bob2ob2o1197bo2bo4358b$6521b2o25bo1179b2ob2ob2o4237bo1321b$6521bo26b3o15bo1162bobo4241b2o1320b$6549bo14b2o1164bo4241bobo31b2o1287b$6565b2o5438bobo1287b$12007bo1287b$13295b$13295b$7727b2o4273b2o1291b$6559b2o1165bobo4274b2o1290b$6559b2o7bo1026bo131bo4274bo32b3o1257b$6453bo107bo5bobo1023b2o4442bo1257b$6452bo106b3o5bobo1024b2o4440bo1258b$6452b3o103bobo7bo6726b$6536bobo20b2o5471bo1262b$6536b2o20bo1075bo4397b2o1261b$6537bo20bo1073b2o4397bobo31b2o1228b$6556bo1055bo20b2o4429bobo1228b$7610b2o95bobo4356bo1228b$7611b2o95b2o4712b3o870b$7708bo1261b2o3450bo2bo869b$8968b2ob2o3088b2o359bo872b$6541bo1153bo1272b4o3090b2o254bo2bo94bo5bo872b$6540bobo1153b2o17bo1253b2o3090bo32b3o225bo92b3o5bobo869b$6540bobo1152b2o18bobo4378bo221bo3bo92bob2o876b$6541bo1173b2o4378bo223b4o93b3o876b$12416b2o877b$12091bo1203b$12091b2o1202b$7682bo4407bobo31b2o1169b$7681bo4441bobo1169b$7681b3o21bo16b2o4401bo1169b$7657bobo43b6o12bobo5571b$6563bo1094b2o43b2o2b2o13bo5572b$6562bobo1093bo19bo4441b2o1173b$6562bobo1112b3o27bo4413b2o1172b$6563bo1112b2o2bo22b2o2bo4412bo32b3o1139b$7680bo22b2o3bo4446bo1139b$7679bo27bo4446bo1140b$7675bo29bobo5587b$7675bobo28bo4443bo1144b$7620bo54b2o4473b2o1143b$6536bo1084b2o1379bo2bo890b2o2251bobo31b2o1110b$6535bobo1082b2o1384bo889b2o2284bobo1110b$6535b3o2464bo3bo3177bo1110b$6536bobo2464b4o4288b$6533b2o2b2o6756b$6534b2o2bo5640b2o1114b$6535b3o5642b2o1113b$12179bo32b3o1080b$12214bo1080b$12213bo1081b$12432b3o860b$7569bo4639bo221bo2bo860b$6429bo104bo1034bobo4637b2o223bo860b$6427b2o104bo1035b2o4637bobo31b2o182bo7bo860b$6428b2o82bo20b3o22bo1141b2o4539bobo181b3o3bobo861b$6511bo45bobo1139bobo4541bo180b2obo867b$6511b3o43bobo1048bo91bo4723b3o868b$6558bo1049bobo4814b2o868b$7586bo21b2o4628b2o1055b$6508bo1077bobo4650b2o1054b$6507b3o1076b2o4650bo32b3o1021b$6506b2o2bo5762bo1021b$6510bo5761bo1022b$6509bo2528b2o4255b$6505bo2531b4o3227bo1026b$6505bobo2529b2ob2o3226b2o1025b$6505b2o2532b2o3226bobo31b2o992b$12300bobo85b4o903b$6529b2o1155bo4615bo84bo3bo903b$6529b2o1153bobo4704bo903b$7685b2o4700bo2bo904b$12297b2o996b$7673bo4624b2o995b$7674bo11bo4610bo32b3o962b$7672b3o11bo4645bo962b$7680b2o4649bo963b$7680bob2o5611b$6516b3o34bo1129b2o10b2o4630bo967b$6515bo2bo33bobo1128bobo8bobo4630b2o966b$6515bo3bo32bobo1095b3o27bo3b2o9bo4630bobo31b2o933b$6514b2obobo33bo1099bo30bo4674bobo933b$6514b2ob2o1131b3o4708bo933b$6515b3o1118bo5658b$7634bobo40bobo4762b3o850b$7635b2o16b2o22b2o4677b2o84bo2bo849b$7653b2o23bo4678b2o83bo852b$6546bo3339b2o2468bo32b3o44bo5bo852b$6516b2obo25b3o2524b4o810b2o2503bo43b3o5bobo849b$6516bobobo27bo2522bo3bo3314bo44bob2o856b$6519bo26b2o1097bo1429bo3360b3o856b$6547bo1095b2o1426bo2bo3311bo49b2o857b$6524b2o1118b2o4740b2o907b$6519bo4b2o5859bobo31b2o874b$6520bo5897bobo874b$6514b2o2bobo1023bobo4873bo874b$6403bo115bo1024b2o5749b$6403bobo1139bo5749b$6403b2o6010b2o878b$12416b2o877b$7583bobo4829bo879b$7583b2o5710b$7561bobo20bo5710b$7561b2o110b2o5620b$7562bo109bobo5620b$6544bo1128bo5621b$6502bobo39bo6750b$6502b2o6791b$6480bobo20bo6791b$6480b2o6813b$6481bo6813b$9108b2o4185b$9106b2ob2o4184b$9106b4o4185b$6553bo2553b2o4186b$6519b2o30bobo6741b$6519b2o31b2o6741b$12452b3o840b$12451bo2bo840b$12430b2o22bo840b$12430b2o22bo840b$7625bo36bo4788bobo841b$7624b3o29bo6b2o5630b$7623b2o2bo27b3o4b2o5631b$7623bo31bob2o5636b$7623b3o30bo2bo5635b$6527bobo1093b2obo22bobo5b2o9b2o5625b$6527b2o1095bob2o22b2o5bo9bobo5625b$6528bo1095b2o24bo17bo5626b$7625bob2o5666b$7624b2ob2o5666b$7624b2ob2o5666b$7626bo5668b$9140bo2bo732b2o3417b$9144bo731b2o3417b$9140bo3bo4150b$7646bo1494b4o4150b$7520bo125bobo5646b$6514b2o1003bo126b2o5647b$6378bobo133b2o1003b3o5773b$6378b2o6915b$6379bo6915b$7559bo53bo5681b$7558bo53bo5682b$7537bo20b3o51b3o5680b$7536bo5758b$7536b3o5756b$13295b$6478bo6816b$6477bo6817b$6456bo20b3o5982b3o830b$6455bo1190b2o4814bo2bo829b$6455b3o1187bobo4814bo832b$7646bo4815bo832b$12463bobo829b$13295b$9176b2o4117b$6566bobo2606b4o4116b$6567b2o2606b2ob2o4115b$6567bo2609b2o4116b$13295b$13295b$13295b$13295b$13295b$12420b2o873b$12420b2o873b$13295b$13295b$13295b$13295b$13295b$13295b$13295b$13295b$13295b$13295b$13295b$13295b$7621bobo2242b2o3427b$7496bo124b2o1587b4o652b2o3427b$6354bo1139b2o126bo1586bo3bo4081b$6353bo1141b2o1716bo4081b$6353b3o2853bo2bo3259b3o820b$12471bo2bo820b$7535bo53bo4884bo820b$7533b2o52b2o4885bo820b$7513bo20b2o52b2o4881bobo821b$7511b2o5782b$7512b2o5781b$13295b$6454bo6840b$6452b2o6841b$6432bo20b2o6840b$6430b2o6863b$6431b2o6862b$13295b$13295b$13295b$6582bo6712b$6583bo6711b$6581b3o6711b$13295b$9246b2o4047b$9244b2ob2o4046b$9244b4o4047b$9245b2o4048b$13295b$13295b$13295b$13295b$12410b2o883b$12410b2o883b$13295b$13295b$13295b$12482b3o810b$12482bo2bo809b$12482bo812b$12482bo812b$12483bobo809b$7597bo5697b$7596bo5698b$7470bo125b3o5696b$6330bo1139bobo5822b$6328b2o1140b2o1806bo2bo574b2o3437b$6329b2o2951bo573b2o3437b$9278bo3bo4012b$7509bo53bo1715b4o4012b$7509bobo51bobo5729b$7487bo21b2o52b2o5730b$7487bobo5805b$7487b2o5806b$13295b$6428bo6866b$6428bobo6864b$6406bo21b2o6865b$6406bobo6886b$6406b2o6887b$13295b$7475b3o5817b$7478bo5816b$6596bo878bo2bo5816b$6597b2o877b2o5817b$6596b2o878b2o5817b$7475bo2bo5816b$7475bo5819b$7477b2o5816b$9314b2o3979b$9313b4o3175b3o800b$9313b2ob2o3173bo2bo800b$9315b2o3177bo800b$12494bo800b$12491bobo801b$13295b$13295b$13295b$12400b2o893b$12400b2o893b$13295b$13295b$13295b$13295b$7488b3o5804b$7488bo2bo81bo5721b$7488bo2bo79b2o5722b$6304b2o1139bobo124b2o5721b$6303bo2bo1138b2o44b2o5802b$6302b3o1141bo43bo2bo5801b$7490bo2bo5801b$6304bobo1177bo5bo5804b$7485bo52bobo2305b2o3447b$6307bo1175b3o52b2o1808b4o494b2o3447b$6306b2o1231bo1807bo3bo3943b$9351bo3943b$9347bo2bo3944b$6298bo6996b$6297bo105bobo6889b$6297b3o103b2o6890b$6381bobo20bo6890b$6381b2o1096bo5815b$6382bo1094b2o5816b$7458bo19b2o5022b3o790b$7458bo5043bo2bo789b$7452b2o5048bo792b$6612bo839bob2o5046bo792b$6610bobo842b2o5046bobo789b$6611b2o842bobo5837b$7452bo3b2o5837b$7456bo5838b$13295b$13295b$7449bobo5843b$7449b2o5844b$7450bo5844b$9384b2o3909b$9382b2ob2o3908b$9382b4o3909b$9383b2o3910b$7463bo5831b$7462b3o5830b$7462bo2bo5829b$7464b2o5829b$7464bo4925b2o903b$7461b2o4927b2o903b$7461b4o5830b$7462bo2bo5829b$6315bo1147bo83bo5747b$6316bo1104bo40bo84bobo5745b$6314b3o1103bo40b2o84b2o5746b$7420b3o37bo5bo5828b$7460b2o3b2o5828b$7461b2o5832b$7514bo5780b$7513bo5781b$7513b3o4996b3o780b$12511bo2bo780b$9416bo2bo416b2o2676bo780b$9420bo415b2o2676bo780b$6274bo104bo3036bo3bo3090bobo781b$6272b2o104bo3038b4o3874b$6273b2o82bo20b3o6914b$6356bo6938b$6356b3o6936b$13295b$13295b$13295b$6263bobo7029b$6261bo4bo358bobo6667b$6261bo4bo359b2o6667b$6265b2o359bo6668b$13295b$6261b2o2b2o1180bo5847b$6261b2o2b2o1179bo5848b$6262bob3o1158bo20b3o5846b$6265bo1158bo5870b$6264bo1159b3o5868b$13295b$13295b$13295b$9452b2o3841b$9451b4o3840b$9451b2ob2o3839b$9453b2o3840b$6252b3o7040b$13295b$6252bobo84b3o6953b$6255bo82bo2bo6953b$6251bo3bo82bo3bo6179b3o770b$6337b2obobo6037b2o140bo2bo769b$6251bo2b2o73bo7b2ob2o1180bobo4855b2o140bo772b$6330b2o6b3o1056bo124b2o4998bo772b$6329b2o1064b2o126bo4999bobo769b$6252bo1143b2o5897b$6252bo7042b$6251bo7043b$6252bob2o83b2obo1147bo5804b$6256bo82bobobo1144b2o5805b$6249bo4bo87bo1146b2o5804b$13295b$6250bobo18bobo7021b$6250b3o19b2o7021b$6272bo70bo12bo6938b$6341bobo12bo3469b2o3467b$6342b2o6b2o3134b4o336b2o3467b$6350bob2o3131bo3bo3805b$6353b2o3134bo3805b$6353bobo3129bo2bo3806b$6350bo3b2o6939b$6258bo95bo6940b$6259b2o380bo6653b$6258b2o382bo6652b$6347bobo290b3o6652b$6347b2o6946b$6325bobo20bo6946b$6325b2o1096bo5871b$6326bo1094b2o5872b$7401bo20b2o5871b$7399b2o5894b$6333bo1066b2o5893b$6332bobo6960b$6235bo96bobo6197b3o760b$6235bobo95bo6197bo2bo760b$6235b2o6297bo760b$12534bo760b$12531bobo761b$13295b$9522b2o3771b$9520b2ob2o3770b$9520b4o3771b$9521b2o3772b$13295b$7498bo5796b$7497bo5797b$7371bo125b3o5795b$7371bobo4996b2o923b$7371b2o4997b2o923b$13295b$13295b$7464bo5830b$7464bobo5828b$7464b2o5829b$6287bo40bo6966b$6288bo38bobo6965b$6286b3o38bobo6965b$6328bo6966b$13295b$13295b$13295b$9554bo2bo258b2o3477b$9558bo257b2o3477b$9554bo3bo3736b$6274bo3280b4o3736b$6272bobo380bo6639b$6273b2o27b2o19bo332b2o5884b3o750b$6302bobo17bo332b2o5885bo2bo749b$6304bo17b3o6217bo752b$6302bobo6237bo752b$6302b2o1093bo5145bobo749b$6303b2o1092bobo5895b$6304b2o1069bo21b2o5896b$6304b2o1069bobo5917b$7375b2o5918b$13295b$6210bobo7082b$6210b2o111bo6971b$6211bo82bo15b3o9bobo6970b$6294bobo12bo3bo8bobo6970b$6294b2o18bo8bo6971b$13295b$6309b2o3bo6980b$6311b3o6981b$9590b2o3703b$9589b4o3702b$9589b2ob2o3701b$7474bo2116b2o3702b$7472b2o5821b$6296bo1049bobo124b2o5820b$6295bobo1048b2o5947b$6295bobo1049bo5947b$6296bo6998b$12360b2o933b$7439bobo4918b2o933b$7439b2o5854b$7440bo5854b$13295b$13295b$12552b3o740b$6318bo6232bo2bo740b$6317bobo6234bo740b$6193bo123bobo6234bo740b$6192b3o123bo6232bobo741b$6191bo2b2o7099b$6191b3o7101b$13295b$6287bobo3516b2o3487b$6288b2o381bo2952b4o178b2o3487b$6191bo96bo380bobo2951bo3bo3667b$6194bo475b2o2955bo3667b$6191bo3bo3427bo2bo3668b$6192b2ob2o94bo7003b$6290bobo1079bobo5920b$6290bobo1079b2o5921b$6291bo1058bobo20bo5921b$6194bo1155b2o5943b$6195b2o1154bo5943b$6194b2o7099b$6291bobo7001b$6291b2o7002b$6269bobo20bo7002b$6269b2o7024b$6270bo42bo6981b$6312bobo6980b$6312bobo6980b$6313bo6981b$13295b$6179bo7115b$6179bobo76bobo7034b$6179b2o77bo2bo1186bo5846b$6257bo3b2o1059bo125bobo2209b2o3633b$6257bo1063bo126b2o2208b2ob2o2899b3o730b$7321b3o2334b4o2900bo2bo729b$6257bo2b3o3396b2o2901bo732b$6257b2o6303bo732b$6259b3o1153bo5147bobo729b$6259b3o22b2o1128bo5880b$6284b2o1128b3o5878b$12350b2o943b$12350b2o943b$13295b$13295b$13295b$13295b$13295b$6308bo6986b$6307bobo6985b$6307bobo6985b$6308bo6986b$13295b$6272bo411bobo6608b$6271b3o411b2o6608b$6270bo2b2o410bo3006bo2bo100b2o3497b$6270b4o3422bo99b2o3497b$6273bobo1072bo2343bo3bo3598b$6273bo2bo1070bo2345b4o3598b$6273b3o1050bo20b3o5945b$6272bobo1050bo5969b$6210bo61bobo1050b3o5967b$6208bobo61b3o4b2o7014b$6209b2o56bo11b2o7014b$6268b2o7025b$6267b2o7026b$13295b$12572b3o720b$12571bo2bo720b$12574bo720b$12574bo720b$6303bo6267bobo721b$6302bobo6990b$6154bobo103bo41bobo6990b$6154b2o104bobo40bo6991b$6155bo82bo21b2o1161bobo5869b$6238bobo1057bo124b2o5870b$6150b3o85b2o55bobo998b2o126bo5870b$6149bo2bo142bo2bo998b2o2429b2o3565b$6149b2o2bo140bo3b2o3427b4o3564b$6152b2o140bo3432b2ob2o3563b$7391bo2337b2o3564b$6149bo144bo2b3o1089b2o5904b$6147b2o79bo65b2o1094b2o5903b$6148b2o76b6o64b3o6996b$6226b2o2b2o42b2o20b3o6996b$6274b2o7019b$6230bo6109b2o953b$6226b2o2bo6109b2o953b$6226b2o3bo7063b$6230bo7064b$6228bobo7064b$6229bo7065b$13295b$13295b$6700bo6594b$6701bo6593b$6699b3o6593b$13295b$13295b$7324bo5257b3o710b$7322b2o2462b2o2794bo2bo709b$7302bo20b2o2437b4o20b2o2794bo712b$6226bo1073b2o2459bo3bo2816bo712b$6225bobo1073b2o2462bo2817bobo709b$6225bobo12b3o3518bo2bo3530b$6226bo13bo2bo7051b$6239bo3bo7051b$6239b2o28b2o7024b$6240bobo26b2o33bo6990b$6241b2o2bo59b2o6988b$6241bo2bo59b2o6989b$6241bo7053b$6158bo81b2ob2o7050b$6159b2o80bobo7051b$6158b2o77bo4bo7052b$6238bo7056b$6236b3o1160bo5895b$7398bo5896b$7272bo125b3o5894b$7272bobo6020b$6275bo996b2o6021b$6275bobo7017b$6275b2o7018b$7365bo5929b$6123bo106bo1134bobo2430b2o3495b$6123bobo95bo6b2o1135b2o2429b2ob2o3494b$6123b2o83bo11bobo6b2o3565b4o3495b$6206b2o12bobo3574b2o3496b$6207b2o12bo7073b$13295b$6264b2o7029b$6264b2o7029b$12330b2o260b3o700b$12330b2o259bo2bo700b$12594bo700b$12594bo700b$12591bobo701b$6714bo6580b$6715b2o6578b$6714b2o6579b$13295b$13295b$7298bo5996b$7298bobo5994b$7276bo21b2o5995b$7276bobo6016b$7276b2o6017b$13295b$6216bo7078b$6215bobo7077b$6215bobo7077b$6216bo103bo6974b$6318bobo6974b$6319b2o6974b$13295b$6174bo7120b$6172bobo7120b$6173b2o7120b$13295b$7375bo5919b$6187bo1185b2o5920b$6186b3o1058bobo124b2o5919b$6185b2o2bo1057b2o6046b$7248bo6046b$6189b2o7104b$6189b2o6411b3o690b$6188bo2bo1148bobo5259bo2bo689b$6098bobo86b3o14bo1135b2o5260bo692b$6098b2o104bobo1134bo5260bo692b$6099bo104b2o3660b2o2735bobo689b$9865b4o3426b$6211bo3653b2ob2o3425b$6210bobo3654b2o3426b$6210bobo7082b$6198bo12bo7083b$6198b2o7095b$6200bo7094b$6198b2o7095b$6176bo20bobo6120b2o973b$6175bo22bo6121b2o973b$6175b3o18bobo531bo6564b$6194bo533bobo6564b$6194bobo532b2o6564b$13295b$13295b$7273bobo6019b$7273b2o6020b$6180bo1070bobo20bo6020b$6179bobo1069b2o6042b$6179bobo1070bo6042b$6180bo7114b$13295b$13295b$6081bo7213b$6080b3o123bo126bobo6959b$6079bo2b2o121bobo126b2o6959b$6079b3o123bobo126bo6960b$6206bo7088b$12612b3o680b$12611bo2bo680b$6079bo6534bo680b$6082bo6531bo680b$6079bo3bo1265bo5261bobo681b$6080b2ob2o1138bo125bobo5943b$7222bo126b2o5944b$7222b3o6070b$13295b$6082bo7212b$6083b2o1231bo5978b$6082b2o1231bo5979b$6072bo102bo1139b3o5977b$6071b3o100bobo7118b$6070b2o2bo99bobo7118b$6175bo7119b$6074b2o7219b$6074b2o7219b$6073bo2bo3859b2o3357b$6072b3o126bo3732b2ob2o3356b$6200bobo3731b4o3357b$6174bo25bobo3732b2o3358b$6172b2o27bo7093b$6152bo20b2o7120b$6150b2o7143b$6151b2o590bobo6549b$6744b2o5564b2o983b$6744bo5565b2o983b$13295b$7249bo6045b$6061bo1186bo6046b$6060bo80bobo1083bo20b3o6044b$6060b3o76bo4bo1081bo6068b$6139bo4bo1081b3o5393b3o670b$6143b2o6477bo2bo669b$6170bo6451bo672b$6139b2o2b2o24bobo6450bo672b$6139b2o2b2o24bobo6451bobo669b$6140bob3o25bo178bo6945b$6143bo206bo6944b$6142bo205b3o6944b$13295b$6196bo7098b$6195bobo7097b$6195bobo7097b$6196bo7098b$6131b3o7161b$6131b3o1190bobo5968b$6131bo2bo1064bo124b2o5969b$6132b3o1062b2o126bo5969b$6132b2o1064b2o6095b$13295b$6098bo55bo7140b$6096bobo54b3o1136bo6002b$6097b2o53b2o2bo1133b2o6003b$6152bo1138b2o6002b$6152b3o7140b$6152b2obo7139b$6153bob2o8bo7129b$6153b2o9bobo7128b$6154bob2o6bobo7128b$6086bo36bo29b2ob2o7bo7129b$6087bo34b3o28b2ob2o7137b$6085b3o34bo2bo29bo3848b2o3289b$6124b2o23bobo3851b4o3288b$6124bo25b2o39bo3811b2ob2o3287b$6121b2o27bo39bobo3812b2o2625b3o660b$6121b4o65bobo566bo5871bo2bo660b$6122bo2bo65bo568bo5873bo660b$6123bo21bo612b3o5873bo660b$6122bo21b3o6484bobo661b$6121b2o21bob2o7147b$6120bo5bo18bo2bo1076bo5074b2o993b$6037bo82b2o3b2o11bo7b2o1075b2o5075b2o993b$6035b2o84b2o16b2o5bo1056bo20b2o6069b$6036b2o100b2o1061b2o6092b$7202b2o6091b$13295b$13295b$13295b$13295b$6160bo202bo6931b$6159bobo202b2o6929b$6126bobo6bo23bobo201b2o6930b$6127b2o6bobo22bo7134b$6127bo7b2o7158b$13295b$13295b$6186bo7108b$6185bobo1112bo5994b$6116bo68bobo1111bo5995b$6115b2o69bo986bo125b3o5993b$6114b2o1057bobo6119b$6110b2ob2o1058b2o6120b$6109bo7185b$6109b3ob3o7179b$7266bo6028b$7266bobo6026b$7266b2o6027b$12642b3o650b$12642bo2bo649b$12642bo652b$12642bo652b$12643bobo649b$6100bo27bo26bo7139b$6101b2o24b2o25bobo7138b$6100b2o24bo27bobo7138b$6126b3o26bo7139b$6125bo2bo7166b$6125b2o7168b$6773bo3300b2o3219b$6181bo592b2o3296b2ob2o3218b$6180bobo590b2o3297b4o3219b$6148bo31bobo3890b2o3220b$6148bo32bo7113b$6147bobo1049bo6095b$6011bo1187bobo6093b$6011bobo135b2o1026bo21b2o6094b$6011b2o1164bobo5110b2o1003b$6149b2o1026b2o5111b2o1003b$13295b$13295b$13295b$13295b$6146b2o231bo6915b$6146b3o228bobo6915b$6150bo227b2o6915b$6148b2o7145b$13295b$13295b$6145bobo7147b$6145bobo7147b$6146bo1129bo5375b3o640b$7274b2o5375bo2bo640b$6176bo971bobo124b2o5377bo640b$6175bobo970b2o5504bo640b$6175bobo971bo5501bobo641b$6176bo7118b$13295b$6154bo1086bobo6051b$6155bo1085b2o6052b$6153b3o1086bo6052b$13295b$13295b$13295b$13295b$13295b$6116bo7178b$6114bobo7178b$6115b2o7178b$13295b$6131bo7163b$6129b2o7164b$6130b2o657bo6505b$6787bobo6505b$6788b2o3352b2o3151b$10141b4o3150b$6171bo3969b2ob2o3149b$6170bobo1001bobo2966b2o3150b$5986bobo181bobo1001b2o6119b$5986b2o183bo980bobo20bo6119b$5987bo1164b2o6141b$7153bo6141b$13295b$12280b2o1013b$12280b2o380b3o630b$12662bo2bo629b$6107bo284bobo6267bo632b$6106b2o285b2o6267bo632b$6106bobo284bo6269bobo629b$13295b$6081b3o7211b$6081bo7213b$6082bo7212b$6057b2o7236b$6056b2o1192bo6044b$6058bo1065bo125bobo6042b$6032b2o1089bo126b2o6043b$6032bobo1088b3o6169b$6032bo7262b$6008bo7286b$6007b2o1208bo6077b$6007bobo1206bo6078b$7216b3o6076b$5982b3o7310b$5982bo7312b$5983bo7311b$13295b$13295b$13295b$13295b$13295b$13295b$13295b$13295b$13295b$6802bobo6490b$6803b2o6490b$6803bo5868b3o620b$12671bo2bo620b$7150bo5523bo620b$7149bo5524bo620b$7128bo20b3o3060b2o2457bobo621b$7127bo3082b2ob2o3080b$7127b3o3080b4o3081b$10211b2o3082b$13295b$13295b$13295b$6408bo6886b$6409bo5860b2o1023b$6407b3o5860b2o1023b$13295b$13295b$7115b3o6177b$7114bo3bo6176b$7119bo6175b$13295b$7114b2o3bo105bobo6067b$7100bo15b3o106b2o6068b$7098b2o126bo6068b$7099b2o6194b$13295b$13295b$7193bo6101b$7191b2o6102b$7093b2o97b2o6101b$7093b2o6200b$7095bo6199b$7093b3o6199b$7092bobo6200b$7093b2o5587b3o610b$7092bo5589bo2bo609b$7092bo5589bo612b$7090bo38b3o5550bo612b$7128bo2bo5551bobo609b$7128b2obo6163b$7132b2o6161b$6818bo313b2o6161b$6819bo311bo2bo6160b$6817b3o310bo6164b$7130b3o6162b$7131bo6163b$7124bo6170b$7122bobo6170b$7123b2o6170b$13295b$10280b2o3013b$10279b4o3012b$10279b2ob2o3011b$10281b2o3012b$13295b$6422bo6872b$6423b2o693bobo6174b$6422b2o694b2o6175b$7096bobo20bo6175b$7096b2o5162b2o1033b$7097bo5162b2o1033b$13295b$13295b$7099bobo99bo6093b$7100b2o98bo6094b$7100bo99b3o6092b$13295b$12692b3o600b$12691bo2bo600b$12694bo600b$7167bo5526bo600b$7167bobo5521bobo601b$7167b2o6126b$13295b$7068bo6226b$7067bo6227b$7067b3o6225b$13295b$13295b$13295b$13295b$13295b$13295b$13295b$6832bo6462b$6833b2o6460b$6832b2o6461b$7143bobo6149b$7144b2o6149b$7137bobo4bo6150b$7138b2o6155b$7138bo6156b$13295b$13295b$13295b$13295b$13295b$10350b2o2943b$6438bo655bo3253b2ob2o2942b$6436bobo654bo3254b4o2943b$6437b2o633bo20b3o3253b2o2351b3o590b$7071bo5630bo2bo589b$7071b3o5628bo592b$12702bo592b$12703bobo589b$7115bo5134b2o1043b$7116bo60bo5072b2o1043b$7114b3o58b2o6118b$7176b2o6117b$13295b$13295b$13295b$7081bo6213b$7080b3o59bobo6150b$7059bo23bo58b2o6151b$7058b3o20b2o60bo6151b$7061bo20bo6212b$7044bo14b2o6234b$7042b2o16bo6234b$7043b2o6250b$13295b$13295b$13295b$13295b$13295b$13295b$13295b$6848bo6446b$6846bobo6446b$6847b2o310bo6135b$7079bo80bo6134b$7079bo73bo4b3o6134b$7057bo96bo6140b$7057bo94b3o5557b3o580b$12711bo2bo580b$12714bo580b$12714bo580b$12711bobo581b$13295b$7088bo6206b$7086bobo6206b$6451bobo612bo20b2o6206b$6452b2o610bobo3351b2o2875b$6452bo612b2o3350b4o2874b$10417b2ob2o2873b$10419b2o2874b$13295b$13295b$7129bo6165b$7130b2o19bo6143b$7129b2o20bobo6141b$7062bobo86b2o5087b2o1053b$7062b2o5176b2o1053b$7040bobo20bo6231b$7040b2o6253b$7041bo76bo6176b$7117bo6177b$7117b3o6175b$13295b$7139b3o6153b$7018bo95bo27bo6152b$7018bobo92b3o23bo2bo6152b$7018b2o92b2o2bo23b2o6153b$7116bo23b2o6153b$7115bo23bo2bo6152b$7111bo27bo6155b$7111bobo27b2o5579b3o570b$7012bo98b2o5609bo2bo569b$7012b2o5708bo572b$7014bo5707bo572b$6861bobo148b2o5709bobo569b$6862b2o147bobo6281b$6862bo149bo160bo6121b$7010bobo161b2o6119b$7008bo158bo5b2o6120b$7008bobo157b2o6125b$7167b2o6126b$13295b$13295b$13295b$13295b$13295b$7101bobo6191b$6467bo634b2o31b2o6158b$6468bo610bobo20bo31bobo6158b$6466b3o611b2o53bo6159b$7080bo6214b$13295b$13295b$10488b2o2805b$10486b2ob2o2804b$10486b4o2805b$10487b2o2806b$7038bo6256b$7037bo6257b$7016bo20b3o6255b$7015bo106bo6172b$7015b3o102bobo5107b2o1063b$7121b2o5107b2o1063b$12732b3o560b$7019bo5711bo2bo560b$7020bo100bo5612bo560b$7018b3o98b2o5613bo560b$7120b2o5609bobo561b$13295b$13295b$7130b2o6163b$7129bobo6163b$7086bobo41bo6164b$7086b2o6207b$7087bo6207b$7002bo6292b$6877bo110bo12b3o6291b$6878bo107b2o13b3o6291b$6876b3o108b2o6306b$6983b3o15b4o184bo6105b$6983bo2bo13b5o124bo57bobo6105b$6982bo3bo13b2obo125b2o52bo4b2o6105b$6982b3o2bo140bobo50bobo6111b$6983b4o195b2o6111b$7001b2o140b3o6149b$7000bo144bo6149b$6980bobo161bo6150b$6980b2o17bobo2bo153b2o6135b$6981bo17bob3obo111bo41b2o6134b$6998b3ob2obo112bo39bo6136b$6481bo517bobo93bo20b3o54b2o6120b$6482b2o515b3o94bo75bobo6120b$6481b2o517bo93b3o77bo6120b$7188bo6106b$7188b2o6105b$7187bobo6105b$12742b3o550b$12742bo2bo549b$7014b2o3540b2o2184bo552b$7014b2o3539b4o2183bo552b$7008bo7bo3538b2ob2o2183bobo549b$7006bobo5b2o3541b2o2736b$7007b2o5b2o6279b$13295b$7016b2o6277b$7016b2o6277b$13295b$7033bo5186b2o1073b$7034b2o59bo5124b2o1073b$7033b2o60bobo6197b$7006bobo86b2o6198b$7006b2o6287b$6984bobo20bo6287b$6984b2o6309b$6985bo76bo6232b$7061bo6233b$7061b3o130b2o6099b$6991bobo200b2o6099b$6992b2o6301b$6891bo100bo6302b$6892b2o6401b$6891b2o6402b$13295b$13295b$13295b$13295b$13295b$13295b$6955bo6339b$6955b2o5795b3o540b$6955b3o5793bo2bo540b$6955b2o174bo5622bo540b$6955b2o175b2o5620bo540b$6497bo458bo152bo21b2o5618bobo541b$6495bobo459bobo150b2o6183b$6496b2o460bo150b2o6184b$13295b$13295b$6949bo6345b$6949bobo237b2o6104b$6949b2o238b2o6104b$13295b$13295b$13295b$13295b$10626b2o2667b$10624b2ob2o2666b$10624b4o2667b$10625b2o2668b$13295b$7049bo6245b$7047bobo20bobo6222b$6982bo65b2o20b2o6223b$6981bo89bo5138b2o1083b$6960bo20b3o5226b2o1083b$6959bo6335b$6959b3o6333b$7038bo6256b$7036b2o6257b$7007bo29b2o6256b$7008bo6286b$7006b3o50bo6235b$6907bo150b3o123b2o5576b3o530b$6905bobo124b3o23b4o122b2o5576bo2bo529b$6906b2o124bo2bo5726bo532b$7032bo2bo5726bo532b$7031b4o23b4o5701bobo529b$7031b2o25b4o6233b$7030bo29bo6234b$6966bo64bo6263b$6964bobo64bo6263b$6965b2o6328b$13295b$13295b$7147bo6147b$7145bobo6147b$6510bobo612bo20b2o6147b$6511b2o610bobo6169b$6511bo612b2o6169b$13295b$13295b$6924bobo6368b$6924b2o6369b$6925bo6369b$13295b$7054b2o123b2o6114b$7053bobo123b2o6114b$7054bo6240b$13295b$13295b$10694b2o2599b$10693b4o2598b$10693b2ob2o2597b$10695b2o2598b$13295b$6958bo5813b3o520b$6956b2o5813bo2bo520b$6936bo20b2o5815bo520b$6934b2o103bobo5732bo520b$6935b2o103b2o5158b2o569bobo521b$7040bo5159b2o1093b$13295b$7021bo6273b$7022b2o15bo6255b$7021b2o16bobo6253b$6920bobo116b2o6254b$6921b2o6372b$6921bo6373b$7049b2o123b2o6119b$7048bobo123b2o6119b$7033bo15bo6245b$7002b3o28b2o6260b$6979bobo20bob3o28bo6259b$6980b2o51b2o6260b$6980bo24bobo24bobo6260b$7005bobo25bo6261b$7006b2o23bobo6261b$7029bo130bobo6132b$6526bo502bobo129b2o6132b$6527bo471bo47b3o88bobo20bo6133b$6525b3o471bobo47bo89b2o6154b$6999b2o47bo90bo6155b$7062b2o6231b$6900bo162b2o6230b$6899bo162bo6232b$6899b3o175b2o6216b$7076bobo6216b$7078bo6216b$7092bo5689b3o510b$7092b2o5688bo2bo509b$7091bobo5688bo512b$7169b2o5611bo512b$7106b3o60b2o5612bobo509b$7108bo6186b$7107bo6187b$7025b2o94b2o6172b$7024bobo95b2o6171b$7025bo95bo3642b2o2529b$6932bo203b2o3624b2ob2o2528b$6932bobo200bobo3624b4o2529b$6910bo21b2o203bo3625b2o2530b$6910bobo6382b$6910b2o6383b$13295b$13295b$12190b2o1103b$12190b2o1103b$6936bo6358b$6937bo204b3o6150b$6935b3o6357b$7014bo125bo5bo6148b$7012bobo125bo5bo6148b$7013b2o125bo5bo16b2o6130b$7163b2o6130b$6995bo146b3o6150b$6996bo12bo6285b$6994b3o10b2o6286b$7008b2o6285b$7004b3o13b2o6273b$7004bo2bo11bobo6273b$7003bo3bo12bo6274b$6540bo433b2o27b3o2bo5783b3o500b$6541b2o430bo2bo27b4o5783bo2bo500b$6540b2o431bo2bo5817bo500b$6973bo5820bo500b$6976bo24bobo5787bobo501b$6876bo97b3o24b2o18bo6273b$6874b2o100b2o24bo18b2o6272b$6875b2o100bo42bobo6272b$13295b$7035b3o100bo6156b$6969bo67bo100bo6156b$6967b2o67bo101bo6156b$6968b2o80b2o6243b$7051b2o81b3o3b3o6152b$7050bo107b2o6135b$7065b2o71bo19b2o6135b$7064bobo71bo6156b$7066bo71bo6156b$7080bo6214b$7080b2o6213b$6907bobo169bobo6213b$6907b2o3923b2o2461b$6885bobo20bo185b3o3734b4o2460b$6885b2o209bo3734b2ob2o2459b$6886bo109b2o97bo3737b2o2460b$6995bobo111b2o6184b$6996bo113b2o6183b$7109bo6185b$7124b2o6169b$6950bo172bobo6169b$6951b2o172bo5054b2o1113b$6950b2o5228b2o1113b$13295b$12802b3o490b$12802bo2bo489b$12802bo492b$7134bo5667bo492b$7133bobo17b2o5648bobo489b$7133bobo17b2o6140b$7134bo6160b$13295b$6984bo6310b$6985b2o6308b$6556bo427b2o6309b$6554bobo6738b$6555b2o6738b$6977bo6317b$6976bo14b2o6302b$6850bo125b3o11bobo6302b$6850bobo138bo6303b$6850b2o6443b$13295b$13295b$6943bo6351b$6943bobo6349b$6943b2o6350b$13295b$13295b$13295b$7129bo6165b$7128bobo17b2o6145b$7128bobo17b2o6145b$6837bo24b2o19bo245bo6165b$6837bo24bobo17bo6412b$6836bobo25bo17b3o6410b$6862bobo6430b$6838b2o22b2o5948b3o480b$6863b2o5946bo2bo480b$6838b2o24b2o4036b2o1910bo480b$6864b2o4034b2ob2o1909bo480b$10900b4o1907bobo481b$10901b2o2392b$6966bo6328b$6835b2o127bobo6328b$6835b3o16bo15b3o92b2o6328b$6839bo14bobo12bo3bo6421b$6837b2o15b2o18bo5295b2o1123b$12170b2o1123b$6869b2o3bo6420b$6834bobo34b3o6421b$6834bobo6458b$6835bo6459b$7124bo6170b$7123bobo17b2o6150b$7123bobo17b2o6150b$7124bo6170b$6569bobo6723b$6570b2o6723b$6570bo272bo6451b$6844bo108bo6341b$6842b3o106b2o6342b$6952b2o6341b$13295b$13295b$13295b$13295b$6918bobo6374b$6918b2o6375b$6919bo6375b$12822b3o470b$6820bo6001bo2bo469b$6818b2o6002bo472b$6819b2o6001bo472b$12823bobo469b$13295b$7119bo6175b$7118bobo17b2o6155b$7118bobo17b2o6155b$7119bo6175b$6808bo24b3o6459b$6808b2o23bo2bo6458b$6807bo2bo22bo2bo6458b$6808bobo6484b$6807bo2bo25b2o4132b2o2323b$6807bo2bo24bo2bo4130b4o2322b$6807bobo25bo2bo12bobo125bobo3987b2ob2o2321b$6808b3o24bo15b2o127b2o3989b2o2322b$6852bo127bo6314b$13295b$13295b$13295b$13295b$12160b2o1133b$6844b3o5313b2o1133b$6846bo6448b$6844b3o6448b$6824bo6470b$6822b2o21bo6449b$6585bo237b2o18b3o268bo6180b$6586bo254b3o269bobo17b2o6160b$6584b3o255b2o269bobo17b2o6160b$6857bo256bo6180b$6858b2o67bo5904b3o460b$6857b2o68bobo5901bo2bo460b$6927b2o5905bo460b$12834bo460b$12831bobo461b$13295b$6894bo6400b$6893bo6401b$6893b3o6399b$6815bobo6477b$6816b2o6477b$6816bo6478b$13295b$13295b$13295b$13295b$6807bo6487b$6806b3o6486b$6805b2o2bo6485b$6805b2ob2o299bo6185b$6788bo19b3o297bobo17b2o6165b$6787bo18bob2o298bobo17b2o6165b$6785b2ob2o15bo2bo300bo6185b$6784b5o19bo6486b$6783b2o2bo17bobo6487b$6783bob4o17bo188bo6299b$6783bo4bo207bo6298b$6783bo2b2o19b3o184b3o6298b$6785b2o19bob2o4230b2o2253b$6807b2obo4227b2ob2o2252b$6781bo4256b4o2253b$6781bobo4255b2o2254b$6781b2o319bo6192b$7101b3o5738b3o450b$7101bob2o5737bo2bo449b$6809bobo6bo281b2o5740bo452b$6810b2o5bob2o279b2o5048b2o690bo452b$6810bo8b2o279b2o5048b2o691bobo449b$6818b3o283bo6190b$6599bo503b2o6190b$6600b2o220b2o277bobo6191b$6599b2o220b3o276bo2bo6191b$6873bo227bobo6191b$6871bobo28bobo196b3o19b2o6170b$6814bo57b2o28b2o197b2obo18b2o6170b$6813bo89bo197bo2bo6190b$6792bo20b3o286bo6192b$6791bo6503b$6791b3o6501b$6870bo6424b$6868b2o6425b$6831bo37b2o6424b$6832bo272bo6189b$6830b3o273b2o6187b$7105b2o6188b$13295b$13295b$13295b$6779b3o6513b$6778bo3bo6512b$6783bo6511b$6794bo62bo6437b$6778b2o3bo8bobo61b3o6436b$6780b3o10b2o60b5o27bo6407b$6855b2ob3o25b3o197bo6208b$6856b2ob2o25bob2o196bobo6206b$6858bo26b2o199b2o30b2o5732b3o440b$6885b2o231b2o5731bo2bo440b$6885b2o122bo5844bo440b$6889bo120b2o5842bo440b$6758b2o128b2o119b2o5840bobo441b$6758bobo125bobo6406b$6760b2o123bo2bo6406b$6758bobo125bobo4219b2o2185b$6758bo127b3o4218b4o2184b$6758bo2bo124b2obo4217b2ob2o2183b$6886bo2bo4219b2o2184b$6760b2o125bo6407b$13295b$13295b$13295b$6792b3o87b2o6411b$6615bo135bo39bo2bo86bobo5256b2o1153b$6613bobo133b2o40bo4bo85bo5257b2o1153b$6614b2o134b2o44bo6498b$6796b2o6497b$6793bob2o6498b$6788bo5bo6500b$6786bobo6506b$6787b2o6506b$6863bobo6429b$6864b2o6429b$6864bo6430b$13295b$6845bo6449b$6846b2o23bo6423b$6845b2o24bobo6421b$6782bobo86b2o6422b$6782b2o6511b$6760bobo20bo6078b3o430b$6760b2o6100bo2bo429b$6761bo76bo6023bo432b$6837bo6024bo432b$6837b3o6023bobo429b$6807bobo67b2o6416b$6755b2o51b2o66bobo6416b$6755bobo50bo68bo6417b$6757b2o302bobo6231b$6756bo304b2o6232b$6754bobo101bo203bo6232b$6732bo20b2o72b2o29bo6436b$6731b3o19b3o70b3o28bobo165bo6269b$6730b2o2bo91bo2bo193bobo6269b$6770bo55b2ob2o28b2o163b2o6269b$6771b2o53b2ob2o6464b$6770b2o53b2ob2o29b2o6434b$6730b2o94bo6468b$6731b3o93b3o6465b$6734bo93bo6466b$6732b3o136b3o6421b$6732b2o122b2o15bo4304b2o2115b$6856b3o13bo4303b2ob2o2114b$6860bo25b2o4288b4o2115b$6732bobo123b2o27b2o4288b2o2116b$6733b2o151bo6408b$6628bobo102bo167b2o6392b$6629b2o224bobo42bobo6392b$6629bo225bobo44bo6392b$6856bo59bo5213b2o1163b$6916b2o5212b2o1163b$6915bobo6377b$6853b2o6440b$6852bobo75b3o5939b3o420b$6853bo78bo5938bo2bo420b$6719bo211bo5942bo420b$6718bo226b2o5927bo420b$6718b3o32b3o190b2o5923bobo421b$6755bo189bo6349b$6756bo2bo200b2o6333b$6755b2obob2o197bobo6333b$6755b2o3b2o199bo6333b$6975bo6319b$6836bo138b2o6318b$6834bobo137bobo6318b$6835b2o6458b$6989b3o6303b$6823bo167bo6303b$6824bo16bo148bo6304b$6822b3o14b2o163b2o6289b$6840b2o163b2o6288b$6705bo298bo32b3o6255b$6704b3o22bo289b2o18bo6255b$6704b3o22bobo286bobo17bo6256b$6729b2o289bo31b2o6241b$6704b4o97b2obo25b2o12b2o184bo5bo12b2o6240b$6703b5o95bo4bo25b2o11bobo184b2o3bo12bo6242b$6703b2obo79bo15bo5bo27bo11bo184bobo3bo27b2o6226b$6784bobo15bo31b3o229bobo6226b$6785b2o14b2ob2obo25bobo212b3o17bo6226b$6704b2o95b2obo2bo26b2o214bo31bo6212b$6703bo99b4o26bo215bo32b2o6211b$6804b3o26bo229b2o16bobo6211b$6702bobo2bo123bo232b2o6229b$6702bob3obo92bo261bo32b3o6196b$6701b3ob2obo90b2o277b2o18bo6196b$6702bobo43bo51b2o275bobo17bo4148b2o1634b3o410b$6702b3o44bo329bo31b2o4132b4o1633bo2bo409b$6644bo58bo43b3o343bo18b2o4131b2ob2o1632bo412b$6645bo447b2o16bo4135b2o1633bo412b$6643b3o446bobo31b2o5755bobo409b$7125bobo6167b$7107b3o17bo6167b$7109bo31bo6153b$7108bo32b2o6152b$7122b2o16bobo4977b2o1173b$6711bo411b2o4995b2o1173b$6709bobo410bo32b3o6137b$6710b2o425b2o18bo6137b$7136bobo17bo6138b$6826b2o310bo31b2o6123b$6825bobo324bo18b2o6122b$6826bo325b2o16bo6124b$7151bobo31b2o6108b$7184bobo6108b$7166b3o17bo6108b$7168bo31bo6094b$7167bo32b2o6093b$6687bobo491b2o16bobo6093b$6687b2o493b2o6111b$6688bo492bo32b3o6078b$7196b2o18bo6078b$7195bobo17bo6079b$7197bo31b2o6064b$7211bo18b2o6063b$6704bobo105bo398b2o16bo6065b$6704b2o107b2o395bobo31b2o6049b$6705bo106b2o429bobo6049b$7225b3o17bo6049b$7227bo31bo5632b3o400b$6799bobo6bo417bo32b2o5630bo2bo400b$6800b2o6b2o430b2o16bobo5633bo400b$6800bo7b3o430b2o5651bo400b$6808b2o11b2o417bo32b3o5615bobo401b$6777b2o29b2o10bobo432b2o18bo6019b$6777bob2o28bo11bo432bobo17bo6020b$6779b2o29bobo443bo31b2o6005b$6779b2o30bo458bo18b2o6004b$6776b2o492b2o16bo6006b$6762bo506bobo31b2o5990b$6763b2o14b2o21bo499bobo5990b$6658bo103b2o38bobo479b3o17bo5990b$6659b2o29bo111b2o482bo31bo5976b$6658b2o29bobo593bo32b2o3996b2o1977b$6688b2ob2o606b2o16bobo3994b2ob2o1976b$6689bo2bo607b2o4012b4o1977b$6689bo3bo75bo529bo32b3o3980b2o1978b$6669bo19bo78bo545b2o18bo5960b$6668b3o97b3o542bobo17bo5961b$6667bo2b2o52bobo588bo31b2o5946b$6666b5o18b2o34b2o602bo18b2o5945b$6666b5o19bo34bo603b2o16bo4762b2o1183b$6669bo658bobo31b2o4746b2o1183b$6669bobo15bo673bobo5931b$6669b2obo14bob2ob2o649b3o17bo5931b$6670bobo13b2ob2ob2o651bo31bo5917b$6671b3o13bobo654bo32b2o5916b$6671bobo14bo669b2o16bobo5916b$6669b4o126b2o558b2o5934b$6669b3o126bobo557bo32b3o5901b$6670bo128bo573b2o18bo5901b$7372bobo17bo5902b$7374bo31b2o5494b3o390b$7388bo18b2o5493bo2bo389b$7388b2o16bo5495bo392b$6694bo692bobo31b2o5479bo392b$6695b2o723bobo5480bobo389b$6694b2o706b3o17bo5872b$7404bo31bo5858b$6662b2o739bo32b2o5857b$6662b2o753b2o16bobo5857b$7418b2o5875b$7417bo32b3o5842b$7432b2o18bo5842b$6750b3o678bobo17bo5843b$6749bo2bo28b3o649bo31b2o5828b$6749b2obo28bo2bo662bo18b2o5827b$6673bo107bo2bo5bo656b2o16bo5829b$6673bobo115bo654bobo31b2o5813b$6673b2o109b2o3b3o687bobo5813b$6749b2o32bo2bo674b3o17bo5813b$6749b4o30bo2bo7b2o667bo31bo5799b$6750bo2bo24bo4bo9bobo666bo32b2o5798b$6751bobo22bobo15bo681b2o16bobo5798b$6751bobo23b2o698b2o5816b$7476bo32b3o5783b$7491b2o18bo5783b$6753bo736bobo17bo5784b$6751bobo738bo31b2o3858b2o1909b$6752b2o752bo18b2o3856b4o1908b$7506b2o16bo3858b2ob2o1907b$6740bo764bobo31b2o3844b2o1908b$6657b2o82bo30bo765bobo5754b$6657b2o80b3o28b2o748b3o17bo5754b$6771b2o749bo31bo5740b$7521bo32b2o5356b3o380b$7535b2o16bobo5355bo2bo380b$7536b2o4562b2o812bo380b$7535bo32b3o4529b2o812bo380b$6737bobo810b2o18bo5340bobo381b$6737b2o810bobo17bo5725b$6685bo52bo812bo31b2o5710b$6683bobo879bo18b2o5709b$6684b2o879b2o16bo5711b$7564bobo31b2o5695b$7597bobo5695b$6772b2o805b3o17bo5695b$6771bobo807bo31bo5681b$6710bo61bo807bo32b2o5680b$6708bobo883b2o16bobo5680b$6709b2o884b2o5698b$7594bo32b3o5665b$6724b3o882b2o18bo5665b$6724b3o881bobo17bo5666b$6724bo2bo27bo854bo31b2o5651b$6725b3o26b3o867bo18b2o5650b$6725b2o26b2o2bo866b2o16bo5652b$6753b2ob2o865bobo31b2o5636b$6756b3o897bobo5636b$6754bob2o880b3o17bo5636b$6753bo2bo883bo31bo5622b$6756bo882bo32b2o5621b$6753bobo897b2o16bobo5621b$6754bo899b2o5639b$7653bo32b3o5606b$6755b3o910b2o18bo5606b$6754bob2o909bobo17bo5607b$6755b2obo910bo31b2o5592b$7683bo18b2o5218b3o370b$7683b2o16bo5220bo2bo369b$7682bobo31b2o5204bo372b$6750b2o963bobo5204bo372b$6749bobo945b3o17bo5205bobo369b$6750bo948bo31bo5563b$7698bo32b2o5562b$6708b3o1001b2o16bobo3721b2o1839b$6707b2o2bo1001b2o3737b2ob2o1838b$6706b2ob2o1001bo32b3o3704b4o1839b$6706bo2bo1017b2o18bo3705b2o1840b$6707b2o4b2o16bo994bobo17bo5548b$6713b2o17b2o994bo31b2o5533b$6713b2o16b2o1009bo18b2o5532b$7742b2o16bo5534b$7741bobo31b2o4313b2o1203b$6698bobo39bo1033bobo4313b2o1203b$6699b2o38bo1016b3o17bo5518b$6699bo39b3o1016bo31bo5504b$7757bo32b2o5503b$7771b2o16bobo5503b$7772b2o5521b$7771bo32b3o5488b$7786b2o18bo5488b$7785bobo17bo5489b$7787bo31b2o5474b$6745b2o1054bo18b2o5473b$6744bobo1054b2o16bo5475b$6745bo1054bobo31b2o5459b$7833bobo5459b$7815b3o17bo5459b$7817bo31bo5445b$7816bo32b2o5444b$7830b2o16bobo5081b3o360b$7831b2o5098bo2bo360b$7830bo32b3o5068bo360b$7845b2o18bo5068bo360b$7844bobo17bo5066bobo361b$7846bo31b2o5415b$7860bo18b2o5414b$7860b2o16bo5416b$6739b2o1118bobo31b2o5400b$6738bobo1151bobo5400b$6740bo1133b3o17bo5400b$6754bo1121bo31bo5386b$6754b2o1119bo32b2o5385b$6753bobo1133b2o16bobo5385b$7890b2o5403b$6768b3o1118bo32b3o5370b$6770bo1133b2o18bo5370b$6769bo1133bobo17bo5371b$6783b2o1120bo31b2o5356b$6784b2o1133bo18b2o3582b2o1771b$6783bo1135b2o16bo3583b4o1770b$6798b2o1118bobo31b2o3567b2ob2o1769b$6797bobo1151bobo3569b2o1770b$6799bo1133b3o17bo5341b$6813bo1121bo31bo5327b$6713b3o97b2o1119bo32b2o5326b$6712bo4bo94bobo1133b2o16bobo5326b$6712bo4bo1231b2o5344b$6713bo3bo109b3o1118bo32b3o4096b2o1213b$6829bo1133b2o18bo4096b2o1213b$6828bo1133bobo17bo5312b$6842b2o1120bo31b2o5297b$6843b2o1133bo18b2o5296b$6842bo1135b2o16bo4945b3o350b$6857b2o1118bobo31b2o4929bo2bo349b$6856bobo1151bobo4929bo352b$6858bo1133b3o17bo4929bo352b$6872bo1121bo31bo4916bobo349b$6872b2o1119bo32b2o5267b$6871bobo1133b2o16bobo5267b$8008b2o5285b$6886b3o1118bo32b3o5252b$6888bo1133b2o18bo5252b$6887bo1133bobo17bo5253b$6901b2o1120bo31b2o5238b$6902b2o1133bo18b2o5237b$6901bo1135b2o16bo5239b$6916b2o1118bobo31b2o5223b$6915bobo1151bobo5223b$6917bo1133b3o17bo5223b$6931bo1121bo31bo5209b$6931b2o1119bo32b2o5208b$6930bobo1133b2o16bobo5208b$8067b2o5226b$6945b3o1118bo32b3o5193b$6947bo1133b2o18bo5193b$6946bo1133bobo17bo5194b$6960b2o1120bo31b2o5179b$6961b2o1133bo18b2o5178b$6960bo1135b2o16bo5180b$6975b2o1118bobo31b2o5164b$6974bobo1151bobo5164b$6976bo1133b3o17bo5164b$6990bo1121bo31bo5150b$6990b2o1119bo32b2o5149b$6989bobo1133b2o16bobo5149b$8126b2o3464b2o1358b3o340b$7004b3o1118bo32b3o3429b2ob2o1356bo2bo340b$7006bo1133b2o18bo3429b4o1360bo340b$7005bo1133bobo17bo3431b2o1361bo340b$7019b2o1120bo31b2o4776bobo341b$7020b2o1133bo18b2o5119b$7019bo1135b2o16bo5121b$7034b2o1118bobo31b2o5105b$7033bobo1151bobo3880b2o1223b$7035bo1133b3o17bo3880b2o1223b$7049bo1121bo31bo5091b$7049b2o1119bo32b2o5090b$7048bobo1133b2o16bobo5090b$8185b2o5108b$7063b3o1118bo32b3o5075b$7065bo1133b2o18bo5075b$7064bo1133bobo17bo5076b$7078b2o1120bo31b2o5061b$7079b2o1133bo18b2o5060b$7078bo1135b2o16bo5062b$7093b2o1118bobo31b2o5046b$7092bobo1151bobo5046b$7094bo1133b3o17bo5046b$7108bo1121bo31bo5032b$7108b2o1119bo32b2o5031b$7107bobo1133b2o16bobo5031b$8244b2o5049b$7122b3o1118bo32b3o5016b$7124bo1133b2o18bo5016b$7123bo1133bobo17bo5017b$7137b2o1120bo31b2o5002b$7138b2o1133bo18b2o5001b$7137bo1135b2o16bo5003b$7152b2o1118bobo31b2o4654b3o330b$7151bobo1151bobo4654bo2bo329b$7153bo1133b3o17bo4654bo332b$7167bo1121bo31bo4640bo332b$7167b2o1119bo32b2o4640bobo329b$7166bobo1133b2o16bobo4972b$8303b2o4990b$7181b3o1118bo32b3o4957b$7183bo1133b2o18bo4957b$7182bo1133bobo17bo4958b$7196b2o1120bo31b2o4943b$7197b2o1133bo18b2o4942b$7196bo1135b2o16bo3309b2o1633b$7211b2o1118bobo31b2o3292b4o1632b$7210bobo1151bobo3292b2ob2o1631b$7212bo1133b3o17bo3294b2o1632b$7226bo1121bo31bo4914b$7226b2o1119bo32b2o4913b$7225bobo1133b2o16bobo4913b$8362b2o4931b$7240b3o1118bo32b3o4898b$7242bo1133b2o18bo3663b2o1233b$7241bo1133bobo17bo3664b2o1233b$7255b2o1120bo31b2o4884b$7256b2o1133bo18b2o4883b$7255bo1135b2o16bo4885b$7270b2o1118bobo31b2o4869b$7269bobo1151bobo4869b$7271bo1133b3o17bo4869b$7285bo1121bo31bo4855b$7285b2o1119bo32b2o4854b$7284bobo1133b2o16bobo4854b$8421b2o4872b$7299b3o1118bo32b3o4516b3o320b$7301bo1133b2o18bo4515bo2bo320b$7300bo1133bobo17bo4519bo320b$7314b2o1120bo31b2o4504bo320b$7315b2o1133bo18b2o4500bobo321b$7314bo1135b2o16bo4826b$7329b2o1118bobo31b2o4810b$7328bobo1151bobo4810b$7330bo1133b3o17bo4810b$7344bo1121bo31bo4796b$7344b2o1119bo32b2o4795b$7343bobo1133b2o16bobo4795b$8480b2o4813b$7358b3o1118bo32b3o4780b$7360bo1133b2o18bo4780b$7359bo1133bobo17bo4781b$7373b2o1120bo31b2o4766b$7374b2o1133bo18b2o4765b$7373bo1135b2o16bo4767b$7388b2o1118bobo31b2o4751b$7387bobo1151bobo4751b$7389bo1133b3o17bo4751b$7403bo1121bo31bo4737b$7403b2o1119bo32b2o4736b$7402bobo1133b2o16bobo4736b$8539b2o4754b$7417b3o1118bo32b3o3156b2o1563b$7419bo1133b2o18bo3154b2ob2o1562b$7418bo1133bobo17bo3155b4o1563b$7432b2o1120bo31b2o3141b2o1564b$7433b2o1133bo18b2o4706b$7432bo1135b2o16bo4708b$7447b2o1118bobo31b2o4692b$7446bobo1151bobo4379b3o310b$7448bo1133b3o17bo3447b2o930bo2bo309b$7462bo1121bo31bo3433b2o930bo312b$7462b2o1119bo32b2o4364bo312b$7461bobo1133b2o16bobo4365bobo309b$8598b2o4695b$7476b3o1118bo32b3o4662b$7478bo1133b2o18bo4662b$7477bo1133bobo17bo4663b$7491b2o1120bo31b2o4648b$7492b2o1133bo18b2o4647b$7491bo1135b2o16bo4649b$7506b2o1118bobo31b2o4633b$7505bobo1151bobo4633b$7507bo1133b3o17bo4633b$7521bo1121bo31bo4619b$7521b2o1119bo32b2o4618b$7520bobo1133b2o16bobo4618b$8657b2o4636b$7535b3o1118bo32b3o4603b$7537bo1133b2o18bo4603b$7536bo1133bobo17bo4604b$7550b2o1120bo31b2o4589b$7551b2o1133bo18b2o4588b$7550bo1135b2o16bo4590b$7565b2o1118bobo31b2o4574b$7564bobo1151bobo4574b$7566bo1133b3o17bo4574b$7580bo1121bo31bo4560b$7580b2o1119bo32b2o4559b$7579bobo1133b2o16bobo4559b$8716b2o4577b$7594b3o1118bo32b3o4544b$7596bo1133b2o18bo4241b3o300b$7595bo1133bobo17bo4241bo2bo300b$7609b2o1120bo31b2o4229bo300b$7610b2o1133bo18b2o4228bo300b$7609bo1135b2o16bo4227bobo301b$7624b2o1118bobo31b2o3018b2o1495b$7623bobo1151bobo3017b4o1494b$7625bo1133b3o17bo3017b2ob2o1493b$7639bo1121bo31bo3005b2o1494b$7639b2o1119bo32b2o4500b$7638bobo1133b2o16bobo4500b$8775b2o4518b$7653b3o1118bo32b3o4485b$7655bo1133b2o18bo4485b$7654bo1133bobo17bo3231b2o1253b$7668b2o1120bo31b2o3216b2o1253b$7669b2o1133bo18b2o4470b$7668bo1135b2o16bo4472b$7683b2o1118bobo31b2o4456b$7682bobo1151bobo4456b$7684bo1133b3o17bo4456b$7698bo1121bo31bo4442b$7698b2o1119bo32b2o4441b$7697bobo1133b2o16bobo4441b$8834b2o4459b$7712b3o1118bo32b3o4426b$7714bo1133b2o18bo4426b$7713bo1133bobo17bo4427b$7727b2o1120bo31b2o4412b$7728b2o1133bo18b2o4411b$7727bo1135b2o16bo4413b$7742b2o1118bobo31b2o4397b$7741bobo1151bobo4397b$7743bo1133b3o17bo4104b3o290b$7757bo1121bo31bo4090bo2bo289b$7757b2o1119bo32b2o4089bo292b$7756bobo1133b2o16bobo4089bo292b$8893b2o4108bobo289b$7771b3o1118bo32b3o4367b$7773bo1133b2o18bo4367b$7772bo1133bobo17bo4368b$7786b2o1120bo31b2o4353b$7787b2o1133bo18b2o4352b$7786bo1135b2o16bo4354b$7801b2o1118bobo31b2o4338b$7800bobo1151bobo4338b$7802bo1133b3o17bo4338b$7816bo1121bo31bo4324b$7816b2o1119bo32b2o4323b$7815bobo1133b2o16bobo4323b$8952b2o4341b$7830b3o1118bo32b3o4308b$7832bo1133b2o18bo2881b2o1425b$7831bo1133bobo17bo2880b2ob2o1424b$7845b2o1120bo31b2o2865b4o1425b$7846b2o1133bo18b2o2865b2o1426b$7845bo1135b2o16bo4295b$7860b2o1118bobo31b2o4279b$7859bobo1151bobo4279b$7861bo1133b3o17bo4279b$7875bo1121bo31bo3000b2o1263b$7875b2o1119bo32b2o2999b2o1263b$7874bobo1133b2o16bobo4264b$9011b2o4282b$7889b3o1118bo32b3o4249b$7891bo1133b2o18bo4249b$7890bo1133bobo17bo3967b3o280b$7904b2o1120bo31b2o3951bo2bo280b$7905b2o1133bo18b2o3953bo280b$7904bo1135b2o16bo3955bo280b$7919b2o1118bobo31b2o3936bobo281b$7918bobo1151bobo4220b$7920bo1133b3o17bo4220b$7934bo1121bo31bo4206b$7934b2o1119bo32b2o4205b$7933bobo1133b2o16bobo4205b$9070b2o4223b$7948b3o1118bo32b3o4190b$7950bo1133b2o18bo4190b$7949bo1133bobo17bo4191b$7963b2o1120bo31b2o4176b$7964b2o1133bo18b2o4175b$7963bo1135b2o16bo4177b$7978b2o1118bobo31b2o4161b$7977bobo1151bobo4161b$7979bo1133b3o17bo4161b$7993bo1121bo31bo4147b$7993b2o1119bo32b2o4146b$7992bobo1133b2o16bobo4146b$9129b2o4164b$8007b3o1118bo32b3o4131b$8009bo1133b2o18bo4131b$8008bo1133bobo17bo4132b$8022b2o1120bo31b2o4117b$8023b2o1133bo18b2o4116b$8022bo1135b2o16bo4118b$8037b2o1118bobo31b2o4102b$8036bobo1151bobo2743b2o1357b$8038bo1133b3o17bo2742b4o1356b$8052bo1121bo31bo2728b2ob2o1082b3o270b$8052b2o1119bo32b2o2729b2o1083bo2bo269b$8051bobo1133b2o16bobo3814bo272b$9188b2o3832bo272b$8066b3o1118bo32b3o3800bobo269b$8068bo1133b2o18bo4072b$8067bo1133bobo17bo4073b$8081b2o1120bo31b2o2783b2o1273b$8082b2o1133bo18b2o2782b2o1273b$8081bo1135b2o16bo4059b$8096b2o1118bobo31b2o4043b$8095bobo1151bobo4043b$8097bo1133b3o17bo4043b$8111bo1121bo31bo4029b$8111b2o1119bo32b2o4028b$8110bobo1133b2o16bobo4028b$9247b2o4046b$8125b3o1118bo32b3o4013b$8127bo1133b2o18bo4013b$8126bo1133bobo17bo4014b$8140b2o1120bo31b2o3999b$8141b2o1133bo18b2o3998b$8140bo1135b2o16bo4000b$8155b2o1118bobo31b2o3984b$8154bobo1151bobo3984b$8156bo1133b3o17bo3984b$8170bo1121bo31bo3970b$8170b2o1119bo32b2o3969b$8169bobo1133b2o16bobo3969b$9306b2o3987b$8184b3o1118bo32b3o3954b$8186bo1133b2o18bo3954b$8185bo1133bobo17bo3955b$8199b2o1120bo31b2o3677b3o260b$8200b2o1133bo18b2o3675bo2bo260b$8199bo1135b2o16bo3680bo260b$8214b2o1118bobo31b2o3664bo260b$8213bobo1151bobo3661bobo261b$8215bo1133b3o17bo3925b$8229bo1121bo31bo3911b$8229b2o1119bo32b2o3910b$8228bobo1133b2o16bobo3910b$9365b2o3928b$8243b3o1118bo32b3o3895b$8245bo1133b2o18bo3895b$8244bo1133bobo17bo2607b2o1287b$8258b2o1120bo31b2o2590b2ob2o1286b$8259b2o1133bo18b2o2589b4o1287b$8258bo1135b2o16bo2592b2o1288b$8273b2o1118bobo31b2o3866b$8272bobo1151bobo3866b$8274bo1133b3o17bo3866b$8288bo1121bo31bo3852b$8288b2o1119bo32b2o2566b2o1283b$8287bobo1133b2o16bobo2566b2o1283b$9424b2o3869b$8302b3o1118bo32b3o3836b$8304bo1133b2o18bo3836b$8303bo1133bobo17bo3837b$8317b2o1120bo31b2o3822b$8318b2o1133bo18b2o3821b$8317bo1135b2o16bo3823b$8332b2o1118bobo31b2o3807b$8331bobo1151bobo3807b$8333bo1133b3o17bo3807b$8347bo1121bo31bo3793b$8347b2o1119bo32b2o3539b3o250b$8346bobo1133b2o16bobo3539bo2bo249b$9483b2o3557bo252b$8361b3o1118bo32b3o3524bo252b$8363bo1133b2o18bo3525bobo249b$8362bo1133bobo17bo3778b$8376b2o1120bo31b2o3763b$8377b2o1133bo18b2o3762b$8376bo1135b2o16bo3764b$8391b2o1118bobo31b2o3748b$8390bobo1151bobo3748b$8392bo1133b3o17bo3748b$8406bo1121bo31bo3734b$8406b2o1119bo32b2o3733b$8405bobo1133b2o16bobo3733b$9542b2o3751b$8420b3o1118bo32b3o3718b$8422bo1133b2o18bo3718b$8421bo1133bobo17bo3719b$8435b2o1120bo31b2o3704b$8436b2o1133bo18b2o3703b$8435bo1135b2o16bo3705b$8450b2o1118bobo31b2o3689b$8449bobo1151bobo3689b$8451bo1133b3o17bo2468b2o1219b$8465bo1121bo31bo2453b4o1218b$8465b2o1119bo32b2o2452b2ob2o1217b$8464bobo1133b2o16bobo2454b2o1218b$9601b2o3692b$8479b3o1118bo32b3o3659b$8481bo1133b2o18bo3659b$8480bo1133bobo17bo3660b$8494b2o1120bo31b2o3645b$8495b2o1133bo18b2o2349b2o1050b3o240b$8494bo1135b2o16bo2351b2o1049bo2bo240b$8509b2o1118bobo31b2o3389bo240b$8508bobo1151bobo3389bo240b$8510bo1133b3o17bo3386bobo241b$8524bo1121bo31bo3616b$8524b2o1119bo32b2o3615b$8523bobo1133b2o16bobo3615b$9660b2o3633b$8538b3o1118bo32b3o3600b$8540bo1133b2o18bo3600b$8539bo1133bobo17bo3601b$8553b2o1120bo31b2o3586b$8554b2o1133bo18b2o3585b$8553bo1135b2o16bo3587b$8568b2o1118bobo31b2o3571b$8567bobo1151bobo3571b$8569bo1133b3o17bo3571b$8583bo1121bo31bo3557b$8583b2o1119bo32b2o3556b$8582bobo1133b2o16bobo3556b$9719b2o3574b$8597b3o1118bo32b3o3541b$8599bo1133b2o18bo3541b$8598bo1133bobo17bo3542b$8612b2o1120bo31b2o3527b$8613b2o1133bo18b2o3526b$8612bo1135b2o16bo3528b$8627b2o1118bobo31b2o3512b$8626bobo1151bobo3512b$8628bo1133b3o17bo3512b$8642bo1121bo31bo3498b$8642b2o1119bo32b2o3497b$8641bobo1133b2o16bobo3264b3o230b$9778b2o3282bo2bo229b$8656b3o1118bo32b3o3249bo232b$8658bo1133b2o18bo3249bo232b$8657bo1133bobo17bo3251bobo229b$8671b2o1120bo31b2o2317b2o1149b$8672b2o1133bo18b2o2314b2ob2o1148b$8671bo1135b2o16bo2316b4o1149b$8686b2o1118bobo31b2o2301b2o1150b$8685bobo1151bobo3453b$8687bo1133b3o17bo3453b$8701bo1121bo31bo3439b$8701b2o1119bo32b2o3438b$8700bobo1133b2o16bobo2133b2o1303b$9837b2o2151b2o1303b$8715b3o1118bo32b3o3423b$8717bo1133b2o18bo3423b$8716bo1133bobo17bo3424b$8730b2o1120bo31b2o3409b$8731b2o1133bo18b2o3408b$8730bo1135b2o16bo3410b$8745b2o1118bobo31b2o3394b$8744bobo1151bobo3394b$8746bo1133b3o17bo3394b$8760bo1121bo31bo3380b$8760b2o1119bo32b2o3379b$8759bobo1133b2o16bobo3379b$9896b2o3397b$8774b3o1118bo32b3o3364b$8776bo1133b2o18bo3364b$8775bo1133bobo17bo3365b$8789b2o1120bo31b2o3350b$8790b2o1133bo18b2o3349b$8789bo1135b2o16bo3128b3o220b$8804b2o1118bobo31b2o3111bo2bo220b$8803bobo1151bobo3114bo220b$8805bo1133b3o17bo3114bo220b$8819bo1121bo31bo3097bobo221b$8819b2o1119bo32b2o3320b$8818bobo1133b2o16bobo3320b$9955b2o3338b$8833b3o1118bo32b3o3305b$8835bo1133b2o18bo3305b$8834bo1133bobo17bo3306b$8848b2o1120bo31b2o3291b$8849b2o1133bo18b2o3290b$8848bo1135b2o16bo3292b$8863b2o1118bobo31b2o3276b$8862bobo1151bobo3276b$8864bo1133b3o17bo3276b$8878bo1121bo31bo2179b2o1081b$8878b2o1119bo32b2o2177b4o1080b$8877bobo1133b2o16bobo2177b2ob2o1079b$10014b2o2197b2o1080b$8892b3o1118bo32b3o3246b$8894bo1133b2o18bo3246b$8893bo1133bobo17bo3247b$8907b2o1120bo31b2o3232b$8908b2o1133bo18b2o3231b$8907bo1135b2o16bo1918b2o1313b$8922b2o1118bobo31b2o1902b2o1313b$8921bobo1151bobo3217b$8923bo1133b3o17bo3217b$8937bo1121bo31bo3203b$8937b2o1119bo32b2o3202b$8936bobo1133b2o16bobo3202b$10073b2o3007b3o210b$8951b3o1118bo32b3o2974bo2bo209b$8953bo1133b2o18bo2974bo212b$8952bo1133bobo17bo2975bo212b$8966b2o1120bo31b2o2961bobo209b$8967b2o1133bo18b2o3172b$8966bo1135b2o16bo3174b$8981b2o1118bobo31b2o3158b$8980bobo1151bobo3158b$8982bo1133b3o17bo3158b$8996bo1121bo31bo3144b$8996b2o1119bo32b2o3143b$8995bobo1133b2o16bobo3143b$10132b2o3161b$9010b3o1118bo32b3o3128b$9012bo1133b2o18bo3128b$9011bo1133bobo17bo3129b$9025b2o1120bo31b2o3114b$9026b2o1133bo18b2o3113b$9025bo1135b2o16bo3115b$9040b2o1118bobo31b2o3099b$9039bobo1151bobo3099b$9041bo1133b3o17bo3099b$9055bo1121bo31bo3085b$9055b2o1119bo32b2o3084b$9054bobo1133b2o16bobo3084b$10191b2o3102b$9069b3o1118bo32b3o3069b$9071bo1133b2o18bo3069b$9070bo1133bobo17bo3070b$9084b2o1120bo31b2o3055b$9085b2o1133bo18b2o2041b2o1011b$9084bo1135b2o16bo2041b2ob2o1010b$9099b2o1118bobo31b2o2025b4o808b3o200b$9098bobo1151bobo2026b2o808bo2bo200b$9100bo1133b3o17bo2839bo200b$9114bo1121bo31bo2825bo200b$9114b2o1119bo32b2o2821bobo201b$9113bobo1133b2o16bobo3025b$10250b2o1718b2o1323b$9128b3o1118bo32b3o1685b2o1323b$9130bo1133b2o18bo3010b$9129bo1133bobo17bo3011b$9143b2o1120bo31b2o2996b$9144b2o1133bo18b2o2995b$9143bo1135b2o16bo2997b$9158b2o1118bobo31b2o2981b$9157bobo1151bobo2981b$9159bo1133b3o17bo2981b$9173bo1121bo31bo2967b$9173b2o1119bo32b2o2966b$9172bobo1133b2o16bobo2966b$10309b2o2984b$9187b3o1118bo32b3o2951b$9189bo1133b2o18bo2951b$9188bo1133bobo17bo2952b$9202b2o1120bo31b2o2937b$9203b2o1133bo18b2o2936b$9202bo1135b2o16bo2938b$9217b2o1118bobo31b2o2922b$9216bobo1151bobo2922b$9218bo1133b3o17bo2922b$9232bo1121bo31bo2908b$9232b2o1119bo32b2o2907b$9231bobo1133b2o16bobo2907b$10368b2o2925b$9246b3o1118bo32b3o2699b3o190b$9248bo1133b2o18bo2699bo2bo189b$9247bo1133bobo17bo2700bo192b$9261b2o1120bo31b2o2685bo192b$9262b2o1133bo18b2o2685bobo189b$9261bo1135b2o16bo2879b$9276b2o1118bobo31b2o2863b$9275bobo1151bobo2863b$9277bo1133b3o17bo2863b$9291bo1121bo31bo2849b$9291b2o1119bo32b2o1903b2o943b$9290bobo1133b2o16bobo1902b4o942b$10427b2o1920b2ob2o941b$9305b3o1118bo32b3o1889b2o942b$9307bo1133b2o18bo2833b$9306bo1133bobo17bo2834b$9320b2o1120bo31b2o2819b$9321b2o1133bo18b2o2818b$9320bo1135b2o16bo2820b$9335b2o1118bobo31b2o1469b2o1333b$9334bobo1151bobo1469b2o1333b$9336bo1133b3o17bo2804b$9350bo1121bo31bo2790b$9350b2o1119bo32b2o2789b$9349bobo1133b2o16bobo2789b$10486b2o2807b$9364b3o1118bo32b3o2774b$9366bo1133b2o18bo2774b$9365bo1133bobo17bo2775b$9379b2o1120bo31b2o2760b$9380b2o1133bo18b2o2759b$9379bo1135b2o16bo2761b$9394b2o1118bobo31b2o2745b$9393bobo1151bobo2562b3o180b$9395bo1133b3o17bo2561bo2bo180b$9409bo1121bo31bo2550bo180b$9409b2o1119bo32b2o2549bo180b$9408bobo1133b2o16bobo2546bobo181b$10545b2o2748b$9423b3o1118bo32b3o2715b$9425bo1133b2o18bo2715b$9424bo1133bobo17bo2716b$9438b2o1120bo31b2o2701b$9439b2o1133bo18b2o2700b$9438bo1135b2o16bo2702b$9453b2o1118bobo31b2o2686b$9452bobo1151bobo2686b$9454bo1133b3o17bo2686b$9468bo1121bo31bo2672b$9468b2o1119bo32b2o2671b$9467bobo1133b2o16bobo2671b$10604b2o2689b$9482b3o1118bo32b3o2656b$9484bo1133b2o18bo2656b$9483bo1133bobo17bo2657b$9497b2o1120bo31b2o2642b$9498b2o1133bo18b2o2641b$9497bo1135b2o16bo1768b2o873b$9512b2o1118bobo31b2o1750b2ob2o872b$9511bobo1151bobo1750b4o873b$9513bo1133b3o17bo1751b2o874b$9527bo1121bo31bo2613b$9527b2o1119bo32b2o2612b$9526bobo1133b2o16bobo2612b$10663b2o2630b$9541b3o1118bo32b3o1252b2o1343b$9543bo1133b2o18bo1252b2o1170b3o170b$9542bo1133bobo17bo2425bo2bo169b$9556b2o1120bo31b2o2410bo172b$9557b2o1133bo18b2o2409bo172b$9556bo1135b2o16bo2412bobo169b$9571b2o1118bobo31b2o2568b$9570bobo1151bobo2568b$9572bo1133b3o17bo2568b$9586bo1121bo31bo2554b$9586b2o1119bo32b2o2553b$9585bobo1133b2o16bobo2553b$10722b2o2571b$9600b3o1118bo32b3o2538b$9602bo1133b2o18bo2538b$9601bo1133bobo17bo2539b$9615b2o1120bo31b2o2524b$9616b2o1133bo18b2o2523b$9615bo1135b2o16bo2525b$9630b2o1118bobo31b2o2509b$9629bobo1151bobo2509b$9631bo1133b3o17bo2509b$9645bo1121bo31bo2495b$9645b2o1119bo32b2o2494b$9644bobo1133b2o16bobo2494b$10781b2o2512b$9659b3o1118bo32b3o2479b$9661bo1133b2o18bo2479b$9660bo1133bobo17bo2480b$9674b2o1120bo31b2o2465b$9675b2o1133bo18b2o2464b$9674bo1135b2o16bo2466b$9689b2o1118bobo31b2o2450b$9688bobo1151bobo2450b$9690bo1133b3o17bo2287b3o160b$9704bo1121bo31bo2272bo2bo160b$9704b2o1119bo32b2o2274bo160b$9703bobo1133b2o16bobo1628b2o644bo160b$10840b2o1645b4o640bobo161b$9718b3o1118bo32b3o1612b2ob2o803b$9720bo1133b2o18bo1614b2o804b$9719bo1133bobo17bo2421b$9733b2o1120bo31b2o2406b$9734b2o1133bo18b2o2405b$9733bo1135b2o16bo2407b$9748b2o1118bobo31b2o2391b$9747bobo1151bobo1036b2o1353b$9749bo1133b3o17bo1036b2o1353b$9763bo1121bo31bo2377b$9763b2o1119bo32b2o2376b$9762bobo1133b2o16bobo2376b$10899b2o2394b$9777b3o1118bo32b3o2361b$9779bo1133b2o18bo2361b$9778bo1133bobo17bo2362b$9792b2o1120bo31b2o2347b$9793b2o1133bo18b2o2346b$9792bo1135b2o16bo2348b$9807b2o1118bobo31b2o2332b$9806bobo1151bobo2332b$9808bo1133b3o17bo2332b$9822bo1121bo31bo2318b$9822b2o1119bo32b2o2317b$9821bobo1133b2o16bobo2317b$10958b2o2335b$9836b3o1118bo32b3o2302b$9838bo1133b2o18bo2302b$9837bo1133bobo17bo2150b3o150b$9851b2o1120bo31b2o2135bo2bo149b$9852b2o1133bo18b2o2134bo152b$9851bo1135b2o16bo2136bo152b$9866b2o1118bobo31b2o2121bobo149b$9865bobo1151bobo2273b$9867bo1133b3o17bo2273b$9881bo1121bo31bo2259b$9881b2o1119bo32b2o2258b$9880bobo1133b2o16bobo2258b$11017b2o2276b$9895b3o1118bo32b3o2243b$9897bo1133b2o18bo2243b$9896bo1133bobo17bo2244b$9910b2o1120bo31b2o2229b$9911b2o1133bo18b2o2228b$9910bo1135b2o16bo2230b$9925b2o1118bobo31b2o1477b2o735b$9924bobo1151bobo1475b2ob2o734b$9926bo1133b3o17bo1475b4o735b$9940bo1121bo31bo1462b2o736b$9940b2o1119bo32b2o2199b$9939bobo1133b2o16bobo2199b$11076b2o2217b$9954b3o1118bo32b3o2184b$9956bo1133b2o18bo819b2o1363b$9955bo1133bobo17bo820b2o1363b$9969b2o1120bo31b2o2170b$9970b2o1133bo18b2o2169b$9969bo1135b2o16bo2171b$9984b2o1118bobo31b2o2155b$9983bobo1151bobo2155b$9985bo1133b3o17bo2155b$9999bo1121bo31bo1998b3o140b$9999b2o1119bo32b2o1996bo2bo140b$9998bobo1133b2o16bobo1999bo140b$11135b2o2017bo140b$10013b3o1118bo32b3o1981bobo141b$10015bo1133b2o18bo2125b$10014bo1133bobo17bo2126b$10028b2o1120bo31b2o2111b$10029b2o1133bo18b2o2110b$10028bo1135b2o16bo2112b$10043b2o1118bobo31b2o2096b$10042bobo1151bobo2096b$10044bo1133b3o17bo2096b$10058bo1121bo31bo2082b$10058b2o1119bo32b2o2081b$10057bobo1133b2o16bobo2081b$11194b2o2099b$10072b3o1118bo32b3o2066b$10074bo1133b2o18bo2066b$10073bo1133bobo17bo2067b$10087b2o1120bo31b2o2052b$10088b2o1133bo18b2o2051b$10087bo1135b2o16bo2053b$10102b2o1118bobo31b2o2037b$10101bobo1151bobo2037b$10103bo1133b3o17bo2037b$10117bo1121bo31bo2023b$10117b2o1119bo32b2o2022b$10116bobo1133b2o16bobo2022b$11253b2o1371b2o667b$10131b3o1118bo32b3o1337b4o666b$10133bo1133b2o18bo1337b2ob2o665b$10132bo1133bobo17bo1340b2o666b$10146b2o1120bo31b2o1860b3o130b$10147b2o1133bo18b2o1859bo2bo129b$10146bo1135b2o16bo1861bo132b$10161b2o1118bobo31b2o1845bo132b$10160bobo1151bobo1846bobo129b$10162bo1133b3o17bo603b2o1373b$10176bo1121bo31bo589b2o1373b$10176b2o1119bo32b2o1963b$10175bobo1133b2o16bobo1963b$11312b2o1981b$10190b3o1118bo32b3o1948b$10192bo1133b2o18bo1948b$10191bo1133bobo17bo1949b$10205b2o1120bo31b2o1934b$10206b2o1133bo18b2o1933b$10205bo1135b2o16bo1935b$10220b2o1118bobo31b2o1919b$10219bobo1151bobo1919b$10221bo1133b3o17bo1919b$10235bo1121bo31bo1905b$10235b2o1119bo32b2o1904b$10234bobo1133b2o16bobo1904b$11371b2o1922b$10249b3o1118bo32b3o1889b$10251bo1133b2o18bo1889b$10250bo1133bobo17bo1890b$10264b2o1120bo31b2o1875b$10265b2o1133bo18b2o1874b$10264bo1135b2o16bo1876b$10279b2o1118bobo31b2o1860b$10278bobo1151bobo1860b$10280bo1133b3o17bo1860b$10294bo1121bo31bo1846b$10294b2o1119bo32b2o1722b3o120b$10293bobo1133b2o16bobo1721bo2bo120b$11430b2o1742bo120b$10308b3o1118bo32b3o1709bo120b$10310bo1133b2o18bo1706bobo121b$10309bo1133bobo17bo1831b$10323b2o1120bo31b2o1816b$10324b2o1133bo18b2o1815b$10323bo1135b2o16bo1817b$10338b2o1118bobo31b2o1801b$10337bobo1151bobo1202b2o597b$10339bo1133b3o17bo1200b2ob2o596b$10353bo1121bo31bo1186b4o597b$10353b2o1119bo32b2o1186b2o598b$10352bobo1133b2o16bobo1786b$11489b2o1804b$10367b3o1118bo32b3o1771b$10369bo1133b2o18bo1771b$10368bo1133bobo17bo387b2o1383b$10382b2o1120bo31b2o372b2o1383b$10383b2o1133bo18b2o1756b$10382bo1135b2o16bo1758b$10397b2o1118bobo31b2o1742b$10396bobo1151bobo1742b$10398bo1133b3o17bo1742b$10412bo1121bo31bo1728b$10412b2o1119bo32b2o1727b$10411bobo1133b2o16bobo1727b$11548b2o1745b$10426b3o1118bo32b3o1712b$10428bo1133b2o18bo1712b$10427bo1133bobo17bo1713b$10441b2o1120bo31b2o1698b$10442b2o1133bo18b2o1584b3o110b$10441bo1135b2o16bo1586bo2bo109b$10456b2o1118bobo31b2o1570bo112b$10455bobo1151bobo1570bo112b$10457bo1133b3o17bo1571bobo109b$10471bo1121bo31bo1669b$10471b2o1119bo32b2o1668b$10470bobo1133b2o16bobo1668b$11607b2o1686b$10485b3o1118bo32b3o1653b$10487bo1133b2o18bo1653b$10486bo1133bobo17bo1654b$10500b2o1120bo31b2o1639b$10501b2o1133bo18b2o1638b$10500bo1135b2o16bo1640b$10515b2o1118bobo31b2o1624b$10514bobo1151bobo1624b$10516bo1133b3o17bo1624b$10530bo1121bo31bo1610b$10530b2o1119bo32b2o1609b$10529bobo1133b2o16bobo1609b$11666b2o1627b$10544b3o1118bo32b3o1063b2o529b$10546bo1133b2o18bo1062b4o528b$10545bo1133bobo17bo1063b2ob2o527b$10559b2o1120bo31b2o1050b2o528b$10560b2o1133bo18b2o1579b$10559bo1135b2o16bo1581b$10574b2o1118bobo31b2o1565b$10573bobo1151bobo1565b$10575bo1133b3o17bo1565b$10589bo1121bo31bo156b2o1393b$10589b2o1119bo32b2o155b2o1393b$10588bobo1133b2o16bobo1447b3o100b$11725b2o1464bo2bo100b$10603b3o1118bo32b3o1434bo100b$10605bo1133b2o18bo1434bo100b$10604bo1133bobo17bo1432bobo101b$10618b2o1120bo31b2o1521b$10619b2o1133bo18b2o1520b$10618bo1135b2o16bo1522b$10633b2o1118bobo31b2o1506b$10632bobo1151bobo1506b$10634bo1133b3o17bo1506b$10648bo1121bo31bo1492b$10648b2o1119bo32b2o1491b$10647bobo1133b2o16bobo1491b$11784b2o1509b$10662b3o1118bo32b3o1476b$10664bo1133b2o18bo1476b$10663bo1133bobo17bo1477b$10677b2o1120bo31b2o1462b$10678b2o1133bo18b2o1461b$10677bo1135b2o16bo1463b$10692b2o1118bobo31b2o1447b$10691bobo1151bobo1447b$10693bo1133b3o17bo1447b$10707bo1121bo31bo1433b$10707b2o1119bo32b2o1432b$10706bobo1133b2o16bobo1432b$11843b2o1450b$10721b3o1118bo32b3o1417b$10723bo1133b2o18bo1417b$10722bo1133bobo17bo1418b$10736b2o1120bo31b2o1403b$10737b2o1133bo18b2o1402b$10736bo1135b2o16bo1311b3o90b$10751b2o1118bobo1328bo2bo89b$10750bobo2449bo92b$10752bo1133b3o945b2o366bo92b$10766bo1121bo31bo911b2ob2o366bobo89b$10766b2o1119bo32b2o910b4o459b$10765bobo1151bobo911b2o460b$13295b$10780b3o2512b$10782bo1133b2o1377b$10781bo1133bobo1377b$10795b2o1120bo31b2o1344b$10796b2o1152b2o1343b$10795bo1153bo1345b$10810b2o2483b$10809bobo1076b2o1405b$10811bo1076b2o55b3o1347b$10825bo1121bo31bo1315b$10825b2o1119bo32b2o1314b$10824bobo1151bobo1314b$13295b$10839b3o2453b$10841bo1133b2o1318b$10840bo1133bobo1318b$10854b2o1120bo31b2o1285b$10855b2o1152b2o1284b$10854bo1153bo1286b$10869b2o2424b$10868bobo2424b$10870bo1133b3o1288b$10884bo1121bo31bo1256b$10884b2o1119bo32b2o1255b$10883bobo1151bobo1255b$13212b3o80b$10898b3o2310bo2bo80b$10900bo1133b2o1178bo80b$10899bo1133bobo1178bo80b$10913b2o1120bo31b2o1142bobo81b$10914b2o1152b2o1225b$10913bo1153bo1227b$10928b2o2365b$10927bobo2365b$10929bo1133b3o1229b$10943bo1121bo31bo1197b$10943b2o1119bo32b2o1196b$10942bobo1151bobo1196b$13295b$10957b3o2335b$10959bo1133b2o807b2o391b$10958bo1133bobo806b4o390b$10972b2o1120bo31b2o773b2ob2o389b$10973b2o1152b2o774b2o390b$10972bo1153bo1168b$10987b2o2306b$10986bobo2306b$10988bo1133b3o1170b$11002bo1121bo31bo1138b$11002b2o1119bo32b2o1137b$11001bobo1151bobo1137b$13295b$11016b3o2276b$11018bo859b2o272b2o1141b$11017bo860b2o271bobo1141b$11031b2o1120bo31b2o1108b$11032b2o1152b2o1107b$11031bo1153bo1109b$11046b2o2174b3o70b$11045bobo2174bo2bo69b$11047bo1133b3o1038bo72b$11061bo1121bo31bo1006bo72b$11061b2o1119bo32b2o1006bobo69b$11060bobo1151bobo1078b$13295b$11075b3o2217b$11077bo1133b2o1082b$11076bo1133bobo1082b$11090b2o1120bo31b2o1049b$11091b2o1152b2o1048b$11090bo1153bo1050b$11105b2o2188b$11104bobo2188b$11106bo1133b3o1052b$11120bo1121bo31bo1020b$11120b2o1119bo32b2o1019b$11119bobo1151bobo1019b$13295b$11134b3o2158b$11136bo1133b2o1023b$11135bo1133bobo1023b$11149b2o1120bo31b2o990b$11150b2o1152b2o989b$11149bo1153bo991b$11164b2o2129b$11163bobo2129b$11165bo1133b3o993b$11179bo1121bo31bo638b2o321b$11179b2o1119bo32b2o635b2ob2o320b$11178bobo1151bobo635b4o321b$12971b2o322b$11193b3o2036b3o60b$11195bo1133b2o900bo2bo60b$11194bo1133bobo903bo60b$11208b2o1120bo31b2o870bo60b$11209b2o1152b2o866bobo61b$11208bo1153bo932b$11223b2o2070b$11222bobo2070b$11224bo643b2o488b3o934b$11238bo629b2o490bo31bo902b$11238b2o1119bo32b2o901b$11237bobo1151bobo901b$13295b$11252b3o2040b$11254bo1133b2o905b$11253bo1133bobo905b$11267b2o1120bo31b2o872b$11268b2o1152b2o871b$11267bo1153bo873b$11282b2o2011b$11281bobo2011b$11283bo1133b3o875b$11297bo1121bo31bo843b$11297b2o1119bo32b2o842b$11296bobo1151bobo842b$13295b$11311b3o1981b$11313bo1133b2o846b$11312bo1133bobo846b$11326b2o1120bo31b2o813b$11327b2o1152b2o812b$11326bo1153bo814b$11341b2o1952b$11340bobo1899b3o50b$11342bo1133b3o763bo2bo49b$11356bo1121bo31bo731bo52b$11356b2o1119bo32b2o730bo52b$11355bobo1151bobo731bobo49b$13295b$11370b3o1922b$11372bo1133b2o787b$11371bo1133bobo532b2o253b$11385b2o1120bo31b2o498b4o252b$11386b2o1152b2o497b2ob2o251b$11385bo1153bo501b2o252b$11400b2o1893b$11399bobo1893b$11401bo1133b3o757b$11415bo1121bo31bo725b$11415b2o1119bo32b2o724b$11414bobo1151bobo724b$13295b$11429b3o1863b$11431bo1133b2o728b$11430bo427b2o704bobo728b$11444b2o412b2o706bo31b2o695b$11445b2o1152b2o694b$11444bo1153bo696b$11459b2o1834b$11458bobo1834b$11460bo1133b3o698b$11474bo1121bo31bo666b$11474b2o1119bo32b2o665b$11473bobo1151bobo665b$13295b$11488b3o1804b$11490bo1133b2o626b3o40b$11489bo1133bobo625bo2bo40b$11503b2o1120bo31b2o595bo40b$11504b2o1152b2o594bo40b$11503bo1153bo593bobo41b$11518b2o1775b$11517bobo1775b$11519bo1133b3o639b$11533bo1121bo31bo607b$11533b2o1119bo32b2o606b$11532bobo1151bobo606b$13295b$11547b3o1745b$11549bo1133b2o610b$11548bo1133bobo610b$11562b2o1120bo31b2o577b$11563b2o1152b2o576b$11562bo1153bo578b$11577b2o1716b$11576bobo1716b$11578bo1133b3o580b$11592bo1121bo31bo548b$11592b2o1119bo32b2o362b2o183b$11591bobo1151bobo360b2ob2o182b$13108b4o183b$11606b3o1500b2o184b$11608bo1133b2o551b$11607bo1133bobo551b$11621b2o1120bo31b2o518b$11622b2o1152b2o517b$11621bo1153bo519b$11636b2o1657b$11635bobo1657b$11637bo1133b3o488b3o30b$11651bo196b2o923bo31bo456bo2bo29b$11651b2o195b2o922bo32b2o455bo32b$11650bobo1151bobo455bo32b$13263bobo29b$11665b3o1627b$11667bo1133b2o492b$11666bo1133bobo492b$11680b2o1120bo31b2o459b$11681b2o1152b2o458b$11680bo1153bo460b$11695b2o1598b$11694bobo1598b$11696bo1133b3o462b$11710bo1121bo31bo430b$11710b2o1119bo32b2o429b$11709bobo1151bobo429b$13295b$11724b3o1568b$11726bo1133b2o433b$11725bo1133bobo433b$11739b2o1120bo31b2o400b$11740b2o1152b2o399b$11739bo1153bo401b$11754b2o1539b$11753bobo1539b$11755bo1133b3o403b$11769bo1121bo31bo371b$11769b2o1119bo32b2o370b$11768bobo1151bobo370b$13295b$11783b3o1509b$11785bo1133b2o374b$11784bo1133bobo351b3o20b$11798b2o1120bo31b2o224b2o91bo2bo20b$11799b2o1152b2o222b4o93bo20b$11798bo1153bo224b2ob2o92bo20b$11813b2o1364b2o90bobo21b$11812bobo1480b$11814bo1133b3o344b$11828bo1121bo31bo312b$11828b2o1119bo32b2o311b$11827bobo1151bobo311b$13295b$13295b$12978b2o315b$12977bobo315b$11857b2o1120bo31b2o282b$11858b2o1152b2o281b$11857bo1153bo283b$13295b$13295b$13007b3o285b$11887bo1121bo31bo253b$11887b2o1119bo32b2o252b$11886bobo1151bobo252b$13295b$13295b$13037b2o256b$13036bobo256b$11916b2o1120bo31b2o223b$11917b2o1152b2o222b$11916bo1153bo224b$13295b$13295b$13066b3o226b$11946bo1121bo31bo181b3o10b$11946b2o1119bo32b2o180bo2bo9b$11945bobo1151bobo180bo12b$13282bo12b$13283bobo9b$13096b2o197b$13095bobo197b$11975b2o1120bo31b2o164b$11976b2o1152b2o163b$11975bo1153bo165b$13295b$13295b$13125b3o167b$12005bo1121bo31bo135b$12005b2o1119bo32b2o134b$12004bobo1151bobo87b2o45b$13246b2ob2o44b$13246b4o45b$13155b2o90b2o46b$13154bobo138b$12034b2o1120bo31b2o105b$12035b2o1152b2o104b$12034bo1153bo106b$13295b$13295b$13184b3o108b$12064bo1121bo31bo76b$12064b2o1119bo32b2o75b$12063bobo1151bobo75b$13295b$13295b$13214b2o79b$13213bobo79b$12093b2o1120bo31b2o43b3o$12094b2o1152b2o41bo2bo$12093bo1153bo46bo$13294bo$13291bobob$13243b3o49b$12123bo1121bo31bo17b$12123b2o1119bo32b2o16b$12122bobo1151bobo16b$13295b$13295b$13273b2o20b$13272bobo20b$12152b2o1120bo20b$12153b2o1140b$12152bo1142b$13295b$13295b$13295b$12182bo1112b$12182b2o1111b$12181bobo1111b$13295b$13295b$13295b$13295b$12211b2o1082b$12212b2o1081b$12211bo1083b$13295b$13295b$13295b$12241bo1053b$12241b2o1044b2o6b$12240bobo1044b2o6b$13295b$13295b$13295b$13295b$12270b2o1023b$12271b2o1022b$12270bo1024b$13295b$13295b$13295b$12300bo994b$12300b2o993b$12299bobo993b$13295b$13295b$13295b$13295b$12329b2o964b$12330b2o963b$12329bo965b$13295b$13295b$13295b$12359bo935b$12359b2o934b$12358bobo934b$13295b$13295b$13295b$13295b$12388b2o905b$12389b2o904b$12388bo906b$13295b$13295b$13295b$12418bo876b$12418b2o875b$12417bobo875b$13295b$13295b$13295b$13295b$12447b2o846b$12448b2o827b2o16b$12447bo829b2o16b$13295b$13295b$13295b$12477bo817b$12477b2o816b$12476bobo816b$13295b$13295b$13295b$13295b$12506b2o787b$12507b2o786b$12506bo788b$13295b$13295b$13295b$12536bo758b$12536b2o757b$12535bobo757b$13295b$13295b$13295b$13295b$12565b2o728b$12566b2o727b$12565bo729b$13295b$13295b$13295b$12595bo699b$12595b2o698b$12594bobo698b$13295b$13295b$13295b$13295b$12624b2o669b$12625b2o668b$12624bo670b$13295b$13295b$13295b$12654bo640b$12654b2o639b$12653bobo611b2o26b$13267b2o26b$13295b$13295b$13295b$12683b2o610b$12684b2o609b$12683bo611b$13295b$13295b$13295b$12713bo581b$12713b2o580b$12712bobo580b$13295b$13295b$13295b$13295b$12742b2o551b$12743b2o550b$12742bo552b$13295b$13295b$13295b$12772bo522b$12772b2o521b$12771bobo521b$13295b$13295b$13295b$13295b$12801b2o492b$12802b2o491b$12801bo493b$13295b$13295b$13295b$12831bo463b$12831b2o462b$12830bobo462b$13295b$13295b$13295b$13295b$12860b2o433b$12861b2o432b$12860bo396b2o36b$13257b2o36b$13295b$13295b$12890bo404b$12890b2o403b$12889bobo403b$13295b$13295b$13295b$13295b$12919b2o374b$12920b2o373b$12919bo375b$13295b$13295b$13295b$12949bo345b$12949b2o344b$12948bobo344b$13295b$13295b$13295b$13295b$12978b2o315b$12979b2o314b$12978bo316b$13295b$13295b$13295b$13008bo286b$13008b2o285b$13007bobo285b$13295b$13295b$13295b$13295b$13037b2o256b$13038b2o255b$13037bo257b$13295b$13295b$13295b$13067bo227b$13067b2o226b$13066bobo226b$13247b2o46b$13247b2o46b$13295b$13295b$13096b2o197b$13097b2o196b$13096bo198b$13295b$13295b$13295b$13126bo168b$13126b2o167b$13125bobo167b$13295b$13295b$13295b$13295b$13155b2o138b$13156b2o137b$13155bo139b$13295b$13295b$13295b$13185bo109b$13185b2o108b$13184bobo108b$13295b$13295b$13295b$13295b$13214b2o79b$13215b2o78b$13214bo80b!